mkrssg/UniversalRobots/rtde_client_3.5/examples/falscheWerte da mit movel/q1_0-30_t=8s.csv
timestamp target_q_0 target_q_1 target_q_2 target_q_3 target_q_4 target_q_5 target_qd_0 target_qd_1 target_qd_2 target_qd_3 target_qd_4 target_qd_5 target_qdd_0 target_qdd_1 target_qdd_2 target_qdd_3 target_qdd_4 target_qdd_5 target_current_0 target_current_1 target_current_2 target_current_3 target_current_4 target_current_5 target_moment_0 target_moment_1 target_moment_2 target_moment_3 target_moment_4 target_moment_5 actual_q_0 actual_q_1 actual_q_2 actual_q_3 actual_q_4 actual_q_5 actual_qd_0 actual_qd_1 actual_qd_2 actual_qd_3 actual_qd_4 actual_qd_5 actual_current_0 actual_current_1 actual_current_2 actual_current_3 actual_current_4 actual_current_5 joint_control_output_0 joint_control_output_1 joint_control_output_2 joint_control_output_3 joint_control_output_4 joint_control_output_5 actual_TCP_pose_0 actual_TCP_pose_1 actual_TCP_pose_2 actual_TCP_pose_3 actual_TCP_pose_4 actual_TCP_pose_5 actual_TCP_speed_0 actual_TCP_speed_1 actual_TCP_speed_2 actual_TCP_speed_3 actual_TCP_speed_4 actual_TCP_speed_5 actual_TCP_force_0 actual_TCP_force_1 actual_TCP_force_2 actual_TCP_force_3 actual_TCP_force_4 actual_TCP_force_5 target_TCP_pose_0 target_TCP_pose_1 target_TCP_pose_2 target_TCP_pose_3 target_TCP_pose_4 target_TCP_pose_5 target_TCP_speed_0 target_TCP_speed_1 target_TCP_speed_2 target_TCP_speed_3 target_TCP_speed_4 target_TCP_speed_5
154221.824 4.163336342344337e-17 -1.5707963267948966 1.5707963267948966 -1.5707963267948966 -1.5707963267948966 0.0 0.0 0.0 0.0 0.0 0.0 0.0 0.0 0.0 0.0 0.0 0.0 0.0 -1.1512442590619146e-26 -0.5442396572688689 -0.7673661111166267 -0.229354796466502 -1.3146049461972196e-11 0.0 -1.511583712148294e-25 -7.14586669994025 -7.145866699940251 -1.0424175499402515 -5.974879480466362e-11 0.0 4.163336342344337e-17 -1.570796314870016 1.5707963705062866 -1.570796314870016 -1.570796314870016 0.0 0.0 0.0 0.0 0.0 0.0 0.0 -1.151244268742903e-26 -0.5442396402359009 -0.7673661112785339 -0.22935479879379272 -1.3146049353263134e-11 0.0 -1.151244268742903e-26 -0.5442396402359009 -0.7673661112785339 -0.22935479879379272 -1.3146049353263134e-11 0.0 -0.2985999973554403 -0.11235000099231762 0.3136499823461779 2.2214412195942916 2.2214412191386654 6.515886891884208e-08 0.0 0.0 0.0 0.0 0.0 0.0 9.240738067961102e-07 3.4768818278582945e-07 4.253146293222052e-08 -2.8475662131755503e-08 6.147405365792544e-08 -2.6501511672992807e-15 -0.29859999998320197 -0.1123500000156699 0.31364999997695675 2.221441469306996 2.2214414688513706 4.556249894594308e-10 0.0 0.0 0.0 0.0 0.0 0.0
154221.832 4.163336342344337e-17 -1.5707963267948966 1.5707963267948966 -1.5707963267948966 -1.5707963267948966 0.0 0.0 0.0 0.0 0.0 0.0 0.0 0.0 0.0 0.0 0.0 0.0 0.0 -1.1512442590619146e-26 -0.5442396572688689 -0.7673661111166267 -0.229354796466502 -1.3146049461972196e-11 0.0 -1.511583712148294e-25 -7.14586669994025 -7.145866699940251 -1.0424175499402515 -5.974879480466362e-11 0.0 4.163336342344337e-17 -1.570796314870016 1.5707963705062866 -1.570796314870016 -1.570796314870016 0.0 0.0 0.0 0.0 0.0 0.0 0.0 -1.151244268742903e-26 -0.5442396402359009 -0.7673661112785339 -0.22935479879379272 -1.3146049353263134e-11 0.0 -1.151244268742903e-26 -0.5442396402359009 -0.7673661112785339 -0.22935479879379272 -1.3146049353263134e-11 0.0 -0.2985999973554403 -0.11235000099231762 0.3136499823461779 2.2214412195942916 2.2214412191386654 6.515886891884208e-08 0.0 0.0 0.0 0.0 0.0 0.0 9.240738067961102e-07 3.4768818278582945e-07 4.253146293222052e-08 -2.8475662131755503e-08 6.147405365792544e-08 -2.6501511672992807e-15 -0.29859999998320197 -0.1123500000156699 0.31364999997695675 2.221441469306996 2.2214414688513706 4.556249894594308e-10 0.0 0.0 0.0 0.0 0.0 0.0
154221.84 4.163336342344337e-17 -1.5707963267948966 1.5707963267948966 -1.5707963267948966 -1.5707963267948966 0.0 0.0 0.0 0.0 0.0 0.0 0.0 0.0 0.0 0.0 0.0 0.0 0.0 -1.1512442590619146e-26 -0.5442396572688689 -0.7673661111166267 -0.229354796466502 -1.3146049461972196e-11 0.0 -1.511583712148294e-25 -7.14586669994025 -7.145866699940251 -1.0424175499402515 -5.974879480466362e-11 0.0 4.163336342344337e-17 -1.570796314870016 1.5707963705062866 -1.570796314870016 -1.570796314870016 0.0 0.0 0.0 0.0 0.0 0.0 0.0 -1.151244268742903e-26 -0.5442396402359009 -0.7673661112785339 -0.22935479879379272 -1.3146049353263134e-11 0.0 -1.151244268742903e-26 -0.5442396402359009 -0.7673661112785339 -0.22935479879379272 -1.3146049353263134e-11 0.0 -0.2985999973554403 -0.11235000099231762 0.3136499823461779 2.2214412195942916 2.2214412191386654 6.515886891884208e-08 0.0 0.0 0.0 0.0 0.0 0.0 9.240738067961102e-07 3.4768818278582945e-07 4.253146293222052e-08 -2.8475662131755503e-08 6.147405365792544e-08 -2.6501511672992807e-15 -0.29859999998320197 -0.1123500000156699 0.31364999997695675 2.221441469306996 2.2214414688513706 4.556249894594308e-10 0.0 0.0 0.0 0.0 0.0 0.0
154221.848 4.163336342344337e-17 -1.5707963267948966 1.5707963267948966 -1.5707963267948966 -1.5707963267948966 0.0 0.0 0.0 0.0 0.0 0.0 0.0 0.0 0.0 0.0 0.0 0.0 0.0 -1.1512442590619146e-26 -0.5442396572688689 -0.7673661111166267 -0.229354796466502 -1.3146049461972196e-11 0.0 -1.511583712148294e-25 -7.14586669994025 -7.145866699940251 -1.0424175499402515 -5.974879480466362e-11 0.0 4.163336342344337e-17 -1.570796314870016 1.5707963705062866 -1.570796314870016 -1.570796314870016 0.0 0.0 0.0 0.0 0.0 0.0 0.0 -1.151244268742903e-26 -0.5442396402359009 -0.7673661112785339 -0.22935479879379272 -1.3146049353263134e-11 0.0 -1.151244268742903e-26 -0.5442396402359009 -0.7673661112785339 -0.22935479879379272 -1.3146049353263134e-11 0.0 -0.2985999973554403 -0.11235000099231762 0.3136499823461779 2.2214412195942916 2.2214412191386654 6.515886891884208e-08 0.0 0.0 0.0 0.0 0.0 0.0 9.240738067961102e-07 3.4768818278582945e-07 4.253146293222052e-08 -2.8475662131755503e-08 6.147405365792544e-08 -2.6501511672992807e-15 -0.29859999998320197 -0.1123500000156699 0.31364999997695675 2.221441469306996 2.2214414688513706 4.556249894594308e-10 0.0 0.0 0.0 0.0 0.0 0.0
154221.856 4.163336342344337e-17 -1.5707963267948966 1.5707963267948966 -1.5707963267948966 -1.5707963267948966 0.0 0.0 0.0 0.0 0.0 0.0 0.0 0.0 0.0 0.0 0.0 0.0 0.0 -1.1512442590619146e-26 -0.5442396572688689 -0.7673661111166267 -0.229354796466502 -1.3146049461972196e-11 0.0 -1.511583712148294e-25 -7.14586669994025 -7.145866699940251 -1.0424175499402515 -5.974879480466362e-11 0.0 4.163336342344337e-17 -1.570796314870016 1.5707963705062866 -1.570796314870016 -1.570796314870016 0.0 0.0 0.0 0.0 0.0 0.0 0.0 -1.151244268742903e-26 -0.5442396402359009 -0.7673661112785339 -0.22935479879379272 -1.3146049353263134e-11 0.0 -1.151244268742903e-26 -0.5442396402359009 -0.7673661112785339 -0.22935479879379272 -1.3146049353263134e-11 0.0 -0.2985999973554403 -0.11235000099231762 0.3136499823461779 2.2214412195942916 2.2214412191386654 6.515886891884208e-08 0.0 0.0 0.0 0.0 0.0 0.0 9.240738067961102e-07 3.4768818278582945e-07 4.253146293222052e-08 -2.8475662131755503e-08 6.147405365792544e-08 -2.6501511672992807e-15 -0.29859999998320197 -0.1123500000156699 0.31364999997695675 2.221441469306996 2.2214414688513706 4.556249894594308e-10 0.0 0.0 0.0 0.0 0.0 0.0
154221.864 4.163336342344337e-17 -1.5707963267948966 1.5707963267948966 -1.5707963267948966 -1.5707963267948966 0.0 0.0 0.0 0.0 0.0 0.0 0.0 0.0 0.0 0.0 0.0 0.0 0.0 -1.1512442590619146e-26 -0.5442396572688689 -0.7673661111166267 -0.229354796466502 -1.3146049461972196e-11 0.0 -1.511583712148294e-25 -7.14586669994025 -7.145866699940251 -1.0424175499402515 -5.974879480466362e-11 0.0 4.163336342344337e-17 -1.570796314870016 1.5707963705062866 -1.570796314870016 -1.570796314870016 0.0 0.0 0.0 0.0 0.0 0.0 0.0 -1.151244268742903e-26 -0.5442396402359009 -0.7673661112785339 -0.22935479879379272 -1.3146049353263134e-11 0.0 -1.151244268742903e-26 -0.5442396402359009 -0.7673661112785339 -0.22935479879379272 -1.3146049353263134e-11 0.0 -0.2985999973554403 -0.11235000099231762 0.3136499823461779 2.2214412195942916 2.2214412191386654 6.515886891884208e-08 0.0 0.0 0.0 0.0 0.0 0.0 9.240738067961102e-07 3.4768818278582945e-07 4.253146293222052e-08 -2.8475662131755503e-08 6.147405365792544e-08 -2.6501511672992807e-15 -0.29859999998320197 -0.1123500000156699 0.31364999997695675 2.221441469306996 2.2214414688513706 4.556249894594308e-10 0.0 0.0 0.0 0.0 0.0 0.0
154221.872 4.163336342344337e-17 -1.5707963267948966 1.5707963267948966 -1.5707963267948966 -1.5707963267948966 0.0 0.0 0.0 0.0 0.0 0.0 0.0 0.0 0.0 0.0 0.0 0.0 0.0 -1.1512442590619146e-26 -0.5442396572688689 -0.7673661111166267 -0.229354796466502 -1.3146049461972196e-11 0.0 -1.511583712148294e-25 -7.14586669994025 -7.145866699940251 -1.0424175499402515 -5.974879480466362e-11 0.0 4.163336342344337e-17 -1.570796314870016 1.5707963705062866 -1.570796314870016 -1.570796314870016 0.0 0.0 0.0 0.0 0.0 0.0 0.0 -1.151244268742903e-26 -0.5442396402359009 -0.7673661112785339 -0.22935479879379272 -1.3146049353263134e-11 0.0 -1.151244268742903e-26 -0.5442396402359009 -0.7673661112785339 -0.22935479879379272 -1.3146049353263134e-11 0.0 -0.2985999973554403 -0.11235000099231762 0.3136499823461779 2.2214412195942916 2.2214412191386654 6.515886891884208e-08 0.0 0.0 0.0 0.0 0.0 0.0 9.240738067961102e-07 3.4768818278582945e-07 4.253146293222052e-08 -2.8475662131755503e-08 6.147405365792544e-08 -2.6501511672992807e-15 -0.29859999998320197 -0.1123500000156699 0.31364999997695675 2.221441469306996 2.2214414688513706 4.556249894594308e-10 0.0 0.0 0.0 0.0 0.0 0.0
154221.88 4.163336342344337e-17 -1.5707963267948966 1.5707963267948966 -1.5707963267948966 -1.5707963267948966 0.0 0.0 0.0 0.0 0.0 0.0 0.0 0.0 0.0 0.0 0.0 0.0 0.0 -1.1512442590619146e-26 -0.5442396572688689 -0.7673661111166267 -0.229354796466502 -1.3146049461972196e-11 0.0 -1.511583712148294e-25 -7.14586669994025 -7.145866699940251 -1.0424175499402515 -5.974879480466362e-11 0.0 4.163336342344337e-17 -1.570796314870016 1.5707963705062866 -1.570796314870016 -1.570796314870016 0.0 0.0 0.0 0.0 0.0 0.0 0.0 -1.151244268742903e-26 -0.5442396402359009 -0.7673661112785339 -0.22935479879379272 -1.3146049353263134e-11 0.0 -1.151244268742903e-26 -0.5442396402359009 -0.7673661112785339 -0.22935479879379272 -1.3146049353263134e-11 0.0 -0.2985999973554403 -0.11235000099231762 0.3136499823461779 2.2214412195942916 2.2214412191386654 6.515886891884208e-08 0.0 0.0 0.0 0.0 0.0 0.0 9.240738067961102e-07 3.4768818278582945e-07 4.253146293222052e-08 -2.8475662131755503e-08 6.147405365792544e-08 -2.6501511672992807e-15 -0.29859999998320197 -0.1123500000156699 0.31364999997695675 2.221441469306996 2.2214414688513706 4.556249894594308e-10 0.0 0.0 0.0 0.0 0.0 0.0
154221.888 4.163336342344337e-17 -1.5707963267948966 1.5707963267948966 -1.5707963267948966 -1.5707963267948966 0.0 0.0 0.0 0.0 0.0 0.0 0.0 0.0 0.0 0.0 0.0 0.0 0.0 -1.1512442590619146e-26 -0.5442396572688689 -0.7673661111166267 -0.229354796466502 -1.3146049461972196e-11 0.0 -1.511583712148294e-25 -7.14586669994025 -7.145866699940251 -1.0424175499402515 -5.974879480466362e-11 0.0 4.163336342344337e-17 -1.570796314870016 1.5707963705062866 -1.570796314870016 -1.570796314870016 0.0 0.0 0.0 0.0 0.0 0.0 0.0 -1.151244268742903e-26 -0.5442396402359009 -0.7673661112785339 -0.22935479879379272 -1.3146049353263134e-11 0.0 -1.151244268742903e-26 -0.5442396402359009 -0.7673661112785339 -0.22935479879379272 -1.3146049353263134e-11 0.0 -0.2985999973554403 -0.11235000099231762 0.3136499823461779 2.2214412195942916 2.2214412191386654 6.515886891884208e-08 0.0 0.0 0.0 0.0 0.0 0.0 9.240738067961102e-07 3.4768818278582945e-07 4.253146293222052e-08 -2.8475662131755503e-08 6.147405365792544e-08 -2.6501511672992807e-15 -0.29859999998320197 -0.1123500000156699 0.31364999997695675 2.221441469306996 2.2214414688513706 4.556249894594308e-10 0.0 0.0 0.0 0.0 0.0 0.0
154221.89599999998 4.163336342344337e-17 -1.5707963267948966 1.5707963267948966 -1.5707963267948966 -1.5707963267948966 0.0 0.0 0.0 0.0 0.0 0.0 0.0 0.0 0.0 0.0 0.0 0.0 0.0 -1.1512442590619146e-26 -0.5442396572688689 -0.7673661111166267 -0.229354796466502 -1.3146049461972196e-11 0.0 -1.511583712148294e-25 -7.14586669994025 -7.145866699940251 -1.0424175499402515 -5.974879480466362e-11 0.0 4.163336342344337e-17 -1.570796314870016 1.5707963705062866 -1.570796314870016 -1.570796314870016 0.0 0.0 0.0 0.0 0.0 0.0 0.0 -1.151244268742903e-26 -0.5442396402359009 -0.7673661112785339 -0.22935479879379272 -1.3146049353263134e-11 0.0 -1.151244268742903e-26 -0.5442396402359009 -0.7673661112785339 -0.22935479879379272 -1.3146049353263134e-11 0.0 -0.2985999973554403 -0.11235000099231762 0.3136499823461779 2.2214412195942916 2.2214412191386654 6.515886891884208e-08 0.0 0.0 0.0 0.0 0.0 0.0 9.240738067961102e-07 3.4768818278582945e-07 4.253146293222052e-08 -2.8475662131755503e-08 6.147405365792544e-08 -2.6501511672992807e-15 -0.29859999998320197 -0.1123500000156699 0.31364999997695675 2.221441469306996 2.2214414688513706 4.556249894594308e-10 0.0 0.0 0.0 0.0 0.0 0.0
154221.90399999998 4.163336342344337e-17 -1.5707963267948966 1.5707963267948966 -1.5707963267948966 -1.5707963267948966 0.0 0.0 0.0 0.0 0.0 0.0 0.0 0.0 0.0 0.0 0.0 0.0 0.0 -1.1512442590619146e-26 -0.5442396572688689 -0.7673661111166267 -0.229354796466502 -1.3146049461972196e-11 0.0 -1.511583712148294e-25 -7.14586669994025 -7.145866699940251 -1.0424175499402515 -5.974879480466362e-11 0.0 4.163336342344337e-17 -1.570796314870016 1.5707963705062866 -1.570796314870016 -1.570796314870016 0.0 0.0 0.0 0.0 0.0 0.0 0.0 -1.151244268742903e-26 -0.5442396402359009 -0.7673661112785339 -0.22935479879379272 -1.3146049353263134e-11 0.0 -1.151244268742903e-26 -0.5442396402359009 -0.7673661112785339 -0.22935479879379272 -1.3146049353263134e-11 0.0 -0.2985999973554403 -0.11235000099231762 0.3136499823461779 2.2214412195942916 2.2214412191386654 6.515886891884208e-08 0.0 0.0 0.0 0.0 0.0 0.0 9.240738067961102e-07 3.4768818278582945e-07 4.253146293222052e-08 -2.8475662131755503e-08 6.147405365792544e-08 -2.6501511672992807e-15 -0.29859999998320197 -0.1123500000156699 0.31364999997695675 2.221441469306996 2.2214414688513706 4.556249894594308e-10 0.0 0.0 0.0 0.0 0.0 0.0
154221.91199999998 4.163336342344337e-17 -1.5707963267948966 1.5707963267948966 -1.5707963267948966 -1.5707963267948966 0.0 0.0 0.0 0.0 0.0 0.0 0.0 0.0 0.0 0.0 0.0 0.0 0.0 -1.1512442590619146e-26 -0.5442396572688689 -0.7673661111166267 -0.229354796466502 -1.3146049461972196e-11 0.0 -1.511583712148294e-25 -7.14586669994025 -7.145866699940251 -1.0424175499402515 -5.974879480466362e-11 0.0 4.163336342344337e-17 -1.570796314870016 1.5707963705062866 -1.570796314870016 -1.570796314870016 0.0 0.0 0.0 0.0 0.0 0.0 0.0 -1.151244268742903e-26 -0.5442396402359009 -0.7673661112785339 -0.22935479879379272 -1.3146049353263134e-11 0.0 -1.151244268742903e-26 -0.5442396402359009 -0.7673661112785339 -0.22935479879379272 -1.3146049353263134e-11 0.0 -0.2985999973554403 -0.11235000099231762 0.3136499823461779 2.2214412195942916 2.2214412191386654 6.515886891884208e-08 0.0 0.0 0.0 0.0 0.0 0.0 9.240738067961102e-07 3.4768818278582945e-07 4.253146293222052e-08 -2.8475662131755503e-08 6.147405365792544e-08 -2.6501511672992807e-15 -0.29859999998320197 -0.1123500000156699 0.31364999997695675 2.221441469306996 2.2214414688513706 4.556249894594308e-10 0.0 0.0 0.0 0.0 0.0 0.0
154221.91999999998 4.163336342344337e-17 -1.5707963267948966 1.5707963267948966 -1.5707963267948966 -1.5707963267948966 0.0 0.0 0.0 0.0 0.0 0.0 0.0 0.0 0.0 0.0 0.0 0.0 0.0 -1.1512442590619146e-26 -0.5442396572688689 -0.7673661111166267 -0.229354796466502 -1.3146049461972196e-11 0.0 -1.511583712148294e-25 -7.14586669994025 -7.145866699940251 -1.0424175499402515 -5.974879480466362e-11 0.0 4.163336342344337e-17 -1.570796314870016 1.5707963705062866 -1.570796314870016 -1.570796314870016 0.0 0.0 0.0 0.0 0.0 0.0 0.0 -1.151244268742903e-26 -0.5442396402359009 -0.7673661112785339 -0.22935479879379272 -1.3146049353263134e-11 0.0 -1.151244268742903e-26 -0.5442396402359009 -0.7673661112785339 -0.22935479879379272 -1.3146049353263134e-11 0.0 -0.2985999973554403 -0.11235000099231762 0.3136499823461779 2.2214412195942916 2.2214412191386654 6.515886891884208e-08 0.0 0.0 0.0 0.0 0.0 0.0 9.240738067961102e-07 3.4768818278582945e-07 4.253146293222052e-08 -2.8475662131755503e-08 6.147405365792544e-08 -2.6501511672992807e-15 -0.29859999998320197 -0.1123500000156699 0.31364999997695675 2.221441469306996 2.2214414688513706 4.556249894594308e-10 0.0 0.0 0.0 0.0 0.0 0.0
154221.92799999999 4.163336342344337e-17 -1.5707963267948966 1.5707963267948966 -1.5707963267948966 -1.5707963267948966 0.0 0.0 0.0 0.0 0.0 0.0 0.0 0.0 0.0 0.0 0.0 0.0 0.0 -1.1512442590619146e-26 -0.5442396572688689 -0.7673661111166267 -0.229354796466502 -1.3146049461972196e-11 0.0 -1.511583712148294e-25 -7.14586669994025 -7.145866699940251 -1.0424175499402515 -5.974879480466362e-11 0.0 4.163336342344337e-17 -1.570796314870016 1.5707963705062866 -1.570796314870016 -1.570796314870016 0.0 0.0 0.0 0.0 0.0 0.0 0.0 -1.151244268742903e-26 -0.5442396402359009 -0.7673661112785339 -0.22935479879379272 -1.3146049353263134e-11 0.0 -1.151244268742903e-26 -0.5442396402359009 -0.7673661112785339 -0.22935479879379272 -1.3146049353263134e-11 0.0 -0.2985999973554403 -0.11235000099231762 0.3136499823461779 2.2214412195942916 2.2214412191386654 6.515886891884208e-08 0.0 0.0 0.0 0.0 0.0 0.0 9.240738067961102e-07 3.4768818278582945e-07 4.253146293222052e-08 -2.8475662131755503e-08 6.147405365792544e-08 -2.6501511672992807e-15 -0.29859999998320197 -0.1123500000156699 0.31364999997695675 2.221441469306996 2.2214414688513706 4.556249894594308e-10 0.0 0.0 0.0 0.0 0.0 0.0
154221.936 4.163336342344337e-17 -1.5707963267948966 1.5707963267948966 -1.5707963267948966 -1.5707963267948966 0.0 0.0 0.0 0.0 0.0 0.0 0.0 0.0 0.0 0.0 0.0 0.0 0.0 -1.1512442590619146e-26 -0.5442396572688689 -0.7673661111166267 -0.229354796466502 -1.3146049461972196e-11 0.0 -1.511583712148294e-25 -7.14586669994025 -7.145866699940251 -1.0424175499402515 -5.974879480466362e-11 0.0 4.163336342344337e-17 -1.570796314870016 1.5707963705062866 -1.570796314870016 -1.570796314870016 0.0 0.0 0.0 0.0 0.0 0.0 0.0 -1.151244268742903e-26 -0.5442396402359009 -0.7673661112785339 -0.22935479879379272 -1.3146049353263134e-11 0.0 -1.151244268742903e-26 -0.5442396402359009 -0.7673661112785339 -0.22935479879379272 -1.3146049353263134e-11 0.0 -0.2985999973554403 -0.11235000099231762 0.3136499823461779 2.2214412195942916 2.2214412191386654 6.515886891884208e-08 0.0 0.0 0.0 0.0 0.0 0.0 9.240738067961102e-07 3.4768818278582945e-07 4.253146293222052e-08 -2.8475662131755503e-08 6.147405365792544e-08 -2.6501511672992807e-15 -0.29859999998320197 -0.1123500000156699 0.31364999997695675 2.221441469306996 2.2214414688513706 4.556249894594308e-10 0.0 0.0 0.0 0.0 0.0 0.0
154221.944 4.163336342344337e-17 -1.5707963267948966 1.5707963267948966 -1.5707963267948966 -1.5707963267948966 0.0 0.0 0.0 0.0 0.0 0.0 0.0 0.0 0.0 0.0 0.0 0.0 0.0 -1.1512442590619146e-26 -0.5442396572688689 -0.7673661111166267 -0.229354796466502 -1.3146049461972196e-11 0.0 -1.511583712148294e-25 -7.14586669994025 -7.145866699940251 -1.0424175499402515 -5.974879480466362e-11 0.0 4.163336342344337e-17 -1.570796314870016 1.5707963705062866 -1.570796314870016 -1.570796314870016 0.0 0.0 0.0 0.0 0.0 0.0 0.0 -1.151244268742903e-26 -0.5442396402359009 -0.7673661112785339 -0.22935479879379272 -1.3146049353263134e-11 0.0 -1.151244268742903e-26 -0.5442396402359009 -0.7673661112785339 -0.22935479879379272 -1.3146049353263134e-11 0.0 -0.2985999973554403 -0.11235000099231762 0.3136499823461779 2.2214412195942916 2.2214412191386654 6.515886891884208e-08 0.0 0.0 0.0 0.0 0.0 0.0 9.240738067961102e-07 3.4768818278582945e-07 4.253146293222052e-08 -2.8475662131755503e-08 6.147405365792544e-08 -2.6501511672992807e-15 -0.29859999998320197 -0.1123500000156699 0.31364999997695675 2.221441469306996 2.2214414688513706 4.556249894594308e-10 0.0 0.0 0.0 0.0 0.0 0.0
154221.952 4.163336342344337e-17 -1.5707963267948966 1.5707963267948966 -1.5707963267948966 -1.5707963267948966 0.0 0.0 0.0 0.0 0.0 0.0 0.0 0.0 0.0 0.0 0.0 0.0 0.0 -1.1512442590619146e-26 -0.5442396572688689 -0.7673661111166267 -0.229354796466502 -1.3146049461972196e-11 0.0 -1.511583712148294e-25 -7.14586669994025 -7.145866699940251 -1.0424175499402515 -5.974879480466362e-11 0.0 4.163336342344337e-17 -1.570796314870016 1.5707963705062866 -1.570796314870016 -1.570796314870016 0.0 0.0 0.0 0.0 0.0 0.0 0.0 -1.151244268742903e-26 -0.5442396402359009 -0.7673661112785339 -0.22935479879379272 -1.3146049353263134e-11 0.0 -1.151244268742903e-26 -0.5442396402359009 -0.7673661112785339 -0.22935479879379272 -1.3146049353263134e-11 0.0 -0.2985999973554403 -0.11235000099231762 0.3136499823461779 2.2214412195942916 2.2214412191386654 6.515886891884208e-08 0.0 0.0 0.0 0.0 0.0 0.0 9.240738067961102e-07 3.4768818278582945e-07 4.253146293222052e-08 -2.8475662131755503e-08 6.147405365792544e-08 -2.6501511672992807e-15 -0.29859999998320197 -0.1123500000156699 0.31364999997695675 2.221441469306996 2.2214414688513706 4.556249894594308e-10 0.0 0.0 0.0 0.0 0.0 0.0
154221.96 4.163336342344337e-17 -1.5707963267948966 1.5707963267948966 -1.5707963267948966 -1.5707963267948966 0.0 0.0 0.0 0.0 0.0 0.0 0.0 0.0 0.0 0.0 0.0 0.0 0.0 -1.1512442590619146e-26 -0.5442396572688689 -0.7673661111166267 -0.229354796466502 -1.3146049461972196e-11 0.0 -1.511583712148294e-25 -7.14586669994025 -7.145866699940251 -1.0424175499402515 -5.974879480466362e-11 0.0 4.163336342344337e-17 -1.570796314870016 1.5707963705062866 -1.570796314870016 -1.570796314870016 0.0 0.0 0.0 0.0 0.0 0.0 0.0 -1.151244268742903e-26 -0.5442396402359009 -0.7673661112785339 -0.22935479879379272 -1.3146049353263134e-11 0.0 -1.151244268742903e-26 -0.5442396402359009 -0.7673661112785339 -0.22935479879379272 -1.3146049353263134e-11 0.0 -0.2985999973554403 -0.11235000099231762 0.3136499823461779 2.2214412195942916 2.2214412191386654 6.515886891884208e-08 0.0 0.0 0.0 0.0 0.0 0.0 9.240738067961102e-07 3.4768818278582945e-07 4.253146293222052e-08 -2.8475662131755503e-08 6.147405365792544e-08 -2.6501511672992807e-15 -0.29859999998320197 -0.1123500000156699 0.31364999997695675 2.221441469306996 2.2214414688513706 4.556249894594308e-10 0.0 0.0 0.0 0.0 0.0 0.0
154221.968 4.163336342344337e-17 -1.5707963267948966 1.5707963267948966 -1.5707963267948966 -1.5707963267948966 0.0 0.0 0.0 0.0 0.0 0.0 0.0 0.0 0.0 0.0 0.0 0.0 0.0 -1.1512442590619146e-26 -0.5442396572688689 -0.7673661111166267 -0.229354796466502 -1.3146049461972196e-11 0.0 -1.511583712148294e-25 -7.14586669994025 -7.145866699940251 -1.0424175499402515 -5.974879480466362e-11 0.0 4.163336342344337e-17 -1.570796314870016 1.5707963705062866 -1.570796314870016 -1.570796314870016 0.0 0.0 0.0 0.0 0.0 0.0 0.0 -1.151244268742903e-26 -0.5442396402359009 -0.7673661112785339 -0.22935479879379272 -1.3146049353263134e-11 0.0 -1.151244268742903e-26 -0.5442396402359009 -0.7673661112785339 -0.22935479879379272 -1.3146049353263134e-11 0.0 -0.2985999973554403 -0.11235000099231762 0.3136499823461779 2.2214412195942916 2.2214412191386654 6.515886891884208e-08 0.0 0.0 0.0 0.0 0.0 0.0 9.240738067961102e-07 3.4768818278582945e-07 4.253146293222052e-08 -2.8475662131755503e-08 6.147405365792544e-08 -2.6501511672992807e-15 -0.29859999998320197 -0.1123500000156699 0.31364999997695675 2.221441469306996 2.2214414688513706 4.556249894594308e-10 0.0 0.0 0.0 0.0 0.0 0.0
154221.976 4.163336342344337e-17 -1.5707963267948966 1.5707963267948966 -1.5707963267948966 -1.5707963267948966 0.0 0.0 0.0 0.0 0.0 0.0 0.0 0.0 0.0 0.0 0.0 0.0 0.0 -1.1512442590619146e-26 -0.5442396572688689 -0.7673661111166267 -0.229354796466502 -1.3146049461972196e-11 0.0 -1.511583712148294e-25 -7.14586669994025 -7.145866699940251 -1.0424175499402515 -5.974879480466362e-11 0.0 4.163336342344337e-17 -1.570796314870016 1.5707963705062866 -1.570796314870016 -1.570796314870016 0.0 0.0 0.0 0.0 0.0 0.0 0.0 -1.151244268742903e-26 -0.5442396402359009 -0.7673661112785339 -0.22935479879379272 -1.3146049353263134e-11 0.0 -1.151244268742903e-26 -0.5442396402359009 -0.7673661112785339 -0.22935479879379272 -1.3146049353263134e-11 0.0 -0.2985999973554403 -0.11235000099231762 0.3136499823461779 2.2214412195942916 2.2214412191386654 6.515886891884208e-08 0.0 0.0 0.0 0.0 0.0 0.0 9.240738067961102e-07 3.4768818278582945e-07 4.253146293222052e-08 -2.8475662131755503e-08 6.147405365792544e-08 -2.6501511672992807e-15 -0.29859999998320197 -0.1123500000156699 0.31364999997695675 2.221441469306996 2.2214414688513706 4.556249894594308e-10 0.0 0.0 0.0 0.0 0.0 0.0
154221.984 4.163336342344337e-17 -1.5707963267948966 1.5707963267948966 -1.5707963267948966 -1.5707963267948966 0.0 0.0 0.0 0.0 0.0 0.0 0.0 0.0 0.0 0.0 0.0 0.0 0.0 -1.1512442590619146e-26 -0.5442396572688689 -0.7673661111166267 -0.229354796466502 -1.3146049461972196e-11 0.0 -1.511583712148294e-25 -7.14586669994025 -7.145866699940251 -1.0424175499402515 -5.974879480466362e-11 0.0 4.163336342344337e-17 -1.570796314870016 1.5707963705062866 -1.570796314870016 -1.570796314870016 0.0 0.0 0.0 0.0 0.0 0.0 0.0 -1.151244268742903e-26 -0.5442396402359009 -0.7673661112785339 -0.22935479879379272 -1.3146049353263134e-11 0.0 -1.151244268742903e-26 -0.5442396402359009 -0.7673661112785339 -0.22935479879379272 -1.3146049353263134e-11 0.0 -0.2985999973554403 -0.11235000099231762 0.3136499823461779 2.2214412195942916 2.2214412191386654 6.515886891884208e-08 0.0 0.0 0.0 0.0 0.0 0.0 9.240738067961102e-07 3.4768818278582945e-07 4.253146293222052e-08 -2.8475662131755503e-08 6.147405365792544e-08 -2.6501511672992807e-15 -0.29859999998320197 -0.1123500000156699 0.31364999997695675 2.221441469306996 2.2214414688513706 4.556249894594308e-10 0.0 0.0 0.0 0.0 0.0 0.0
154221.992 4.163336342344337e-17 -1.5707963267948966 1.5707963267948966 -1.5707963267948966 -1.5707963267948966 0.0 0.0 0.0 0.0 0.0 0.0 0.0 0.0 0.0 0.0 0.0 0.0 0.0 -1.1512442590619146e-26 -0.5442396572688689 -0.7673661111166267 -0.229354796466502 -1.3146049461972196e-11 0.0 -1.511583712148294e-25 -7.14586669994025 -7.145866699940251 -1.0424175499402515 -5.974879480466362e-11 0.0 4.163336342344337e-17 -1.570796314870016 1.5707963705062866 -1.570796314870016 -1.570796314870016 0.0 0.0 0.0 0.0 0.0 0.0 0.0 -1.151244268742903e-26 -0.5442396402359009 -0.7673661112785339 -0.22935479879379272 -1.3146049353263134e-11 0.0 -1.151244268742903e-26 -0.5442396402359009 -0.7673661112785339 -0.22935479879379272 -1.3146049353263134e-11 0.0 -0.2985999973554403 -0.11235000099231762 0.3136499823461779 2.2214412195942916 2.2214412191386654 6.515886891884208e-08 0.0 0.0 0.0 0.0 0.0 0.0 9.240738067961102e-07 3.4768818278582945e-07 4.253146293222052e-08 -2.8475662131755503e-08 6.147405365792544e-08 -2.6501511672992807e-15 -0.29859999998320197 -0.1123500000156699 0.31364999997695675 2.221441469306996 2.2214414688513706 4.556249894594308e-10 0.0 0.0 0.0 0.0 0.0 0.0
154222.0 4.163336342344337e-17 -1.5707963267948966 1.5707963267948966 -1.5707963267948966 -1.5707963267948966 0.0 0.0 0.0 0.0 0.0 0.0 0.0 0.0 0.0 0.0 0.0 0.0 0.0 -1.1512442590619146e-26 -0.5442396572688689 -0.7673661111166267 -0.229354796466502 -1.3146049461972196e-11 0.0 -1.511583712148294e-25 -7.14586669994025 -7.145866699940251 -1.0424175499402515 -5.974879480466362e-11 0.0 4.163336342344337e-17 -1.570796314870016 1.5707963705062866 -1.570796314870016 -1.570796314870016 0.0 0.0 0.0 0.0 0.0 0.0 0.0 -1.151244268742903e-26 -0.5442396402359009 -0.7673661112785339 -0.22935479879379272 -1.3146049353263134e-11 0.0 -1.151244268742903e-26 -0.5442396402359009 -0.7673661112785339 -0.22935479879379272 -1.3146049353263134e-11 0.0 -0.2985999973554403 -0.11235000099231762 0.3136499823461779 2.2214412195942916 2.2214412191386654 6.515886891884208e-08 0.0 0.0 0.0 0.0 0.0 0.0 9.240738067961102e-07 3.4768818278582945e-07 4.253146293222052e-08 -2.8475662131755503e-08 6.147405365792544e-08 -2.6501511672992807e-15 -0.29859999998320197 -0.1123500000156699 0.31364999997695675 2.221441469306996 2.2214414688513706 4.556249894594308e-10 0.0 0.0 0.0 0.0 0.0 0.0
154222.008 4.163336342344337e-17 -1.5707963267948966 1.5707963267948966 -1.5707963267948966 -1.5707963267948966 0.0 0.0 0.0 0.0 0.0 0.0 0.0 0.0 0.0 0.0 0.0 0.0 0.0 -1.1512442590619146e-26 -0.5442396572688689 -0.7673661111166267 -0.229354796466502 -1.3146049461972196e-11 0.0 -1.511583712148294e-25 -7.14586669994025 -7.145866699940251 -1.0424175499402515 -5.974879480466362e-11 0.0 4.163336342344337e-17 -1.570796314870016 1.5707963705062866 -1.570796314870016 -1.570796314870016 0.0 0.0 0.0 0.0 0.0 0.0 0.0 -1.151244268742903e-26 -0.5442396402359009 -0.7673661112785339 -0.22935479879379272 -1.3146049353263134e-11 0.0 -1.151244268742903e-26 -0.5442396402359009 -0.7673661112785339 -0.22935479879379272 -1.3146049353263134e-11 0.0 -0.2985999973554403 -0.11235000099231762 0.3136499823461779 2.2214412195942916 2.2214412191386654 6.515886891884208e-08 0.0 0.0 0.0 0.0 0.0 0.0 9.240738067961102e-07 3.4768818278582945e-07 4.253146293222052e-08 -2.8475662131755503e-08 6.147405365792544e-08 -2.6501511672992807e-15 -0.29859999998320197 -0.1123500000156699 0.31364999997695675 2.221441469306996 2.2214414688513706 4.556249894594308e-10 0.0 0.0 0.0 0.0 0.0 0.0
154222.016 4.163336342344337e-17 -1.5707963267948966 1.5707963267948966 -1.5707963267948966 -1.5707963267948966 0.0 0.0 0.0 0.0 0.0 0.0 0.0 0.0 0.0 0.0 0.0 0.0 0.0 -1.1512442590619146e-26 -0.5442396572688689 -0.7673661111166267 -0.229354796466502 -1.3146049461972196e-11 0.0 -1.511583712148294e-25 -7.14586669994025 -7.145866699940251 -1.0424175499402515 -5.974879480466362e-11 0.0 4.163336342344337e-17 -1.570796314870016 1.5707963705062866 -1.570796314870016 -1.570796314870016 0.0 0.0 0.0 0.0 0.0 0.0 0.0 -1.151244268742903e-26 -0.5442396402359009 -0.7673661112785339 -0.22935479879379272 -1.3146049353263134e-11 0.0 -1.151244268742903e-26 -0.5442396402359009 -0.7673661112785339 -0.22935479879379272 -1.3146049353263134e-11 0.0 -0.2985999973554403 -0.11235000099231762 0.3136499823461779 2.2214412195942916 2.2214412191386654 6.515886891884208e-08 0.0 0.0 0.0 0.0 0.0 0.0 9.240738067961102e-07 3.4768818278582945e-07 4.253146293222052e-08 -2.8475662131755503e-08 6.147405365792544e-08 -2.6501511672992807e-15 -0.29859999998320197 -0.1123500000156699 0.31364999997695675 2.221441469306996 2.2214414688513706 4.556249894594308e-10 0.0 0.0 0.0 0.0 0.0 0.0
154222.024 4.163336342344337e-17 -1.5707963267948966 1.5707963267948966 -1.5707963267948966 -1.5707963267948966 0.0 0.0 0.0 0.0 0.0 0.0 0.0 0.0 0.0 0.0 0.0 0.0 0.0 -1.1512442590619146e-26 -0.5442396572688689 -0.7673661111166267 -0.229354796466502 -1.3146049461972196e-11 0.0 -1.511583712148294e-25 -7.14586669994025 -7.145866699940251 -1.0424175499402515 -5.974879480466362e-11 0.0 4.163336342344337e-17 -1.570796314870016 1.5707963705062866 -1.570796314870016 -1.570796314870016 0.0 0.0 0.0 0.0 0.0 0.0 0.0 -1.151244268742903e-26 -0.5442396402359009 -0.7673661112785339 -0.22935479879379272 -1.3146049353263134e-11 0.0 -1.151244268742903e-26 -0.5442396402359009 -0.7673661112785339 -0.22935479879379272 -1.3146049353263134e-11 0.0 -0.2985999973554403 -0.11235000099231762 0.3136499823461779 2.2214412195942916 2.2214412191386654 6.515886891884208e-08 0.0 0.0 0.0 0.0 0.0 0.0 9.240738067961102e-07 3.4768818278582945e-07 4.253146293222052e-08 -2.8475662131755503e-08 6.147405365792544e-08 -2.6501511672992807e-15 -0.29859999998320197 -0.1123500000156699 0.31364999997695675 2.221441469306996 2.2214414688513706 4.556249894594308e-10 0.0 0.0 0.0 0.0 0.0 0.0
154222.032 4.163336342344337e-17 -1.5707963267948966 1.5707963267948966 -1.5707963267948966 -1.5707963267948966 0.0 0.0 0.0 0.0 0.0 0.0 0.0 0.0 0.0 0.0 0.0 0.0 0.0 -1.1512442590619146e-26 -0.5442396572688689 -0.7673661111166267 -0.229354796466502 -1.3146049461972196e-11 0.0 -1.511583712148294e-25 -7.14586669994025 -7.145866699940251 -1.0424175499402515 -5.974879480466362e-11 0.0 4.163336342344337e-17 -1.570796314870016 1.5707963705062866 -1.570796314870016 -1.570796314870016 0.0 0.0 0.0 0.0 0.0 0.0 0.0 -1.151244268742903e-26 -0.5442396402359009 -0.7673661112785339 -0.22935479879379272 -1.3146049353263134e-11 0.0 -1.151244268742903e-26 -0.5442396402359009 -0.7673661112785339 -0.22935479879379272 -1.3146049353263134e-11 0.0 -0.2985999973554403 -0.11235000099231762 0.3136499823461779 2.2214412195942916 2.2214412191386654 6.515886891884208e-08 0.0 0.0 0.0 0.0 0.0 0.0 9.240738067961102e-07 3.4768818278582945e-07 4.253146293222052e-08 -2.8475662131755503e-08 6.147405365792544e-08 -2.6501511672992807e-15 -0.29859999998320197 -0.1123500000156699 0.31364999997695675 2.221441469306996 2.2214414688513706 4.556249894594308e-10 0.0 0.0 0.0 0.0 0.0 0.0
154222.03999999998 4.163336342344337e-17 -1.5707963267948966 1.5707963267948966 -1.5707963267948966 -1.5707963267948966 0.0 0.0 0.0 0.0 0.0 0.0 0.0 0.0 0.0 0.0 0.0 0.0 0.0 -1.1512442590619146e-26 -0.5442396572688689 -0.7673661111166267 -0.229354796466502 -1.3146049461972196e-11 0.0 -1.511583712148294e-25 -7.14586669994025 -7.145866699940251 -1.0424175499402515 -5.974879480466362e-11 0.0 4.163336342344337e-17 -1.570796314870016 1.5707963705062866 -1.570796314870016 -1.570796314870016 0.0 0.0 0.0 0.0 0.0 0.0 0.0 -1.151244268742903e-26 -0.5442396402359009 -0.7673661112785339 -0.22935479879379272 -1.3146049353263134e-11 0.0 -1.151244268742903e-26 -0.5442396402359009 -0.7673661112785339 -0.22935479879379272 -1.3146049353263134e-11 0.0 -0.2985999973554403 -0.11235000099231762 0.3136499823461779 2.2214412195942916 2.2214412191386654 6.515886891884208e-08 0.0 0.0 0.0 0.0 0.0 0.0 9.240738067961102e-07 3.4768818278582945e-07 4.253146293222052e-08 -2.8475662131755503e-08 6.147405365792544e-08 -2.6501511672992807e-15 -0.29859999998320197 -0.1123500000156699 0.31364999997695675 2.221441469306996 2.2214414688513706 4.556249894594308e-10 0.0 0.0 0.0 0.0 0.0 0.0
154222.04799999998 4.163336342344337e-17 -1.5707963267948966 1.5707963267948966 -1.5707963267948966 -1.5707963267948966 0.0 0.0 0.0 0.0 0.0 0.0 0.0 0.0 0.0 0.0 0.0 0.0 0.0 -1.1512442590619146e-26 -0.5442396572688689 -0.7673661111166267 -0.229354796466502 -1.3146049461972196e-11 0.0 -1.511583712148294e-25 -7.14586669994025 -7.145866699940251 -1.0424175499402515 -5.974879480466362e-11 0.0 4.163336342344337e-17 -1.570796314870016 1.5707963705062866 -1.570796314870016 -1.570796314870016 0.0 0.0 0.0 0.0 0.0 0.0 0.0 -1.151244268742903e-26 -0.5442396402359009 -0.7673661112785339 -0.22935479879379272 -1.3146049353263134e-11 0.0 -1.151244268742903e-26 -0.5442396402359009 -0.7673661112785339 -0.22935479879379272 -1.3146049353263134e-11 0.0 -0.2985999973554403 -0.11235000099231762 0.3136499823461779 2.2214412195942916 2.2214412191386654 6.515886891884208e-08 0.0 0.0 0.0 0.0 0.0 0.0 9.240738067961102e-07 3.4768818278582945e-07 4.253146293222052e-08 -2.8475662131755503e-08 6.147405365792544e-08 -2.6501511672992807e-15 -0.29859999998320197 -0.1123500000156699 0.31364999997695675 2.221441469306996 2.2214414688513706 4.556249894594308e-10 0.0 0.0 0.0 0.0 0.0 0.0
154222.05599999998 4.163336342344337e-17 -1.5707963267948966 1.5707963267948966 -1.5707963267948966 -1.5707963267948966 0.0 0.0 0.0 0.0 0.0 0.0 0.0 0.0 0.0 0.0 0.0 0.0 0.0 -1.1512442590619146e-26 -0.5442396572688689 -0.7673661111166267 -0.229354796466502 -1.3146049461972196e-11 0.0 -1.511583712148294e-25 -7.14586669994025 -7.145866699940251 -1.0424175499402515 -5.974879480466362e-11 0.0 4.163336342344337e-17 -1.570796314870016 1.5707963705062866 -1.570796314870016 -1.570796314870016 0.0 0.0 0.0 0.0 0.0 0.0 0.0 -1.151244268742903e-26 -0.5442396402359009 -0.7673661112785339 -0.22935479879379272 -1.3146049353263134e-11 0.0 -1.151244268742903e-26 -0.5442396402359009 -0.7673661112785339 -0.22935479879379272 -1.3146049353263134e-11 0.0 -0.2985999973554403 -0.11235000099231762 0.3136499823461779 2.2214412195942916 2.2214412191386654 6.515886891884208e-08 0.0 0.0 0.0 0.0 0.0 0.0 9.240738067961102e-07 3.4768818278582945e-07 4.253146293222052e-08 -2.8475662131755503e-08 6.147405365792544e-08 -2.6501511672992807e-15 -0.29859999998320197 -0.1123500000156699 0.31364999997695675 2.221441469306996 2.2214414688513706 4.556249894594308e-10 0.0 0.0 0.0 0.0 0.0 0.0
154222.06399999998 4.163336342344337e-17 -1.5707963267948966 1.5707963267948966 -1.5707963267948966 -1.5707963267948966 0.0 0.0 0.0 0.0 0.0 0.0 0.0 0.0 0.0 0.0 0.0 0.0 0.0 -1.1512442590619146e-26 -0.5442396572688689 -0.7673661111166267 -0.229354796466502 -1.3146049461972196e-11 0.0 -1.511583712148294e-25 -7.14586669994025 -7.145866699940251 -1.0424175499402515 -5.974879480466362e-11 0.0 4.163336342344337e-17 -1.570796314870016 1.5707963705062866 -1.570796314870016 -1.570796314870016 0.0 0.0 0.0 0.0 0.0 0.0 0.0 -1.151244268742903e-26 -0.5442396402359009 -0.7673661112785339 -0.22935479879379272 -1.3146049353263134e-11 0.0 -1.151244268742903e-26 -0.5442396402359009 -0.7673661112785339 -0.22935479879379272 -1.3146049353263134e-11 0.0 -0.2985999973554403 -0.11235000099231762 0.3136499823461779 2.2214412195942916 2.2214412191386654 6.515886891884208e-08 0.0 0.0 0.0 0.0 0.0 0.0 9.240738067961102e-07 3.4768818278582945e-07 4.253146293222052e-08 -2.8475662131755503e-08 6.147405365792544e-08 -2.6501511672992807e-15 -0.29859999998320197 -0.1123500000156699 0.31364999997695675 2.221441469306996 2.2214414688513706 4.556249894594308e-10 0.0 0.0 0.0 0.0 0.0 0.0
154222.072 4.163336342344337e-17 -1.5707963267948966 1.5707963267948966 -1.5707963267948966 -1.5707963267948966 0.0 0.0 0.0 0.0 0.0 0.0 0.0 0.0 0.0 0.0 0.0 0.0 0.0 -1.1512442590619146e-26 -0.5442396572688689 -0.7673661111166267 -0.229354796466502 -1.3146049461972196e-11 0.0 -1.511583712148294e-25 -7.14586669994025 -7.145866699940251 -1.0424175499402515 -5.974879480466362e-11 0.0 4.163336342344337e-17 -1.570796314870016 1.5707963705062866 -1.570796314870016 -1.570796314870016 0.0 0.0 0.0 0.0 0.0 0.0 0.0 -1.151244268742903e-26 -0.5442396402359009 -0.7673661112785339 -0.22935479879379272 -1.3146049353263134e-11 0.0 -1.151244268742903e-26 -0.5442396402359009 -0.7673661112785339 -0.22935479879379272 -1.3146049353263134e-11 0.0 -0.2985999973554403 -0.11235000099231762 0.3136499823461779 2.2214412195942916 2.2214412191386654 6.515886891884208e-08 0.0 0.0 0.0 0.0 0.0 0.0 9.240738067961102e-07 3.4768818278582945e-07 4.253146293222052e-08 -2.8475662131755503e-08 6.147405365792544e-08 -2.6501511672992807e-15 -0.29859999998320197 -0.1123500000156699 0.31364999997695675 2.221441469306996 2.2214414688513706 4.556249894594308e-10 0.0 0.0 0.0 0.0 0.0 0.0
154222.08 4.163336342344337e-17 -1.5707963267948966 1.5707963267948966 -1.5707963267948966 -1.5707963267948966 0.0 0.0 0.0 0.0 0.0 0.0 0.0 0.0 0.0 0.0 0.0 0.0 0.0 -1.1512442590619146e-26 -0.5442396572688689 -0.7673661111166267 -0.229354796466502 -1.3146049461972196e-11 0.0 -1.511583712148294e-25 -7.14586669994025 -7.145866699940251 -1.0424175499402515 -5.974879480466362e-11 0.0 4.163336342344337e-17 -1.570796314870016 1.5707963705062866 -1.570796314870016 -1.570796314870016 0.0 0.0 0.0 0.0 0.0 0.0 0.0 -1.151244268742903e-26 -0.5442396402359009 -0.7673661112785339 -0.22935479879379272 -1.3146049353263134e-11 0.0 -1.151244268742903e-26 -0.5442396402359009 -0.7673661112785339 -0.22935479879379272 -1.3146049353263134e-11 0.0 -0.2985999973554403 -0.11235000099231762 0.3136499823461779 2.2214412195942916 2.2214412191386654 6.515886891884208e-08 0.0 0.0 0.0 0.0 0.0 0.0 9.240738067961102e-07 3.4768818278582945e-07 4.253146293222052e-08 -2.8475662131755503e-08 6.147405365792544e-08 -2.6501511672992807e-15 -0.29859999998320197 -0.1123500000156699 0.31364999997695675 2.221441469306996 2.2214414688513706 4.556249894594308e-10 0.0 0.0 0.0 0.0 0.0 0.0
154222.088 4.163336342344337e-17 -1.5707963267948966 1.5707963267948966 -1.5707963267948966 -1.5707963267948966 0.0 0.0 0.0 0.0 0.0 0.0 0.0 0.0 0.0 0.0 0.0 0.0 0.0 -1.1512442590619146e-26 -0.5442396572688689 -0.7673661111166267 -0.229354796466502 -1.3146049461972196e-11 0.0 -1.511583712148294e-25 -7.14586669994025 -7.145866699940251 -1.0424175499402515 -5.974879480466362e-11 0.0 4.163336342344337e-17 -1.570796314870016 1.5707963705062866 -1.570796314870016 -1.570796314870016 0.0 0.0 0.0 0.0 0.0 0.0 0.0 -1.151244268742903e-26 -0.5442396402359009 -0.7673661112785339 -0.22935479879379272 -1.3146049353263134e-11 0.0 -1.151244268742903e-26 -0.5442396402359009 -0.7673661112785339 -0.22935479879379272 -1.3146049353263134e-11 0.0 -0.2985999973554403 -0.11235000099231762 0.3136499823461779 2.2214412195942916 2.2214412191386654 6.515886891884208e-08 0.0 0.0 0.0 0.0 0.0 0.0 9.240738067961102e-07 3.4768818278582945e-07 4.253146293222052e-08 -2.8475662131755503e-08 6.147405365792544e-08 -2.6501511672992807e-15 -0.29859999998320197 -0.1123500000156699 0.31364999997695675 2.221441469306996 2.2214414688513706 4.556249894594308e-10 0.0 0.0 0.0 0.0 0.0 0.0
154222.096 4.163336342344337e-17 -1.5707963267948966 1.5707963267948966 -1.5707963267948966 -1.5707963267948966 0.0 0.0 0.0 0.0 0.0 0.0 0.0 0.0 0.0 0.0 0.0 0.0 0.0 -1.1512442590619146e-26 -0.5442396572688689 -0.7673661111166267 -0.229354796466502 -1.3146049461972196e-11 0.0 -1.511583712148294e-25 -7.14586669994025 -7.145866699940251 -1.0424175499402515 -5.974879480466362e-11 0.0 4.163336342344337e-17 -1.570796314870016 1.5707963705062866 -1.570796314870016 -1.570796314870016 0.0 0.0 0.0 0.0 0.0 0.0 0.0 -1.151244268742903e-26 -0.5442396402359009 -0.7673661112785339 -0.22935479879379272 -1.3146049353263134e-11 0.0 -1.151244268742903e-26 -0.5442396402359009 -0.7673661112785339 -0.22935479879379272 -1.3146049353263134e-11 0.0 -0.2985999973554403 -0.11235000099231762 0.3136499823461779 2.2214412195942916 2.2214412191386654 6.515886891884208e-08 0.0 0.0 0.0 0.0 0.0 0.0 9.240738067961102e-07 3.4768818278582945e-07 4.253146293222052e-08 -2.8475662131755503e-08 6.147405365792544e-08 -2.6501511672992807e-15 -0.29859999998320197 -0.1123500000156699 0.31364999997695675 2.221441469306996 2.2214414688513706 4.556249894594308e-10 0.0 0.0 0.0 0.0 0.0 0.0
154222.104 4.163336342344337e-17 -1.5707963267948966 1.5707963267948966 -1.5707963267948966 -1.5707963267948966 0.0 0.0 0.0 0.0 0.0 0.0 0.0 0.0 0.0 0.0 0.0 0.0 0.0 -1.1512442590619146e-26 -0.5442396572688689 -0.7673661111166267 -0.229354796466502 -1.3146049461972196e-11 0.0 -1.511583712148294e-25 -7.14586669994025 -7.145866699940251 -1.0424175499402515 -5.974879480466362e-11 0.0 4.163336342344337e-17 -1.570796314870016 1.5707963705062866 -1.570796314870016 -1.570796314870016 0.0 0.0 0.0 0.0 0.0 0.0 0.0 -1.151244268742903e-26 -0.5442396402359009 -0.7673661112785339 -0.22935479879379272 -1.3146049353263134e-11 0.0 -1.151244268742903e-26 -0.5442396402359009 -0.7673661112785339 -0.22935479879379272 -1.3146049353263134e-11 0.0 -0.2985999973554403 -0.11235000099231762 0.3136499823461779 2.2214412195942916 2.2214412191386654 6.515886891884208e-08 0.0 0.0 0.0 0.0 0.0 0.0 9.240738067961102e-07 3.4768818278582945e-07 4.253146293222052e-08 -2.8475662131755503e-08 6.147405365792544e-08 -2.6501511672992807e-15 -0.29859999998320197 -0.1123500000156699 0.31364999997695675 2.221441469306996 2.2214414688513706 4.556249894594308e-10 0.0 0.0 0.0 0.0 0.0 0.0
154222.112 4.163336342344337e-17 -1.5707963267948966 1.5707963267948966 -1.5707963267948966 -1.5707963267948966 0.0 0.0 0.0 0.0 0.0 0.0 0.0 0.0 0.0 0.0 0.0 0.0 0.0 -1.1512442590619146e-26 -0.5442396572688689 -0.7673661111166267 -0.229354796466502 -1.3146049461972196e-11 0.0 -1.511583712148294e-25 -7.14586669994025 -7.145866699940251 -1.0424175499402515 -5.974879480466362e-11 0.0 4.163336342344337e-17 -1.570796314870016 1.5707963705062866 -1.570796314870016 -1.570796314870016 0.0 0.0 0.0 0.0 0.0 0.0 0.0 -1.151244268742903e-26 -0.5442396402359009 -0.7673661112785339 -0.22935479879379272 -1.3146049353263134e-11 0.0 -1.151244268742903e-26 -0.5442396402359009 -0.7673661112785339 -0.22935479879379272 -1.3146049353263134e-11 0.0 -0.2985999973554403 -0.11235000099231762 0.3136499823461779 2.2214412195942916 2.2214412191386654 6.515886891884208e-08 0.0 0.0 0.0 0.0 0.0 0.0 9.240738067961102e-07 3.4768818278582945e-07 4.253146293222052e-08 -2.8475662131755503e-08 6.147405365792544e-08 -2.6501511672992807e-15 -0.29859999998320197 -0.1123500000156699 0.31364999997695675 2.221441469306996 2.2214414688513706 4.556249894594308e-10 0.0 0.0 0.0 0.0 0.0 0.0
154222.12 4.163336342344337e-17 -1.5707963267948966 1.5707963267948966 -1.5707963267948966 -1.5707963267948966 0.0 0.0 0.0 0.0 0.0 0.0 0.0 0.0 0.0 0.0 0.0 0.0 0.0 -1.1512442590619146e-26 -0.5442396572688689 -0.7673661111166267 -0.229354796466502 -1.3146049461972196e-11 0.0 -1.511583712148294e-25 -7.14586669994025 -7.145866699940251 -1.0424175499402515 -5.974879480466362e-11 0.0 4.163336342344337e-17 -1.570796314870016 1.5707963705062866 -1.570796314870016 -1.570796314870016 0.0 0.0 0.0 0.0 0.0 0.0 0.0 -1.151244268742903e-26 -0.5442396402359009 -0.7673661112785339 -0.22935479879379272 -1.3146049353263134e-11 0.0 -1.151244268742903e-26 -0.5442396402359009 -0.7673661112785339 -0.22935479879379272 -1.3146049353263134e-11 0.0 -0.2985999973554403 -0.11235000099231762 0.3136499823461779 2.2214412195942916 2.2214412191386654 6.515886891884208e-08 0.0 0.0 0.0 0.0 0.0 0.0 9.240738067961102e-07 3.4768818278582945e-07 4.253146293222052e-08 -2.8475662131755503e-08 6.147405365792544e-08 -2.6501511672992807e-15 -0.29859999998320197 -0.1123500000156699 0.31364999997695675 2.221441469306996 2.2214414688513706 4.556249894594308e-10 0.0 0.0 0.0 0.0 0.0 0.0
154222.128 4.163336342344337e-17 -1.5707963267948966 1.5707963267948966 -1.5707963267948966 -1.5707963267948966 0.0 0.0 0.0 0.0 0.0 0.0 0.0 0.0 0.0 0.0 0.0 0.0 0.0 -1.1512442590619146e-26 -0.5442396572688689 -0.7673661111166267 -0.229354796466502 -1.3146049461972196e-11 0.0 -1.511583712148294e-25 -7.14586669994025 -7.145866699940251 -1.0424175499402515 -5.974879480466362e-11 0.0 4.163336342344337e-17 -1.570796314870016 1.5707963705062866 -1.570796314870016 -1.570796314870016 0.0 0.0 0.0 0.0 0.0 0.0 0.0 -1.151244268742903e-26 -0.5442396402359009 -0.7673661112785339 -0.22935479879379272 -1.3146049353263134e-11 0.0 -1.151244268742903e-26 -0.5442396402359009 -0.7673661112785339 -0.22935479879379272 -1.3146049353263134e-11 0.0 -0.2985999973554403 -0.11235000099231762 0.3136499823461779 2.2214412195942916 2.2214412191386654 6.515886891884208e-08 0.0 0.0 0.0 0.0 0.0 0.0 9.240738067961102e-07 3.4768818278582945e-07 4.253146293222052e-08 -2.8475662131755503e-08 6.147405365792544e-08 -2.6501511672992807e-15 -0.29859999998320197 -0.1123500000156699 0.31364999997695675 2.221441469306996 2.2214414688513706 4.556249894594308e-10 0.0 0.0 0.0 0.0 0.0 0.0
154222.136 4.163336342344337e-17 -1.5707963267948966 1.5707963267948966 -1.5707963267948966 -1.5707963267948966 0.0 0.0 0.0 0.0 0.0 0.0 0.0 0.0 0.0 0.0 0.0 0.0 0.0 -1.1512442590619146e-26 -0.5442396572688689 -0.7673661111166267 -0.229354796466502 -1.3146049461972196e-11 0.0 -1.511583712148294e-25 -7.14586669994025 -7.145866699940251 -1.0424175499402515 -5.974879480466362e-11 0.0 4.163336342344337e-17 -1.570796314870016 1.5707963705062866 -1.570796314870016 -1.570796314870016 0.0 0.0 0.0 0.0 0.0 0.0 0.0 -1.151244268742903e-26 -0.5442396402359009 -0.7673661112785339 -0.22935479879379272 -1.3146049353263134e-11 0.0 -1.151244268742903e-26 -0.5442396402359009 -0.7673661112785339 -0.22935479879379272 -1.3146049353263134e-11 0.0 -0.2985999973554403 -0.11235000099231762 0.3136499823461779 2.2214412195942916 2.2214412191386654 6.515886891884208e-08 0.0 0.0 0.0 0.0 0.0 0.0 9.240738067961102e-07 3.4768818278582945e-07 4.253146293222052e-08 -2.8475662131755503e-08 6.147405365792544e-08 -2.6501511672992807e-15 -0.29859999998320197 -0.1123500000156699 0.31364999997695675 2.221441469306996 2.2214414688513706 4.556249894594308e-10 0.0 0.0 0.0 0.0 0.0 0.0
154222.144 4.163336342344337e-17 -1.5707963267948966 1.5707963267948966 -1.5707963267948966 -1.5707963267948966 0.0 0.0 0.0 0.0 0.0 0.0 0.0 0.0 0.0 0.0 0.0 0.0 0.0 -1.1512442590619146e-26 -0.5442396572688689 -0.7673661111166267 -0.229354796466502 -1.3146049461972196e-11 0.0 -1.511583712148294e-25 -7.14586669994025 -7.145866699940251 -1.0424175499402515 -5.974879480466362e-11 0.0 4.163336342344337e-17 -1.570796314870016 1.5707963705062866 -1.570796314870016 -1.570796314870016 0.0 0.0 0.0 0.0 0.0 0.0 0.0 -1.151244268742903e-26 -0.5442396402359009 -0.7673661112785339 -0.22935479879379272 -1.3146049353263134e-11 0.0 -1.151244268742903e-26 -0.5442396402359009 -0.7673661112785339 -0.22935479879379272 -1.3146049353263134e-11 0.0 -0.2985999973554403 -0.11235000099231762 0.3136499823461779 2.2214412195942916 2.2214412191386654 6.515886891884208e-08 0.0 0.0 0.0 0.0 0.0 0.0 9.240738067961102e-07 3.4768818278582945e-07 4.253146293222052e-08 -2.8475662131755503e-08 6.147405365792544e-08 -2.6501511672992807e-15 -0.29859999998320197 -0.1123500000156699 0.31364999997695675 2.221441469306996 2.2214414688513706 4.556249894594308e-10 0.0 0.0 0.0 0.0 0.0 0.0
154222.152 4.163336342344337e-17 -1.5707963267948966 1.5707963267948966 -1.5707963267948966 -1.5707963267948966 0.0 0.0 0.0 0.0 0.0 0.0 0.0 0.0 0.0 0.0 0.0 0.0 0.0 -1.1512442590619146e-26 -0.5442396572688689 -0.7673661111166267 -0.229354796466502 -1.3146049461972196e-11 0.0 -1.511583712148294e-25 -7.14586669994025 -7.145866699940251 -1.0424175499402515 -5.974879480466362e-11 0.0 4.163336342344337e-17 -1.570796314870016 1.5707963705062866 -1.570796314870016 -1.570796314870016 0.0 0.0 0.0 0.0 0.0 0.0 0.0 -1.151244268742903e-26 -0.5442396402359009 -0.7673661112785339 -0.22935479879379272 -1.3146049353263134e-11 0.0 -1.151244268742903e-26 -0.5442396402359009 -0.7673661112785339 -0.22935479879379272 -1.3146049353263134e-11 0.0 -0.2985999973554403 -0.11235000099231762 0.3136499823461779 2.2214412195942916 2.2214412191386654 6.515886891884208e-08 0.0 0.0 0.0 0.0 0.0 0.0 9.240738067961102e-07 3.4768818278582945e-07 4.253146293222052e-08 -2.8475662131755503e-08 6.147405365792544e-08 -2.6501511672992807e-15 -0.29859999998320197 -0.1123500000156699 0.31364999997695675 2.221441469306996 2.2214414688513706 4.556249894594308e-10 0.0 0.0 0.0 0.0 0.0 0.0
154222.16 4.163336342344337e-17 -1.5707963267948966 1.5707963267948966 -1.5707963267948966 -1.5707963267948966 0.0 0.0 0.0 0.0 0.0 0.0 0.0 0.0 0.0 0.0 0.0 0.0 0.0 -1.1512442590619146e-26 -0.5442396572688689 -0.7673661111166267 -0.229354796466502 -1.3146049461972196e-11 0.0 -1.511583712148294e-25 -7.14586669994025 -7.145866699940251 -1.0424175499402515 -5.974879480466362e-11 0.0 4.163336342344337e-17 -1.570796314870016 1.5707963705062866 -1.570796314870016 -1.570796314870016 0.0 0.0 0.0 0.0 0.0 0.0 0.0 -1.151244268742903e-26 -0.5442396402359009 -0.7673661112785339 -0.22935479879379272 -1.3146049353263134e-11 0.0 -1.151244268742903e-26 -0.5442396402359009 -0.7673661112785339 -0.22935479879379272 -1.3146049353263134e-11 0.0 -0.2985999973554403 -0.11235000099231762 0.3136499823461779 2.2214412195942916 2.2214412191386654 6.515886891884208e-08 0.0 0.0 0.0 0.0 0.0 0.0 9.240738067961102e-07 3.4768818278582945e-07 4.253146293222052e-08 -2.8475662131755503e-08 6.147405365792544e-08 -2.6501511672992807e-15 -0.29859999998320197 -0.1123500000156699 0.31364999997695675 2.221441469306996 2.2214414688513706 4.556249894594308e-10 0.0 0.0 0.0 0.0 0.0 0.0
154222.168 4.163336342344337e-17 -1.5707963267948966 1.5707963267948966 -1.5707963267948966 -1.5707963267948966 0.0 0.0 0.0 0.0 0.0 0.0 0.0 0.0 0.0 0.0 0.0 0.0 0.0 -1.1512442590619146e-26 -0.5442396572688689 -0.7673661111166267 -0.229354796466502 -1.3146049461972196e-11 0.0 -1.511583712148294e-25 -7.14586669994025 -7.145866699940251 -1.0424175499402515 -5.974879480466362e-11 0.0 4.163336342344337e-17 -1.570796314870016 1.5707963705062866 -1.570796314870016 -1.570796314870016 0.0 0.0 0.0 0.0 0.0 0.0 0.0 -1.151244268742903e-26 -0.5442396402359009 -0.7673661112785339 -0.22935479879379272 -1.3146049353263134e-11 0.0 -1.151244268742903e-26 -0.5442396402359009 -0.7673661112785339 -0.22935479879379272 -1.3146049353263134e-11 0.0 -0.2985999973554403 -0.11235000099231762 0.3136499823461779 2.2214412195942916 2.2214412191386654 6.515886891884208e-08 0.0 0.0 0.0 0.0 0.0 0.0 9.240738067961102e-07 3.4768818278582945e-07 4.253146293222052e-08 -2.8475662131755503e-08 6.147405365792544e-08 -2.6501511672992807e-15 -0.29859999998320197 -0.1123500000156699 0.31364999997695675 2.221441469306996 2.2214414688513706 4.556249894594308e-10 0.0 0.0 0.0 0.0 0.0 0.0
154222.176 4.163336342344337e-17 -1.5707963267948966 1.5707963267948966 -1.5707963267948966 -1.5707963267948966 0.0 0.0 0.0 0.0 0.0 0.0 0.0 0.0 0.0 0.0 0.0 0.0 0.0 -1.1512442590619146e-26 -0.5442396572688689 -0.7673661111166267 -0.229354796466502 -1.3146049461972196e-11 0.0 -1.511583712148294e-25 -7.14586669994025 -7.145866699940251 -1.0424175499402515 -5.974879480466362e-11 0.0 4.163336342344337e-17 -1.570796314870016 1.5707963705062866 -1.570796314870016 -1.570796314870016 0.0 0.0 0.0 0.0 0.0 0.0 0.0 -1.151244268742903e-26 -0.5442396402359009 -0.7673661112785339 -0.22935479879379272 -1.3146049353263134e-11 0.0 -1.151244268742903e-26 -0.5442396402359009 -0.7673661112785339 -0.22935479879379272 -1.3146049353263134e-11 0.0 -0.2985999973554403 -0.11235000099231762 0.3136499823461779 2.2214412195942916 2.2214412191386654 6.515886891884208e-08 0.0 0.0 0.0 0.0 0.0 0.0 9.240738067961102e-07 3.4768818278582945e-07 4.253146293222052e-08 -2.8475662131755503e-08 6.147405365792544e-08 -2.6501511672992807e-15 -0.29859999998320197 -0.1123500000156699 0.31364999997695675 2.221441469306996 2.2214414688513706 4.556249894594308e-10 0.0 0.0 0.0 0.0 0.0 0.0
154222.18399999998 4.163336342344337e-17 -1.5707963267948966 1.5707963267948966 -1.5707963267948966 -1.5707963267948966 0.0 0.0 0.0 0.0 0.0 0.0 0.0 0.0 0.0 0.0 0.0 0.0 0.0 -1.1512442590619146e-26 -0.5442396572688689 -0.7673661111166267 -0.229354796466502 -1.3146049461972196e-11 0.0 -1.511583712148294e-25 -7.14586669994025 -7.145866699940251 -1.0424175499402515 -5.974879480466362e-11 0.0 4.163336342344337e-17 -1.570796314870016 1.5707963705062866 -1.570796314870016 -1.570796314870016 0.0 0.0 0.0 0.0 0.0 0.0 0.0 -1.151244268742903e-26 -0.5442396402359009 -0.7673661112785339 -0.22935479879379272 -1.3146049353263134e-11 0.0 -1.151244268742903e-26 -0.5442396402359009 -0.7673661112785339 -0.22935479879379272 -1.3146049353263134e-11 0.0 -0.2985999973554403 -0.11235000099231762 0.3136499823461779 2.2214412195942916 2.2214412191386654 6.515886891884208e-08 0.0 0.0 0.0 0.0 0.0 0.0 9.240738067961102e-07 3.4768818278582945e-07 4.253146293222052e-08 -2.8475662131755503e-08 6.147405365792544e-08 -2.6501511672992807e-15 -0.29859999998320197 -0.1123500000156699 0.31364999997695675 2.221441469306996 2.2214414688513706 4.556249894594308e-10 0.0 0.0 0.0 0.0 0.0 0.0
154222.19199999998 4.163336342344337e-17 -1.5707963267948966 1.5707963267948966 -1.5707963267948966 -1.5707963267948966 0.0 0.0 0.0 0.0 0.0 0.0 0.0 0.0 0.0 0.0 0.0 0.0 0.0 -1.1512442590619146e-26 -0.5442396572688689 -0.7673661111166267 -0.229354796466502 -1.3146049461972196e-11 0.0 -1.511583712148294e-25 -7.14586669994025 -7.145866699940251 -1.0424175499402515 -5.974879480466362e-11 0.0 4.163336342344337e-17 -1.570796314870016 1.5707963705062866 -1.570796314870016 -1.570796314870016 0.0 0.0 0.0 0.0 0.0 0.0 0.0 -1.151244268742903e-26 -0.5442396402359009 -0.7673661112785339 -0.22935479879379272 -1.3146049353263134e-11 0.0 -1.151244268742903e-26 -0.5442396402359009 -0.7673661112785339 -0.22935479879379272 -1.3146049353263134e-11 0.0 -0.2985999973554403 -0.11235000099231762 0.3136499823461779 2.2214412195942916 2.2214412191386654 6.515886891884208e-08 0.0 0.0 0.0 0.0 0.0 0.0 9.240738067961102e-07 3.4768818278582945e-07 4.253146293222052e-08 -2.8475662131755503e-08 6.147405365792544e-08 -2.6501511672992807e-15 -0.29859999998320197 -0.1123500000156699 0.31364999997695675 2.221441469306996 2.2214414688513706 4.556249894594308e-10 0.0 0.0 0.0 0.0 0.0 0.0
154222.19999999998 4.163336342344337e-17 -1.5707963267948966 1.5707963267948966 -1.5707963267948966 -1.5707963267948966 0.0 0.0 0.0 0.0 0.0 0.0 0.0 0.0 0.0 0.0 0.0 0.0 0.0 -1.1512442590619146e-26 -0.5442396572688689 -0.7673661111166267 -0.229354796466502 -1.3146049461972196e-11 0.0 -1.511583712148294e-25 -7.14586669994025 -7.145866699940251 -1.0424175499402515 -5.974879480466362e-11 0.0 4.163336342344337e-17 -1.570796314870016 1.5707963705062866 -1.570796314870016 -1.570796314870016 0.0 0.0 0.0 0.0 0.0 0.0 0.0 -1.151244268742903e-26 -0.5442396402359009 -0.7673661112785339 -0.22935479879379272 -1.3146049353263134e-11 0.0 -1.151244268742903e-26 -0.5442396402359009 -0.7673661112785339 -0.22935479879379272 -1.3146049353263134e-11 0.0 -0.2985999973554403 -0.11235000099231762 0.3136499823461779 2.2214412195942916 2.2214412191386654 6.515886891884208e-08 0.0 0.0 0.0 0.0 0.0 0.0 9.240738067961102e-07 3.4768818278582945e-07 4.253146293222052e-08 -2.8475662131755503e-08 6.147405365792544e-08 -2.6501511672992807e-15 -0.29859999998320197 -0.1123500000156699 0.31364999997695675 2.221441469306996 2.2214414688513706 4.556249894594308e-10 0.0 0.0 0.0 0.0 0.0 0.0
154222.20799999998 4.163336342344337e-17 -1.5707963267948966 1.5707963267948966 -1.5707963267948966 -1.5707963267948966 0.0 0.0 0.0 0.0 0.0 0.0 0.0 0.0 0.0 0.0 0.0 0.0 0.0 -1.1512442590619146e-26 -0.5442396572688689 -0.7673661111166267 -0.229354796466502 -1.3146049461972196e-11 0.0 -1.511583712148294e-25 -7.14586669994025 -7.145866699940251 -1.0424175499402515 -5.974879480466362e-11 0.0 4.163336342344337e-17 -1.570796314870016 1.5707963705062866 -1.570796314870016 -1.570796314870016 0.0 0.0 0.0 0.0 0.0 0.0 0.0 -1.151244268742903e-26 -0.5442396402359009 -0.7673661112785339 -0.22935479879379272 -1.3146049353263134e-11 0.0 -1.151244268742903e-26 -0.5442396402359009 -0.7673661112785339 -0.22935479879379272 -1.3146049353263134e-11 0.0 -0.2985999973554403 -0.11235000099231762 0.3136499823461779 2.2214412195942916 2.2214412191386654 6.515886891884208e-08 0.0 0.0 0.0 0.0 0.0 0.0 9.240738067961102e-07 3.4768818278582945e-07 4.253146293222052e-08 -2.8475662131755503e-08 6.147405365792544e-08 -2.6501511672992807e-15 -0.29859999998320197 -0.1123500000156699 0.31364999997695675 2.221441469306996 2.2214414688513706 4.556249894594308e-10 0.0 0.0 0.0 0.0 0.0 0.0
154222.216 4.163336342344337e-17 -1.5707963267948966 1.5707963267948966 -1.5707963267948966 -1.5707963267948966 0.0 0.0 0.0 0.0 0.0 0.0 0.0 0.0 0.0 0.0 0.0 0.0 0.0 -1.1512442590619146e-26 -0.5442396572688689 -0.7673661111166267 -0.229354796466502 -1.3146049461972196e-11 0.0 -1.511583712148294e-25 -7.14586669994025 -7.145866699940251 -1.0424175499402515 -5.974879480466362e-11 0.0 4.163336342344337e-17 -1.570796314870016 1.5707963705062866 -1.570796314870016 -1.570796314870016 0.0 0.0 0.0 0.0 0.0 0.0 0.0 -1.151244268742903e-26 -0.5442396402359009 -0.7673661112785339 -0.22935479879379272 -1.3146049353263134e-11 0.0 -1.151244268742903e-26 -0.5442396402359009 -0.7673661112785339 -0.22935479879379272 -1.3146049353263134e-11 0.0 -0.2985999973554403 -0.11235000099231762 0.3136499823461779 2.2214412195942916 2.2214412191386654 6.515886891884208e-08 0.0 0.0 0.0 0.0 0.0 0.0 9.240738067961102e-07 3.4768818278582945e-07 4.253146293222052e-08 -2.8475662131755503e-08 6.147405365792544e-08 -2.6501511672992807e-15 -0.29859999998320197 -0.1123500000156699 0.31364999997695675 2.221441469306996 2.2214414688513706 4.556249894594308e-10 0.0 0.0 0.0 0.0 0.0 0.0
154222.224 4.163336342344337e-17 -1.5707963267948966 1.5707963267948966 -1.5707963267948966 -1.5707963267948966 0.0 0.0 0.0 0.0 0.0 0.0 0.0 0.0 0.0 0.0 0.0 0.0 0.0 -1.1512442590619146e-26 -0.5442396572688689 -0.7673661111166267 -0.229354796466502 -1.3146049461972196e-11 0.0 -1.511583712148294e-25 -7.14586669994025 -7.145866699940251 -1.0424175499402515 -5.974879480466362e-11 0.0 4.163336342344337e-17 -1.570796314870016 1.5707963705062866 -1.570796314870016 -1.570796314870016 0.0 0.0 0.0 0.0 0.0 0.0 0.0 -1.151244268742903e-26 -0.5442396402359009 -0.7673661112785339 -0.22935479879379272 -1.3146049353263134e-11 0.0 -1.151244268742903e-26 -0.5442396402359009 -0.7673661112785339 -0.22935479879379272 -1.3146049353263134e-11 0.0 -0.2985999973554403 -0.11235000099231762 0.3136499823461779 2.2214412195942916 2.2214412191386654 6.515886891884208e-08 0.0 0.0 0.0 0.0 0.0 0.0 9.240738067961102e-07 3.4768818278582945e-07 4.253146293222052e-08 -2.8475662131755503e-08 6.147405365792544e-08 -2.6501511672992807e-15 -0.29859999998320197 -0.1123500000156699 0.31364999997695675 2.221441469306996 2.2214414688513706 4.556249894594308e-10 0.0 0.0 0.0 0.0 0.0 0.0
154222.232 4.163336342344337e-17 -1.5707963267948966 1.5707963267948966 -1.5707963267948966 -1.5707963267948966 0.0 0.0 0.0 0.0 0.0 0.0 0.0 0.0 0.0 0.0 0.0 0.0 0.0 -1.1512442590619146e-26 -0.5442396572688689 -0.7673661111166267 -0.229354796466502 -1.3146049461972196e-11 0.0 -1.511583712148294e-25 -7.14586669994025 -7.145866699940251 -1.0424175499402515 -5.974879480466362e-11 0.0 4.163336342344337e-17 -1.570796314870016 1.5707963705062866 -1.570796314870016 -1.570796314870016 0.0 0.0 0.0 0.0 0.0 0.0 0.0 -1.151244268742903e-26 -0.5442396402359009 -0.7673661112785339 -0.22935479879379272 -1.3146049353263134e-11 0.0 -1.151244268742903e-26 -0.5442396402359009 -0.7673661112785339 -0.22935479879379272 -1.3146049353263134e-11 0.0 -0.2985999973554403 -0.11235000099231762 0.3136499823461779 2.2214412195942916 2.2214412191386654 6.515886891884208e-08 0.0 0.0 0.0 0.0 0.0 0.0 9.240738067961102e-07 3.4768818278582945e-07 4.253146293222052e-08 -2.8475662131755503e-08 6.147405365792544e-08 -2.6501511672992807e-15 -0.29859999998320197 -0.1123500000156699 0.31364999997695675 2.221441469306996 2.2214414688513706 4.556249894594308e-10 0.0 0.0 0.0 0.0 0.0 0.0
154222.24 4.163336342344337e-17 -1.5707963267948966 1.5707963267948966 -1.5707963267948966 -1.5707963267948966 0.0 0.0 0.0 0.0 0.0 0.0 0.0 0.0 0.0 0.0 0.0 0.0 0.0 -1.1512442590619146e-26 -0.5442396572688689 -0.7673661111166267 -0.229354796466502 -1.3146049461972196e-11 0.0 -1.511583712148294e-25 -7.14586669994025 -7.145866699940251 -1.0424175499402515 -5.974879480466362e-11 0.0 4.163336342344337e-17 -1.570796314870016 1.5707963705062866 -1.570796314870016 -1.570796314870016 0.0 0.0 0.0 0.0 0.0 0.0 0.0 -1.151244268742903e-26 -0.5442396402359009 -0.7673661112785339 -0.22935479879379272 -1.3146049353263134e-11 0.0 -1.151244268742903e-26 -0.5442396402359009 -0.7673661112785339 -0.22935479879379272 -1.3146049353263134e-11 0.0 -0.2985999973554403 -0.11235000099231762 0.3136499823461779 2.2214412195942916 2.2214412191386654 6.515886891884208e-08 0.0 0.0 0.0 0.0 0.0 0.0 9.240738067961102e-07 3.4768818278582945e-07 4.253146293222052e-08 -2.8475662131755503e-08 6.147405365792544e-08 -2.6501511672992807e-15 -0.29859999998320197 -0.1123500000156699 0.31364999997695675 2.221441469306996 2.2214414688513706 4.556249894594308e-10 0.0 0.0 0.0 0.0 0.0 0.0
154222.248 4.163336342344337e-17 -1.5707963267948966 1.5707963267948966 -1.5707963267948966 -1.5707963267948966 0.0 0.0 0.0 0.0 0.0 0.0 0.0 0.0 0.0 0.0 0.0 0.0 0.0 -1.1512442590619146e-26 -0.5442396572688689 -0.7673661111166267 -0.229354796466502 -1.3146049461972196e-11 0.0 -1.511583712148294e-25 -7.14586669994025 -7.145866699940251 -1.0424175499402515 -5.974879480466362e-11 0.0 4.163336342344337e-17 -1.570796314870016 1.5707963705062866 -1.570796314870016 -1.570796314870016 0.0 0.0 0.0 0.0 0.0 0.0 0.0 -1.151244268742903e-26 -0.5442396402359009 -0.7673661112785339 -0.22935479879379272 -1.3146049353263134e-11 0.0 -1.151244268742903e-26 -0.5442396402359009 -0.7673661112785339 -0.22935479879379272 -1.3146049353263134e-11 0.0 -0.2985999973554403 -0.11235000099231762 0.3136499823461779 2.2214412195942916 2.2214412191386654 6.515886891884208e-08 0.0 0.0 0.0 0.0 0.0 0.0 9.240738067961102e-07 3.4768818278582945e-07 4.253146293222052e-08 -2.8475662131755503e-08 6.147405365792544e-08 -2.6501511672992807e-15 -0.29859999998320197 -0.1123500000156699 0.31364999997695675 2.221441469306996 2.2214414688513706 4.556249894594308e-10 0.0 0.0 0.0 0.0 0.0 0.0
154222.256 4.163336342344337e-17 -1.5707963267948966 1.5707963267948966 -1.5707963267948966 -1.5707963267948966 0.0 0.0 0.0 0.0 0.0 0.0 0.0 0.0 0.0 0.0 0.0 0.0 0.0 -1.1512442590619146e-26 -0.5442396572688689 -0.7673661111166267 -0.229354796466502 -1.3146049461972196e-11 0.0 -1.511583712148294e-25 -7.14586669994025 -7.145866699940251 -1.0424175499402515 -5.974879480466362e-11 0.0 4.163336342344337e-17 -1.570796314870016 1.5707963705062866 -1.570796314870016 -1.570796314870016 0.0 0.0 0.0 0.0 0.0 0.0 0.0 -1.151244268742903e-26 -0.5442396402359009 -0.7673661112785339 -0.22935479879379272 -1.3146049353263134e-11 0.0 -1.151244268742903e-26 -0.5442396402359009 -0.7673661112785339 -0.22935479879379272 -1.3146049353263134e-11 0.0 -0.2985999973554403 -0.11235000099231762 0.3136499823461779 2.2214412195942916 2.2214412191386654 6.515886891884208e-08 0.0 0.0 0.0 0.0 0.0 0.0 9.240738067961102e-07 3.4768818278582945e-07 4.253146293222052e-08 -2.8475662131755503e-08 6.147405365792544e-08 -2.6501511672992807e-15 -0.29859999998320197 -0.1123500000156699 0.31364999997695675 2.221441469306996 2.2214414688513706 4.556249894594308e-10 0.0 0.0 0.0 0.0 0.0 0.0
154222.264 4.163336342344337e-17 -1.5707963267948966 1.5707963267948966 -1.5707963267948966 -1.5707963267948966 0.0 0.0 0.0 0.0 0.0 0.0 0.0 0.0 0.0 0.0 0.0 0.0 0.0 -1.1512442590619146e-26 -0.5442396572688689 -0.7673661111166267 -0.229354796466502 -1.3146049461972196e-11 0.0 -1.511583712148294e-25 -7.14586669994025 -7.145866699940251 -1.0424175499402515 -5.974879480466362e-11 0.0 4.163336342344337e-17 -1.570796314870016 1.5707963705062866 -1.570796314870016 -1.570796314870016 0.0 0.0 0.0 0.0 0.0 0.0 0.0 -1.151244268742903e-26 -0.5442396402359009 -0.7673661112785339 -0.22935479879379272 -1.3146049353263134e-11 0.0 -1.151244268742903e-26 -0.5442396402359009 -0.7673661112785339 -0.22935479879379272 -1.3146049353263134e-11 0.0 -0.2985999973554403 -0.11235000099231762 0.3136499823461779 2.2214412195942916 2.2214412191386654 6.515886891884208e-08 0.0 0.0 0.0 0.0 0.0 0.0 9.240738067961102e-07 3.4768818278582945e-07 4.253146293222052e-08 -2.8475662131755503e-08 6.147405365792544e-08 -2.6501511672992807e-15 -0.29859999998320197 -0.1123500000156699 0.31364999997695675 2.221441469306996 2.2214414688513706 4.556249894594308e-10 0.0 0.0 0.0 0.0 0.0 0.0
154222.272 4.163336342344337e-17 -1.5707963267948966 1.5707963267948966 -1.5707963267948966 -1.5707963267948966 0.0 0.0 0.0 0.0 0.0 0.0 0.0 0.0 0.0 0.0 0.0 0.0 0.0 -1.1512442590619146e-26 -0.5442396572688689 -0.7673661111166267 -0.229354796466502 -1.3146049461972196e-11 0.0 -1.511583712148294e-25 -7.14586669994025 -7.145866699940251 -1.0424175499402515 -5.974879480466362e-11 0.0 4.163336342344337e-17 -1.570796314870016 1.5707963705062866 -1.570796314870016 -1.570796314870016 0.0 0.0 0.0 0.0 0.0 0.0 0.0 -1.151244268742903e-26 -0.5442396402359009 -0.7673661112785339 -0.22935479879379272 -1.3146049353263134e-11 0.0 -1.151244268742903e-26 -0.5442396402359009 -0.7673661112785339 -0.22935479879379272 -1.3146049353263134e-11 0.0 -0.2985999973554403 -0.11235000099231762 0.3136499823461779 2.2214412195942916 2.2214412191386654 6.515886891884208e-08 0.0 0.0 0.0 0.0 0.0 0.0 9.240738067961102e-07 3.4768818278582945e-07 4.253146293222052e-08 -2.8475662131755503e-08 6.147405365792544e-08 -2.6501511672992807e-15 -0.29859999998320197 -0.1123500000156699 0.31364999997695675 2.221441469306996 2.2214414688513706 4.556249894594308e-10 0.0 0.0 0.0 0.0 0.0 0.0
154222.28 4.163336342344337e-17 -1.5707963267948966 1.5707963267948966 -1.5707963267948966 -1.5707963267948966 0.0 0.0 0.0 0.0 0.0 0.0 0.0 0.0 0.0 0.0 0.0 0.0 0.0 -1.1512442590619146e-26 -0.5442396572688689 -0.7673661111166267 -0.229354796466502 -1.3146049461972196e-11 0.0 -1.511583712148294e-25 -7.14586669994025 -7.145866699940251 -1.0424175499402515 -5.974879480466362e-11 0.0 4.163336342344337e-17 -1.570796314870016 1.5707963705062866 -1.570796314870016 -1.570796314870016 0.0 0.0 0.0 0.0 0.0 0.0 0.0 -1.151244268742903e-26 -0.5442396402359009 -0.7673661112785339 -0.22935479879379272 -1.3146049353263134e-11 0.0 -1.151244268742903e-26 -0.5442396402359009 -0.7673661112785339 -0.22935479879379272 -1.3146049353263134e-11 0.0 -0.2985999973554403 -0.11235000099231762 0.3136499823461779 2.2214412195942916 2.2214412191386654 6.515886891884208e-08 0.0 0.0 0.0 0.0 0.0 0.0 9.240738067961102e-07 3.4768818278582945e-07 4.253146293222052e-08 -2.8475662131755503e-08 6.147405365792544e-08 -2.6501511672992807e-15 -0.29859999998320197 -0.1123500000156699 0.31364999997695675 2.221441469306996 2.2214414688513706 4.556249894594308e-10 0.0 0.0 0.0 0.0 0.0 0.0
154222.288 4.163336342344337e-17 -1.5707963267948966 1.5707963267948966 -1.5707963267948966 -1.5707963267948966 0.0 0.0 0.0 0.0 0.0 0.0 0.0 0.0 0.0 0.0 0.0 0.0 0.0 -1.1512442590619146e-26 -0.5442396572688689 -0.7673661111166267 -0.229354796466502 -1.3146049461972196e-11 0.0 -1.511583712148294e-25 -7.14586669994025 -7.145866699940251 -1.0424175499402515 -5.974879480466362e-11 0.0 4.163336342344337e-17 -1.570796314870016 1.5707963705062866 -1.570796314870016 -1.570796314870016 0.0 0.0 0.0 0.0 0.0 0.0 0.0 -1.151244268742903e-26 -0.5442396402359009 -0.7673661112785339 -0.22935479879379272 -1.3146049353263134e-11 0.0 -1.151244268742903e-26 -0.5442396402359009 -0.7673661112785339 -0.22935479879379272 -1.3146049353263134e-11 0.0 -0.2985999973554403 -0.11235000099231762 0.3136499823461779 2.2214412195942916 2.2214412191386654 6.515886891884208e-08 0.0 0.0 0.0 0.0 0.0 0.0 9.240738067961102e-07 3.4768818278582945e-07 4.253146293222052e-08 -2.8475662131755503e-08 6.147405365792544e-08 -2.6501511672992807e-15 -0.29859999998320197 -0.1123500000156699 0.31364999997695675 2.221441469306996 2.2214414688513706 4.556249894594308e-10 0.0 0.0 0.0 0.0 0.0 0.0
154222.296 4.163336342344337e-17 -1.5707963267948966 1.5707963267948966 -1.5707963267948966 -1.5707963267948966 0.0 0.0 0.0 0.0 0.0 0.0 0.0 0.0 0.0 0.0 0.0 0.0 0.0 -1.1512442590619146e-26 -0.5442396572688689 -0.7673661111166267 -0.229354796466502 -1.3146049461972196e-11 0.0 -1.511583712148294e-25 -7.14586669994025 -7.145866699940251 -1.0424175499402515 -5.974879480466362e-11 0.0 4.163336342344337e-17 -1.570796314870016 1.5707963705062866 -1.570796314870016 -1.570796314870016 0.0 0.0 0.0 0.0 0.0 0.0 0.0 -1.151244268742903e-26 -0.5442396402359009 -0.7673661112785339 -0.22935479879379272 -1.3146049353263134e-11 0.0 -1.151244268742903e-26 -0.5442396402359009 -0.7673661112785339 -0.22935479879379272 -1.3146049353263134e-11 0.0 -0.2985999973554403 -0.11235000099231762 0.3136499823461779 2.2214412195942916 2.2214412191386654 6.515886891884208e-08 0.0 0.0 0.0 0.0 0.0 0.0 9.240738067961102e-07 3.4768818278582945e-07 4.253146293222052e-08 -2.8475662131755503e-08 6.147405365792544e-08 -2.6501511672992807e-15 -0.29859999998320197 -0.1123500000156699 0.31364999997695675 2.221441469306996 2.2214414688513706 4.556249894594308e-10 0.0 0.0 0.0 0.0 0.0 0.0
154222.304 4.163336342344337e-17 -1.5707963267948966 1.5707963267948966 -1.5707963267948966 -1.5707963267948966 0.0 0.0 0.0 0.0 0.0 0.0 0.0 0.0 0.0 0.0 0.0 0.0 0.0 -1.1512442590619146e-26 -0.5442396572688689 -0.7673661111166267 -0.229354796466502 -1.3146049461972196e-11 0.0 -1.511583712148294e-25 -7.14586669994025 -7.145866699940251 -1.0424175499402515 -5.974879480466362e-11 0.0 4.163336342344337e-17 -1.570796314870016 1.5707963705062866 -1.570796314870016 -1.570796314870016 0.0 0.0 0.0 0.0 0.0 0.0 0.0 -1.151244268742903e-26 -0.5442396402359009 -0.7673661112785339 -0.22935479879379272 -1.3146049353263134e-11 0.0 -1.151244268742903e-26 -0.5442396402359009 -0.7673661112785339 -0.22935479879379272 -1.3146049353263134e-11 0.0 -0.2985999973554403 -0.11235000099231762 0.3136499823461779 2.2214412195942916 2.2214412191386654 6.515886891884208e-08 0.0 0.0 0.0 0.0 0.0 0.0 9.240738067961102e-07 3.4768818278582945e-07 4.253146293222052e-08 -2.8475662131755503e-08 6.147405365792544e-08 -2.6501511672992807e-15 -0.29859999998320197 -0.1123500000156699 0.31364999997695675 2.221441469306996 2.2214414688513706 4.556249894594308e-10 0.0 0.0 0.0 0.0 0.0 0.0
154222.312 4.163336342344337e-17 -1.5707963267948966 1.5707963267948966 -1.5707963267948966 -1.5707963267948966 0.0 0.0 0.0 0.0 0.0 0.0 0.0 0.0 0.0 0.0 0.0 0.0 0.0 -1.1512442590619146e-26 -0.5442396572688689 -0.7673661111166267 -0.229354796466502 -1.3146049461972196e-11 0.0 -1.511583712148294e-25 -7.14586669994025 -7.145866699940251 -1.0424175499402515 -5.974879480466362e-11 0.0 4.163336342344337e-17 -1.570796314870016 1.5707963705062866 -1.570796314870016 -1.570796314870016 0.0 0.0 0.0 0.0 0.0 0.0 0.0 -1.151244268742903e-26 -0.5442396402359009 -0.7673661112785339 -0.22935479879379272 -1.3146049353263134e-11 0.0 -1.151244268742903e-26 -0.5442396402359009 -0.7673661112785339 -0.22935479879379272 -1.3146049353263134e-11 0.0 -0.2985999973554403 -0.11235000099231762 0.3136499823461779 2.2214412195942916 2.2214412191386654 6.515886891884208e-08 0.0 0.0 0.0 0.0 0.0 0.0 9.240738067961102e-07 3.4768818278582945e-07 4.253146293222052e-08 -2.8475662131755503e-08 6.147405365792544e-08 -2.6501511672992807e-15 -0.29859999998320197 -0.1123500000156699 0.31364999997695675 2.221441469306996 2.2214414688513706 4.556249894594308e-10 0.0 0.0 0.0 0.0 0.0 0.0
154222.32 4.163336342344337e-17 -1.5707963267948966 1.5707963267948966 -1.5707963267948966 -1.5707963267948966 0.0 0.0 0.0 0.0 0.0 0.0 0.0 0.0 0.0 0.0 0.0 0.0 0.0 -1.1512442590619146e-26 -0.5442396572688689 -0.7673661111166267 -0.229354796466502 -1.3146049461972196e-11 0.0 -1.511583712148294e-25 -7.14586669994025 -7.145866699940251 -1.0424175499402515 -5.974879480466362e-11 0.0 4.163336342344337e-17 -1.570796314870016 1.5707963705062866 -1.570796314870016 -1.570796314870016 0.0 0.0 0.0 0.0 0.0 0.0 0.0 -1.151244268742903e-26 -0.5442396402359009 -0.7673661112785339 -0.22935479879379272 -1.3146049353263134e-11 0.0 -1.151244268742903e-26 -0.5442396402359009 -0.7673661112785339 -0.22935479879379272 -1.3146049353263134e-11 0.0 -0.2985999973554403 -0.11235000099231762 0.3136499823461779 2.2214412195942916 2.2214412191386654 6.515886891884208e-08 0.0 0.0 0.0 0.0 0.0 0.0 9.240738067961102e-07 3.4768818278582945e-07 4.253146293222052e-08 -2.8475662131755503e-08 6.147405365792544e-08 -2.6501511672992807e-15 -0.29859999998320197 -0.1123500000156699 0.31364999997695675 2.221441469306996 2.2214414688513706 4.556249894594308e-10 0.0 0.0 0.0 0.0 0.0 0.0
154222.32799999998 4.163336342344337e-17 -1.5707963267948966 1.5707963267948966 -1.5707963267948966 -1.5707963267948966 0.0 0.0 0.0 0.0 0.0 0.0 0.0 0.0 0.0 0.0 0.0 0.0 0.0 -1.1512442590619146e-26 -0.5442396572688689 -0.7673661111166267 -0.229354796466502 -1.3146049461972196e-11 0.0 -1.511583712148294e-25 -7.14586669994025 -7.145866699940251 -1.0424175499402515 -5.974879480466362e-11 0.0 4.163336342344337e-17 -1.570796314870016 1.5707963705062866 -1.570796314870016 -1.570796314870016 0.0 0.0 0.0 0.0 0.0 0.0 0.0 -1.151244268742903e-26 -0.5442396402359009 -0.7673661112785339 -0.22935479879379272 -1.3146049353263134e-11 0.0 -1.151244268742903e-26 -0.5442396402359009 -0.7673661112785339 -0.22935479879379272 -1.3146049353263134e-11 0.0 -0.2985999973554403 -0.11235000099231762 0.3136499823461779 2.2214412195942916 2.2214412191386654 6.515886891884208e-08 0.0 0.0 0.0 0.0 0.0 0.0 9.240738067961102e-07 3.4768818278582945e-07 4.253146293222052e-08 -2.8475662131755503e-08 6.147405365792544e-08 -2.6501511672992807e-15 -0.29859999998320197 -0.1123500000156699 0.31364999997695675 2.221441469306996 2.2214414688513706 4.556249894594308e-10 0.0 0.0 0.0 0.0 0.0 0.0
154222.33599999998 4.163336342344337e-17 -1.5707963267948966 1.5707963267948966 -1.5707963267948966 -1.5707963267948966 0.0 0.0 0.0 0.0 0.0 0.0 0.0 0.0 0.0 0.0 0.0 0.0 0.0 -1.1512442590619146e-26 -0.5442396572688689 -0.7673661111166267 -0.229354796466502 -1.3146049461972196e-11 0.0 -1.511583712148294e-25 -7.14586669994025 -7.145866699940251 -1.0424175499402515 -5.974879480466362e-11 0.0 4.163336342344337e-17 -1.570796314870016 1.5707963705062866 -1.570796314870016 -1.570796314870016 0.0 0.0 0.0 0.0 0.0 0.0 0.0 -1.151244268742903e-26 -0.5442396402359009 -0.7673661112785339 -0.22935479879379272 -1.3146049353263134e-11 0.0 -1.151244268742903e-26 -0.5442396402359009 -0.7673661112785339 -0.22935479879379272 -1.3146049353263134e-11 0.0 -0.2985999973554403 -0.11235000099231762 0.3136499823461779 2.2214412195942916 2.2214412191386654 6.515886891884208e-08 0.0 0.0 0.0 0.0 0.0 0.0 9.240738067961102e-07 3.4768818278582945e-07 4.253146293222052e-08 -2.8475662131755503e-08 6.147405365792544e-08 -2.6501511672992807e-15 -0.29859999998320197 -0.1123500000156699 0.31364999997695675 2.221441469306996 2.2214414688513706 4.556249894594308e-10 0.0 0.0 0.0 0.0 0.0 0.0
154222.34399999998 4.163336342344337e-17 -1.5707963267948966 1.5707963267948966 -1.5707963267948966 -1.5707963267948966 0.0 0.0 0.0 0.0 0.0 0.0 0.0 0.0 0.0 0.0 0.0 0.0 0.0 -1.1512442590619146e-26 -0.5442396572688689 -0.7673661111166267 -0.229354796466502 -1.3146049461972196e-11 0.0 -1.511583712148294e-25 -7.14586669994025 -7.145866699940251 -1.0424175499402515 -5.974879480466362e-11 0.0 4.163336342344337e-17 -1.570796314870016 1.5707963705062866 -1.570796314870016 -1.570796314870016 0.0 0.0 0.0 0.0 0.0 0.0 0.0 -1.151244268742903e-26 -0.5442396402359009 -0.7673661112785339 -0.22935479879379272 -1.3146049353263134e-11 0.0 -1.151244268742903e-26 -0.5442396402359009 -0.7673661112785339 -0.22935479879379272 -1.3146049353263134e-11 0.0 -0.2985999973554403 -0.11235000099231762 0.3136499823461779 2.2214412195942916 2.2214412191386654 6.515886891884208e-08 0.0 0.0 0.0 0.0 0.0 0.0 9.240738067961102e-07 3.4768818278582945e-07 4.253146293222052e-08 -2.8475662131755503e-08 6.147405365792544e-08 -2.6501511672992807e-15 -0.29859999998320197 -0.1123500000156699 0.31364999997695675 2.221441469306996 2.2214414688513706 4.556249894594308e-10 0.0 0.0 0.0 0.0 0.0 0.0
154222.35199999998 4.163336342344337e-17 -1.5707963267948966 1.5707963267948966 -1.5707963267948966 -1.5707963267948966 0.0 0.0 0.0 0.0 0.0 0.0 0.0 0.0 0.0 0.0 0.0 0.0 0.0 -1.1512442590619146e-26 -0.5442396572688689 -0.7673661111166267 -0.229354796466502 -1.3146049461972196e-11 0.0 -1.511583712148294e-25 -7.14586669994025 -7.145866699940251 -1.0424175499402515 -5.974879480466362e-11 0.0 4.163336342344337e-17 -1.570796314870016 1.5707963705062866 -1.570796314870016 -1.570796314870016 0.0 0.0 0.0 0.0 0.0 0.0 0.0 -1.151244268742903e-26 -0.5442396402359009 -0.7673661112785339 -0.22935479879379272 -1.3146049353263134e-11 0.0 -1.151244268742903e-26 -0.5442396402359009 -0.7673661112785339 -0.22935479879379272 -1.3146049353263134e-11 0.0 -0.2985999973554403 -0.11235000099231762 0.3136499823461779 2.2214412195942916 2.2214412191386654 6.515886891884208e-08 0.0 0.0 0.0 0.0 0.0 0.0 9.240738067961102e-07 3.4768818278582945e-07 4.253146293222052e-08 -2.8475662131755503e-08 6.147405365792544e-08 -2.6501511672992807e-15 -0.29859999998320197 -0.1123500000156699 0.31364999997695675 2.221441469306996 2.2214414688513706 4.556249894594308e-10 0.0 0.0 0.0 0.0 0.0 0.0
154222.36 4.163336342344337e-17 -1.5707963267948966 1.5707963267948966 -1.5707963267948966 -1.5707963267948966 0.0 0.0 0.0 0.0 0.0 0.0 0.0 0.0 0.0 0.0 0.0 0.0 0.0 -1.1512442590619146e-26 -0.5442396572688689 -0.7673661111166267 -0.229354796466502 -1.3146049461972196e-11 0.0 -1.511583712148294e-25 -7.14586669994025 -7.145866699940251 -1.0424175499402515 -5.974879480466362e-11 0.0 4.163336342344337e-17 -1.570796314870016 1.5707963705062866 -1.570796314870016 -1.570796314870016 0.0 0.0 0.0 0.0 0.0 0.0 0.0 -1.151244268742903e-26 -0.5442396402359009 -0.7673661112785339 -0.22935479879379272 -1.3146049353263134e-11 0.0 -1.151244268742903e-26 -0.5442396402359009 -0.7673661112785339 -0.22935479879379272 -1.3146049353263134e-11 0.0 -0.2985999973554403 -0.11235000099231762 0.3136499823461779 2.2214412195942916 2.2214412191386654 6.515886891884208e-08 0.0 0.0 0.0 0.0 0.0 0.0 9.240738067961102e-07 3.4768818278582945e-07 4.253146293222052e-08 -2.8475662131755503e-08 6.147405365792544e-08 -2.6501511672992807e-15 -0.29859999998320197 -0.1123500000156699 0.31364999997695675 2.221441469306996 2.2214414688513706 4.556249894594308e-10 0.0 0.0 0.0 0.0 0.0 0.0
154222.368 4.163336342344337e-17 -1.5707963267948966 1.5707963267948966 -1.5707963267948966 -1.5707963267948966 0.0 0.0 0.0 0.0 0.0 0.0 0.0 0.0 0.0 0.0 0.0 0.0 0.0 -1.1512442590619146e-26 -0.5442396572688689 -0.7673661111166267 -0.229354796466502 -1.3146049461972196e-11 0.0 -1.511583712148294e-25 -7.14586669994025 -7.145866699940251 -1.0424175499402515 -5.974879480466362e-11 0.0 4.163336342344337e-17 -1.570796314870016 1.5707963705062866 -1.570796314870016 -1.570796314870016 0.0 0.0 0.0 0.0 0.0 0.0 0.0 -1.151244268742903e-26 -0.5442396402359009 -0.7673661112785339 -0.22935479879379272 -1.3146049353263134e-11 0.0 -1.151244268742903e-26 -0.5442396402359009 -0.7673661112785339 -0.22935479879379272 -1.3146049353263134e-11 0.0 -0.2985999973554403 -0.11235000099231762 0.3136499823461779 2.2214412195942916 2.2214412191386654 6.515886891884208e-08 0.0 0.0 0.0 0.0 0.0 0.0 9.240738067961102e-07 3.4768818278582945e-07 4.253146293222052e-08 -2.8475662131755503e-08 6.147405365792544e-08 -2.6501511672992807e-15 -0.29859999998320197 -0.1123500000156699 0.31364999997695675 2.221441469306996 2.2214414688513706 4.556249894594308e-10 0.0 0.0 0.0 0.0 0.0 0.0
154222.376 4.163336342344337e-17 -1.5707963267948966 1.5707963267948966 -1.5707963267948966 -1.5707963267948966 0.0 0.0 0.0 0.0 0.0 0.0 0.0 0.0 0.0 0.0 0.0 0.0 0.0 -1.1512442590619146e-26 -0.5442396572688689 -0.7673661111166267 -0.229354796466502 -1.3146049461972196e-11 0.0 -1.511583712148294e-25 -7.14586669994025 -7.145866699940251 -1.0424175499402515 -5.974879480466362e-11 0.0 4.163336342344337e-17 -1.570796314870016 1.5707963705062866 -1.570796314870016 -1.570796314870016 0.0 0.0 0.0 0.0 0.0 0.0 0.0 -1.151244268742903e-26 -0.5442396402359009 -0.7673661112785339 -0.22935479879379272 -1.3146049353263134e-11 0.0 -1.151244268742903e-26 -0.5442396402359009 -0.7673661112785339 -0.22935479879379272 -1.3146049353263134e-11 0.0 -0.2985999973554403 -0.11235000099231762 0.3136499823461779 2.2214412195942916 2.2214412191386654 6.515886891884208e-08 0.0 0.0 0.0 0.0 0.0 0.0 9.240738067961102e-07 3.4768818278582945e-07 4.253146293222052e-08 -2.8475662131755503e-08 6.147405365792544e-08 -2.6501511672992807e-15 -0.29859999998320197 -0.1123500000156699 0.31364999997695675 2.221441469306996 2.2214414688513706 4.556249894594308e-10 0.0 0.0 0.0 0.0 0.0 0.0
154222.384 4.163336342344337e-17 -1.5707963267948966 1.5707963267948966 -1.5707963267948966 -1.5707963267948966 0.0 0.0 0.0 0.0 0.0 0.0 0.0 0.0 0.0 0.0 0.0 0.0 0.0 -1.1512442590619146e-26 -0.5442396572688689 -0.7673661111166267 -0.229354796466502 -1.3146049461972196e-11 0.0 -1.511583712148294e-25 -7.14586669994025 -7.145866699940251 -1.0424175499402515 -5.974879480466362e-11 0.0 4.163336342344337e-17 -1.570796314870016 1.5707963705062866 -1.570796314870016 -1.570796314870016 0.0 0.0 0.0 0.0 0.0 0.0 0.0 -1.151244268742903e-26 -0.5442396402359009 -0.7673661112785339 -0.22935479879379272 -1.3146049353263134e-11 0.0 -1.151244268742903e-26 -0.5442396402359009 -0.7673661112785339 -0.22935479879379272 -1.3146049353263134e-11 0.0 -0.2985999973554403 -0.11235000099231762 0.3136499823461779 2.2214412195942916 2.2214412191386654 6.515886891884208e-08 0.0 0.0 0.0 0.0 0.0 0.0 9.240738067961102e-07 3.4768818278582945e-07 4.253146293222052e-08 -2.8475662131755503e-08 6.147405365792544e-08 -2.6501511672992807e-15 -0.29859999998320197 -0.1123500000156699 0.31364999997695675 2.221441469306996 2.2214414688513706 4.556249894594308e-10 0.0 0.0 0.0 0.0 0.0 0.0
154222.392 4.163336342344337e-17 -1.5707963267948966 1.5707963267948966 -1.5707963267948966 -1.5707963267948966 0.0 0.0 0.0 0.0 0.0 0.0 0.0 0.0 0.0 0.0 0.0 0.0 0.0 -1.1512442590619146e-26 -0.5442396572688689 -0.7673661111166267 -0.229354796466502 -1.3146049461972196e-11 0.0 -1.511583712148294e-25 -7.14586669994025 -7.145866699940251 -1.0424175499402515 -5.974879480466362e-11 0.0 4.163336342344337e-17 -1.570796314870016 1.5707963705062866 -1.570796314870016 -1.570796314870016 0.0 0.0 0.0 0.0 0.0 0.0 0.0 -1.151244268742903e-26 -0.5442396402359009 -0.7673661112785339 -0.22935479879379272 -1.3146049353263134e-11 0.0 -1.151244268742903e-26 -0.5442396402359009 -0.7673661112785339 -0.22935479879379272 -1.3146049353263134e-11 0.0 -0.2985999973554403 -0.11235000099231762 0.3136499823461779 2.2214412195942916 2.2214412191386654 6.515886891884208e-08 0.0 0.0 0.0 0.0 0.0 0.0 9.240738067961102e-07 3.4768818278582945e-07 4.253146293222052e-08 -2.8475662131755503e-08 6.147405365792544e-08 -2.6501511672992807e-15 -0.29859999998320197 -0.1123500000156699 0.31364999997695675 2.221441469306996 2.2214414688513706 4.556249894594308e-10 0.0 0.0 0.0 0.0 0.0 0.0
154222.4 4.163336342344337e-17 -1.5707963267948966 1.5707963267948966 -1.5707963267948966 -1.5707963267948966 0.0 0.0 0.0 0.0 0.0 0.0 0.0 0.0 0.0 0.0 0.0 0.0 0.0 -1.1512442590619146e-26 -0.5442396572688689 -0.7673661111166267 -0.229354796466502 -1.3146049461972196e-11 0.0 -1.511583712148294e-25 -7.14586669994025 -7.145866699940251 -1.0424175499402515 -5.974879480466362e-11 0.0 4.163336342344337e-17 -1.570796314870016 1.5707963705062866 -1.570796314870016 -1.570796314870016 0.0 0.0 0.0 0.0 0.0 0.0 0.0 -1.151244268742903e-26 -0.5442396402359009 -0.7673661112785339 -0.22935479879379272 -1.3146049353263134e-11 0.0 -1.151244268742903e-26 -0.5442396402359009 -0.7673661112785339 -0.22935479879379272 -1.3146049353263134e-11 0.0 -0.2985999973554403 -0.11235000099231762 0.3136499823461779 2.2214412195942916 2.2214412191386654 6.515886891884208e-08 0.0 0.0 0.0 0.0 0.0 0.0 9.240738067961102e-07 3.4768818278582945e-07 4.253146293222052e-08 -2.8475662131755503e-08 6.147405365792544e-08 -2.6501511672992807e-15 -0.29859999998320197 -0.1123500000156699 0.31364999997695675 2.221441469306996 2.2214414688513706 4.556249894594308e-10 0.0 0.0 0.0 0.0 0.0 0.0
154222.408 4.163336342344337e-17 -1.5707963267948966 1.5707963267948966 -1.5707963267948966 -1.5707963267948966 0.0 0.0 0.0 0.0 0.0 0.0 0.0 0.0 0.0 0.0 0.0 0.0 0.0 -1.1512442590619146e-26 -0.5442396572688689 -0.7673661111166267 -0.229354796466502 -1.3146049461972196e-11 0.0 -1.511583712148294e-25 -7.14586669994025 -7.145866699940251 -1.0424175499402515 -5.974879480466362e-11 0.0 4.163336342344337e-17 -1.570796314870016 1.5707963705062866 -1.570796314870016 -1.570796314870016 0.0 0.0 0.0 0.0 0.0 0.0 0.0 -1.151244268742903e-26 -0.5442396402359009 -0.7673661112785339 -0.22935479879379272 -1.3146049353263134e-11 0.0 -1.151244268742903e-26 -0.5442396402359009 -0.7673661112785339 -0.22935479879379272 -1.3146049353263134e-11 0.0 -0.2985999973554403 -0.11235000099231762 0.3136499823461779 2.2214412195942916 2.2214412191386654 6.515886891884208e-08 0.0 0.0 0.0 0.0 0.0 0.0 9.240738067961102e-07 3.4768818278582945e-07 4.253146293222052e-08 -2.8475662131755503e-08 6.147405365792544e-08 -2.6501511672992807e-15 -0.29859999998320197 -0.1123500000156699 0.31364999997695675 2.221441469306996 2.2214414688513706 4.556249894594308e-10 0.0 0.0 0.0 0.0 0.0 0.0
154222.416 4.163336342344337e-17 -1.5707963267948966 1.5707963267948966 -1.5707963267948966 -1.5707963267948966 0.0 0.0 0.0 0.0 0.0 0.0 0.0 0.0 0.0 0.0 0.0 0.0 0.0 -1.1512442590619146e-26 -0.5442396572688689 -0.7673661111166267 -0.229354796466502 -1.3146049461972196e-11 0.0 -1.511583712148294e-25 -7.14586669994025 -7.145866699940251 -1.0424175499402515 -5.974879480466362e-11 0.0 4.163336342344337e-17 -1.570796314870016 1.5707963705062866 -1.570796314870016 -1.570796314870016 0.0 0.0 0.0 0.0 0.0 0.0 0.0 -1.151244268742903e-26 -0.5442396402359009 -0.7673661112785339 -0.22935479879379272 -1.3146049353263134e-11 0.0 -1.151244268742903e-26 -0.5442396402359009 -0.7673661112785339 -0.22935479879379272 -1.3146049353263134e-11 0.0 -0.2985999973554403 -0.11235000099231762 0.3136499823461779 2.2214412195942916 2.2214412191386654 6.515886891884208e-08 0.0 0.0 0.0 0.0 0.0 0.0 9.240738067961102e-07 3.4768818278582945e-07 4.253146293222052e-08 -2.8475662131755503e-08 6.147405365792544e-08 -2.6501511672992807e-15 -0.29859999998320197 -0.1123500000156699 0.31364999997695675 2.221441469306996 2.2214414688513706 4.556249894594308e-10 0.0 0.0 0.0 0.0 0.0 0.0
154222.424 4.163336342344337e-17 -1.5707963267948966 1.5707963267948966 -1.5707963267948966 -1.5707963267948966 0.0 0.0 0.0 0.0 0.0 0.0 0.0 0.0 0.0 0.0 0.0 0.0 0.0 -1.1512442590619146e-26 -0.5442396572688689 -0.7673661111166267 -0.229354796466502 -1.3146049461972196e-11 0.0 -1.511583712148294e-25 -7.14586669994025 -7.145866699940251 -1.0424175499402515 -5.974879480466362e-11 0.0 4.163336342344337e-17 -1.570796314870016 1.5707963705062866 -1.570796314870016 -1.570796314870016 0.0 0.0 0.0 0.0 0.0 0.0 0.0 -1.151244268742903e-26 -0.5442396402359009 -0.7673661112785339 -0.22935479879379272 -1.3146049353263134e-11 0.0 -1.151244268742903e-26 -0.5442396402359009 -0.7673661112785339 -0.22935479879379272 -1.3146049353263134e-11 0.0 -0.2985999973554403 -0.11235000099231762 0.3136499823461779 2.2214412195942916 2.2214412191386654 6.515886891884208e-08 0.0 0.0 0.0 0.0 0.0 0.0 9.240738067961102e-07 3.4768818278582945e-07 4.253146293222052e-08 -2.8475662131755503e-08 6.147405365792544e-08 -2.6501511672992807e-15 -0.29859999998320197 -0.1123500000156699 0.31364999997695675 2.221441469306996 2.2214414688513706 4.556249894594308e-10 0.0 0.0 0.0 0.0 0.0 0.0
154222.432 4.163336342344337e-17 -1.5707963267948966 1.5707963267948966 -1.5707963267948966 -1.5707963267948966 0.0 0.0 0.0 0.0 0.0 0.0 0.0 0.0 0.0 0.0 0.0 0.0 0.0 -1.1512442590619146e-26 -0.5442396572688689 -0.7673661111166267 -0.229354796466502 -1.3146049461972196e-11 0.0 -1.511583712148294e-25 -7.14586669994025 -7.145866699940251 -1.0424175499402515 -5.974879480466362e-11 0.0 4.163336342344337e-17 -1.570796314870016 1.5707963705062866 -1.570796314870016 -1.570796314870016 0.0 0.0 0.0 0.0 0.0 0.0 0.0 -1.151244268742903e-26 -0.5442396402359009 -0.7673661112785339 -0.22935479879379272 -1.3146049353263134e-11 0.0 -1.151244268742903e-26 -0.5442396402359009 -0.7673661112785339 -0.22935479879379272 -1.3146049353263134e-11 0.0 -0.2985999973554403 -0.11235000099231762 0.3136499823461779 2.2214412195942916 2.2214412191386654 6.515886891884208e-08 0.0 0.0 0.0 0.0 0.0 0.0 9.240738067961102e-07 3.4768818278582945e-07 4.253146293222052e-08 -2.8475662131755503e-08 6.147405365792544e-08 -2.6501511672992807e-15 -0.29859999998320197 -0.1123500000156699 0.31364999997695675 2.221441469306996 2.2214414688513706 4.556249894594308e-10 0.0 0.0 0.0 0.0 0.0 0.0
154222.44 4.163336342344337e-17 -1.5707963267948966 1.5707963267948966 -1.5707963267948966 -1.5707963267948966 0.0 0.0 0.0 0.0 0.0 0.0 0.0 0.0 0.0 0.0 0.0 0.0 0.0 -1.1512442590619146e-26 -0.5442396572688689 -0.7673661111166267 -0.229354796466502 -1.3146049461972196e-11 0.0 -1.511583712148294e-25 -7.14586669994025 -7.145866699940251 -1.0424175499402515 -5.974879480466362e-11 0.0 4.163336342344337e-17 -1.570796314870016 1.5707963705062866 -1.570796314870016 -1.570796314870016 0.0 0.0 0.0 0.0 0.0 0.0 0.0 -1.151244268742903e-26 -0.5442396402359009 -0.7673661112785339 -0.22935479879379272 -1.3146049353263134e-11 0.0 -1.151244268742903e-26 -0.5442396402359009 -0.7673661112785339 -0.22935479879379272 -1.3146049353263134e-11 0.0 -0.2985999973554403 -0.11235000099231762 0.3136499823461779 2.2214412195942916 2.2214412191386654 6.515886891884208e-08 0.0 0.0 0.0 0.0 0.0 0.0 9.240738067961102e-07 3.4768818278582945e-07 4.253146293222052e-08 -2.8475662131755503e-08 6.147405365792544e-08 -2.6501511672992807e-15 -0.29859999998320197 -0.1123500000156699 0.31364999997695675 2.221441469306996 2.2214414688513706 4.556249894594308e-10 0.0 0.0 0.0 0.0 0.0 0.0
154222.448 4.163336342344337e-17 -1.5707963267948966 1.5707963267948966 -1.5707963267948966 -1.5707963267948966 0.0 0.0 0.0 0.0 0.0 0.0 0.0 0.0 0.0 0.0 0.0 0.0 0.0 -1.1512442590619146e-26 -0.5442396572688689 -0.7673661111166267 -0.229354796466502 -1.3146049461972196e-11 0.0 -1.511583712148294e-25 -7.14586669994025 -7.145866699940251 -1.0424175499402515 -5.974879480466362e-11 0.0 4.163336342344337e-17 -1.570796314870016 1.5707963705062866 -1.570796314870016 -1.570796314870016 0.0 0.0 0.0 0.0 0.0 0.0 0.0 -1.151244268742903e-26 -0.5442396402359009 -0.7673661112785339 -0.22935479879379272 -1.3146049353263134e-11 0.0 -1.151244268742903e-26 -0.5442396402359009 -0.7673661112785339 -0.22935479879379272 -1.3146049353263134e-11 0.0 -0.2985999973554403 -0.11235000099231762 0.3136499823461779 2.2214412195942916 2.2214412191386654 6.515886891884208e-08 0.0 0.0 0.0 0.0 0.0 0.0 9.240738067961102e-07 3.4768818278582945e-07 4.253146293222052e-08 -2.8475662131755503e-08 6.147405365792544e-08 -2.6501511672992807e-15 -0.29859999998320197 -0.1123500000156699 0.31364999997695675 2.221441469306996 2.2214414688513706 4.556249894594308e-10 0.0 0.0 0.0 0.0 0.0 0.0
154222.456 4.163336342344337e-17 -1.5707963267948966 1.5707963267948966 -1.5707963267948966 -1.5707963267948966 0.0 0.0 0.0 0.0 0.0 0.0 0.0 0.0 0.0 0.0 0.0 0.0 0.0 -1.1512442590619146e-26 -0.5442396572688689 -0.7673661111166267 -0.229354796466502 -1.3146049461972196e-11 0.0 -1.511583712148294e-25 -7.14586669994025 -7.145866699940251 -1.0424175499402515 -5.974879480466362e-11 0.0 4.163336342344337e-17 -1.570796314870016 1.5707963705062866 -1.570796314870016 -1.570796314870016 0.0 0.0 0.0 0.0 0.0 0.0 0.0 -1.151244268742903e-26 -0.5442396402359009 -0.7673661112785339 -0.22935479879379272 -1.3146049353263134e-11 0.0 -1.151244268742903e-26 -0.5442396402359009 -0.7673661112785339 -0.22935479879379272 -1.3146049353263134e-11 0.0 -0.2985999973554403 -0.11235000099231762 0.3136499823461779 2.2214412195942916 2.2214412191386654 6.515886891884208e-08 0.0 0.0 0.0 0.0 0.0 0.0 9.240738067961102e-07 3.4768818278582945e-07 4.253146293222052e-08 -2.8475662131755503e-08 6.147405365792544e-08 -2.6501511672992807e-15 -0.29859999998320197 -0.1123500000156699 0.31364999997695675 2.221441469306996 2.2214414688513706 4.556249894594308e-10 0.0 0.0 0.0 0.0 0.0 0.0
154222.464 4.163336342344337e-17 -1.5707963267948966 1.5707963267948966 -1.5707963267948966 -1.5707963267948966 0.0 0.0 0.0 0.0 0.0 0.0 0.0 0.0 0.0 0.0 0.0 0.0 0.0 -1.1512442590619146e-26 -0.5442396572688689 -0.7673661111166267 -0.229354796466502 -1.3146049461972196e-11 0.0 -1.511583712148294e-25 -7.14586669994025 -7.145866699940251 -1.0424175499402515 -5.974879480466362e-11 0.0 4.163336342344337e-17 -1.570796314870016 1.5707963705062866 -1.570796314870016 -1.570796314870016 0.0 0.0 0.0 0.0 0.0 0.0 0.0 -1.151244268742903e-26 -0.5442396402359009 -0.7673661112785339 -0.22935479879379272 -1.3146049353263134e-11 0.0 -1.151244268742903e-26 -0.5442396402359009 -0.7673661112785339 -0.22935479879379272 -1.3146049353263134e-11 0.0 -0.2985999973554403 -0.11235000099231762 0.3136499823461779 2.2214412195942916 2.2214412191386654 6.515886891884208e-08 0.0 0.0 0.0 0.0 0.0 0.0 9.240738067961102e-07 3.4768818278582945e-07 4.253146293222052e-08 -2.8475662131755503e-08 6.147405365792544e-08 -2.6501511672992807e-15 -0.29859999998320197 -0.1123500000156699 0.31364999997695675 2.221441469306996 2.2214414688513706 4.556249894594308e-10 0.0 0.0 0.0 0.0 0.0 0.0
154222.47199999998 4.163336342344337e-17 -1.5707963267948966 1.5707963267948966 -1.5707963267948966 -1.5707963267948966 0.0 0.0 0.0 0.0 0.0 0.0 0.0 0.0 0.0 0.0 0.0 0.0 0.0 -1.1512442590619146e-26 -0.5442396572688689 -0.7673661111166267 -0.229354796466502 -1.3146049461972196e-11 0.0 -1.511583712148294e-25 -7.14586669994025 -7.145866699940251 -1.0424175499402515 -5.974879480466362e-11 0.0 4.163336342344337e-17 -1.570796314870016 1.5707963705062866 -1.570796314870016 -1.570796314870016 0.0 0.0 0.0 0.0 0.0 0.0 0.0 -1.151244268742903e-26 -0.5442396402359009 -0.7673661112785339 -0.22935479879379272 -1.3146049353263134e-11 0.0 -1.151244268742903e-26 -0.5442396402359009 -0.7673661112785339 -0.22935479879379272 -1.3146049353263134e-11 0.0 -0.2985999973554403 -0.11235000099231762 0.3136499823461779 2.2214412195942916 2.2214412191386654 6.515886891884208e-08 0.0 0.0 0.0 0.0 0.0 0.0 9.240738067961102e-07 3.4768818278582945e-07 4.253146293222052e-08 -2.8475662131755503e-08 6.147405365792544e-08 -2.6501511672992807e-15 -0.29859999998320197 -0.1123500000156699 0.31364999997695675 2.221441469306996 2.2214414688513706 4.556249894594308e-10 0.0 0.0 0.0 0.0 0.0 0.0
154222.47999999998 4.163336342344337e-17 -1.5707963267948966 1.5707963267948966 -1.5707963267948966 -1.5707963267948966 0.0 0.0 0.0 0.0 0.0 0.0 0.0 0.0 0.0 0.0 0.0 0.0 0.0 -1.1512442590619146e-26 -0.5442396572688689 -0.7673661111166267 -0.229354796466502 -1.3146049461972196e-11 0.0 -1.511583712148294e-25 -7.14586669994025 -7.145866699940251 -1.0424175499402515 -5.974879480466362e-11 0.0 4.163336342344337e-17 -1.570796314870016 1.5707963705062866 -1.570796314870016 -1.570796314870016 0.0 0.0 0.0 0.0 0.0 0.0 0.0 -1.151244268742903e-26 -0.5442396402359009 -0.7673661112785339 -0.22935479879379272 -1.3146049353263134e-11 0.0 -1.151244268742903e-26 -0.5442396402359009 -0.7673661112785339 -0.22935479879379272 -1.3146049353263134e-11 0.0 -0.2985999973554403 -0.11235000099231762 0.3136499823461779 2.2214412195942916 2.2214412191386654 6.515886891884208e-08 0.0 0.0 0.0 0.0 0.0 0.0 9.240738067961102e-07 3.4768818278582945e-07 4.253146293222052e-08 -2.8475662131755503e-08 6.147405365792544e-08 -2.6501511672992807e-15 -0.29859999998320197 -0.1123500000156699 0.31364999997695675 2.221441469306996 2.2214414688513706 4.556249894594308e-10 0.0 0.0 0.0 0.0 0.0 0.0
154222.48799999998 4.163336342344337e-17 -1.5707963267948966 1.5707963267948966 -1.5707963267948966 -1.5707963267948966 0.0 0.0 0.0 0.0 0.0 0.0 0.0 0.0 0.0 0.0 0.0 0.0 0.0 -1.1512442590619146e-26 -0.5442396572688689 -0.7673661111166267 -0.229354796466502 -1.3146049461972196e-11 0.0 -1.511583712148294e-25 -7.14586669994025 -7.145866699940251 -1.0424175499402515 -5.974879480466362e-11 0.0 4.163336342344337e-17 -1.570796314870016 1.5707963705062866 -1.570796314870016 -1.570796314870016 0.0 0.0 0.0 0.0 0.0 0.0 0.0 -1.151244268742903e-26 -0.5442396402359009 -0.7673661112785339 -0.22935479879379272 -1.3146049353263134e-11 0.0 -1.151244268742903e-26 -0.5442396402359009 -0.7673661112785339 -0.22935479879379272 -1.3146049353263134e-11 0.0 -0.2985999973554403 -0.11235000099231762 0.3136499823461779 2.2214412195942916 2.2214412191386654 6.515886891884208e-08 0.0 0.0 0.0 0.0 0.0 0.0 9.240738067961102e-07 3.4768818278582945e-07 4.253146293222052e-08 -2.8475662131755503e-08 6.147405365792544e-08 -2.6501511672992807e-15 -0.29859999998320197 -0.1123500000156699 0.31364999997695675 2.221441469306996 2.2214414688513706 4.556249894594308e-10 0.0 0.0 0.0 0.0 0.0 0.0
