mkrssg/UniversalRobots/rtde_client_3.5/examples/falscheWerte da mit movel/q1_0-90.csv
timestamp target_q_0 target_q_1 target_q_2 target_q_3 target_q_4 target_q_5 target_qd_0 target_qd_1 target_qd_2 target_qd_3 target_qd_4 target_qd_5 target_qdd_0 target_qdd_1 target_qdd_2 target_qdd_3 target_qdd_4 target_qdd_5 target_current_0 target_current_1 target_current_2 target_current_3 target_current_4 target_current_5 target_moment_0 target_moment_1 target_moment_2 target_moment_3 target_moment_4 target_moment_5 actual_q_0 actual_q_1 actual_q_2 actual_q_3 actual_q_4 actual_q_5 actual_qd_0 actual_qd_1 actual_qd_2 actual_qd_3 actual_qd_4 actual_qd_5 actual_current_0 actual_current_1 actual_current_2 actual_current_3 actual_current_4 actual_current_5 joint_control_output_0 joint_control_output_1 joint_control_output_2 joint_control_output_3 joint_control_output_4 joint_control_output_5 actual_TCP_pose_0 actual_TCP_pose_1 actual_TCP_pose_2 actual_TCP_pose_3 actual_TCP_pose_4 actual_TCP_pose_5 actual_TCP_speed_0 actual_TCP_speed_1 actual_TCP_speed_2 actual_TCP_speed_3 actual_TCP_speed_4 actual_TCP_speed_5 actual_TCP_force_0 actual_TCP_force_1 actual_TCP_force_2 actual_TCP_force_3 actual_TCP_force_4 actual_TCP_force_5 target_TCP_pose_0 target_TCP_pose_1 target_TCP_pose_2 target_TCP_pose_3 target_TCP_pose_4 target_TCP_pose_5 target_TCP_speed_0 target_TCP_speed_1 target_TCP_speed_2 target_TCP_speed_3 target_TCP_speed_4 target_TCP_speed_5
153918.304 1.2706849461530112e-16 -1.5707963267948966 1.5707963267948966 -1.5707963267948966 -1.5707963267948966 0.0 0.0 0.0 0.0 0.0 0.0 0.0 0.0 0.0 0.0 0.0 0.0 0.0 -1.1512442590619146e-26 -0.5442396572688689 -0.7673661111166267 -0.229354796466502 -1.3146049461972196e-11 0.0 -1.511583712148294e-25 -7.14586669994025 -7.145866699940251 -1.0424175499402515 -5.974879480466362e-11 0.0 1.2706849461530112e-16 -1.570796314870016 1.5707963705062866 -1.570796314870016 -1.570796314870016 0.0 0.0 0.0 0.0 0.0 0.0 0.0 -1.151244268742903e-26 -0.5442396402359009 -0.7673661112785339 -0.22935479879379272 -1.3146049353263134e-11 0.0 -1.151244268742903e-26 -0.5442396402359009 -0.7673661112785339 -0.22935479879379272 -1.3146049353263134e-11 0.0 -0.29859999735544024 -0.11235000099231765 0.3136499823461779 2.2214412195942916 2.2214412191386654 6.515886891884209e-08 0.0 0.0 0.0 0.0 0.0 0.0 9.240738067961098e-07 3.476881827858292e-07 4.2531462932220706e-08 -2.8475662131755503e-08 6.147405365792545e-08 -2.650151219200386e-15 -0.29859999998320197 -0.11235000001566994 0.31364999997695675 2.2214414693069955 2.2214414688513706 4.556249894594308e-10 0.0 0.0 0.0 0.0 0.0 0.0
153918.312 1.2706849461530112e-16 -1.5707963267948966 1.5707963267948966 -1.5707963267948966 -1.5707963267948966 0.0 0.0 0.0 0.0 0.0 0.0 0.0 0.0 0.0 0.0 0.0 0.0 0.0 -1.1512442590619146e-26 -0.5442396572688689 -0.7673661111166267 -0.229354796466502 -1.3146049461972196e-11 0.0 -1.511583712148294e-25 -7.14586669994025 -7.145866699940251 -1.0424175499402515 -5.974879480466362e-11 0.0 1.2706849461530112e-16 -1.570796314870016 1.5707963705062866 -1.570796314870016 -1.570796314870016 0.0 0.0 0.0 0.0 0.0 0.0 0.0 -1.151244268742903e-26 -0.5442396402359009 -0.7673661112785339 -0.22935479879379272 -1.3146049353263134e-11 0.0 -1.151244268742903e-26 -0.5442396402359009 -0.7673661112785339 -0.22935479879379272 -1.3146049353263134e-11 0.0 -0.29859999735544024 -0.11235000099231765 0.3136499823461779 2.2214412195942916 2.2214412191386654 6.515886891884209e-08 0.0 0.0 0.0 0.0 0.0 0.0 9.240738067961098e-07 3.476881827858292e-07 4.2531462932220706e-08 -2.8475662131755503e-08 6.147405365792545e-08 -2.650151219200386e-15 -0.29859999998320197 -0.11235000001566994 0.31364999997695675 2.2214414693069955 2.2214414688513706 4.556249894594308e-10 0.0 0.0 0.0 0.0 0.0 0.0
153918.32 1.2706849461530112e-16 -1.5707963267948966 1.5707963267948966 -1.5707963267948966 -1.5707963267948966 0.0 0.0 0.0 0.0 0.0 0.0 0.0 0.0 0.0 0.0 0.0 0.0 0.0 -1.1512442590619146e-26 -0.5442396572688689 -0.7673661111166267 -0.229354796466502 -1.3146049461972196e-11 0.0 -1.511583712148294e-25 -7.14586669994025 -7.145866699940251 -1.0424175499402515 -5.974879480466362e-11 0.0 1.2706849461530112e-16 -1.570796314870016 1.5707963705062866 -1.570796314870016 -1.570796314870016 0.0 0.0 0.0 0.0 0.0 0.0 0.0 -1.151244268742903e-26 -0.5442396402359009 -0.7673661112785339 -0.22935479879379272 -1.3146049353263134e-11 0.0 -1.151244268742903e-26 -0.5442396402359009 -0.7673661112785339 -0.22935479879379272 -1.3146049353263134e-11 0.0 -0.29859999735544024 -0.11235000099231765 0.3136499823461779 2.2214412195942916 2.2214412191386654 6.515886891884209e-08 0.0 0.0 0.0 0.0 0.0 0.0 9.240738067961098e-07 3.476881827858292e-07 4.2531462932220706e-08 -2.8475662131755503e-08 6.147405365792545e-08 -2.650151219200386e-15 -0.29859999998320197 -0.11235000001566994 0.31364999997695675 2.2214414693069955 2.2214414688513706 4.556249894594308e-10 0.0 0.0 0.0 0.0 0.0 0.0
153918.32799999998 1.2706849461530112e-16 -1.5707963267948966 1.5707963267948966 -1.5707963267948966 -1.5707963267948966 0.0 0.0 0.0 0.0 0.0 0.0 0.0 0.0 0.0 0.0 0.0 0.0 0.0 -1.1512442590619146e-26 -0.5442396572688689 -0.7673661111166267 -0.229354796466502 -1.3146049461972196e-11 0.0 -1.511583712148294e-25 -7.14586669994025 -7.145866699940251 -1.0424175499402515 -5.974879480466362e-11 0.0 1.2706849461530112e-16 -1.570796314870016 1.5707963705062866 -1.570796314870016 -1.570796314870016 0.0 0.0 0.0 0.0 0.0 0.0 0.0 -1.151244268742903e-26 -0.5442396402359009 -0.7673661112785339 -0.22935479879379272 -1.3146049353263134e-11 0.0 -1.151244268742903e-26 -0.5442396402359009 -0.7673661112785339 -0.22935479879379272 -1.3146049353263134e-11 0.0 -0.29859999735544024 -0.11235000099231765 0.3136499823461779 2.2214412195942916 2.2214412191386654 6.515886891884209e-08 0.0 0.0 0.0 0.0 0.0 0.0 9.240738067961098e-07 3.476881827858292e-07 4.2531462932220706e-08 -2.8475662131755503e-08 6.147405365792545e-08 -2.650151219200386e-15 -0.29859999998320197 -0.11235000001566994 0.31364999997695675 2.2214414693069955 2.2214414688513706 4.556249894594308e-10 0.0 0.0 0.0 0.0 0.0 0.0
153918.33599999998 1.2706849461530112e-16 -1.5707963267948966 1.5707963267948966 -1.5707963267948966 -1.5707963267948966 0.0 0.0 0.0 0.0 0.0 0.0 0.0 0.0 0.0 0.0 0.0 0.0 0.0 -1.1512442590619146e-26 -0.5442396572688689 -0.7673661111166267 -0.229354796466502 -1.3146049461972196e-11 0.0 -1.511583712148294e-25 -7.14586669994025 -7.145866699940251 -1.0424175499402515 -5.974879480466362e-11 0.0 1.2706849461530112e-16 -1.570796314870016 1.5707963705062866 -1.570796314870016 -1.570796314870016 0.0 0.0 0.0 0.0 0.0 0.0 0.0 -1.151244268742903e-26 -0.5442396402359009 -0.7673661112785339 -0.22935479879379272 -1.3146049353263134e-11 0.0 -1.151244268742903e-26 -0.5442396402359009 -0.7673661112785339 -0.22935479879379272 -1.3146049353263134e-11 0.0 -0.29859999735544024 -0.11235000099231765 0.3136499823461779 2.2214412195942916 2.2214412191386654 6.515886891884209e-08 0.0 0.0 0.0 0.0 0.0 0.0 9.240738067961098e-07 3.476881827858292e-07 4.2531462932220706e-08 -2.8475662131755503e-08 6.147405365792545e-08 -2.650151219200386e-15 -0.29859999998320197 -0.11235000001566994 0.31364999997695675 2.2214414693069955 2.2214414688513706 4.556249894594308e-10 0.0 0.0 0.0 0.0 0.0 0.0
153918.34399999998 1.2706849461530112e-16 -1.5707963267948966 1.5707963267948966 -1.5707963267948966 -1.5707963267948966 0.0 0.0 0.0 0.0 0.0 0.0 0.0 0.0 0.0 0.0 0.0 0.0 0.0 -1.1512442590619146e-26 -0.5442396572688689 -0.7673661111166267 -0.229354796466502 -1.3146049461972196e-11 0.0 -1.511583712148294e-25 -7.14586669994025 -7.145866699940251 -1.0424175499402515 -5.974879480466362e-11 0.0 1.2706849461530112e-16 -1.570796314870016 1.5707963705062866 -1.570796314870016 -1.570796314870016 0.0 0.0 0.0 0.0 0.0 0.0 0.0 -1.151244268742903e-26 -0.5442396402359009 -0.7673661112785339 -0.22935479879379272 -1.3146049353263134e-11 0.0 -1.151244268742903e-26 -0.5442396402359009 -0.7673661112785339 -0.22935479879379272 -1.3146049353263134e-11 0.0 -0.29859999735544024 -0.11235000099231765 0.3136499823461779 2.2214412195942916 2.2214412191386654 6.515886891884209e-08 0.0 0.0 0.0 0.0 0.0 0.0 9.240738067961098e-07 3.476881827858292e-07 4.2531462932220706e-08 -2.8475662131755503e-08 6.147405365792545e-08 -2.650151219200386e-15 -0.29859999998320197 -0.11235000001566994 0.31364999997695675 2.2214414693069955 2.2214414688513706 4.556249894594308e-10 0.0 0.0 0.0 0.0 0.0 0.0
153918.35199999998 1.2706849461530112e-16 -1.5707963267948966 1.5707963267948966 -1.5707963267948966 -1.5707963267948966 0.0 0.0 0.0 0.0 0.0 0.0 0.0 0.0 0.0 0.0 0.0 0.0 0.0 -1.1512442590619146e-26 -0.5442396572688689 -0.7673661111166267 -0.229354796466502 -1.3146049461972196e-11 0.0 -1.511583712148294e-25 -7.14586669994025 -7.145866699940251 -1.0424175499402515 -5.974879480466362e-11 0.0 1.2706849461530112e-16 -1.570796314870016 1.5707963705062866 -1.570796314870016 -1.570796314870016 0.0 0.0 0.0 0.0 0.0 0.0 0.0 -1.151244268742903e-26 -0.5442396402359009 -0.7673661112785339 -0.22935479879379272 -1.3146049353263134e-11 0.0 -1.151244268742903e-26 -0.5442396402359009 -0.7673661112785339 -0.22935479879379272 -1.3146049353263134e-11 0.0 -0.29859999735544024 -0.11235000099231765 0.3136499823461779 2.2214412195942916 2.2214412191386654 6.515886891884209e-08 0.0 0.0 0.0 0.0 0.0 0.0 9.240738067961098e-07 3.476881827858292e-07 4.2531462932220706e-08 -2.8475662131755503e-08 6.147405365792545e-08 -2.650151219200386e-15 -0.29859999998320197 -0.11235000001566994 0.31364999997695675 2.2214414693069955 2.2214414688513706 4.556249894594308e-10 0.0 0.0 0.0 0.0 0.0 0.0
153918.36 1.2706849461530112e-16 -1.5707963267948966 1.5707963267948966 -1.5707963267948966 -1.5707963267948966 0.0 0.0 0.0 0.0 0.0 0.0 0.0 0.0 0.0 0.0 0.0 0.0 0.0 -1.1512442590619146e-26 -0.5442396572688689 -0.7673661111166267 -0.229354796466502 -1.3146049461972196e-11 0.0 -1.511583712148294e-25 -7.14586669994025 -7.145866699940251 -1.0424175499402515 -5.974879480466362e-11 0.0 1.2706849461530112e-16 -1.570796314870016 1.5707963705062866 -1.570796314870016 -1.570796314870016 0.0 0.0 0.0 0.0 0.0 0.0 0.0 -1.151244268742903e-26 -0.5442396402359009 -0.7673661112785339 -0.22935479879379272 -1.3146049353263134e-11 0.0 -1.151244268742903e-26 -0.5442396402359009 -0.7673661112785339 -0.22935479879379272 -1.3146049353263134e-11 0.0 -0.29859999735544024 -0.11235000099231765 0.3136499823461779 2.2214412195942916 2.2214412191386654 6.515886891884209e-08 0.0 0.0 0.0 0.0 0.0 0.0 9.240738067961098e-07 3.476881827858292e-07 4.2531462932220706e-08 -2.8475662131755503e-08 6.147405365792545e-08 -2.650151219200386e-15 -0.29859999998320197 -0.11235000001566994 0.31364999997695675 2.2214414693069955 2.2214414688513706 4.556249894594308e-10 0.0 0.0 0.0 0.0 0.0 0.0
153918.368 1.2706849461530112e-16 -1.5707963267948966 1.5707963267948966 -1.5707963267948966 -1.5707963267948966 0.0 0.0 0.0 0.0 0.0 0.0 0.0 0.0 0.0 0.0 0.0 0.0 0.0 -1.1512442590619146e-26 -0.5442396572688689 -0.7673661111166267 -0.229354796466502 -1.3146049461972196e-11 0.0 -1.511583712148294e-25 -7.14586669994025 -7.145866699940251 -1.0424175499402515 -5.974879480466362e-11 0.0 1.2706849461530112e-16 -1.570796314870016 1.5707963705062866 -1.570796314870016 -1.570796314870016 0.0 0.0 0.0 0.0 0.0 0.0 0.0 -1.151244268742903e-26 -0.5442396402359009 -0.7673661112785339 -0.22935479879379272 -1.3146049353263134e-11 0.0 -1.151244268742903e-26 -0.5442396402359009 -0.7673661112785339 -0.22935479879379272 -1.3146049353263134e-11 0.0 -0.29859999735544024 -0.11235000099231765 0.3136499823461779 2.2214412195942916 2.2214412191386654 6.515886891884209e-08 0.0 0.0 0.0 0.0 0.0 0.0 9.240738067961098e-07 3.476881827858292e-07 4.2531462932220706e-08 -2.8475662131755503e-08 6.147405365792545e-08 -2.650151219200386e-15 -0.29859999998320197 -0.11235000001566994 0.31364999997695675 2.2214414693069955 2.2214414688513706 4.556249894594308e-10 0.0 0.0 0.0 0.0 0.0 0.0
153918.376 1.2706849461530112e-16 -1.5707963267948966 1.5707963267948966 -1.5707963267948966 -1.5707963267948966 0.0 0.0 0.0 0.0 0.0 0.0 0.0 0.0 0.0 0.0 0.0 0.0 0.0 -1.1512442590619146e-26 -0.5442396572688689 -0.7673661111166267 -0.229354796466502 -1.3146049461972196e-11 0.0 -1.511583712148294e-25 -7.14586669994025 -7.145866699940251 -1.0424175499402515 -5.974879480466362e-11 0.0 1.2706849461530112e-16 -1.570796314870016 1.5707963705062866 -1.570796314870016 -1.570796314870016 0.0 0.0 0.0 0.0 0.0 0.0 0.0 -1.151244268742903e-26 -0.5442396402359009 -0.7673661112785339 -0.22935479879379272 -1.3146049353263134e-11 0.0 -1.151244268742903e-26 -0.5442396402359009 -0.7673661112785339 -0.22935479879379272 -1.3146049353263134e-11 0.0 -0.29859999735544024 -0.11235000099231765 0.3136499823461779 2.2214412195942916 2.2214412191386654 6.515886891884209e-08 0.0 0.0 0.0 0.0 0.0 0.0 9.240738067961098e-07 3.476881827858292e-07 4.2531462932220706e-08 -2.8475662131755503e-08 6.147405365792545e-08 -2.650151219200386e-15 -0.29859999998320197 -0.11235000001566994 0.31364999997695675 2.2214414693069955 2.2214414688513706 4.556249894594308e-10 0.0 0.0 0.0 0.0 0.0 0.0
153918.384 1.2706849461530112e-16 -1.5707963267948966 1.5707963267948966 -1.5707963267948966 -1.5707963267948966 0.0 0.0 0.0 0.0 0.0 0.0 0.0 0.0 0.0 0.0 0.0 0.0 0.0 -1.1512442590619146e-26 -0.5442396572688689 -0.7673661111166267 -0.229354796466502 -1.3146049461972196e-11 0.0 -1.511583712148294e-25 -7.14586669994025 -7.145866699940251 -1.0424175499402515 -5.974879480466362e-11 0.0 1.2706849461530112e-16 -1.570796314870016 1.5707963705062866 -1.570796314870016 -1.570796314870016 0.0 0.0 0.0 0.0 0.0 0.0 0.0 -1.151244268742903e-26 -0.5442396402359009 -0.7673661112785339 -0.22935479879379272 -1.3146049353263134e-11 0.0 -1.151244268742903e-26 -0.5442396402359009 -0.7673661112785339 -0.22935479879379272 -1.3146049353263134e-11 0.0 -0.29859999735544024 -0.11235000099231765 0.3136499823461779 2.2214412195942916 2.2214412191386654 6.515886891884209e-08 0.0 0.0 0.0 0.0 0.0 0.0 9.240738067961098e-07 3.476881827858292e-07 4.2531462932220706e-08 -2.8475662131755503e-08 6.147405365792545e-08 -2.650151219200386e-15 -0.29859999998320197 -0.11235000001566994 0.31364999997695675 2.2214414693069955 2.2214414688513706 4.556249894594308e-10 0.0 0.0 0.0 0.0 0.0 0.0
153918.392 1.2706849461530112e-16 -1.5707963267948966 1.5707963267948966 -1.5707963267948966 -1.5707963267948966 0.0 0.0 0.0 0.0 0.0 0.0 0.0 0.0 0.0 0.0 0.0 0.0 0.0 -1.1512442590619146e-26 -0.5442396572688689 -0.7673661111166267 -0.229354796466502 -1.3146049461972196e-11 0.0 -1.511583712148294e-25 -7.14586669994025 -7.145866699940251 -1.0424175499402515 -5.974879480466362e-11 0.0 1.2706849461530112e-16 -1.570796314870016 1.5707963705062866 -1.570796314870016 -1.570796314870016 0.0 0.0 0.0 0.0 0.0 0.0 0.0 -1.151244268742903e-26 -0.5442396402359009 -0.7673661112785339 -0.22935479879379272 -1.3146049353263134e-11 0.0 -1.151244268742903e-26 -0.5442396402359009 -0.7673661112785339 -0.22935479879379272 -1.3146049353263134e-11 0.0 -0.29859999735544024 -0.11235000099231765 0.3136499823461779 2.2214412195942916 2.2214412191386654 6.515886891884209e-08 0.0 0.0 0.0 0.0 0.0 0.0 9.240738067961098e-07 3.476881827858292e-07 4.2531462932220706e-08 -2.8475662131755503e-08 6.147405365792545e-08 -2.650151219200386e-15 -0.29859999998320197 -0.11235000001566994 0.31364999997695675 2.2214414693069955 2.2214414688513706 4.556249894594308e-10 0.0 0.0 0.0 0.0 0.0 0.0
153918.4 1.2706849461530112e-16 -1.5707963267948966 1.5707963267948966 -1.5707963267948966 -1.5707963267948966 0.0 0.0 0.0 0.0 0.0 0.0 0.0 0.0 0.0 0.0 0.0 0.0 0.0 -1.1512442590619146e-26 -0.5442396572688689 -0.7673661111166267 -0.229354796466502 -1.3146049461972196e-11 0.0 -1.511583712148294e-25 -7.14586669994025 -7.145866699940251 -1.0424175499402515 -5.974879480466362e-11 0.0 1.2706849461530112e-16 -1.570796314870016 1.5707963705062866 -1.570796314870016 -1.570796314870016 0.0 0.0 0.0 0.0 0.0 0.0 0.0 -1.151244268742903e-26 -0.5442396402359009 -0.7673661112785339 -0.22935479879379272 -1.3146049353263134e-11 0.0 -1.151244268742903e-26 -0.5442396402359009 -0.7673661112785339 -0.22935479879379272 -1.3146049353263134e-11 0.0 -0.29859999735544024 -0.11235000099231765 0.3136499823461779 2.2214412195942916 2.2214412191386654 6.515886891884209e-08 0.0 0.0 0.0 0.0 0.0 0.0 9.240738067961098e-07 3.476881827858292e-07 4.2531462932220706e-08 -2.8475662131755503e-08 6.147405365792545e-08 -2.650151219200386e-15 -0.29859999998320197 -0.11235000001566994 0.31364999997695675 2.2214414693069955 2.2214414688513706 4.556249894594308e-10 0.0 0.0 0.0 0.0 0.0 0.0
153918.408 1.2706849461530112e-16 -1.5707963267948966 1.5707963267948966 -1.5707963267948966 -1.5707963267948966 0.0 0.0 0.0 0.0 0.0 0.0 0.0 0.0 0.0 0.0 0.0 0.0 0.0 -1.1512442590619146e-26 -0.5442396572688689 -0.7673661111166267 -0.229354796466502 -1.3146049461972196e-11 0.0 -1.511583712148294e-25 -7.14586669994025 -7.145866699940251 -1.0424175499402515 -5.974879480466362e-11 0.0 1.2706849461530112e-16 -1.570796314870016 1.5707963705062866 -1.570796314870016 -1.570796314870016 0.0 0.0 0.0 0.0 0.0 0.0 0.0 -1.151244268742903e-26 -0.5442396402359009 -0.7673661112785339 -0.22935479879379272 -1.3146049353263134e-11 0.0 -1.151244268742903e-26 -0.5442396402359009 -0.7673661112785339 -0.22935479879379272 -1.3146049353263134e-11 0.0 -0.29859999735544024 -0.11235000099231765 0.3136499823461779 2.2214412195942916 2.2214412191386654 6.515886891884209e-08 0.0 0.0 0.0 0.0 0.0 0.0 9.240738067961098e-07 3.476881827858292e-07 4.2531462932220706e-08 -2.8475662131755503e-08 6.147405365792545e-08 -2.650151219200386e-15 -0.29859999998320197 -0.11235000001566994 0.31364999997695675 2.2214414693069955 2.2214414688513706 4.556249894594308e-10 0.0 0.0 0.0 0.0 0.0 0.0
153918.416 1.2706849461530112e-16 -1.5707963267948966 1.5707963267948966 -1.5707963267948966 -1.5707963267948966 0.0 0.0 0.0 0.0 0.0 0.0 0.0 0.0 0.0 0.0 0.0 0.0 0.0 -1.1512442590619146e-26 -0.5442396572688689 -0.7673661111166267 -0.229354796466502 -1.3146049461972196e-11 0.0 -1.511583712148294e-25 -7.14586669994025 -7.145866699940251 -1.0424175499402515 -5.974879480466362e-11 0.0 1.2706849461530112e-16 -1.570796314870016 1.5707963705062866 -1.570796314870016 -1.570796314870016 0.0 0.0 0.0 0.0 0.0 0.0 0.0 -1.151244268742903e-26 -0.5442396402359009 -0.7673661112785339 -0.22935479879379272 -1.3146049353263134e-11 0.0 -1.151244268742903e-26 -0.5442396402359009 -0.7673661112785339 -0.22935479879379272 -1.3146049353263134e-11 0.0 -0.29859999735544024 -0.11235000099231765 0.3136499823461779 2.2214412195942916 2.2214412191386654 6.515886891884209e-08 0.0 0.0 0.0 0.0 0.0 0.0 9.240738067961098e-07 3.476881827858292e-07 4.2531462932220706e-08 -2.8475662131755503e-08 6.147405365792545e-08 -2.650151219200386e-15 -0.29859999998320197 -0.11235000001566994 0.31364999997695675 2.2214414693069955 2.2214414688513706 4.556249894594308e-10 0.0 0.0 0.0 0.0 0.0 0.0
153918.424 1.2706849461530112e-16 -1.5707963267948966 1.5707963267948966 -1.5707963267948966 -1.5707963267948966 0.0 0.0 0.0 0.0 0.0 0.0 0.0 0.0 0.0 0.0 0.0 0.0 0.0 -1.1512442590619146e-26 -0.5442396572688689 -0.7673661111166267 -0.229354796466502 -1.3146049461972196e-11 0.0 -1.511583712148294e-25 -7.14586669994025 -7.145866699940251 -1.0424175499402515 -5.974879480466362e-11 0.0 1.2706849461530112e-16 -1.570796314870016 1.5707963705062866 -1.570796314870016 -1.570796314870016 0.0 0.0 0.0 0.0 0.0 0.0 0.0 -1.151244268742903e-26 -0.5442396402359009 -0.7673661112785339 -0.22935479879379272 -1.3146049353263134e-11 0.0 -1.151244268742903e-26 -0.5442396402359009 -0.7673661112785339 -0.22935479879379272 -1.3146049353263134e-11 0.0 -0.29859999735544024 -0.11235000099231765 0.3136499823461779 2.2214412195942916 2.2214412191386654 6.515886891884209e-08 0.0 0.0 0.0 0.0 0.0 0.0 9.240738067961098e-07 3.476881827858292e-07 4.2531462932220706e-08 -2.8475662131755503e-08 6.147405365792545e-08 -2.650151219200386e-15 -0.29859999998320197 -0.11235000001566994 0.31364999997695675 2.2214414693069955 2.2214414688513706 4.556249894594308e-10 0.0 0.0 0.0 0.0 0.0 0.0
153918.432 1.2706849461530112e-16 -1.5707963267948966 1.5707963267948966 -1.5707963267948966 -1.5707963267948966 0.0 0.0 0.0 0.0 0.0 0.0 0.0 0.0 0.0 0.0 0.0 0.0 0.0 -1.1512442590619146e-26 -0.5442396572688689 -0.7673661111166267 -0.229354796466502 -1.3146049461972196e-11 0.0 -1.511583712148294e-25 -7.14586669994025 -7.145866699940251 -1.0424175499402515 -5.974879480466362e-11 0.0 1.2706849461530112e-16 -1.570796314870016 1.5707963705062866 -1.570796314870016 -1.570796314870016 0.0 0.0 0.0 0.0 0.0 0.0 0.0 -1.151244268742903e-26 -0.5442396402359009 -0.7673661112785339 -0.22935479879379272 -1.3146049353263134e-11 0.0 -1.151244268742903e-26 -0.5442396402359009 -0.7673661112785339 -0.22935479879379272 -1.3146049353263134e-11 0.0 -0.29859999735544024 -0.11235000099231765 0.3136499823461779 2.2214412195942916 2.2214412191386654 6.515886891884209e-08 0.0 0.0 0.0 0.0 0.0 0.0 9.240738067961098e-07 3.476881827858292e-07 4.2531462932220706e-08 -2.8475662131755503e-08 6.147405365792545e-08 -2.650151219200386e-15 -0.29859999998320197 -0.11235000001566994 0.31364999997695675 2.2214414693069955 2.2214414688513706 4.556249894594308e-10 0.0 0.0 0.0 0.0 0.0 0.0
153918.44 1.2706849461530112e-16 -1.5707963267948966 1.5707963267948966 -1.5707963267948966 -1.5707963267948966 0.0 0.0 0.0 0.0 0.0 0.0 0.0 0.0 0.0 0.0 0.0 0.0 0.0 -1.1512442590619146e-26 -0.5442396572688689 -0.7673661111166267 -0.229354796466502 -1.3146049461972196e-11 0.0 -1.511583712148294e-25 -7.14586669994025 -7.145866699940251 -1.0424175499402515 -5.974879480466362e-11 0.0 1.2706849461530112e-16 -1.570796314870016 1.5707963705062866 -1.570796314870016 -1.570796314870016 0.0 0.0 0.0 0.0 0.0 0.0 0.0 -1.151244268742903e-26 -0.5442396402359009 -0.7673661112785339 -0.22935479879379272 -1.3146049353263134e-11 0.0 -1.151244268742903e-26 -0.5442396402359009 -0.7673661112785339 -0.22935479879379272 -1.3146049353263134e-11 0.0 -0.29859999735544024 -0.11235000099231765 0.3136499823461779 2.2214412195942916 2.2214412191386654 6.515886891884209e-08 0.0 0.0 0.0 0.0 0.0 0.0 9.240738067961098e-07 3.476881827858292e-07 4.2531462932220706e-08 -2.8475662131755503e-08 6.147405365792545e-08 -2.650151219200386e-15 -0.29859999998320197 -0.11235000001566994 0.31364999997695675 2.2214414693069955 2.2214414688513706 4.556249894594308e-10 0.0 0.0 0.0 0.0 0.0 0.0
153918.448 1.2706849461530112e-16 -1.5707963267948966 1.5707963267948966 -1.5707963267948966 -1.5707963267948966 0.0 0.0 0.0 0.0 0.0 0.0 0.0 0.0 0.0 0.0 0.0 0.0 0.0 -1.1512442590619146e-26 -0.5442396572688689 -0.7673661111166267 -0.229354796466502 -1.3146049461972196e-11 0.0 -1.511583712148294e-25 -7.14586669994025 -7.145866699940251 -1.0424175499402515 -5.974879480466362e-11 0.0 1.2706849461530112e-16 -1.570796314870016 1.5707963705062866 -1.570796314870016 -1.570796314870016 0.0 0.0 0.0 0.0 0.0 0.0 0.0 -1.151244268742903e-26 -0.5442396402359009 -0.7673661112785339 -0.22935479879379272 -1.3146049353263134e-11 0.0 -1.151244268742903e-26 -0.5442396402359009 -0.7673661112785339 -0.22935479879379272 -1.3146049353263134e-11 0.0 -0.29859999735544024 -0.11235000099231765 0.3136499823461779 2.2214412195942916 2.2214412191386654 6.515886891884209e-08 0.0 0.0 0.0 0.0 0.0 0.0 9.240738067961098e-07 3.476881827858292e-07 4.2531462932220706e-08 -2.8475662131755503e-08 6.147405365792545e-08 -2.650151219200386e-15 -0.29859999998320197 -0.11235000001566994 0.31364999997695675 2.2214414693069955 2.2214414688513706 4.556249894594308e-10 0.0 0.0 0.0 0.0 0.0 0.0
153918.456 1.2706849461530112e-16 -1.5707963267948966 1.5707963267948966 -1.5707963267948966 -1.5707963267948966 0.0 0.0 0.0 0.0 0.0 0.0 0.0 0.0 0.0 0.0 0.0 0.0 0.0 -1.1512442590619146e-26 -0.5442396572688689 -0.7673661111166267 -0.229354796466502 -1.3146049461972196e-11 0.0 -1.511583712148294e-25 -7.14586669994025 -7.145866699940251 -1.0424175499402515 -5.974879480466362e-11 0.0 1.2706849461530112e-16 -1.570796314870016 1.5707963705062866 -1.570796314870016 -1.570796314870016 0.0 0.0 0.0 0.0 0.0 0.0 0.0 -1.151244268742903e-26 -0.5442396402359009 -0.7673661112785339 -0.22935479879379272 -1.3146049353263134e-11 0.0 -1.151244268742903e-26 -0.5442396402359009 -0.7673661112785339 -0.22935479879379272 -1.3146049353263134e-11 0.0 -0.29859999735544024 -0.11235000099231765 0.3136499823461779 2.2214412195942916 2.2214412191386654 6.515886891884209e-08 0.0 0.0 0.0 0.0 0.0 0.0 9.240738067961098e-07 3.476881827858292e-07 4.2531462932220706e-08 -2.8475662131755503e-08 6.147405365792545e-08 -2.650151219200386e-15 -0.29859999998320197 -0.11235000001566994 0.31364999997695675 2.2214414693069955 2.2214414688513706 4.556249894594308e-10 0.0 0.0 0.0 0.0 0.0 0.0
153918.464 1.2706849461530112e-16 -1.5707963267948966 1.5707963267948966 -1.5707963267948966 -1.5707963267948966 0.0 0.0 0.0 0.0 0.0 0.0 0.0 0.0 0.0 0.0 0.0 0.0 0.0 -1.1512442590619146e-26 -0.5442396572688689 -0.7673661111166267 -0.229354796466502 -1.3146049461972196e-11 0.0 -1.511583712148294e-25 -7.14586669994025 -7.145866699940251 -1.0424175499402515 -5.974879480466362e-11 0.0 1.2706849461530112e-16 -1.570796314870016 1.5707963705062866 -1.570796314870016 -1.570796314870016 0.0 0.0 0.0 0.0 0.0 0.0 0.0 -1.151244268742903e-26 -0.5442396402359009 -0.7673661112785339 -0.22935479879379272 -1.3146049353263134e-11 0.0 -1.151244268742903e-26 -0.5442396402359009 -0.7673661112785339 -0.22935479879379272 -1.3146049353263134e-11 0.0 -0.29859999735544024 -0.11235000099231765 0.3136499823461779 2.2214412195942916 2.2214412191386654 6.515886891884209e-08 0.0 0.0 0.0 0.0 0.0 0.0 9.240738067961098e-07 3.476881827858292e-07 4.2531462932220706e-08 -2.8475662131755503e-08 6.147405365792545e-08 -2.650151219200386e-15 -0.29859999998320197 -0.11235000001566994 0.31364999997695675 2.2214414693069955 2.2214414688513706 4.556249894594308e-10 0.0 0.0 0.0 0.0 0.0 0.0
153918.47199999998 1.2706849461530112e-16 -1.5707963267948966 1.5707963267948966 -1.5707963267948966 -1.5707963267948966 0.0 0.0 0.0 0.0 0.0 0.0 0.0 0.0 0.0 0.0 0.0 0.0 0.0 -1.1512442590619146e-26 -0.5442396572688689 -0.7673661111166267 -0.229354796466502 -1.3146049461972196e-11 0.0 -1.511583712148294e-25 -7.14586669994025 -7.145866699940251 -1.0424175499402515 -5.974879480466362e-11 0.0 1.2706849461530112e-16 -1.570796314870016 1.5707963705062866 -1.570796314870016 -1.570796314870016 0.0 0.0 0.0 0.0 0.0 0.0 0.0 -1.151244268742903e-26 -0.5442396402359009 -0.7673661112785339 -0.22935479879379272 -1.3146049353263134e-11 0.0 -1.151244268742903e-26 -0.5442396402359009 -0.7673661112785339 -0.22935479879379272 -1.3146049353263134e-11 0.0 -0.29859999735544024 -0.11235000099231765 0.3136499823461779 2.2214412195942916 2.2214412191386654 6.515886891884209e-08 0.0 0.0 0.0 0.0 0.0 0.0 9.240738067961098e-07 3.476881827858292e-07 4.2531462932220706e-08 -2.8475662131755503e-08 6.147405365792545e-08 -2.650151219200386e-15 -0.29859999998320197 -0.11235000001566994 0.31364999997695675 2.2214414693069955 2.2214414688513706 4.556249894594308e-10 0.0 0.0 0.0 0.0 0.0 0.0
153918.47999999998 1.2706849461530112e-16 -1.5707963267948966 1.5707963267948966 -1.5707963267948966 -1.5707963267948966 0.0 0.0 0.0 0.0 0.0 0.0 0.0 0.0 0.0 0.0 0.0 0.0 0.0 -1.1512442590619146e-26 -0.5442396572688689 -0.7673661111166267 -0.229354796466502 -1.3146049461972196e-11 0.0 -1.511583712148294e-25 -7.14586669994025 -7.145866699940251 -1.0424175499402515 -5.974879480466362e-11 0.0 1.2706849461530112e-16 -1.570796314870016 1.5707963705062866 -1.570796314870016 -1.570796314870016 0.0 0.0 0.0 0.0 0.0 0.0 0.0 -1.151244268742903e-26 -0.5442396402359009 -0.7673661112785339 -0.22935479879379272 -1.3146049353263134e-11 0.0 -1.151244268742903e-26 -0.5442396402359009 -0.7673661112785339 -0.22935479879379272 -1.3146049353263134e-11 0.0 -0.29859999735544024 -0.11235000099231765 0.3136499823461779 2.2214412195942916 2.2214412191386654 6.515886891884209e-08 0.0 0.0 0.0 0.0 0.0 0.0 9.240738067961098e-07 3.476881827858292e-07 4.2531462932220706e-08 -2.8475662131755503e-08 6.147405365792545e-08 -2.650151219200386e-15 -0.29859999998320197 -0.11235000001566994 0.31364999997695675 2.2214414693069955 2.2214414688513706 4.556249894594308e-10 0.0 0.0 0.0 0.0 0.0 0.0
153918.48799999998 1.2706849461530112e-16 -1.5707963267948966 1.5707963267948966 -1.5707963267948966 -1.5707963267948966 0.0 0.0 0.0 0.0 0.0 0.0 0.0 0.0 0.0 0.0 0.0 0.0 0.0 -1.1512442590619146e-26 -0.5442396572688689 -0.7673661111166267 -0.229354796466502 -1.3146049461972196e-11 0.0 -1.511583712148294e-25 -7.14586669994025 -7.145866699940251 -1.0424175499402515 -5.974879480466362e-11 0.0 1.2706849461530112e-16 -1.570796314870016 1.5707963705062866 -1.570796314870016 -1.570796314870016 0.0 0.0 0.0 0.0 0.0 0.0 0.0 -1.151244268742903e-26 -0.5442396402359009 -0.7673661112785339 -0.22935479879379272 -1.3146049353263134e-11 0.0 -1.151244268742903e-26 -0.5442396402359009 -0.7673661112785339 -0.22935479879379272 -1.3146049353263134e-11 0.0 -0.29859999735544024 -0.11235000099231765 0.3136499823461779 2.2214412195942916 2.2214412191386654 6.515886891884209e-08 0.0 0.0 0.0 0.0 0.0 0.0 9.240738067961098e-07 3.476881827858292e-07 4.2531462932220706e-08 -2.8475662131755503e-08 6.147405365792545e-08 -2.650151219200386e-15 -0.29859999998320197 -0.11235000001566994 0.31364999997695675 2.2214414693069955 2.2214414688513706 4.556249894594308e-10 0.0 0.0 0.0 0.0 0.0 0.0
153918.49599999998 1.2706849461530112e-16 -1.5707963267948966 1.5707963267948966 -1.5707963267948966 -1.5707963267948966 0.0 0.0 0.0 0.0 0.0 0.0 0.0 0.0 0.0 0.0 0.0 0.0 0.0 -1.1512442590619146e-26 -0.5442396572688689 -0.7673661111166267 -0.229354796466502 -1.3146049461972196e-11 0.0 -1.511583712148294e-25 -7.14586669994025 -7.145866699940251 -1.0424175499402515 -5.974879480466362e-11 0.0 1.2706849461530112e-16 -1.570796314870016 1.5707963705062866 -1.570796314870016 -1.570796314870016 0.0 0.0 0.0 0.0 0.0 0.0 0.0 -1.151244268742903e-26 -0.5442396402359009 -0.7673661112785339 -0.22935479879379272 -1.3146049353263134e-11 0.0 -1.151244268742903e-26 -0.5442396402359009 -0.7673661112785339 -0.22935479879379272 -1.3146049353263134e-11 0.0 -0.29859999735544024 -0.11235000099231765 0.3136499823461779 2.2214412195942916 2.2214412191386654 6.515886891884209e-08 0.0 0.0 0.0 0.0 0.0 0.0 9.240738067961098e-07 3.476881827858292e-07 4.2531462932220706e-08 -2.8475662131755503e-08 6.147405365792545e-08 -2.650151219200386e-15 -0.29859999998320197 -0.11235000001566994 0.31364999997695675 2.2214414693069955 2.2214414688513706 4.556249894594308e-10 0.0 0.0 0.0 0.0 0.0 0.0
153918.504 1.2706849461530112e-16 -1.5707963267948966 1.5707963267948966 -1.5707963267948966 -1.5707963267948966 0.0 0.0 0.0 0.0 0.0 0.0 0.0 0.0 0.0 0.0 0.0 0.0 0.0 -1.1512442590619146e-26 -0.5442396572688689 -0.7673661111166267 -0.229354796466502 -1.3146049461972196e-11 0.0 -1.511583712148294e-25 -7.14586669994025 -7.145866699940251 -1.0424175499402515 -5.974879480466362e-11 0.0 1.2706849461530112e-16 -1.570796314870016 1.5707963705062866 -1.570796314870016 -1.570796314870016 0.0 0.0 0.0 0.0 0.0 0.0 0.0 -1.151244268742903e-26 -0.5442396402359009 -0.7673661112785339 -0.22935479879379272 -1.3146049353263134e-11 0.0 -1.151244268742903e-26 -0.5442396402359009 -0.7673661112785339 -0.22935479879379272 -1.3146049353263134e-11 0.0 -0.29859999735544024 -0.11235000099231765 0.3136499823461779 2.2214412195942916 2.2214412191386654 6.515886891884209e-08 0.0 0.0 0.0 0.0 0.0 0.0 9.240738067961098e-07 3.476881827858292e-07 4.2531462932220706e-08 -2.8475662131755503e-08 6.147405365792545e-08 -2.650151219200386e-15 -0.29859999998320197 -0.11235000001566994 0.31364999997695675 2.2214414693069955 2.2214414688513706 4.556249894594308e-10 0.0 0.0 0.0 0.0 0.0 0.0
153918.512 1.2706849461530112e-16 -1.5707963267948966 1.5707963267948966 -1.5707963267948966 -1.5707963267948966 0.0 0.0 0.0 0.0 0.0 0.0 0.0 0.0 0.0 0.0 0.0 0.0 0.0 -1.1512442590619146e-26 -0.5442396572688689 -0.7673661111166267 -0.229354796466502 -1.3146049461972196e-11 0.0 -1.511583712148294e-25 -7.14586669994025 -7.145866699940251 -1.0424175499402515 -5.974879480466362e-11 0.0 1.2706849461530112e-16 -1.570796314870016 1.5707963705062866 -1.570796314870016 -1.570796314870016 0.0 0.0 0.0 0.0 0.0 0.0 0.0 -1.151244268742903e-26 -0.5442396402359009 -0.7673661112785339 -0.22935479879379272 -1.3146049353263134e-11 0.0 -1.151244268742903e-26 -0.5442396402359009 -0.7673661112785339 -0.22935479879379272 -1.3146049353263134e-11 0.0 -0.29859999735544024 -0.11235000099231765 0.3136499823461779 2.2214412195942916 2.2214412191386654 6.515886891884209e-08 0.0 0.0 0.0 0.0 0.0 0.0 9.240738067961098e-07 3.476881827858292e-07 4.2531462932220706e-08 -2.8475662131755503e-08 6.147405365792545e-08 -2.650151219200386e-15 -0.29859999998320197 -0.11235000001566994 0.31364999997695675 2.2214414693069955 2.2214414688513706 4.556249894594308e-10 0.0 0.0 0.0 0.0 0.0 0.0
153918.52 1.2706849461530112e-16 -1.5707963267948966 1.5707963267948966 -1.5707963267948966 -1.5707963267948966 0.0 0.0 0.0 0.0 0.0 0.0 0.0 0.0 0.0 0.0 0.0 0.0 0.0 -1.1512442590619146e-26 -0.5442396572688689 -0.7673661111166267 -0.229354796466502 -1.3146049461972196e-11 0.0 -1.511583712148294e-25 -7.14586669994025 -7.145866699940251 -1.0424175499402515 -5.974879480466362e-11 0.0 1.2706849461530112e-16 -1.570796314870016 1.5707963705062866 -1.570796314870016 -1.570796314870016 0.0 0.0 0.0 0.0 0.0 0.0 0.0 -1.151244268742903e-26 -0.5442396402359009 -0.7673661112785339 -0.22935479879379272 -1.3146049353263134e-11 0.0 -1.151244268742903e-26 -0.5442396402359009 -0.7673661112785339 -0.22935479879379272 -1.3146049353263134e-11 0.0 -0.29859999735544024 -0.11235000099231765 0.3136499823461779 2.2214412195942916 2.2214412191386654 6.515886891884209e-08 0.0 0.0 0.0 0.0 0.0 0.0 9.240738067961098e-07 3.476881827858292e-07 4.2531462932220706e-08 -2.8475662131755503e-08 6.147405365792545e-08 -2.650151219200386e-15 -0.29859999998320197 -0.11235000001566994 0.31364999997695675 2.2214414693069955 2.2214414688513706 4.556249894594308e-10 0.0 0.0 0.0 0.0 0.0 0.0
153918.528 1.2706849461530112e-16 -1.5707963267948966 1.5707963267948966 -1.5707963267948966 -1.5707963267948966 0.0 0.0 0.0 0.0 0.0 0.0 0.0 0.0 0.0 0.0 0.0 0.0 0.0 -1.1512442590619146e-26 -0.5442396572688689 -0.7673661111166267 -0.229354796466502 -1.3146049461972196e-11 0.0 -1.511583712148294e-25 -7.14586669994025 -7.145866699940251 -1.0424175499402515 -5.974879480466362e-11 0.0 1.2706849461530112e-16 -1.570796314870016 1.5707963705062866 -1.570796314870016 -1.570796314870016 0.0 0.0 0.0 0.0 0.0 0.0 0.0 -1.151244268742903e-26 -0.5442396402359009 -0.7673661112785339 -0.22935479879379272 -1.3146049353263134e-11 0.0 -1.151244268742903e-26 -0.5442396402359009 -0.7673661112785339 -0.22935479879379272 -1.3146049353263134e-11 0.0 -0.29859999735544024 -0.11235000099231765 0.3136499823461779 2.2214412195942916 2.2214412191386654 6.515886891884209e-08 0.0 0.0 0.0 0.0 0.0 0.0 9.240738067961098e-07 3.476881827858292e-07 4.2531462932220706e-08 -2.8475662131755503e-08 6.147405365792545e-08 -2.650151219200386e-15 -0.29859999998320197 -0.11235000001566994 0.31364999997695675 2.2214414693069955 2.2214414688513706 4.556249894594308e-10 0.0 0.0 0.0 0.0 0.0 0.0
153918.536 1.2706849461530112e-16 -1.5707963267948966 1.5707963267948966 -1.5707963267948966 -1.5707963267948966 0.0 0.0 0.0 0.0 0.0 0.0 0.0 0.0 0.0 0.0 0.0 0.0 0.0 -1.1512442590619146e-26 -0.5442396572688689 -0.7673661111166267 -0.229354796466502 -1.3146049461972196e-11 0.0 -1.511583712148294e-25 -7.14586669994025 -7.145866699940251 -1.0424175499402515 -5.974879480466362e-11 0.0 1.2706849461530112e-16 -1.570796314870016 1.5707963705062866 -1.570796314870016 -1.570796314870016 0.0 0.0 0.0 0.0 0.0 0.0 0.0 -1.151244268742903e-26 -0.5442396402359009 -0.7673661112785339 -0.22935479879379272 -1.3146049353263134e-11 0.0 -1.151244268742903e-26 -0.5442396402359009 -0.7673661112785339 -0.22935479879379272 -1.3146049353263134e-11 0.0 -0.29859999735544024 -0.11235000099231765 0.3136499823461779 2.2214412195942916 2.2214412191386654 6.515886891884209e-08 0.0 0.0 0.0 0.0 0.0 0.0 9.240738067961098e-07 3.476881827858292e-07 4.2531462932220706e-08 -2.8475662131755503e-08 6.147405365792545e-08 -2.650151219200386e-15 -0.29859999998320197 -0.11235000001566994 0.31364999997695675 2.2214414693069955 2.2214414688513706 4.556249894594308e-10 0.0 0.0 0.0 0.0 0.0 0.0
153918.544 1.2706849461530112e-16 -1.5707963267948966 1.5707963267948966 -1.5707963267948966 -1.5707963267948966 0.0 0.0 0.0 0.0 0.0 0.0 0.0 0.0 0.0 0.0 0.0 0.0 0.0 -1.1512442590619146e-26 -0.5442396572688689 -0.7673661111166267 -0.229354796466502 -1.3146049461972196e-11 0.0 -1.511583712148294e-25 -7.14586669994025 -7.145866699940251 -1.0424175499402515 -5.974879480466362e-11 0.0 1.2706849461530112e-16 -1.570796314870016 1.5707963705062866 -1.570796314870016 -1.570796314870016 0.0 0.0 0.0 0.0 0.0 0.0 0.0 -1.151244268742903e-26 -0.5442396402359009 -0.7673661112785339 -0.22935479879379272 -1.3146049353263134e-11 0.0 -1.151244268742903e-26 -0.5442396402359009 -0.7673661112785339 -0.22935479879379272 -1.3146049353263134e-11 0.0 -0.29859999735544024 -0.11235000099231765 0.3136499823461779 2.2214412195942916 2.2214412191386654 6.515886891884209e-08 0.0 0.0 0.0 0.0 0.0 0.0 9.240738067961098e-07 3.476881827858292e-07 4.2531462932220706e-08 -2.8475662131755503e-08 6.147405365792545e-08 -2.650151219200386e-15 -0.29859999998320197 -0.11235000001566994 0.31364999997695675 2.2214414693069955 2.2214414688513706 4.556249894594308e-10 0.0 0.0 0.0 0.0 0.0 0.0
153918.552 1.2706849461530112e-16 -1.5707963267948966 1.5707963267948966 -1.5707963267948966 -1.5707963267948966 0.0 0.0 0.0 0.0 0.0 0.0 0.0 0.0 0.0 0.0 0.0 0.0 0.0 -1.1512442590619146e-26 -0.5442396572688689 -0.7673661111166267 -0.229354796466502 -1.3146049461972196e-11 0.0 -1.511583712148294e-25 -7.14586669994025 -7.145866699940251 -1.0424175499402515 -5.974879480466362e-11 0.0 1.2706849461530112e-16 -1.570796314870016 1.5707963705062866 -1.570796314870016 -1.570796314870016 0.0 0.0 0.0 0.0 0.0 0.0 0.0 -1.151244268742903e-26 -0.5442396402359009 -0.7673661112785339 -0.22935479879379272 -1.3146049353263134e-11 0.0 -1.151244268742903e-26 -0.5442396402359009 -0.7673661112785339 -0.22935479879379272 -1.3146049353263134e-11 0.0 -0.29859999735544024 -0.11235000099231765 0.3136499823461779 2.2214412195942916 2.2214412191386654 6.515886891884209e-08 0.0 0.0 0.0 0.0 0.0 0.0 9.240738067961098e-07 3.476881827858292e-07 4.2531462932220706e-08 -2.8475662131755503e-08 6.147405365792545e-08 -2.650151219200386e-15 -0.29859999998320197 -0.11235000001566994 0.31364999997695675 2.2214414693069955 2.2214414688513706 4.556249894594308e-10 0.0 0.0 0.0 0.0 0.0 0.0
153918.56 1.2706849461530112e-16 -1.5707963267948966 1.5707963267948966 -1.5707963267948966 -1.5707963267948966 0.0 0.0 0.0 0.0 0.0 0.0 0.0 0.0 0.0 0.0 0.0 0.0 0.0 -1.1512442590619146e-26 -0.5442396572688689 -0.7673661111166267 -0.229354796466502 -1.3146049461972196e-11 0.0 -1.511583712148294e-25 -7.14586669994025 -7.145866699940251 -1.0424175499402515 -5.974879480466362e-11 0.0 1.2706849461530112e-16 -1.570796314870016 1.5707963705062866 -1.570796314870016 -1.570796314870016 0.0 0.0 0.0 0.0 0.0 0.0 0.0 -1.151244268742903e-26 -0.5442396402359009 -0.7673661112785339 -0.22935479879379272 -1.3146049353263134e-11 0.0 -1.151244268742903e-26 -0.5442396402359009 -0.7673661112785339 -0.22935479879379272 -1.3146049353263134e-11 0.0 -0.29859999735544024 -0.11235000099231765 0.3136499823461779 2.2214412195942916 2.2214412191386654 6.515886891884209e-08 0.0 0.0 0.0 0.0 0.0 0.0 9.240738067961098e-07 3.476881827858292e-07 4.2531462932220706e-08 -2.8475662131755503e-08 6.147405365792545e-08 -2.650151219200386e-15 -0.29859999998320197 -0.11235000001566994 0.31364999997695675 2.2214414693069955 2.2214414688513706 4.556249894594308e-10 0.0 0.0 0.0 0.0 0.0 0.0
153918.568 1.2706849461530112e-16 -1.5707963267948966 1.5707963267948966 -1.5707963267948966 -1.5707963267948966 0.0 0.0 0.0 0.0 0.0 0.0 0.0 0.0 0.0 0.0 0.0 0.0 0.0 -1.1512442590619146e-26 -0.5442396572688689 -0.7673661111166267 -0.229354796466502 -1.3146049461972196e-11 0.0 -1.511583712148294e-25 -7.14586669994025 -7.145866699940251 -1.0424175499402515 -5.974879480466362e-11 0.0 1.2706849461530112e-16 -1.570796314870016 1.5707963705062866 -1.570796314870016 -1.570796314870016 0.0 0.0 0.0 0.0 0.0 0.0 0.0 -1.151244268742903e-26 -0.5442396402359009 -0.7673661112785339 -0.22935479879379272 -1.3146049353263134e-11 0.0 -1.151244268742903e-26 -0.5442396402359009 -0.7673661112785339 -0.22935479879379272 -1.3146049353263134e-11 0.0 -0.29859999735544024 -0.11235000099231765 0.3136499823461779 2.2214412195942916 2.2214412191386654 6.515886891884209e-08 0.0 0.0 0.0 0.0 0.0 0.0 9.240738067961098e-07 3.476881827858292e-07 4.2531462932220706e-08 -2.8475662131755503e-08 6.147405365792545e-08 -2.650151219200386e-15 -0.29859999998320197 -0.11235000001566994 0.31364999997695675 2.2214414693069955 2.2214414688513706 4.556249894594308e-10 0.0 0.0 0.0 0.0 0.0 0.0
153918.576 1.2706849461530112e-16 -1.5707963267948966 1.5707963267948966 -1.5707963267948966 -1.5707963267948966 0.0 0.0 0.0 0.0 0.0 0.0 0.0 0.0 0.0 0.0 0.0 0.0 0.0 -1.1512442590619146e-26 -0.5442396572688689 -0.7673661111166267 -0.229354796466502 -1.3146049461972196e-11 0.0 -1.511583712148294e-25 -7.14586669994025 -7.145866699940251 -1.0424175499402515 -5.974879480466362e-11 0.0 1.2706849461530112e-16 -1.570796314870016 1.5707963705062866 -1.570796314870016 -1.570796314870016 0.0 0.0 0.0 0.0 0.0 0.0 0.0 -1.151244268742903e-26 -0.5442396402359009 -0.7673661112785339 -0.22935479879379272 -1.3146049353263134e-11 0.0 -1.151244268742903e-26 -0.5442396402359009 -0.7673661112785339 -0.22935479879379272 -1.3146049353263134e-11 0.0 -0.29859999735544024 -0.11235000099231765 0.3136499823461779 2.2214412195942916 2.2214412191386654 6.515886891884209e-08 0.0 0.0 0.0 0.0 0.0 0.0 9.240738067961098e-07 3.476881827858292e-07 4.2531462932220706e-08 -2.8475662131755503e-08 6.147405365792545e-08 -2.650151219200386e-15 -0.29859999998320197 -0.11235000001566994 0.31364999997695675 2.2214414693069955 2.2214414688513706 4.556249894594308e-10 0.0 0.0 0.0 0.0 0.0 0.0
153918.584 1.2706849461530112e-16 -1.5707963267948966 1.5707963267948966 -1.5707963267948966 -1.5707963267948966 0.0 0.0 0.0 0.0 0.0 0.0 0.0 0.0 0.0 0.0 0.0 0.0 0.0 -1.1512442590619146e-26 -0.5442396572688689 -0.7673661111166267 -0.229354796466502 -1.3146049461972196e-11 0.0 -1.511583712148294e-25 -7.14586669994025 -7.145866699940251 -1.0424175499402515 -5.974879480466362e-11 0.0 1.2706849461530112e-16 -1.570796314870016 1.5707963705062866 -1.570796314870016 -1.570796314870016 0.0 0.0 0.0 0.0 0.0 0.0 0.0 -1.151244268742903e-26 -0.5442396402359009 -0.7673661112785339 -0.22935479879379272 -1.3146049353263134e-11 0.0 -1.151244268742903e-26 -0.5442396402359009 -0.7673661112785339 -0.22935479879379272 -1.3146049353263134e-11 0.0 -0.29859999735544024 -0.11235000099231765 0.3136499823461779 2.2214412195942916 2.2214412191386654 6.515886891884209e-08 0.0 0.0 0.0 0.0 0.0 0.0 9.240738067961098e-07 3.476881827858292e-07 4.2531462932220706e-08 -2.8475662131755503e-08 6.147405365792545e-08 -2.650151219200386e-15 -0.29859999998320197 -0.11235000001566994 0.31364999997695675 2.2214414693069955 2.2214414688513706 4.556249894594308e-10 0.0 0.0 0.0 0.0 0.0 0.0
153918.592 1.2706849461530112e-16 -1.5707963267948966 1.5707963267948966 -1.5707963267948966 -1.5707963267948966 0.0 0.0 0.0 0.0 0.0 0.0 0.0 0.0 0.0 0.0 0.0 0.0 0.0 -1.1512442590619146e-26 -0.5442396572688689 -0.7673661111166267 -0.229354796466502 -1.3146049461972196e-11 0.0 -1.511583712148294e-25 -7.14586669994025 -7.145866699940251 -1.0424175499402515 -5.974879480466362e-11 0.0 1.2706849461530112e-16 -1.570796314870016 1.5707963705062866 -1.570796314870016 -1.570796314870016 0.0 0.0 0.0 0.0 0.0 0.0 0.0 -1.151244268742903e-26 -0.5442396402359009 -0.7673661112785339 -0.22935479879379272 -1.3146049353263134e-11 0.0 -1.151244268742903e-26 -0.5442396402359009 -0.7673661112785339 -0.22935479879379272 -1.3146049353263134e-11 0.0 -0.29859999735544024 -0.11235000099231765 0.3136499823461779 2.2214412195942916 2.2214412191386654 6.515886891884209e-08 0.0 0.0 0.0 0.0 0.0 0.0 9.240738067961098e-07 3.476881827858292e-07 4.2531462932220706e-08 -2.8475662131755503e-08 6.147405365792545e-08 -2.650151219200386e-15 -0.29859999998320197 -0.11235000001566994 0.31364999997695675 2.2214414693069955 2.2214414688513706 4.556249894594308e-10 0.0 0.0 0.0 0.0 0.0 0.0
153918.6 1.2706849461530112e-16 -1.5707963267948966 1.5707963267948966 -1.5707963267948966 -1.5707963267948966 0.0 0.0 0.0 0.0 0.0 0.0 0.0 0.0 0.0 0.0 0.0 0.0 0.0 -1.1512442590619146e-26 -0.5442396572688689 -0.7673661111166267 -0.229354796466502 -1.3146049461972196e-11 0.0 -1.511583712148294e-25 -7.14586669994025 -7.145866699940251 -1.0424175499402515 -5.974879480466362e-11 0.0 1.2706849461530112e-16 -1.570796314870016 1.5707963705062866 -1.570796314870016 -1.570796314870016 0.0 0.0 0.0 0.0 0.0 0.0 0.0 -1.151244268742903e-26 -0.5442396402359009 -0.7673661112785339 -0.22935479879379272 -1.3146049353263134e-11 0.0 -1.151244268742903e-26 -0.5442396402359009 -0.7673661112785339 -0.22935479879379272 -1.3146049353263134e-11 0.0 -0.29859999735544024 -0.11235000099231765 0.3136499823461779 2.2214412195942916 2.2214412191386654 6.515886891884209e-08 0.0 0.0 0.0 0.0 0.0 0.0 9.240738067961098e-07 3.476881827858292e-07 4.2531462932220706e-08 -2.8475662131755503e-08 6.147405365792545e-08 -2.650151219200386e-15 -0.29859999998320197 -0.11235000001566994 0.31364999997695675 2.2214414693069955 2.2214414688513706 4.556249894594308e-10 0.0 0.0 0.0 0.0 0.0 0.0
153918.608 1.2706849461530112e-16 -1.5707963267948966 1.5707963267948966 -1.5707963267948966 -1.5707963267948966 0.0 0.0 0.0 0.0 0.0 0.0 0.0 0.0 0.0 0.0 0.0 0.0 0.0 -1.1512442590619146e-26 -0.5442396572688689 -0.7673661111166267 -0.229354796466502 -1.3146049461972196e-11 0.0 -1.511583712148294e-25 -7.14586669994025 -7.145866699940251 -1.0424175499402515 -5.974879480466362e-11 0.0 1.2706849461530112e-16 -1.570796314870016 1.5707963705062866 -1.570796314870016 -1.570796314870016 0.0 0.0 0.0 0.0 0.0 0.0 0.0 -1.151244268742903e-26 -0.5442396402359009 -0.7673661112785339 -0.22935479879379272 -1.3146049353263134e-11 0.0 -1.151244268742903e-26 -0.5442396402359009 -0.7673661112785339 -0.22935479879379272 -1.3146049353263134e-11 0.0 -0.29859999735544024 -0.11235000099231765 0.3136499823461779 2.2214412195942916 2.2214412191386654 6.515886891884209e-08 0.0 0.0 0.0 0.0 0.0 0.0 9.240738067961098e-07 3.476881827858292e-07 4.2531462932220706e-08 -2.8475662131755503e-08 6.147405365792545e-08 -2.650151219200386e-15 -0.29859999998320197 -0.11235000001566994 0.31364999997695675 2.2214414693069955 2.2214414688513706 4.556249894594308e-10 0.0 0.0 0.0 0.0 0.0 0.0
153918.61599999998 1.2706849461530112e-16 -1.5707963267948966 1.5707963267948966 -1.5707963267948966 -1.5707963267948966 0.0 0.0 0.0 0.0 0.0 0.0 0.0 0.0 0.0 0.0 0.0 0.0 0.0 -1.1512442590619146e-26 -0.5442396572688689 -0.7673661111166267 -0.229354796466502 -1.3146049461972196e-11 0.0 -1.511583712148294e-25 -7.14586669994025 -7.145866699940251 -1.0424175499402515 -5.974879480466362e-11 0.0 1.2706849461530112e-16 -1.570796314870016 1.5707963705062866 -1.570796314870016 -1.570796314870016 0.0 0.0 0.0 0.0 0.0 0.0 0.0 -1.151244268742903e-26 -0.5442396402359009 -0.7673661112785339 -0.22935479879379272 -1.3146049353263134e-11 0.0 -1.151244268742903e-26 -0.5442396402359009 -0.7673661112785339 -0.22935479879379272 -1.3146049353263134e-11 0.0 -0.29859999735544024 -0.11235000099231765 0.3136499823461779 2.2214412195942916 2.2214412191386654 6.515886891884209e-08 0.0 0.0 0.0 0.0 0.0 0.0 9.240738067961098e-07 3.476881827858292e-07 4.2531462932220706e-08 -2.8475662131755503e-08 6.147405365792545e-08 -2.650151219200386e-15 -0.29859999998320197 -0.11235000001566994 0.31364999997695675 2.2214414693069955 2.2214414688513706 4.556249894594308e-10 0.0 0.0 0.0 0.0 0.0 0.0
153918.62399999998 1.2706849461530112e-16 -1.5707963267948966 1.5707963267948966 -1.5707963267948966 -1.5707963267948966 0.0 0.0 0.0 0.0 0.0 0.0 0.0 0.0 0.0 0.0 0.0 0.0 0.0 -1.1512442590619146e-26 -0.5442396572688689 -0.7673661111166267 -0.229354796466502 -1.3146049461972196e-11 0.0 -1.511583712148294e-25 -7.14586669994025 -7.145866699940251 -1.0424175499402515 -5.974879480466362e-11 0.0 1.2706849461530112e-16 -1.570796314870016 1.5707963705062866 -1.570796314870016 -1.570796314870016 0.0 0.0 0.0 0.0 0.0 0.0 0.0 -1.151244268742903e-26 -0.5442396402359009 -0.7673661112785339 -0.22935479879379272 -1.3146049353263134e-11 0.0 -1.151244268742903e-26 -0.5442396402359009 -0.7673661112785339 -0.22935479879379272 -1.3146049353263134e-11 0.0 -0.29859999735544024 -0.11235000099231765 0.3136499823461779 2.2214412195942916 2.2214412191386654 6.515886891884209e-08 0.0 0.0 0.0 0.0 0.0 0.0 9.240738067961098e-07 3.476881827858292e-07 4.2531462932220706e-08 -2.8475662131755503e-08 6.147405365792545e-08 -2.650151219200386e-15 -0.29859999998320197 -0.11235000001566994 0.31364999997695675 2.2214414693069955 2.2214414688513706 4.556249894594308e-10 0.0 0.0 0.0 0.0 0.0 0.0
153918.63199999998 1.2706849461530112e-16 -1.5707963267948966 1.5707963267948966 -1.5707963267948966 -1.5707963267948966 0.0 0.0 0.0 0.0 0.0 0.0 0.0 0.0 0.0 0.0 0.0 0.0 0.0 -1.1512442590619146e-26 -0.5442396572688689 -0.7673661111166267 -0.229354796466502 -1.3146049461972196e-11 0.0 -1.511583712148294e-25 -7.14586669994025 -7.145866699940251 -1.0424175499402515 -5.974879480466362e-11 0.0 1.2706849461530112e-16 -1.570796314870016 1.5707963705062866 -1.570796314870016 -1.570796314870016 0.0 0.0 0.0 0.0 0.0 0.0 0.0 -1.151244268742903e-26 -0.5442396402359009 -0.7673661112785339 -0.22935479879379272 -1.3146049353263134e-11 0.0 -1.151244268742903e-26 -0.5442396402359009 -0.7673661112785339 -0.22935479879379272 -1.3146049353263134e-11 0.0 -0.29859999735544024 -0.11235000099231765 0.3136499823461779 2.2214412195942916 2.2214412191386654 6.515886891884209e-08 0.0 0.0 0.0 0.0 0.0 0.0 9.240738067961098e-07 3.476881827858292e-07 4.2531462932220706e-08 -2.8475662131755503e-08 6.147405365792545e-08 -2.650151219200386e-15 -0.29859999998320197 -0.11235000001566994 0.31364999997695675 2.2214414693069955 2.2214414688513706 4.556249894594308e-10 0.0 0.0 0.0 0.0 0.0 0.0
153918.63999999998 1.2706849461530112e-16 -1.5707963267948966 1.5707963267948966 -1.5707963267948966 -1.5707963267948966 0.0 0.0 0.0 0.0 0.0 0.0 0.0 0.0 0.0 0.0 0.0 0.0 0.0 -1.1512442590619146e-26 -0.5442396572688689 -0.7673661111166267 -0.229354796466502 -1.3146049461972196e-11 0.0 -1.511583712148294e-25 -7.14586669994025 -7.145866699940251 -1.0424175499402515 -5.974879480466362e-11 0.0 1.2706849461530112e-16 -1.570796314870016 1.5707963705062866 -1.570796314870016 -1.570796314870016 0.0 0.0 0.0 0.0 0.0 0.0 0.0 -1.151244268742903e-26 -0.5442396402359009 -0.7673661112785339 -0.22935479879379272 -1.3146049353263134e-11 0.0 -1.151244268742903e-26 -0.5442396402359009 -0.7673661112785339 -0.22935479879379272 -1.3146049353263134e-11 0.0 -0.29859999735544024 -0.11235000099231765 0.3136499823461779 2.2214412195942916 2.2214412191386654 6.515886891884209e-08 0.0 0.0 0.0 0.0 0.0 0.0 9.240738067961098e-07 3.476881827858292e-07 4.2531462932220706e-08 -2.8475662131755503e-08 6.147405365792545e-08 -2.650151219200386e-15 -0.29859999998320197 -0.11235000001566994 0.31364999997695675 2.2214414693069955 2.2214414688513706 4.556249894594308e-10 0.0 0.0 0.0 0.0 0.0 0.0
153918.648 1.2706849461530112e-16 -1.5707963267948966 1.5707963267948966 -1.5707963267948966 -1.5707963267948966 0.0 0.0 0.0 0.0 0.0 0.0 0.0 0.0 0.0 0.0 0.0 0.0 0.0 -1.1512442590619146e-26 -0.5442396572688689 -0.7673661111166267 -0.229354796466502 -1.3146049461972196e-11 0.0 -1.511583712148294e-25 -7.14586669994025 -7.145866699940251 -1.0424175499402515 -5.974879480466362e-11 0.0 1.2706849461530112e-16 -1.570796314870016 1.5707963705062866 -1.570796314870016 -1.570796314870016 0.0 0.0 0.0 0.0 0.0 0.0 0.0 -1.151244268742903e-26 -0.5442396402359009 -0.7673661112785339 -0.22935479879379272 -1.3146049353263134e-11 0.0 -1.151244268742903e-26 -0.5442396402359009 -0.7673661112785339 -0.22935479879379272 -1.3146049353263134e-11 0.0 -0.29859999735544024 -0.11235000099231765 0.3136499823461779 2.2214412195942916 2.2214412191386654 6.515886891884209e-08 0.0 0.0 0.0 0.0 0.0 0.0 9.240738067961098e-07 3.476881827858292e-07 4.2531462932220706e-08 -2.8475662131755503e-08 6.147405365792545e-08 -2.650151219200386e-15 -0.29859999998320197 -0.11235000001566994 0.31364999997695675 2.2214414693069955 2.2214414688513706 4.556249894594308e-10 0.0 0.0 0.0 0.0 0.0 0.0
153918.656 1.2706849461530112e-16 -1.5707963267948966 1.5707963267948966 -1.5707963267948966 -1.5707963267948966 0.0 0.0 0.0 0.0 0.0 0.0 0.0 0.0 0.0 0.0 0.0 0.0 0.0 -1.1512442590619146e-26 -0.5442396572688689 -0.7673661111166267 -0.229354796466502 -1.3146049461972196e-11 0.0 -1.511583712148294e-25 -7.14586669994025 -7.145866699940251 -1.0424175499402515 -5.974879480466362e-11 0.0 1.2706849461530112e-16 -1.570796314870016 1.5707963705062866 -1.570796314870016 -1.570796314870016 0.0 0.0 0.0 0.0 0.0 0.0 0.0 -1.151244268742903e-26 -0.5442396402359009 -0.7673661112785339 -0.22935479879379272 -1.3146049353263134e-11 0.0 -1.151244268742903e-26 -0.5442396402359009 -0.7673661112785339 -0.22935479879379272 -1.3146049353263134e-11 0.0 -0.29859999735544024 -0.11235000099231765 0.3136499823461779 2.2214412195942916 2.2214412191386654 6.515886891884209e-08 0.0 0.0 0.0 0.0 0.0 0.0 9.240738067961098e-07 3.476881827858292e-07 4.2531462932220706e-08 -2.8475662131755503e-08 6.147405365792545e-08 -2.650151219200386e-15 -0.29859999998320197 -0.11235000001566994 0.31364999997695675 2.2214414693069955 2.2214414688513706 4.556249894594308e-10 0.0 0.0 0.0 0.0 0.0 0.0
153918.664 1.2706849461530112e-16 -1.5707963267948966 1.5707963267948966 -1.5707963267948966 -1.5707963267948966 0.0 0.0 0.0 0.0 0.0 0.0 0.0 0.0 0.0 0.0 0.0 0.0 0.0 -1.1512442590619146e-26 -0.5442396572688689 -0.7673661111166267 -0.229354796466502 -1.3146049461972196e-11 0.0 -1.511583712148294e-25 -7.14586669994025 -7.145866699940251 -1.0424175499402515 -5.974879480466362e-11 0.0 1.2706849461530112e-16 -1.570796314870016 1.5707963705062866 -1.570796314870016 -1.570796314870016 0.0 0.0 0.0 0.0 0.0 0.0 0.0 -1.151244268742903e-26 -0.5442396402359009 -0.7673661112785339 -0.22935479879379272 -1.3146049353263134e-11 0.0 -1.151244268742903e-26 -0.5442396402359009 -0.7673661112785339 -0.22935479879379272 -1.3146049353263134e-11 0.0 -0.29859999735544024 -0.11235000099231765 0.3136499823461779 2.2214412195942916 2.2214412191386654 6.515886891884209e-08 0.0 0.0 0.0 0.0 0.0 0.0 9.240738067961098e-07 3.476881827858292e-07 4.2531462932220706e-08 -2.8475662131755503e-08 6.147405365792545e-08 -2.650151219200386e-15 -0.29859999998320197 -0.11235000001566994 0.31364999997695675 2.2214414693069955 2.2214414688513706 4.556249894594308e-10 0.0 0.0 0.0 0.0 0.0 0.0
153918.672 1.2706849461530112e-16 -1.5707963267948966 1.5707963267948966 -1.5707963267948966 -1.5707963267948966 0.0 0.0 0.0 0.0 0.0 0.0 0.0 0.0 0.0 0.0 0.0 0.0 0.0 -1.1512442590619146e-26 -0.5442396572688689 -0.7673661111166267 -0.229354796466502 -1.3146049461972196e-11 0.0 -1.511583712148294e-25 -7.14586669994025 -7.145866699940251 -1.0424175499402515 -5.974879480466362e-11 0.0 1.2706849461530112e-16 -1.570796314870016 1.5707963705062866 -1.570796314870016 -1.570796314870016 0.0 0.0 0.0 0.0 0.0 0.0 0.0 -1.151244268742903e-26 -0.5442396402359009 -0.7673661112785339 -0.22935479879379272 -1.3146049353263134e-11 0.0 -1.151244268742903e-26 -0.5442396402359009 -0.7673661112785339 -0.22935479879379272 -1.3146049353263134e-11 0.0 -0.29859999735544024 -0.11235000099231765 0.3136499823461779 2.2214412195942916 2.2214412191386654 6.515886891884209e-08 0.0 0.0 0.0 0.0 0.0 0.0 9.240738067961098e-07 3.476881827858292e-07 4.2531462932220706e-08 -2.8475662131755503e-08 6.147405365792545e-08 -2.650151219200386e-15 -0.29859999998320197 -0.11235000001566994 0.31364999997695675 2.2214414693069955 2.2214414688513706 4.556249894594308e-10 0.0 0.0 0.0 0.0 0.0 0.0
153918.68 1.2706849461530112e-16 -1.5707963267948966 1.5707963267948966 -1.5707963267948966 -1.5707963267948966 0.0 0.0 0.0 0.0 0.0 0.0 0.0 0.0 0.0 0.0 0.0 0.0 0.0 -1.1512442590619146e-26 -0.5442396572688689 -0.7673661111166267 -0.229354796466502 -1.3146049461972196e-11 0.0 -1.511583712148294e-25 -7.14586669994025 -7.145866699940251 -1.0424175499402515 -5.974879480466362e-11 0.0 1.2706849461530112e-16 -1.570796314870016 1.5707963705062866 -1.570796314870016 -1.570796314870016 0.0 0.0 0.0 0.0 0.0 0.0 0.0 -1.151244268742903e-26 -0.5442396402359009 -0.7673661112785339 -0.22935479879379272 -1.3146049353263134e-11 0.0 -1.151244268742903e-26 -0.5442396402359009 -0.7673661112785339 -0.22935479879379272 -1.3146049353263134e-11 0.0 -0.29859999735544024 -0.11235000099231765 0.3136499823461779 2.2214412195942916 2.2214412191386654 6.515886891884209e-08 0.0 0.0 0.0 0.0 0.0 0.0 9.240738067961098e-07 3.476881827858292e-07 4.2531462932220706e-08 -2.8475662131755503e-08 6.147405365792545e-08 -2.650151219200386e-15 -0.29859999998320197 -0.11235000001566994 0.31364999997695675 2.2214414693069955 2.2214414688513706 4.556249894594308e-10 0.0 0.0 0.0 0.0 0.0 0.0
153918.688 1.2706849461530112e-16 -1.5707963267948966 1.5707963267948966 -1.5707963267948966 -1.5707963267948966 0.0 0.0 0.0 0.0 0.0 0.0 0.0 0.0 0.0 0.0 0.0 0.0 0.0 -1.1512442590619146e-26 -0.5442396572688689 -0.7673661111166267 -0.229354796466502 -1.3146049461972196e-11 0.0 -1.511583712148294e-25 -7.14586669994025 -7.145866699940251 -1.0424175499402515 -5.974879480466362e-11 0.0 1.2706849461530112e-16 -1.570796314870016 1.5707963705062866 -1.570796314870016 -1.570796314870016 0.0 0.0 0.0 0.0 0.0 0.0 0.0 -1.151244268742903e-26 -0.5442396402359009 -0.7673661112785339 -0.22935479879379272 -1.3146049353263134e-11 0.0 -1.151244268742903e-26 -0.5442396402359009 -0.7673661112785339 -0.22935479879379272 -1.3146049353263134e-11 0.0 -0.29859999735544024 -0.11235000099231765 0.3136499823461779 2.2214412195942916 2.2214412191386654 6.515886891884209e-08 0.0 0.0 0.0 0.0 0.0 0.0 9.240738067961098e-07 3.476881827858292e-07 4.2531462932220706e-08 -2.8475662131755503e-08 6.147405365792545e-08 -2.650151219200386e-15 -0.29859999998320197 -0.11235000001566994 0.31364999997695675 2.2214414693069955 2.2214414688513706 4.556249894594308e-10 0.0 0.0 0.0 0.0 0.0 0.0
153918.696 1.2706849461530112e-16 -1.5707963267948966 1.5707963267948966 -1.5707963267948966 -1.5707963267948966 0.0 0.0 0.0 0.0 0.0 0.0 0.0 0.0 0.0 0.0 0.0 0.0 0.0 -1.1512442590619146e-26 -0.5442396572688689 -0.7673661111166267 -0.229354796466502 -1.3146049461972196e-11 0.0 -1.511583712148294e-25 -7.14586669994025 -7.145866699940251 -1.0424175499402515 -5.974879480466362e-11 0.0 1.2706849461530112e-16 -1.570796314870016 1.5707963705062866 -1.570796314870016 -1.570796314870016 0.0 0.0 0.0 0.0 0.0 0.0 0.0 -1.151244268742903e-26 -0.5442396402359009 -0.7673661112785339 -0.22935479879379272 -1.3146049353263134e-11 0.0 -1.151244268742903e-26 -0.5442396402359009 -0.7673661112785339 -0.22935479879379272 -1.3146049353263134e-11 0.0 -0.29859999735544024 -0.11235000099231765 0.3136499823461779 2.2214412195942916 2.2214412191386654 6.515886891884209e-08 0.0 0.0 0.0 0.0 0.0 0.0 9.240738067961098e-07 3.476881827858292e-07 4.2531462932220706e-08 -2.8475662131755503e-08 6.147405365792545e-08 -2.650151219200386e-15 -0.29859999998320197 -0.11235000001566994 0.31364999997695675 2.2214414693069955 2.2214414688513706 4.556249894594308e-10 0.0 0.0 0.0 0.0 0.0 0.0
153918.704 1.2706849461530112e-16 -1.5707963267948966 1.5707963267948966 -1.5707963267948966 -1.5707963267948966 0.0 0.0 0.0 0.0 0.0 0.0 0.0 0.0 0.0 0.0 0.0 0.0 0.0 -1.1512442590619146e-26 -0.5442396572688689 -0.7673661111166267 -0.229354796466502 -1.3146049461972196e-11 0.0 -1.511583712148294e-25 -7.14586669994025 -7.145866699940251 -1.0424175499402515 -5.974879480466362e-11 0.0 1.2706849461530112e-16 -1.570796314870016 1.5707963705062866 -1.570796314870016 -1.570796314870016 0.0 0.0 0.0 0.0 0.0 0.0 0.0 -1.151244268742903e-26 -0.5442396402359009 -0.7673661112785339 -0.22935479879379272 -1.3146049353263134e-11 0.0 -1.151244268742903e-26 -0.5442396402359009 -0.7673661112785339 -0.22935479879379272 -1.3146049353263134e-11 0.0 -0.29859999735544024 -0.11235000099231765 0.3136499823461779 2.2214412195942916 2.2214412191386654 6.515886891884209e-08 0.0 0.0 0.0 0.0 0.0 0.0 9.240738067961098e-07 3.476881827858292e-07 4.2531462932220706e-08 -2.8475662131755503e-08 6.147405365792545e-08 -2.650151219200386e-15 -0.29859999998320197 -0.11235000001566994 0.31364999997695675 2.2214414693069955 2.2214414688513706 4.556249894594308e-10 0.0 0.0 0.0 0.0 0.0 0.0
153918.712 1.2706849461530112e-16 -1.5707963267948966 1.5707963267948966 -1.5707963267948966 -1.5707963267948966 0.0 0.0 0.0 0.0 0.0 0.0 0.0 0.0 0.0 0.0 0.0 0.0 0.0 -1.1512442590619146e-26 -0.5442396572688689 -0.7673661111166267 -0.229354796466502 -1.3146049461972196e-11 0.0 -1.511583712148294e-25 -7.14586669994025 -7.145866699940251 -1.0424175499402515 -5.974879480466362e-11 0.0 1.2706849461530112e-16 -1.570796314870016 1.5707963705062866 -1.570796314870016 -1.570796314870016 0.0 0.0 0.0 0.0 0.0 0.0 0.0 -1.151244268742903e-26 -0.5442396402359009 -0.7673661112785339 -0.22935479879379272 -1.3146049353263134e-11 0.0 -1.151244268742903e-26 -0.5442396402359009 -0.7673661112785339 -0.22935479879379272 -1.3146049353263134e-11 0.0 -0.29859999735544024 -0.11235000099231765 0.3136499823461779 2.2214412195942916 2.2214412191386654 6.515886891884209e-08 0.0 0.0 0.0 0.0 0.0 0.0 9.240738067961098e-07 3.476881827858292e-07 4.2531462932220706e-08 -2.8475662131755503e-08 6.147405365792545e-08 -2.650151219200386e-15 -0.29859999998320197 -0.11235000001566994 0.31364999997695675 2.2214414693069955 2.2214414688513706 4.556249894594308e-10 0.0 0.0 0.0 0.0 0.0 0.0
153918.72 1.2706849461530112e-16 -1.5707963267948966 1.5707963267948966 -1.5707963267948966 -1.5707963267948966 0.0 0.0 0.0 0.0 0.0 0.0 0.0 0.0 0.0 0.0 0.0 0.0 0.0 -1.1512442590619146e-26 -0.5442396572688689 -0.7673661111166267 -0.229354796466502 -1.3146049461972196e-11 0.0 -1.511583712148294e-25 -7.14586669994025 -7.145866699940251 -1.0424175499402515 -5.974879480466362e-11 0.0 1.2706849461530112e-16 -1.570796314870016 1.5707963705062866 -1.570796314870016 -1.570796314870016 0.0 0.0 0.0 0.0 0.0 0.0 0.0 -1.151244268742903e-26 -0.5442396402359009 -0.7673661112785339 -0.22935479879379272 -1.3146049353263134e-11 0.0 -1.151244268742903e-26 -0.5442396402359009 -0.7673661112785339 -0.22935479879379272 -1.3146049353263134e-11 0.0 -0.29859999735544024 -0.11235000099231765 0.3136499823461779 2.2214412195942916 2.2214412191386654 6.515886891884209e-08 0.0 0.0 0.0 0.0 0.0 0.0 9.240738067961098e-07 3.476881827858292e-07 4.2531462932220706e-08 -2.8475662131755503e-08 6.147405365792545e-08 -2.650151219200386e-15 -0.29859999998320197 -0.11235000001566994 0.31364999997695675 2.2214414693069955 2.2214414688513706 4.556249894594308e-10 0.0 0.0 0.0 0.0 0.0 0.0
153918.728 1.2706849461530112e-16 -1.5707963267948966 1.5707963267948966 -1.5707963267948966 -1.5707963267948966 0.0 0.0 0.0 0.0 0.0 0.0 0.0 0.0 0.0 0.0 0.0 0.0 0.0 -1.1512442590619146e-26 -0.5442396572688689 -0.7673661111166267 -0.229354796466502 -1.3146049461972196e-11 0.0 -1.511583712148294e-25 -7.14586669994025 -7.145866699940251 -1.0424175499402515 -5.974879480466362e-11 0.0 1.2706849461530112e-16 -1.570796314870016 1.5707963705062866 -1.570796314870016 -1.570796314870016 0.0 0.0 0.0 0.0 0.0 0.0 0.0 -1.151244268742903e-26 -0.5442396402359009 -0.7673661112785339 -0.22935479879379272 -1.3146049353263134e-11 0.0 -1.151244268742903e-26 -0.5442396402359009 -0.7673661112785339 -0.22935479879379272 -1.3146049353263134e-11 0.0 -0.29859999735544024 -0.11235000099231765 0.3136499823461779 2.2214412195942916 2.2214412191386654 6.515886891884209e-08 0.0 0.0 0.0 0.0 0.0 0.0 9.240738067961098e-07 3.476881827858292e-07 4.2531462932220706e-08 -2.8475662131755503e-08 6.147405365792545e-08 -2.650151219200386e-15 -0.29859999998320197 -0.11235000001566994 0.31364999997695675 2.2214414693069955 2.2214414688513706 4.556249894594308e-10 0.0 0.0 0.0 0.0 0.0 0.0
153918.736 1.2706849461530112e-16 -1.5707963267948966 1.5707963267948966 -1.5707963267948966 -1.5707963267948966 0.0 0.0 0.0 0.0 0.0 0.0 0.0 0.0 0.0 0.0 0.0 0.0 0.0 -1.1512442590619146e-26 -0.5442396572688689 -0.7673661111166267 -0.229354796466502 -1.3146049461972196e-11 0.0 -1.511583712148294e-25 -7.14586669994025 -7.145866699940251 -1.0424175499402515 -5.974879480466362e-11 0.0 1.2706849461530112e-16 -1.570796314870016 1.5707963705062866 -1.570796314870016 -1.570796314870016 0.0 0.0 0.0 0.0 0.0 0.0 0.0 -1.151244268742903e-26 -0.5442396402359009 -0.7673661112785339 -0.22935479879379272 -1.3146049353263134e-11 0.0 -1.151244268742903e-26 -0.5442396402359009 -0.7673661112785339 -0.22935479879379272 -1.3146049353263134e-11 0.0 -0.29859999735544024 -0.11235000099231765 0.3136499823461779 2.2214412195942916 2.2214412191386654 6.515886891884209e-08 0.0 0.0 0.0 0.0 0.0 0.0 9.240738067961098e-07 3.476881827858292e-07 4.2531462932220706e-08 -2.8475662131755503e-08 6.147405365792545e-08 -2.650151219200386e-15 -0.29859999998320197 -0.11235000001566994 0.31364999997695675 2.2214414693069955 2.2214414688513706 4.556249894594308e-10 0.0 0.0 0.0 0.0 0.0 0.0
153918.744 1.2706849461530112e-16 -1.5707963267948966 1.5707963267948966 -1.5707963267948966 -1.5707963267948966 0.0 0.0 0.0 0.0 0.0 0.0 0.0 0.0 0.0 0.0 0.0 0.0 0.0 -1.1512442590619146e-26 -0.5442396572688689 -0.7673661111166267 -0.229354796466502 -1.3146049461972196e-11 0.0 -1.511583712148294e-25 -7.14586669994025 -7.145866699940251 -1.0424175499402515 -5.974879480466362e-11 0.0 1.2706849461530112e-16 -1.570796314870016 1.5707963705062866 -1.570796314870016 -1.570796314870016 0.0 0.0 0.0 0.0 0.0 0.0 0.0 -1.151244268742903e-26 -0.5442396402359009 -0.7673661112785339 -0.22935479879379272 -1.3146049353263134e-11 0.0 -1.151244268742903e-26 -0.5442396402359009 -0.7673661112785339 -0.22935479879379272 -1.3146049353263134e-11 0.0 -0.29859999735544024 -0.11235000099231765 0.3136499823461779 2.2214412195942916 2.2214412191386654 6.515886891884209e-08 0.0 0.0 0.0 0.0 0.0 0.0 9.240738067961098e-07 3.476881827858292e-07 4.2531462932220706e-08 -2.8475662131755503e-08 6.147405365792545e-08 -2.650151219200386e-15 -0.29859999998320197 -0.11235000001566994 0.31364999997695675 2.2214414693069955 2.2214414688513706 4.556249894594308e-10 0.0 0.0 0.0 0.0 0.0 0.0
153918.75199999998 1.2706849461530112e-16 -1.5707963267948966 1.5707963267948966 -1.5707963267948966 -1.5707963267948966 0.0 0.0 0.0 0.0 0.0 0.0 0.0 0.0 0.0 0.0 0.0 0.0 0.0 -1.1512442590619146e-26 -0.5442396572688689 -0.7673661111166267 -0.229354796466502 -1.3146049461972196e-11 0.0 -1.511583712148294e-25 -7.14586669994025 -7.145866699940251 -1.0424175499402515 -5.974879480466362e-11 0.0 1.2706849461530112e-16 -1.570796314870016 1.5707963705062866 -1.570796314870016 -1.570796314870016 0.0 0.0 0.0 0.0 0.0 0.0 0.0 -1.151244268742903e-26 -0.5442396402359009 -0.7673661112785339 -0.22935479879379272 -1.3146049353263134e-11 0.0 -1.151244268742903e-26 -0.5442396402359009 -0.7673661112785339 -0.22935479879379272 -1.3146049353263134e-11 0.0 -0.29859999735544024 -0.11235000099231765 0.3136499823461779 2.2214412195942916 2.2214412191386654 6.515886891884209e-08 0.0 0.0 0.0 0.0 0.0 0.0 9.240738067961098e-07 3.476881827858292e-07 4.2531462932220706e-08 -2.8475662131755503e-08 6.147405365792545e-08 -2.650151219200386e-15 -0.29859999998320197 -0.11235000001566994 0.31364999997695675 2.2214414693069955 2.2214414688513706 4.556249894594308e-10 0.0 0.0 0.0 0.0 0.0 0.0
153918.75999999998 1.2706849461530112e-16 -1.5707963267948966 1.5707963267948966 -1.5707963267948966 -1.5707963267948966 0.0 0.0 0.0 0.0 0.0 0.0 0.0 0.0 0.0 0.0 0.0 0.0 0.0 -1.1512442590619146e-26 -0.5442396572688689 -0.7673661111166267 -0.229354796466502 -1.3146049461972196e-11 0.0 -1.511583712148294e-25 -7.14586669994025 -7.145866699940251 -1.0424175499402515 -5.974879480466362e-11 0.0 1.2706849461530112e-16 -1.570796314870016 1.5707963705062866 -1.570796314870016 -1.570796314870016 0.0 0.0 0.0 0.0 0.0 0.0 0.0 -1.151244268742903e-26 -0.5442396402359009 -0.7673661112785339 -0.22935479879379272 -1.3146049353263134e-11 0.0 -1.151244268742903e-26 -0.5442396402359009 -0.7673661112785339 -0.22935479879379272 -1.3146049353263134e-11 0.0 -0.29859999735544024 -0.11235000099231765 0.3136499823461779 2.2214412195942916 2.2214412191386654 6.515886891884209e-08 0.0 0.0 0.0 0.0 0.0 0.0 9.240738067961098e-07 3.476881827858292e-07 4.2531462932220706e-08 -2.8475662131755503e-08 6.147405365792545e-08 -2.650151219200386e-15 -0.29859999998320197 -0.11235000001566994 0.31364999997695675 2.2214414693069955 2.2214414688513706 4.556249894594308e-10 0.0 0.0 0.0 0.0 0.0 0.0
153918.76799999998 1.2706849461530112e-16 -1.5707963267948966 1.5707963267948966 -1.5707963267948966 -1.5707963267948966 0.0 0.0 0.0 0.0 0.0 0.0 0.0 0.0 0.0 0.0 0.0 0.0 0.0 -1.1512442590619146e-26 -0.5442396572688689 -0.7673661111166267 -0.229354796466502 -1.3146049461972196e-11 0.0 -1.511583712148294e-25 -7.14586669994025 -7.145866699940251 -1.0424175499402515 -5.974879480466362e-11 0.0 1.2706849461530112e-16 -1.570796314870016 1.5707963705062866 -1.570796314870016 -1.570796314870016 0.0 0.0 0.0 0.0 0.0 0.0 0.0 -1.151244268742903e-26 -0.5442396402359009 -0.7673661112785339 -0.22935479879379272 -1.3146049353263134e-11 0.0 -1.151244268742903e-26 -0.5442396402359009 -0.7673661112785339 -0.22935479879379272 -1.3146049353263134e-11 0.0 -0.29859999735544024 -0.11235000099231765 0.3136499823461779 2.2214412195942916 2.2214412191386654 6.515886891884209e-08 0.0 0.0 0.0 0.0 0.0 0.0 9.240738067961098e-07 3.476881827858292e-07 4.2531462932220706e-08 -2.8475662131755503e-08 6.147405365792545e-08 -2.650151219200386e-15 -0.29859999998320197 -0.11235000001566994 0.31364999997695675 2.2214414693069955 2.2214414688513706 4.556249894594308e-10 0.0 0.0 0.0 0.0 0.0 0.0
153918.77599999998 1.2706849461530112e-16 -1.5707963267948966 1.5707963267948966 -1.5707963267948966 -1.5707963267948966 0.0 0.0 0.0 0.0 0.0 0.0 0.0 0.0 0.0 0.0 0.0 0.0 0.0 -1.1512442590619146e-26 -0.5442396572688689 -0.7673661111166267 -0.229354796466502 -1.3146049461972196e-11 0.0 -1.511583712148294e-25 -7.14586669994025 -7.145866699940251 -1.0424175499402515 -5.974879480466362e-11 0.0 1.2706849461530112e-16 -1.570796314870016 1.5707963705062866 -1.570796314870016 -1.570796314870016 0.0 0.0 0.0 0.0 0.0 0.0 0.0 -1.151244268742903e-26 -0.5442396402359009 -0.7673661112785339 -0.22935479879379272 -1.3146049353263134e-11 0.0 -1.151244268742903e-26 -0.5442396402359009 -0.7673661112785339 -0.22935479879379272 -1.3146049353263134e-11 0.0 -0.29859999735544024 -0.11235000099231765 0.3136499823461779 2.2214412195942916 2.2214412191386654 6.515886891884209e-08 0.0 0.0 0.0 0.0 0.0 0.0 9.240738067961098e-07 3.476881827858292e-07 4.2531462932220706e-08 -2.8475662131755503e-08 6.147405365792545e-08 -2.650151219200386e-15 -0.29859999998320197 -0.11235000001566994 0.31364999997695675 2.2214414693069955 2.2214414688513706 4.556249894594308e-10 0.0 0.0 0.0 0.0 0.0 0.0
153918.78399999999 1.2706849461530112e-16 -1.5707963267948966 1.5707963267948966 -1.5707963267948966 -1.5707963267948966 0.0 0.0 0.0 0.0 0.0 0.0 0.0 0.0 0.0 0.0 0.0 0.0 0.0 -1.1512442590619146e-26 -0.5442396572688689 -0.7673661111166267 -0.229354796466502 -1.3146049461972196e-11 0.0 -1.511583712148294e-25 -7.14586669994025 -7.145866699940251 -1.0424175499402515 -5.974879480466362e-11 0.0 1.2706849461530112e-16 -1.570796314870016 1.5707963705062866 -1.570796314870016 -1.570796314870016 0.0 0.0 0.0 0.0 0.0 0.0 0.0 -1.151244268742903e-26 -0.5442396402359009 -0.7673661112785339 -0.22935479879379272 -1.3146049353263134e-11 0.0 -1.151244268742903e-26 -0.5442396402359009 -0.7673661112785339 -0.22935479879379272 -1.3146049353263134e-11 0.0 -0.29859999735544024 -0.11235000099231765 0.3136499823461779 2.2214412195942916 2.2214412191386654 6.515886891884209e-08 0.0 0.0 0.0 0.0 0.0 0.0 9.240738067961098e-07 3.476881827858292e-07 4.2531462932220706e-08 -2.8475662131755503e-08 6.147405365792545e-08 -2.650151219200386e-15 -0.29859999998320197 -0.11235000001566994 0.31364999997695675 2.2214414693069955 2.2214414688513706 4.556249894594308e-10 0.0 0.0 0.0 0.0 0.0 0.0
153918.792 1.2706849461530112e-16 -1.5707963267948966 1.5707963267948966 -1.5707963267948966 -1.5707963267948966 0.0 0.0 0.0 0.0 0.0 0.0 0.0 0.0 0.0 0.0 0.0 0.0 0.0 -1.1512442590619146e-26 -0.5442396572688689 -0.7673661111166267 -0.229354796466502 -1.3146049461972196e-11 0.0 -1.511583712148294e-25 -7.14586669994025 -7.145866699940251 -1.0424175499402515 -5.974879480466362e-11 0.0 1.2706849461530112e-16 -1.570796314870016 1.5707963705062866 -1.570796314870016 -1.570796314870016 0.0 0.0 0.0 0.0 0.0 0.0 0.0 -1.151244268742903e-26 -0.5442396402359009 -0.7673661112785339 -0.22935479879379272 -1.3146049353263134e-11 0.0 -1.151244268742903e-26 -0.5442396402359009 -0.7673661112785339 -0.22935479879379272 -1.3146049353263134e-11 0.0 -0.29859999735544024 -0.11235000099231765 0.3136499823461779 2.2214412195942916 2.2214412191386654 6.515886891884209e-08 0.0 0.0 0.0 0.0 0.0 0.0 9.240738067961098e-07 3.476881827858292e-07 4.2531462932220706e-08 -2.8475662131755503e-08 6.147405365792545e-08 -2.650151219200386e-15 -0.29859999998320197 -0.11235000001566994 0.31364999997695675 2.2214414693069955 2.2214414688513706 4.556249894594308e-10 0.0 0.0 0.0 0.0 0.0 0.0
153918.8 1.2706849461530112e-16 -1.5707963267948966 1.5707963267948966 -1.5707963267948966 -1.5707963267948966 0.0 0.0 0.0 0.0 0.0 0.0 0.0 0.0 0.0 0.0 0.0 0.0 0.0 -1.1512442590619146e-26 -0.5442396572688689 -0.7673661111166267 -0.229354796466502 -1.3146049461972196e-11 0.0 -1.511583712148294e-25 -7.14586669994025 -7.145866699940251 -1.0424175499402515 -5.974879480466362e-11 0.0 1.2706849461530112e-16 -1.570796314870016 1.5707963705062866 -1.570796314870016 -1.570796314870016 0.0 0.0 0.0 0.0 0.0 0.0 0.0 -1.151244268742903e-26 -0.5442396402359009 -0.7673661112785339 -0.22935479879379272 -1.3146049353263134e-11 0.0 -1.151244268742903e-26 -0.5442396402359009 -0.7673661112785339 -0.22935479879379272 -1.3146049353263134e-11 0.0 -0.29859999735544024 -0.11235000099231765 0.3136499823461779 2.2214412195942916 2.2214412191386654 6.515886891884209e-08 0.0 0.0 0.0 0.0 0.0 0.0 9.240738067961098e-07 3.476881827858292e-07 4.2531462932220706e-08 -2.8475662131755503e-08 6.147405365792545e-08 -2.650151219200386e-15 -0.29859999998320197 -0.11235000001566994 0.31364999997695675 2.2214414693069955 2.2214414688513706 4.556249894594308e-10 0.0 0.0 0.0 0.0 0.0 0.0
153918.808 1.2706849461530112e-16 -1.5707963267948966 1.5707963267948966 -1.5707963267948966 -1.5707963267948966 0.0 0.0 0.0 0.0 0.0 0.0 0.0 0.0 0.0 0.0 0.0 0.0 0.0 -1.1512442590619146e-26 -0.5442396572688689 -0.7673661111166267 -0.229354796466502 -1.3146049461972196e-11 0.0 -1.511583712148294e-25 -7.14586669994025 -7.145866699940251 -1.0424175499402515 -5.974879480466362e-11 0.0 1.2706849461530112e-16 -1.570796314870016 1.5707963705062866 -1.570796314870016 -1.570796314870016 0.0 0.0 0.0 0.0 0.0 0.0 0.0 -1.151244268742903e-26 -0.5442396402359009 -0.7673661112785339 -0.22935479879379272 -1.3146049353263134e-11 0.0 -1.151244268742903e-26 -0.5442396402359009 -0.7673661112785339 -0.22935479879379272 -1.3146049353263134e-11 0.0 -0.29859999735544024 -0.11235000099231765 0.3136499823461779 2.2214412195942916 2.2214412191386654 6.515886891884209e-08 0.0 0.0 0.0 0.0 0.0 0.0 9.240738067961098e-07 3.476881827858292e-07 4.2531462932220706e-08 -2.8475662131755503e-08 6.147405365792545e-08 -2.650151219200386e-15 -0.29859999998320197 -0.11235000001566994 0.31364999997695675 2.2214414693069955 2.2214414688513706 4.556249894594308e-10 0.0 0.0 0.0 0.0 0.0 0.0
153918.816 1.2706849461530112e-16 -1.5707963267948966 1.5707963267948966 -1.5707963267948966 -1.5707963267948966 0.0 0.0 0.0 0.0 0.0 0.0 0.0 0.0 0.0 0.0 0.0 0.0 0.0 -1.1512442590619146e-26 -0.5442396572688689 -0.7673661111166267 -0.229354796466502 -1.3146049461972196e-11 0.0 -1.511583712148294e-25 -7.14586669994025 -7.145866699940251 -1.0424175499402515 -5.974879480466362e-11 0.0 1.2706849461530112e-16 -1.570796314870016 1.5707963705062866 -1.570796314870016 -1.570796314870016 0.0 0.0 0.0 0.0 0.0 0.0 0.0 -1.151244268742903e-26 -0.5442396402359009 -0.7673661112785339 -0.22935479879379272 -1.3146049353263134e-11 0.0 -1.151244268742903e-26 -0.5442396402359009 -0.7673661112785339 -0.22935479879379272 -1.3146049353263134e-11 0.0 -0.29859999735544024 -0.11235000099231765 0.3136499823461779 2.2214412195942916 2.2214412191386654 6.515886891884209e-08 0.0 0.0 0.0 0.0 0.0 0.0 9.240738067961098e-07 3.476881827858292e-07 4.2531462932220706e-08 -2.8475662131755503e-08 6.147405365792545e-08 -2.650151219200386e-15 -0.29859999998320197 -0.11235000001566994 0.31364999997695675 2.2214414693069955 2.2214414688513706 4.556249894594308e-10 0.0 0.0 0.0 0.0 0.0 0.0
153918.824 1.2706849461530112e-16 -1.5707963267948966 1.5707963267948966 -1.5707963267948966 -1.5707963267948966 0.0 0.0 0.0 0.0 0.0 0.0 0.0 0.0 0.0 0.0 0.0 0.0 0.0 -1.1512442590619146e-26 -0.5442396572688689 -0.7673661111166267 -0.229354796466502 -1.3146049461972196e-11 0.0 -1.511583712148294e-25 -7.14586669994025 -7.145866699940251 -1.0424175499402515 -5.974879480466362e-11 0.0 1.2706849461530112e-16 -1.570796314870016 1.5707963705062866 -1.570796314870016 -1.570796314870016 0.0 0.0 0.0 0.0 0.0 0.0 0.0 -1.151244268742903e-26 -0.5442396402359009 -0.7673661112785339 -0.22935479879379272 -1.3146049353263134e-11 0.0 -1.151244268742903e-26 -0.5442396402359009 -0.7673661112785339 -0.22935479879379272 -1.3146049353263134e-11 0.0 -0.29859999735544024 -0.11235000099231765 0.3136499823461779 2.2214412195942916 2.2214412191386654 6.515886891884209e-08 0.0 0.0 0.0 0.0 0.0 0.0 9.240738067961098e-07 3.476881827858292e-07 4.2531462932220706e-08 -2.8475662131755503e-08 6.147405365792545e-08 -2.650151219200386e-15 -0.29859999998320197 -0.11235000001566994 0.31364999997695675 2.2214414693069955 2.2214414688513706 4.556249894594308e-10 0.0 0.0 0.0 0.0 0.0 0.0
153918.832 1.2706849461530112e-16 -1.5707963267948966 1.5707963267948966 -1.5707963267948966 -1.5707963267948966 0.0 0.0 0.0 0.0 0.0 0.0 0.0 0.0 0.0 0.0 0.0 0.0 0.0 -1.1512442590619146e-26 -0.5442396572688689 -0.7673661111166267 -0.229354796466502 -1.3146049461972196e-11 0.0 -1.511583712148294e-25 -7.14586669994025 -7.145866699940251 -1.0424175499402515 -5.974879480466362e-11 0.0 1.2706849461530112e-16 -1.570796314870016 1.5707963705062866 -1.570796314870016 -1.570796314870016 0.0 0.0 0.0 0.0 0.0 0.0 0.0 -1.151244268742903e-26 -0.5442396402359009 -0.7673661112785339 -0.22935479879379272 -1.3146049353263134e-11 0.0 -1.151244268742903e-26 -0.5442396402359009 -0.7673661112785339 -0.22935479879379272 -1.3146049353263134e-11 0.0 -0.29859999735544024 -0.11235000099231765 0.3136499823461779 2.2214412195942916 2.2214412191386654 6.515886891884209e-08 0.0 0.0 0.0 0.0 0.0 0.0 9.240738067961098e-07 3.476881827858292e-07 4.2531462932220706e-08 -2.8475662131755503e-08 6.147405365792545e-08 -2.650151219200386e-15 -0.29859999998320197 -0.11235000001566994 0.31364999997695675 2.2214414693069955 2.2214414688513706 4.556249894594308e-10 0.0 0.0 0.0 0.0 0.0 0.0
153918.84 1.2706849461530112e-16 -1.5707963267948966 1.5707963267948966 -1.5707963267948966 -1.5707963267948966 0.0 0.0 0.0 0.0 0.0 0.0 0.0 0.0 0.0 0.0 0.0 0.0 0.0 -1.1512442590619146e-26 -0.5442396572688689 -0.7673661111166267 -0.229354796466502 -1.3146049461972196e-11 0.0 -1.511583712148294e-25 -7.14586669994025 -7.145866699940251 -1.0424175499402515 -5.974879480466362e-11 0.0 1.2706849461530112e-16 -1.570796314870016 1.5707963705062866 -1.570796314870016 -1.570796314870016 0.0 0.0 0.0 0.0 0.0 0.0 0.0 -1.151244268742903e-26 -0.5442396402359009 -0.7673661112785339 -0.22935479879379272 -1.3146049353263134e-11 0.0 -1.151244268742903e-26 -0.5442396402359009 -0.7673661112785339 -0.22935479879379272 -1.3146049353263134e-11 0.0 -0.29859999735544024 -0.11235000099231765 0.3136499823461779 2.2214412195942916 2.2214412191386654 6.515886891884209e-08 0.0 0.0 0.0 0.0 0.0 0.0 9.240738067961098e-07 3.476881827858292e-07 4.2531462932220706e-08 -2.8475662131755503e-08 6.147405365792545e-08 -2.650151219200386e-15 -0.29859999998320197 -0.11235000001566994 0.31364999997695675 2.2214414693069955 2.2214414688513706 4.556249894594308e-10 0.0 0.0 0.0 0.0 0.0 0.0
153918.848 1.2706849461530112e-16 -1.5707963267948966 1.5707963267948966 -1.5707963267948966 -1.5707963267948966 0.0 0.0 0.0 0.0 0.0 0.0 0.0 0.0 0.0 0.0 0.0 0.0 0.0 -1.1512442590619146e-26 -0.5442396572688689 -0.7673661111166267 -0.229354796466502 -1.3146049461972196e-11 0.0 -1.511583712148294e-25 -7.14586669994025 -7.145866699940251 -1.0424175499402515 -5.974879480466362e-11 0.0 1.2706849461530112e-16 -1.570796314870016 1.5707963705062866 -1.570796314870016 -1.570796314870016 0.0 0.0 0.0 0.0 0.0 0.0 0.0 -1.151244268742903e-26 -0.5442396402359009 -0.7673661112785339 -0.22935479879379272 -1.3146049353263134e-11 0.0 -1.151244268742903e-26 -0.5442396402359009 -0.7673661112785339 -0.22935479879379272 -1.3146049353263134e-11 0.0 -0.29859999735544024 -0.11235000099231765 0.3136499823461779 2.2214412195942916 2.2214412191386654 6.515886891884209e-08 0.0 0.0 0.0 0.0 0.0 0.0 9.240738067961098e-07 3.476881827858292e-07 4.2531462932220706e-08 -2.8475662131755503e-08 6.147405365792545e-08 -2.650151219200386e-15 -0.29859999998320197 -0.11235000001566994 0.31364999997695675 2.2214414693069955 2.2214414688513706 4.556249894594308e-10 0.0 0.0 0.0 0.0 0.0 0.0
153918.856 1.2706849461530112e-16 -1.5707963267948966 1.5707963267948966 -1.5707963267948966 -1.5707963267948966 0.0 0.0 0.0 0.0 0.0 0.0 0.0 0.0 0.0 0.0 0.0 0.0 0.0 -1.1512442590619146e-26 -0.5442396572688689 -0.7673661111166267 -0.229354796466502 -1.3146049461972196e-11 0.0 -1.511583712148294e-25 -7.14586669994025 -7.145866699940251 -1.0424175499402515 -5.974879480466362e-11 0.0 1.2706849461530112e-16 -1.570796314870016 1.5707963705062866 -1.570796314870016 -1.570796314870016 0.0 0.0 0.0 0.0 0.0 0.0 0.0 -1.151244268742903e-26 -0.5442396402359009 -0.7673661112785339 -0.22935479879379272 -1.3146049353263134e-11 0.0 -1.151244268742903e-26 -0.5442396402359009 -0.7673661112785339 -0.22935479879379272 -1.3146049353263134e-11 0.0 -0.29859999735544024 -0.11235000099231765 0.3136499823461779 2.2214412195942916 2.2214412191386654 6.515886891884209e-08 0.0 0.0 0.0 0.0 0.0 0.0 9.240738067961098e-07 3.476881827858292e-07 4.2531462932220706e-08 -2.8475662131755503e-08 6.147405365792545e-08 -2.650151219200386e-15 -0.29859999998320197 -0.11235000001566994 0.31364999997695675 2.2214414693069955 2.2214414688513706 4.556249894594308e-10 0.0 0.0 0.0 0.0 0.0 0.0
153918.864 1.2706849461530112e-16 -1.5707963267948966 1.5707963267948966 -1.5707963267948966 -1.5707963267948966 0.0 0.0 0.0 0.0 0.0 0.0 0.0 0.0 0.0 0.0 0.0 0.0 0.0 -1.1512442590619146e-26 -0.5442396572688689 -0.7673661111166267 -0.229354796466502 -1.3146049461972196e-11 0.0 -1.511583712148294e-25 -7.14586669994025 -7.145866699940251 -1.0424175499402515 -5.974879480466362e-11 0.0 1.2706849461530112e-16 -1.570796314870016 1.5707963705062866 -1.570796314870016 -1.570796314870016 0.0 0.0 0.0 0.0 0.0 0.0 0.0 -1.151244268742903e-26 -0.5442396402359009 -0.7673661112785339 -0.22935479879379272 -1.3146049353263134e-11 0.0 -1.151244268742903e-26 -0.5442396402359009 -0.7673661112785339 -0.22935479879379272 -1.3146049353263134e-11 0.0 -0.29859999735544024 -0.11235000099231765 0.3136499823461779 2.2214412195942916 2.2214412191386654 6.515886891884209e-08 0.0 0.0 0.0 0.0 0.0 0.0 9.240738067961098e-07 3.476881827858292e-07 4.2531462932220706e-08 -2.8475662131755503e-08 6.147405365792545e-08 -2.650151219200386e-15 -0.29859999998320197 -0.11235000001566994 0.31364999997695675 2.2214414693069955 2.2214414688513706 4.556249894594308e-10 0.0 0.0 0.0 0.0 0.0 0.0
153918.872 1.2706849461530112e-16 -1.5707963267948966 1.5707963267948966 -1.5707963267948966 -1.5707963267948966 0.0 0.0 0.0 0.0 0.0 0.0 0.0 0.0 0.0 0.0 0.0 0.0 0.0 -1.1512442590619146e-26 -0.5442396572688689 -0.7673661111166267 -0.229354796466502 -1.3146049461972196e-11 0.0 -1.511583712148294e-25 -7.14586669994025 -7.145866699940251 -1.0424175499402515 -5.974879480466362e-11 0.0 1.2706849461530112e-16 -1.570796314870016 1.5707963705062866 -1.570796314870016 -1.570796314870016 0.0 0.0 0.0 0.0 0.0 0.0 0.0 -1.151244268742903e-26 -0.5442396402359009 -0.7673661112785339 -0.22935479879379272 -1.3146049353263134e-11 0.0 -1.151244268742903e-26 -0.5442396402359009 -0.7673661112785339 -0.22935479879379272 -1.3146049353263134e-11 0.0 -0.29859999735544024 -0.11235000099231765 0.3136499823461779 2.2214412195942916 2.2214412191386654 6.515886891884209e-08 0.0 0.0 0.0 0.0 0.0 0.0 9.240738067961098e-07 3.476881827858292e-07 4.2531462932220706e-08 -2.8475662131755503e-08 6.147405365792545e-08 -2.650151219200386e-15 -0.29859999998320197 -0.11235000001566994 0.31364999997695675 2.2214414693069955 2.2214414688513706 4.556249894594308e-10 0.0 0.0 0.0 0.0 0.0 0.0
153918.88 1.2706849461530112e-16 -1.5707963267948966 1.5707963267948966 -1.5707963267948966 -1.5707963267948966 0.0 0.0 0.0 0.0 0.0 0.0 0.0 0.0 0.0 0.0 0.0 0.0 0.0 -1.1512442590619146e-26 -0.5442396572688689 -0.7673661111166267 -0.229354796466502 -1.3146049461972196e-11 0.0 -1.511583712148294e-25 -7.14586669994025 -7.145866699940251 -1.0424175499402515 -5.974879480466362e-11 0.0 1.2706849461530112e-16 -1.570796314870016 1.5707963705062866 -1.570796314870016 -1.570796314870016 0.0 0.0 0.0 0.0 0.0 0.0 0.0 -1.151244268742903e-26 -0.5442396402359009 -0.7673661112785339 -0.22935479879379272 -1.3146049353263134e-11 0.0 -1.151244268742903e-26 -0.5442396402359009 -0.7673661112785339 -0.22935479879379272 -1.3146049353263134e-11 0.0 -0.29859999735544024 -0.11235000099231765 0.3136499823461779 2.2214412195942916 2.2214412191386654 6.515886891884209e-08 0.0 0.0 0.0 0.0 0.0 0.0 9.240738067961098e-07 3.476881827858292e-07 4.2531462932220706e-08 -2.8475662131755503e-08 6.147405365792545e-08 -2.650151219200386e-15 -0.29859999998320197 -0.11235000001566994 0.31364999997695675 2.2214414693069955 2.2214414688513706 4.556249894594308e-10 0.0 0.0 0.0 0.0 0.0 0.0
153918.888 1.2706849461530112e-16 -1.5707963267948966 1.5707963267948966 -1.5707963267948966 -1.5707963267948966 0.0 0.0 0.0 0.0 0.0 0.0 0.0 0.0 0.0 0.0 0.0 0.0 0.0 -1.1512442590619146e-26 -0.5442396572688689 -0.7673661111166267 -0.229354796466502 -1.3146049461972196e-11 0.0 -1.511583712148294e-25 -7.14586669994025 -7.145866699940251 -1.0424175499402515 -5.974879480466362e-11 0.0 1.2706849461530112e-16 -1.570796314870016 1.5707963705062866 -1.570796314870016 -1.570796314870016 0.0 0.0 0.0 0.0 0.0 0.0 0.0 -1.151244268742903e-26 -0.5442396402359009 -0.7673661112785339 -0.22935479879379272 -1.3146049353263134e-11 0.0 -1.151244268742903e-26 -0.5442396402359009 -0.7673661112785339 -0.22935479879379272 -1.3146049353263134e-11 0.0 -0.29859999735544024 -0.11235000099231765 0.3136499823461779 2.2214412195942916 2.2214412191386654 6.515886891884209e-08 0.0 0.0 0.0 0.0 0.0 0.0 9.240738067961098e-07 3.476881827858292e-07 4.2531462932220706e-08 -2.8475662131755503e-08 6.147405365792545e-08 -2.650151219200386e-15 -0.29859999998320197 -0.11235000001566994 0.31364999997695675 2.2214414693069955 2.2214414688513706 4.556249894594308e-10 0.0 0.0 0.0 0.0 0.0 0.0
153918.89599999998 1.2706849461530112e-16 -1.5707963267948966 1.5707963267948966 -1.5707963267948966 -1.5707963267948966 0.0 0.0 0.0 0.0 0.0 0.0 0.0 0.0 0.0 0.0 0.0 0.0 0.0 -1.1512442590619146e-26 -0.5442396572688689 -0.7673661111166267 -0.229354796466502 -1.3146049461972196e-11 0.0 -1.511583712148294e-25 -7.14586669994025 -7.145866699940251 -1.0424175499402515 -5.974879480466362e-11 0.0 1.2706849461530112e-16 -1.570796314870016 1.5707963705062866 -1.570796314870016 -1.570796314870016 0.0 0.0 0.0 0.0 0.0 0.0 0.0 -1.151244268742903e-26 -0.5442396402359009 -0.7673661112785339 -0.22935479879379272 -1.3146049353263134e-11 0.0 -1.151244268742903e-26 -0.5442396402359009 -0.7673661112785339 -0.22935479879379272 -1.3146049353263134e-11 0.0 -0.29859999735544024 -0.11235000099231765 0.3136499823461779 2.2214412195942916 2.2214412191386654 6.515886891884209e-08 0.0 0.0 0.0 0.0 0.0 0.0 9.240738067961098e-07 3.476881827858292e-07 4.2531462932220706e-08 -2.8475662131755503e-08 6.147405365792545e-08 -2.650151219200386e-15 -0.29859999998320197 -0.11235000001566994 0.31364999997695675 2.2214414693069955 2.2214414688513706 4.556249894594308e-10 0.0 0.0 0.0 0.0 0.0 0.0
153918.90399999998 1.2706849461530112e-16 -1.5707963267948966 1.5707963267948966 -1.5707963267948966 -1.5707963267948966 0.0 0.0 0.0 0.0 0.0 0.0 0.0 0.0 0.0 0.0 0.0 0.0 0.0 -1.1512442590619146e-26 -0.5442396572688689 -0.7673661111166267 -0.229354796466502 -1.3146049461972196e-11 0.0 -1.511583712148294e-25 -7.14586669994025 -7.145866699940251 -1.0424175499402515 -5.974879480466362e-11 0.0 1.2706849461530112e-16 -1.570796314870016 1.5707963705062866 -1.570796314870016 -1.570796314870016 0.0 0.0 0.0 0.0 0.0 0.0 0.0 -1.151244268742903e-26 -0.5442396402359009 -0.7673661112785339 -0.22935479879379272 -1.3146049353263134e-11 0.0 -1.151244268742903e-26 -0.5442396402359009 -0.7673661112785339 -0.22935479879379272 -1.3146049353263134e-11 0.0 -0.29859999735544024 -0.11235000099231765 0.3136499823461779 2.2214412195942916 2.2214412191386654 6.515886891884209e-08 0.0 0.0 0.0 0.0 0.0 0.0 9.240738067961098e-07 3.476881827858292e-07 4.2531462932220706e-08 -2.8475662131755503e-08 6.147405365792545e-08 -2.650151219200386e-15 -0.29859999998320197 -0.11235000001566994 0.31364999997695675 2.2214414693069955 2.2214414688513706 4.556249894594308e-10 0.0 0.0 0.0 0.0 0.0 0.0
153918.91199999998 1.2706849461530112e-16 -1.5707963267948966 1.5707963267948966 -1.5707963267948966 -1.5707963267948966 0.0 0.0 0.0 0.0 0.0 0.0 0.0 0.0 0.0 0.0 0.0 0.0 0.0 -1.1512442590619146e-26 -0.5442396572688689 -0.7673661111166267 -0.229354796466502 -1.3146049461972196e-11 0.0 -1.511583712148294e-25 -7.14586669994025 -7.145866699940251 -1.0424175499402515 -5.974879480466362e-11 0.0 1.2706849461530112e-16 -1.570796314870016 1.5707963705062866 -1.570796314870016 -1.570796314870016 0.0 0.0 0.0 0.0 0.0 0.0 0.0 -1.151244268742903e-26 -0.5442396402359009 -0.7673661112785339 -0.22935479879379272 -1.3146049353263134e-11 0.0 -1.151244268742903e-26 -0.5442396402359009 -0.7673661112785339 -0.22935479879379272 -1.3146049353263134e-11 0.0 -0.29859999735544024 -0.11235000099231765 0.3136499823461779 2.2214412195942916 2.2214412191386654 6.515886891884209e-08 0.0 0.0 0.0 0.0 0.0 0.0 9.240738067961098e-07 3.476881827858292e-07 4.2531462932220706e-08 -2.8475662131755503e-08 6.147405365792545e-08 -2.650151219200386e-15 -0.29859999998320197 -0.11235000001566994 0.31364999997695675 2.2214414693069955 2.2214414688513706 4.556249894594308e-10 0.0 0.0 0.0 0.0 0.0 0.0
153918.91999999998 1.2706849461530112e-16 -1.5707963267948966 1.5707963267948966 -1.5707963267948966 -1.5707963267948966 0.0 0.0 0.0 0.0 0.0 0.0 0.0 0.0 0.0 0.0 0.0 0.0 0.0 -1.1512442590619146e-26 -0.5442396572688689 -0.7673661111166267 -0.229354796466502 -1.3146049461972196e-11 0.0 -1.511583712148294e-25 -7.14586669994025 -7.145866699940251 -1.0424175499402515 -5.974879480466362e-11 0.0 1.2706849461530112e-16 -1.570796314870016 1.5707963705062866 -1.570796314870016 -1.570796314870016 0.0 0.0 0.0 0.0 0.0 0.0 0.0 -1.151244268742903e-26 -0.5442396402359009 -0.7673661112785339 -0.22935479879379272 -1.3146049353263134e-11 0.0 -1.151244268742903e-26 -0.5442396402359009 -0.7673661112785339 -0.22935479879379272 -1.3146049353263134e-11 0.0 -0.29859999735544024 -0.11235000099231765 0.3136499823461779 2.2214412195942916 2.2214412191386654 6.515886891884209e-08 0.0 0.0 0.0 0.0 0.0 0.0 9.240738067961098e-07 3.476881827858292e-07 4.2531462932220706e-08 -2.8475662131755503e-08 6.147405365792545e-08 -2.650151219200386e-15 -0.29859999998320197 -0.11235000001566994 0.31364999997695675 2.2214414693069955 2.2214414688513706 4.556249894594308e-10 0.0 0.0 0.0 0.0 0.0 0.0
153918.92799999999 1.2706849461530112e-16 -1.5707963267948966 1.5707963267948966 -1.5707963267948966 -1.5707963267948966 0.0 0.0 0.0 0.0 0.0 0.0 0.0 0.0 0.0 0.0 0.0 0.0 0.0 -1.1512442590619146e-26 -0.5442396572688689 -0.7673661111166267 -0.229354796466502 -1.3146049461972196e-11 0.0 -1.511583712148294e-25 -7.14586669994025 -7.145866699940251 -1.0424175499402515 -5.974879480466362e-11 0.0 1.2706849461530112e-16 -1.570796314870016 1.5707963705062866 -1.570796314870016 -1.570796314870016 0.0 0.0 0.0 0.0 0.0 0.0 0.0 -1.151244268742903e-26 -0.5442396402359009 -0.7673661112785339 -0.22935479879379272 -1.3146049353263134e-11 0.0 -1.151244268742903e-26 -0.5442396402359009 -0.7673661112785339 -0.22935479879379272 -1.3146049353263134e-11 0.0 -0.29859999735544024 -0.11235000099231765 0.3136499823461779 2.2214412195942916 2.2214412191386654 6.515886891884209e-08 0.0 0.0 0.0 0.0 0.0 0.0 9.240738067961098e-07 3.476881827858292e-07 4.2531462932220706e-08 -2.8475662131755503e-08 6.147405365792545e-08 -2.650151219200386e-15 -0.29859999998320197 -0.11235000001566994 0.31364999997695675 2.2214414693069955 2.2214414688513706 4.556249894594308e-10 0.0 0.0 0.0 0.0 0.0 0.0
153918.936 1.2706849461530112e-16 -1.5707963267948966 1.5707963267948966 -1.5707963267948966 -1.5707963267948966 0.0 0.0 0.0 0.0 0.0 0.0 0.0 0.0 0.0 0.0 0.0 0.0 0.0 -1.1512442590619146e-26 -0.5442396572688689 -0.7673661111166267 -0.229354796466502 -1.3146049461972196e-11 0.0 -1.511583712148294e-25 -7.14586669994025 -7.145866699940251 -1.0424175499402515 -5.974879480466362e-11 0.0 1.2706849461530112e-16 -1.570796314870016 1.5707963705062866 -1.570796314870016 -1.570796314870016 0.0 0.0 0.0 0.0 0.0 0.0 0.0 -1.151244268742903e-26 -0.5442396402359009 -0.7673661112785339 -0.22935479879379272 -1.3146049353263134e-11 0.0 -1.151244268742903e-26 -0.5442396402359009 -0.7673661112785339 -0.22935479879379272 -1.3146049353263134e-11 0.0 -0.29859999735544024 -0.11235000099231765 0.3136499823461779 2.2214412195942916 2.2214412191386654 6.515886891884209e-08 0.0 0.0 0.0 0.0 0.0 0.0 9.240738067961098e-07 3.476881827858292e-07 4.2531462932220706e-08 -2.8475662131755503e-08 6.147405365792545e-08 -2.650151219200386e-15 -0.29859999998320197 -0.11235000001566994 0.31364999997695675 2.2214414693069955 2.2214414688513706 4.556249894594308e-10 0.0 0.0 0.0 0.0 0.0 0.0
153918.944 1.2706849461530112e-16 -1.5707963267948966 1.5707963267948966 -1.5707963267948966 -1.5707963267948966 0.0 0.0 0.0 0.0 0.0 0.0 0.0 0.0 0.0 0.0 0.0 0.0 0.0 -1.1512442590619146e-26 -0.5442396572688689 -0.7673661111166267 -0.229354796466502 -1.3146049461972196e-11 0.0 -1.511583712148294e-25 -7.14586669994025 -7.145866699940251 -1.0424175499402515 -5.974879480466362e-11 0.0 1.2706849461530112e-16 -1.570796314870016 1.5707963705062866 -1.570796314870016 -1.570796314870016 0.0 0.0 0.0 0.0 0.0 0.0 0.0 -1.151244268742903e-26 -0.5442396402359009 -0.7673661112785339 -0.22935479879379272 -1.3146049353263134e-11 0.0 -1.151244268742903e-26 -0.5442396402359009 -0.7673661112785339 -0.22935479879379272 -1.3146049353263134e-11 0.0 -0.29859999735544024 -0.11235000099231765 0.3136499823461779 2.2214412195942916 2.2214412191386654 6.515886891884209e-08 0.0 0.0 0.0 0.0 0.0 0.0 9.240738067961098e-07 3.476881827858292e-07 4.2531462932220706e-08 -2.8475662131755503e-08 6.147405365792545e-08 -2.650151219200386e-15 -0.29859999998320197 -0.11235000001566994 0.31364999997695675 2.2214414693069955 2.2214414688513706 4.556249894594308e-10 0.0 0.0 0.0 0.0 0.0 0.0
153918.952 1.2706849461530112e-16 -1.5707963267948966 1.5707963267948966 -1.5707963267948966 -1.5707963267948966 0.0 0.0 0.0 0.0 0.0 0.0 0.0 0.0 0.0 0.0 0.0 0.0 0.0 -1.1512442590619146e-26 -0.5442396572688689 -0.7673661111166267 -0.229354796466502 -1.3146049461972196e-11 0.0 -1.511583712148294e-25 -7.14586669994025 -7.145866699940251 -1.0424175499402515 -5.974879480466362e-11 0.0 1.2706849461530112e-16 -1.570796314870016 1.5707963705062866 -1.570796314870016 -1.570796314870016 0.0 0.0 0.0 0.0 0.0 0.0 0.0 -1.151244268742903e-26 -0.5442396402359009 -0.7673661112785339 -0.22935479879379272 -1.3146049353263134e-11 0.0 -1.151244268742903e-26 -0.5442396402359009 -0.7673661112785339 -0.22935479879379272 -1.3146049353263134e-11 0.0 -0.29859999735544024 -0.11235000099231765 0.3136499823461779 2.2214412195942916 2.2214412191386654 6.515886891884209e-08 0.0 0.0 0.0 0.0 0.0 0.0 9.240738067961098e-07 3.476881827858292e-07 4.2531462932220706e-08 -2.8475662131755503e-08 6.147405365792545e-08 -2.650151219200386e-15 -0.29859999998320197 -0.11235000001566994 0.31364999997695675 2.2214414693069955 2.2214414688513706 4.556249894594308e-10 0.0 0.0 0.0 0.0 0.0 0.0
153918.96 1.2706849461530112e-16 -1.5707963267948966 1.5707963267948966 -1.5707963267948966 -1.5707963267948966 0.0 0.0 0.0 0.0 0.0 0.0 0.0 0.0 0.0 0.0 0.0 0.0 0.0 -1.1512442590619146e-26 -0.5442396572688689 -0.7673661111166267 -0.229354796466502 -1.3146049461972196e-11 0.0 -1.511583712148294e-25 -7.14586669994025 -7.145866699940251 -1.0424175499402515 -5.974879480466362e-11 0.0 1.2706849461530112e-16 -1.570796314870016 1.5707963705062866 -1.570796314870016 -1.570796314870016 0.0 0.0 0.0 0.0 0.0 0.0 0.0 -1.151244268742903e-26 -0.5442396402359009 -0.7673661112785339 -0.22935479879379272 -1.3146049353263134e-11 0.0 -1.151244268742903e-26 -0.5442396402359009 -0.7673661112785339 -0.22935479879379272 -1.3146049353263134e-11 0.0 -0.29859999735544024 -0.11235000099231765 0.3136499823461779 2.2214412195942916 2.2214412191386654 6.515886891884209e-08 0.0 0.0 0.0 0.0 0.0 0.0 9.240738067961098e-07 3.476881827858292e-07 4.2531462932220706e-08 -2.8475662131755503e-08 6.147405365792545e-08 -2.650151219200386e-15 -0.29859999998320197 -0.11235000001566994 0.31364999997695675 2.2214414693069955 2.2214414688513706 4.556249894594308e-10 0.0 0.0 0.0 0.0 0.0 0.0
153918.968 1.2706849461530112e-16 -1.5707963267948966 1.5707963267948966 -1.5707963267948966 -1.5707963267948966 0.0 0.0 0.0 0.0 0.0 0.0 0.0 0.0 0.0 0.0 0.0 0.0 0.0 -1.1512442590619146e-26 -0.5442396572688689 -0.7673661111166267 -0.229354796466502 -1.3146049461972196e-11 0.0 -1.511583712148294e-25 -7.14586669994025 -7.145866699940251 -1.0424175499402515 -5.974879480466362e-11 0.0 1.2706849461530112e-16 -1.570796314870016 1.5707963705062866 -1.570796314870016 -1.570796314870016 0.0 0.0 0.0 0.0 0.0 0.0 0.0 -1.151244268742903e-26 -0.5442396402359009 -0.7673661112785339 -0.22935479879379272 -1.3146049353263134e-11 0.0 -1.151244268742903e-26 -0.5442396402359009 -0.7673661112785339 -0.22935479879379272 -1.3146049353263134e-11 0.0 -0.29859999735544024 -0.11235000099231765 0.3136499823461779 2.2214412195942916 2.2214412191386654 6.515886891884209e-08 0.0 0.0 0.0 0.0 0.0 0.0 9.240738067961098e-07 3.476881827858292e-07 4.2531462932220706e-08 -2.8475662131755503e-08 6.147405365792545e-08 -2.650151219200386e-15 -0.29859999998320197 -0.11235000001566994 0.31364999997695675 2.2214414693069955 2.2214414688513706 4.556249894594308e-10 0.0 0.0 0.0 0.0 0.0 0.0
