mkrssg/UniversalRobots/rtde_client_3.5/examples/falscheWerte da mit movel/q1_0-90_t=10s.csv
timestamp target_q_0 target_q_1 target_q_2 target_q_3 target_q_4 target_q_5 target_qd_0 target_qd_1 target_qd_2 target_qd_3 target_qd_4 target_qd_5 target_qdd_0 target_qdd_1 target_qdd_2 target_qdd_3 target_qdd_4 target_qdd_5 target_current_0 target_current_1 target_current_2 target_current_3 target_current_4 target_current_5 target_moment_0 target_moment_1 target_moment_2 target_moment_3 target_moment_4 target_moment_5 actual_q_0 actual_q_1 actual_q_2 actual_q_3 actual_q_4 actual_q_5 actual_qd_0 actual_qd_1 actual_qd_2 actual_qd_3 actual_qd_4 actual_qd_5 actual_current_0 actual_current_1 actual_current_2 actual_current_3 actual_current_4 actual_current_5 joint_control_output_0 joint_control_output_1 joint_control_output_2 joint_control_output_3 joint_control_output_4 joint_control_output_5 actual_TCP_pose_0 actual_TCP_pose_1 actual_TCP_pose_2 actual_TCP_pose_3 actual_TCP_pose_4 actual_TCP_pose_5 actual_TCP_speed_0 actual_TCP_speed_1 actual_TCP_speed_2 actual_TCP_speed_3 actual_TCP_speed_4 actual_TCP_speed_5 actual_TCP_force_0 actual_TCP_force_1 actual_TCP_force_2 actual_TCP_force_3 actual_TCP_force_4 actual_TCP_force_5 target_TCP_pose_0 target_TCP_pose_1 target_TCP_pose_2 target_TCP_pose_3 target_TCP_pose_4 target_TCP_pose_5 target_TCP_speed_0 target_TCP_speed_1 target_TCP_speed_2 target_TCP_speed_3 target_TCP_speed_4 target_TCP_speed_5
154703.008 2.220446049250313e-16 -1.5707963267948966 1.5707963267948966 -1.5707963267948966 -1.5707963267948966 0.0 0.0 0.0 0.0 0.0 0.0 0.0 0.0 0.0 0.0 0.0 0.0 0.0 -1.1512442590619146e-26 -0.5442396572688689 -0.7673661111166267 -0.229354796466502 -1.3146049461972196e-11 0.0 -1.511583712148294e-25 -7.14586669994025 -7.145866699940251 -1.0424175499402515 -5.974879480466362e-11 0.0 2.220446049250313e-16 -1.570796314870016 1.5707963705062866 -1.570796314870016 -1.570796314870016 0.0 0.0 0.0 0.0 0.0 0.0 0.0 -1.151244268742903e-26 -0.5442396402359009 -0.7673661112785339 -0.22935479879379272 -1.3146049353263134e-11 0.0 -1.151244268742903e-26 -0.5442396402359009 -0.7673661112785339 -0.22935479879379272 -1.3146049353263134e-11 0.0 -0.29859999735544024 -0.11235000099231768 0.3136499823461779 2.2214412195942916 2.2214412191386654 6.515886891884209e-08 0.0 0.0 0.0 0.0 0.0 0.0 9.240738067961098e-07 3.4768818278582935e-07 4.253146293222069e-08 -2.847566213175547e-08 6.147405365792548e-08 -2.6501511911833498e-15 -0.29859999998320197 -0.11235000001566997 0.31364999997695675 2.2214414693069955 2.2214414688513706 4.556249894594308e-10 0.0 0.0 0.0 0.0 0.0 0.0
154703.016 2.220446049250313e-16 -1.5707963267948966 1.5707963267948966 -1.5707963267948966 -1.5707963267948966 0.0 0.0 0.0 0.0 0.0 0.0 0.0 0.0 0.0 0.0 0.0 0.0 0.0 -1.1512442590619146e-26 -0.5442396572688689 -0.7673661111166267 -0.229354796466502 -1.3146049461972196e-11 0.0 -1.511583712148294e-25 -7.14586669994025 -7.145866699940251 -1.0424175499402515 -5.974879480466362e-11 0.0 2.220446049250313e-16 -1.570796314870016 1.5707963705062866 -1.570796314870016 -1.570796314870016 0.0 0.0 0.0 0.0 0.0 0.0 0.0 -1.151244268742903e-26 -0.5442396402359009 -0.7673661112785339 -0.22935479879379272 -1.3146049353263134e-11 0.0 -1.151244268742903e-26 -0.5442396402359009 -0.7673661112785339 -0.22935479879379272 -1.3146049353263134e-11 0.0 -0.29859999735544024 -0.11235000099231768 0.3136499823461779 2.2214412195942916 2.2214412191386654 6.515886891884209e-08 0.0 0.0 0.0 0.0 0.0 0.0 9.240738067961098e-07 3.4768818278582935e-07 4.253146293222069e-08 -2.847566213175547e-08 6.147405365792548e-08 -2.6501511911833498e-15 -0.29859999998320197 -0.11235000001566997 0.31364999997695675 2.2214414693069955 2.2214414688513706 4.556249894594308e-10 0.0 0.0 0.0 0.0 0.0 0.0
154703.024 2.220446049250313e-16 -1.5707963267948966 1.5707963267948966 -1.5707963267948966 -1.5707963267948966 0.0 0.0 0.0 0.0 0.0 0.0 0.0 0.0 0.0 0.0 0.0 0.0 0.0 -1.1512442590619146e-26 -0.5442396572688689 -0.7673661111166267 -0.229354796466502 -1.3146049461972196e-11 0.0 -1.511583712148294e-25 -7.14586669994025 -7.145866699940251 -1.0424175499402515 -5.974879480466362e-11 0.0 2.220446049250313e-16 -1.570796314870016 1.5707963705062866 -1.570796314870016 -1.570796314870016 0.0 0.0 0.0 0.0 0.0 0.0 0.0 -1.151244268742903e-26 -0.5442396402359009 -0.7673661112785339 -0.22935479879379272 -1.3146049353263134e-11 0.0 -1.151244268742903e-26 -0.5442396402359009 -0.7673661112785339 -0.22935479879379272 -1.3146049353263134e-11 0.0 -0.29859999735544024 -0.11235000099231768 0.3136499823461779 2.2214412195942916 2.2214412191386654 6.515886891884209e-08 0.0 0.0 0.0 0.0 0.0 0.0 9.240738067961098e-07 3.4768818278582935e-07 4.253146293222069e-08 -2.847566213175547e-08 6.147405365792548e-08 -2.6501511911833498e-15 -0.29859999998320197 -0.11235000001566997 0.31364999997695675 2.2214414693069955 2.2214414688513706 4.556249894594308e-10 0.0 0.0 0.0 0.0 0.0 0.0
154703.032 2.220446049250313e-16 -1.5707963267948966 1.5707963267948966 -1.5707963267948966 -1.5707963267948966 0.0 0.0 0.0 0.0 0.0 0.0 0.0 0.0 0.0 0.0 0.0 0.0 0.0 -1.1512442590619146e-26 -0.5442396572688689 -0.7673661111166267 -0.229354796466502 -1.3146049461972196e-11 0.0 -1.511583712148294e-25 -7.14586669994025 -7.145866699940251 -1.0424175499402515 -5.974879480466362e-11 0.0 2.220446049250313e-16 -1.570796314870016 1.5707963705062866 -1.570796314870016 -1.570796314870016 0.0 0.0 0.0 0.0 0.0 0.0 0.0 -1.151244268742903e-26 -0.5442396402359009 -0.7673661112785339 -0.22935479879379272 -1.3146049353263134e-11 0.0 -1.151244268742903e-26 -0.5442396402359009 -0.7673661112785339 -0.22935479879379272 -1.3146049353263134e-11 0.0 -0.29859999735544024 -0.11235000099231768 0.3136499823461779 2.2214412195942916 2.2214412191386654 6.515886891884209e-08 0.0 0.0 0.0 0.0 0.0 0.0 9.240738067961098e-07 3.4768818278582935e-07 4.253146293222069e-08 -2.847566213175547e-08 6.147405365792548e-08 -2.6501511911833498e-15 -0.29859999998320197 -0.11235000001566997 0.31364999997695675 2.2214414693069955 2.2214414688513706 4.556249894594308e-10 0.0 0.0 0.0 0.0 0.0 0.0
154703.03999999998 2.220446049250313e-16 -1.5707963267948966 1.5707963267948966 -1.5707963267948966 -1.5707963267948966 0.0 0.0 0.0 0.0 0.0 0.0 0.0 0.0 0.0 0.0 0.0 0.0 0.0 -1.1512442590619146e-26 -0.5442396572688689 -0.7673661111166267 -0.229354796466502 -1.3146049461972196e-11 0.0 -1.511583712148294e-25 -7.14586669994025 -7.145866699940251 -1.0424175499402515 -5.974879480466362e-11 0.0 2.220446049250313e-16 -1.570796314870016 1.5707963705062866 -1.570796314870016 -1.570796314870016 0.0 0.0 0.0 0.0 0.0 0.0 0.0 -1.151244268742903e-26 -0.5442396402359009 -0.7673661112785339 -0.22935479879379272 -1.3146049353263134e-11 0.0 -1.151244268742903e-26 -0.5442396402359009 -0.7673661112785339 -0.22935479879379272 -1.3146049353263134e-11 0.0 -0.29859999735544024 -0.11235000099231768 0.3136499823461779 2.2214412195942916 2.2214412191386654 6.515886891884209e-08 0.0 0.0 0.0 0.0 0.0 0.0 9.240738067961098e-07 3.4768818278582935e-07 4.253146293222069e-08 -2.847566213175547e-08 6.147405365792548e-08 -2.6501511911833498e-15 -0.29859999998320197 -0.11235000001566997 0.31364999997695675 2.2214414693069955 2.2214414688513706 4.556249894594308e-10 0.0 0.0 0.0 0.0 0.0 0.0
154703.04799999998 2.220446049250313e-16 -1.5707963267948966 1.5707963267948966 -1.5707963267948966 -1.5707963267948966 0.0 0.0 0.0 0.0 0.0 0.0 0.0 0.0 0.0 0.0 0.0 0.0 0.0 -1.1512442590619146e-26 -0.5442396572688689 -0.7673661111166267 -0.229354796466502 -1.3146049461972196e-11 0.0 -1.511583712148294e-25 -7.14586669994025 -7.145866699940251 -1.0424175499402515 -5.974879480466362e-11 0.0 2.220446049250313e-16 -1.570796314870016 1.5707963705062866 -1.570796314870016 -1.570796314870016 0.0 0.0 0.0 0.0 0.0 0.0 0.0 -1.151244268742903e-26 -0.5442396402359009 -0.7673661112785339 -0.22935479879379272 -1.3146049353263134e-11 0.0 -1.151244268742903e-26 -0.5442396402359009 -0.7673661112785339 -0.22935479879379272 -1.3146049353263134e-11 0.0 -0.29859999735544024 -0.11235000099231768 0.3136499823461779 2.2214412195942916 2.2214412191386654 6.515886891884209e-08 0.0 0.0 0.0 0.0 0.0 0.0 9.240738067961098e-07 3.4768818278582935e-07 4.253146293222069e-08 -2.847566213175547e-08 6.147405365792548e-08 -2.6501511911833498e-15 -0.29859999998320197 -0.11235000001566997 0.31364999997695675 2.2214414693069955 2.2214414688513706 4.556249894594308e-10 0.0 0.0 0.0 0.0 0.0 0.0
154703.05599999998 2.220446049250313e-16 -1.5707963267948966 1.5707963267948966 -1.5707963267948966 -1.5707963267948966 0.0 0.0 0.0 0.0 0.0 0.0 0.0 0.0 0.0 0.0 0.0 0.0 0.0 -1.1512442590619146e-26 -0.5442396572688689 -0.7673661111166267 -0.229354796466502 -1.3146049461972196e-11 0.0 -1.511583712148294e-25 -7.14586669994025 -7.145866699940251 -1.0424175499402515 -5.974879480466362e-11 0.0 2.220446049250313e-16 -1.570796314870016 1.5707963705062866 -1.570796314870016 -1.570796314870016 0.0 0.0 0.0 0.0 0.0 0.0 0.0 -1.151244268742903e-26 -0.5442396402359009 -0.7673661112785339 -0.22935479879379272 -1.3146049353263134e-11 0.0 -1.151244268742903e-26 -0.5442396402359009 -0.7673661112785339 -0.22935479879379272 -1.3146049353263134e-11 0.0 -0.29859999735544024 -0.11235000099231768 0.3136499823461779 2.2214412195942916 2.2214412191386654 6.515886891884209e-08 0.0 0.0 0.0 0.0 0.0 0.0 9.240738067961098e-07 3.4768818278582935e-07 4.253146293222069e-08 -2.847566213175547e-08 6.147405365792548e-08 -2.6501511911833498e-15 -0.29859999998320197 -0.11235000001566997 0.31364999997695675 2.2214414693069955 2.2214414688513706 4.556249894594308e-10 0.0 0.0 0.0 0.0 0.0 0.0
154703.06399999998 2.220446049250313e-16 -1.5707963267948966 1.5707963267948966 -1.5707963267948966 -1.5707963267948966 0.0 0.0 0.0 0.0 0.0 0.0 0.0 0.0 0.0 0.0 0.0 0.0 0.0 -1.1512442590619146e-26 -0.5442396572688689 -0.7673661111166267 -0.229354796466502 -1.3146049461972196e-11 0.0 -1.511583712148294e-25 -7.14586669994025 -7.145866699940251 -1.0424175499402515 -5.974879480466362e-11 0.0 2.220446049250313e-16 -1.570796314870016 1.5707963705062866 -1.570796314870016 -1.570796314870016 0.0 0.0 0.0 0.0 0.0 0.0 0.0 -1.151244268742903e-26 -0.5442396402359009 -0.7673661112785339 -0.22935479879379272 -1.3146049353263134e-11 0.0 -1.151244268742903e-26 -0.5442396402359009 -0.7673661112785339 -0.22935479879379272 -1.3146049353263134e-11 0.0 -0.29859999735544024 -0.11235000099231768 0.3136499823461779 2.2214412195942916 2.2214412191386654 6.515886891884209e-08 0.0 0.0 0.0 0.0 0.0 0.0 9.240738067961098e-07 3.4768818278582935e-07 4.253146293222069e-08 -2.847566213175547e-08 6.147405365792548e-08 -2.6501511911833498e-15 -0.29859999998320197 -0.11235000001566997 0.31364999997695675 2.2214414693069955 2.2214414688513706 4.556249894594308e-10 0.0 0.0 0.0 0.0 0.0 0.0
154703.072 2.220446049250313e-16 -1.5707963267948966 1.5707963267948966 -1.5707963267948966 -1.5707963267948966 0.0 0.0 0.0 0.0 0.0 0.0 0.0 0.0 0.0 0.0 0.0 0.0 0.0 -1.1512442590619146e-26 -0.5442396572688689 -0.7673661111166267 -0.229354796466502 -1.3146049461972196e-11 0.0 -1.511583712148294e-25 -7.14586669994025 -7.145866699940251 -1.0424175499402515 -5.974879480466362e-11 0.0 2.220446049250313e-16 -1.570796314870016 1.5707963705062866 -1.570796314870016 -1.570796314870016 0.0 0.0 0.0 0.0 0.0 0.0 0.0 -1.151244268742903e-26 -0.5442396402359009 -0.7673661112785339 -0.22935479879379272 -1.3146049353263134e-11 0.0 -1.151244268742903e-26 -0.5442396402359009 -0.7673661112785339 -0.22935479879379272 -1.3146049353263134e-11 0.0 -0.29859999735544024 -0.11235000099231768 0.3136499823461779 2.2214412195942916 2.2214412191386654 6.515886891884209e-08 0.0 0.0 0.0 0.0 0.0 0.0 9.240738067961098e-07 3.4768818278582935e-07 4.253146293222069e-08 -2.847566213175547e-08 6.147405365792548e-08 -2.6501511911833498e-15 -0.29859999998320197 -0.11235000001566997 0.31364999997695675 2.2214414693069955 2.2214414688513706 4.556249894594308e-10 0.0 0.0 0.0 0.0 0.0 0.0
154703.08 2.220446049250313e-16 -1.5707963267948966 1.5707963267948966 -1.5707963267948966 -1.5707963267948966 0.0 0.0 0.0 0.0 0.0 0.0 0.0 0.0 0.0 0.0 0.0 0.0 0.0 -1.1512442590619146e-26 -0.5442396572688689 -0.7673661111166267 -0.229354796466502 -1.3146049461972196e-11 0.0 -1.511583712148294e-25 -7.14586669994025 -7.145866699940251 -1.0424175499402515 -5.974879480466362e-11 0.0 2.220446049250313e-16 -1.570796314870016 1.5707963705062866 -1.570796314870016 -1.570796314870016 0.0 0.0 0.0 0.0 0.0 0.0 0.0 -1.151244268742903e-26 -0.5442396402359009 -0.7673661112785339 -0.22935479879379272 -1.3146049353263134e-11 0.0 -1.151244268742903e-26 -0.5442396402359009 -0.7673661112785339 -0.22935479879379272 -1.3146049353263134e-11 0.0 -0.29859999735544024 -0.11235000099231768 0.3136499823461779 2.2214412195942916 2.2214412191386654 6.515886891884209e-08 0.0 0.0 0.0 0.0 0.0 0.0 9.240738067961098e-07 3.4768818278582935e-07 4.253146293222069e-08 -2.847566213175547e-08 6.147405365792548e-08 -2.6501511911833498e-15 -0.29859999998320197 -0.11235000001566997 0.31364999997695675 2.2214414693069955 2.2214414688513706 4.556249894594308e-10 0.0 0.0 0.0 0.0 0.0 0.0
154703.088 2.220446049250313e-16 -1.5707963267948966 1.5707963267948966 -1.5707963267948966 -1.5707963267948966 0.0 0.0 0.0 0.0 0.0 0.0 0.0 0.0 0.0 0.0 0.0 0.0 0.0 -1.1512442590619146e-26 -0.5442396572688689 -0.7673661111166267 -0.229354796466502 -1.3146049461972196e-11 0.0 -1.511583712148294e-25 -7.14586669994025 -7.145866699940251 -1.0424175499402515 -5.974879480466362e-11 0.0 2.220446049250313e-16 -1.570796314870016 1.5707963705062866 -1.570796314870016 -1.570796314870016 0.0 0.0 0.0 0.0 0.0 0.0 0.0 -1.151244268742903e-26 -0.5442396402359009 -0.7673661112785339 -0.22935479879379272 -1.3146049353263134e-11 0.0 -1.151244268742903e-26 -0.5442396402359009 -0.7673661112785339 -0.22935479879379272 -1.3146049353263134e-11 0.0 -0.29859999735544024 -0.11235000099231768 0.3136499823461779 2.2214412195942916 2.2214412191386654 6.515886891884209e-08 0.0 0.0 0.0 0.0 0.0 0.0 9.240738067961098e-07 3.4768818278582935e-07 4.253146293222069e-08 -2.847566213175547e-08 6.147405365792548e-08 -2.6501511911833498e-15 -0.29859999998320197 -0.11235000001566997 0.31364999997695675 2.2214414693069955 2.2214414688513706 4.556249894594308e-10 0.0 0.0 0.0 0.0 0.0 0.0
154703.096 2.220446049250313e-16 -1.5707963267948966 1.5707963267948966 -1.5707963267948966 -1.5707963267948966 0.0 0.0 0.0 0.0 0.0 0.0 0.0 0.0 0.0 0.0 0.0 0.0 0.0 -1.1512442590619146e-26 -0.5442396572688689 -0.7673661111166267 -0.229354796466502 -1.3146049461972196e-11 0.0 -1.511583712148294e-25 -7.14586669994025 -7.145866699940251 -1.0424175499402515 -5.974879480466362e-11 0.0 2.220446049250313e-16 -1.570796314870016 1.5707963705062866 -1.570796314870016 -1.570796314870016 0.0 0.0 0.0 0.0 0.0 0.0 0.0 -1.151244268742903e-26 -0.5442396402359009 -0.7673661112785339 -0.22935479879379272 -1.3146049353263134e-11 0.0 -1.151244268742903e-26 -0.5442396402359009 -0.7673661112785339 -0.22935479879379272 -1.3146049353263134e-11 0.0 -0.29859999735544024 -0.11235000099231768 0.3136499823461779 2.2214412195942916 2.2214412191386654 6.515886891884209e-08 0.0 0.0 0.0 0.0 0.0 0.0 9.240738067961098e-07 3.4768818278582935e-07 4.253146293222069e-08 -2.847566213175547e-08 6.147405365792548e-08 -2.6501511911833498e-15 -0.29859999998320197 -0.11235000001566997 0.31364999997695675 2.2214414693069955 2.2214414688513706 4.556249894594308e-10 0.0 0.0 0.0 0.0 0.0 0.0
154703.104 2.220446049250313e-16 -1.5707963267948966 1.5707963267948966 -1.5707963267948966 -1.5707963267948966 0.0 0.0 0.0 0.0 0.0 0.0 0.0 0.0 0.0 0.0 0.0 0.0 0.0 -1.1512442590619146e-26 -0.5442396572688689 -0.7673661111166267 -0.229354796466502 -1.3146049461972196e-11 0.0 -1.511583712148294e-25 -7.14586669994025 -7.145866699940251 -1.0424175499402515 -5.974879480466362e-11 0.0 2.220446049250313e-16 -1.570796314870016 1.5707963705062866 -1.570796314870016 -1.570796314870016 0.0 0.0 0.0 0.0 0.0 0.0 0.0 -1.151244268742903e-26 -0.5442396402359009 -0.7673661112785339 -0.22935479879379272 -1.3146049353263134e-11 0.0 -1.151244268742903e-26 -0.5442396402359009 -0.7673661112785339 -0.22935479879379272 -1.3146049353263134e-11 0.0 -0.29859999735544024 -0.11235000099231768 0.3136499823461779 2.2214412195942916 2.2214412191386654 6.515886891884209e-08 0.0 0.0 0.0 0.0 0.0 0.0 9.240738067961098e-07 3.4768818278582935e-07 4.253146293222069e-08 -2.847566213175547e-08 6.147405365792548e-08 -2.6501511911833498e-15 -0.29859999998320197 -0.11235000001566997 0.31364999997695675 2.2214414693069955 2.2214414688513706 4.556249894594308e-10 0.0 0.0 0.0 0.0 0.0 0.0
154703.112 2.220446049250313e-16 -1.5707963267948966 1.5707963267948966 -1.5707963267948966 -1.5707963267948966 0.0 0.0 0.0 0.0 0.0 0.0 0.0 0.0 0.0 0.0 0.0 0.0 0.0 -1.1512442590619146e-26 -0.5442396572688689 -0.7673661111166267 -0.229354796466502 -1.3146049461972196e-11 0.0 -1.511583712148294e-25 -7.14586669994025 -7.145866699940251 -1.0424175499402515 -5.974879480466362e-11 0.0 2.220446049250313e-16 -1.570796314870016 1.5707963705062866 -1.570796314870016 -1.570796314870016 0.0 0.0 0.0 0.0 0.0 0.0 0.0 -1.151244268742903e-26 -0.5442396402359009 -0.7673661112785339 -0.22935479879379272 -1.3146049353263134e-11 0.0 -1.151244268742903e-26 -0.5442396402359009 -0.7673661112785339 -0.22935479879379272 -1.3146049353263134e-11 0.0 -0.29859999735544024 -0.11235000099231768 0.3136499823461779 2.2214412195942916 2.2214412191386654 6.515886891884209e-08 0.0 0.0 0.0 0.0 0.0 0.0 9.240738067961098e-07 3.4768818278582935e-07 4.253146293222069e-08 -2.847566213175547e-08 6.147405365792548e-08 -2.6501511911833498e-15 -0.29859999998320197 -0.11235000001566997 0.31364999997695675 2.2214414693069955 2.2214414688513706 4.556249894594308e-10 0.0 0.0 0.0 0.0 0.0 0.0
154703.12 2.220446049250313e-16 -1.5707963267948966 1.5707963267948966 -1.5707963267948966 -1.5707963267948966 0.0 0.0 0.0 0.0 0.0 0.0 0.0 0.0 0.0 0.0 0.0 0.0 0.0 -1.1512442590619146e-26 -0.5442396572688689 -0.7673661111166267 -0.229354796466502 -1.3146049461972196e-11 0.0 -1.511583712148294e-25 -7.14586669994025 -7.145866699940251 -1.0424175499402515 -5.974879480466362e-11 0.0 2.220446049250313e-16 -1.570796314870016 1.5707963705062866 -1.570796314870016 -1.570796314870016 0.0 0.0 0.0 0.0 0.0 0.0 0.0 -1.151244268742903e-26 -0.5442396402359009 -0.7673661112785339 -0.22935479879379272 -1.3146049353263134e-11 0.0 -1.151244268742903e-26 -0.5442396402359009 -0.7673661112785339 -0.22935479879379272 -1.3146049353263134e-11 0.0 -0.29859999735544024 -0.11235000099231768 0.3136499823461779 2.2214412195942916 2.2214412191386654 6.515886891884209e-08 0.0 0.0 0.0 0.0 0.0 0.0 9.240738067961098e-07 3.4768818278582935e-07 4.253146293222069e-08 -2.847566213175547e-08 6.147405365792548e-08 -2.6501511911833498e-15 -0.29859999998320197 -0.11235000001566997 0.31364999997695675 2.2214414693069955 2.2214414688513706 4.556249894594308e-10 0.0 0.0 0.0 0.0 0.0 0.0
154703.128 2.220446049250313e-16 -1.5707963267948966 1.5707963267948966 -1.5707963267948966 -1.5707963267948966 0.0 0.0 0.0 0.0 0.0 0.0 0.0 0.0 0.0 0.0 0.0 0.0 0.0 -1.1512442590619146e-26 -0.5442396572688689 -0.7673661111166267 -0.229354796466502 -1.3146049461972196e-11 0.0 -1.511583712148294e-25 -7.14586669994025 -7.145866699940251 -1.0424175499402515 -5.974879480466362e-11 0.0 2.220446049250313e-16 -1.570796314870016 1.5707963705062866 -1.570796314870016 -1.570796314870016 0.0 0.0 0.0 0.0 0.0 0.0 0.0 -1.151244268742903e-26 -0.5442396402359009 -0.7673661112785339 -0.22935479879379272 -1.3146049353263134e-11 0.0 -1.151244268742903e-26 -0.5442396402359009 -0.7673661112785339 -0.22935479879379272 -1.3146049353263134e-11 0.0 -0.29859999735544024 -0.11235000099231768 0.3136499823461779 2.2214412195942916 2.2214412191386654 6.515886891884209e-08 0.0 0.0 0.0 0.0 0.0 0.0 9.240738067961098e-07 3.4768818278582935e-07 4.253146293222069e-08 -2.847566213175547e-08 6.147405365792548e-08 -2.6501511911833498e-15 -0.29859999998320197 -0.11235000001566997 0.31364999997695675 2.2214414693069955 2.2214414688513706 4.556249894594308e-10 0.0 0.0 0.0 0.0 0.0 0.0
154703.136 2.220446049250313e-16 -1.5707963267948966 1.5707963267948966 -1.5707963267948966 -1.5707963267948966 0.0 0.0 0.0 0.0 0.0 0.0 0.0 0.0 0.0 0.0 0.0 0.0 0.0 -1.1512442590619146e-26 -0.5442396572688689 -0.7673661111166267 -0.229354796466502 -1.3146049461972196e-11 0.0 -1.511583712148294e-25 -7.14586669994025 -7.145866699940251 -1.0424175499402515 -5.974879480466362e-11 0.0 2.220446049250313e-16 -1.570796314870016 1.5707963705062866 -1.570796314870016 -1.570796314870016 0.0 0.0 0.0 0.0 0.0 0.0 0.0 -1.151244268742903e-26 -0.5442396402359009 -0.7673661112785339 -0.22935479879379272 -1.3146049353263134e-11 0.0 -1.151244268742903e-26 -0.5442396402359009 -0.7673661112785339 -0.22935479879379272 -1.3146049353263134e-11 0.0 -0.29859999735544024 -0.11235000099231768 0.3136499823461779 2.2214412195942916 2.2214412191386654 6.515886891884209e-08 0.0 0.0 0.0 0.0 0.0 0.0 9.240738067961098e-07 3.4768818278582935e-07 4.253146293222069e-08 -2.847566213175547e-08 6.147405365792548e-08 -2.6501511911833498e-15 -0.29859999998320197 -0.11235000001566997 0.31364999997695675 2.2214414693069955 2.2214414688513706 4.556249894594308e-10 0.0 0.0 0.0 0.0 0.0 0.0
154703.144 2.220446049250313e-16 -1.5707963267948966 1.5707963267948966 -1.5707963267948966 -1.5707963267948966 0.0 0.0 0.0 0.0 0.0 0.0 0.0 0.0 0.0 0.0 0.0 0.0 0.0 -1.1512442590619146e-26 -0.5442396572688689 -0.7673661111166267 -0.229354796466502 -1.3146049461972196e-11 0.0 -1.511583712148294e-25 -7.14586669994025 -7.145866699940251 -1.0424175499402515 -5.974879480466362e-11 0.0 2.220446049250313e-16 -1.570796314870016 1.5707963705062866 -1.570796314870016 -1.570796314870016 0.0 0.0 0.0 0.0 0.0 0.0 0.0 -1.151244268742903e-26 -0.5442396402359009 -0.7673661112785339 -0.22935479879379272 -1.3146049353263134e-11 0.0 -1.151244268742903e-26 -0.5442396402359009 -0.7673661112785339 -0.22935479879379272 -1.3146049353263134e-11 0.0 -0.29859999735544024 -0.11235000099231768 0.3136499823461779 2.2214412195942916 2.2214412191386654 6.515886891884209e-08 0.0 0.0 0.0 0.0 0.0 0.0 9.240738067961098e-07 3.4768818278582935e-07 4.253146293222069e-08 -2.847566213175547e-08 6.147405365792548e-08 -2.6501511911833498e-15 -0.29859999998320197 -0.11235000001566997 0.31364999997695675 2.2214414693069955 2.2214414688513706 4.556249894594308e-10 0.0 0.0 0.0 0.0 0.0 0.0
154703.152 2.220446049250313e-16 -1.5707963267948966 1.5707963267948966 -1.5707963267948966 -1.5707963267948966 0.0 0.0 0.0 0.0 0.0 0.0 0.0 0.0 0.0 0.0 0.0 0.0 0.0 -1.1512442590619146e-26 -0.5442396572688689 -0.7673661111166267 -0.229354796466502 -1.3146049461972196e-11 0.0 -1.511583712148294e-25 -7.14586669994025 -7.145866699940251 -1.0424175499402515 -5.974879480466362e-11 0.0 2.220446049250313e-16 -1.570796314870016 1.5707963705062866 -1.570796314870016 -1.570796314870016 0.0 0.0 0.0 0.0 0.0 0.0 0.0 -1.151244268742903e-26 -0.5442396402359009 -0.7673661112785339 -0.22935479879379272 -1.3146049353263134e-11 0.0 -1.151244268742903e-26 -0.5442396402359009 -0.7673661112785339 -0.22935479879379272 -1.3146049353263134e-11 0.0 -0.29859999735544024 -0.11235000099231768 0.3136499823461779 2.2214412195942916 2.2214412191386654 6.515886891884209e-08 0.0 0.0 0.0 0.0 0.0 0.0 9.240738067961098e-07 3.4768818278582935e-07 4.253146293222069e-08 -2.847566213175547e-08 6.147405365792548e-08 -2.6501511911833498e-15 -0.29859999998320197 -0.11235000001566997 0.31364999997695675 2.2214414693069955 2.2214414688513706 4.556249894594308e-10 0.0 0.0 0.0 0.0 0.0 0.0
154703.16 2.220446049250313e-16 -1.5707963267948966 1.5707963267948966 -1.5707963267948966 -1.5707963267948966 0.0 0.0 0.0 0.0 0.0 0.0 0.0 0.0 0.0 0.0 0.0 0.0 0.0 -1.1512442590619146e-26 -0.5442396572688689 -0.7673661111166267 -0.229354796466502 -1.3146049461972196e-11 0.0 -1.511583712148294e-25 -7.14586669994025 -7.145866699940251 -1.0424175499402515 -5.974879480466362e-11 0.0 2.220446049250313e-16 -1.570796314870016 1.5707963705062866 -1.570796314870016 -1.570796314870016 0.0 0.0 0.0 0.0 0.0 0.0 0.0 -1.151244268742903e-26 -0.5442396402359009 -0.7673661112785339 -0.22935479879379272 -1.3146049353263134e-11 0.0 -1.151244268742903e-26 -0.5442396402359009 -0.7673661112785339 -0.22935479879379272 -1.3146049353263134e-11 0.0 -0.29859999735544024 -0.11235000099231768 0.3136499823461779 2.2214412195942916 2.2214412191386654 6.515886891884209e-08 0.0 0.0 0.0 0.0 0.0 0.0 9.240738067961098e-07 3.4768818278582935e-07 4.253146293222069e-08 -2.847566213175547e-08 6.147405365792548e-08 -2.6501511911833498e-15 -0.29859999998320197 -0.11235000001566997 0.31364999997695675 2.2214414693069955 2.2214414688513706 4.556249894594308e-10 0.0 0.0 0.0 0.0 0.0 0.0
154703.168 2.220446049250313e-16 -1.5707963267948966 1.5707963267948966 -1.5707963267948966 -1.5707963267948966 0.0 0.0 0.0 0.0 0.0 0.0 0.0 0.0 0.0 0.0 0.0 0.0 0.0 -1.1512442590619146e-26 -0.5442396572688689 -0.7673661111166267 -0.229354796466502 -1.3146049461972196e-11 0.0 -1.511583712148294e-25 -7.14586669994025 -7.145866699940251 -1.0424175499402515 -5.974879480466362e-11 0.0 2.220446049250313e-16 -1.570796314870016 1.5707963705062866 -1.570796314870016 -1.570796314870016 0.0 0.0 0.0 0.0 0.0 0.0 0.0 -1.151244268742903e-26 -0.5442396402359009 -0.7673661112785339 -0.22935479879379272 -1.3146049353263134e-11 0.0 -1.151244268742903e-26 -0.5442396402359009 -0.7673661112785339 -0.22935479879379272 -1.3146049353263134e-11 0.0 -0.29859999735544024 -0.11235000099231768 0.3136499823461779 2.2214412195942916 2.2214412191386654 6.515886891884209e-08 0.0 0.0 0.0 0.0 0.0 0.0 9.240738067961098e-07 3.4768818278582935e-07 4.253146293222069e-08 -2.847566213175547e-08 6.147405365792548e-08 -2.6501511911833498e-15 -0.29859999998320197 -0.11235000001566997 0.31364999997695675 2.2214414693069955 2.2214414688513706 4.556249894594308e-10 0.0 0.0 0.0 0.0 0.0 0.0
154703.176 2.220446049250313e-16 -1.5707963267948966 1.5707963267948966 -1.5707963267948966 -1.5707963267948966 0.0 0.0 0.0 0.0 0.0 0.0 0.0 0.0 0.0 0.0 0.0 0.0 0.0 -1.1512442590619146e-26 -0.5442396572688689 -0.7673661111166267 -0.229354796466502 -1.3146049461972196e-11 0.0 -1.511583712148294e-25 -7.14586669994025 -7.145866699940251 -1.0424175499402515 -5.974879480466362e-11 0.0 2.220446049250313e-16 -1.570796314870016 1.5707963705062866 -1.570796314870016 -1.570796314870016 0.0 0.0 0.0 0.0 0.0 0.0 0.0 -1.151244268742903e-26 -0.5442396402359009 -0.7673661112785339 -0.22935479879379272 -1.3146049353263134e-11 0.0 -1.151244268742903e-26 -0.5442396402359009 -0.7673661112785339 -0.22935479879379272 -1.3146049353263134e-11 0.0 -0.29859999735544024 -0.11235000099231768 0.3136499823461779 2.2214412195942916 2.2214412191386654 6.515886891884209e-08 0.0 0.0 0.0 0.0 0.0 0.0 9.240738067961098e-07 3.4768818278582935e-07 4.253146293222069e-08 -2.847566213175547e-08 6.147405365792548e-08 -2.6501511911833498e-15 -0.29859999998320197 -0.11235000001566997 0.31364999997695675 2.2214414693069955 2.2214414688513706 4.556249894594308e-10 0.0 0.0 0.0 0.0 0.0 0.0
154703.18399999998 2.220446049250313e-16 -1.5707963267948966 1.5707963267948966 -1.5707963267948966 -1.5707963267948966 0.0 0.0 0.0 0.0 0.0 0.0 0.0 0.0 0.0 0.0 0.0 0.0 0.0 -1.1512442590619146e-26 -0.5442396572688689 -0.7673661111166267 -0.229354796466502 -1.3146049461972196e-11 0.0 -1.511583712148294e-25 -7.14586669994025 -7.145866699940251 -1.0424175499402515 -5.974879480466362e-11 0.0 2.220446049250313e-16 -1.570796314870016 1.5707963705062866 -1.570796314870016 -1.570796314870016 0.0 0.0 0.0 0.0 0.0 0.0 0.0 -1.151244268742903e-26 -0.5442396402359009 -0.7673661112785339 -0.22935479879379272 -1.3146049353263134e-11 0.0 -1.151244268742903e-26 -0.5442396402359009 -0.7673661112785339 -0.22935479879379272 -1.3146049353263134e-11 0.0 -0.29859999735544024 -0.11235000099231768 0.3136499823461779 2.2214412195942916 2.2214412191386654 6.515886891884209e-08 0.0 0.0 0.0 0.0 0.0 0.0 9.240738067961098e-07 3.4768818278582935e-07 4.253146293222069e-08 -2.847566213175547e-08 6.147405365792548e-08 -2.6501511911833498e-15 -0.29859999998320197 -0.11235000001566997 0.31364999997695675 2.2214414693069955 2.2214414688513706 4.556249894594308e-10 0.0 0.0 0.0 0.0 0.0 0.0
154703.19199999998 2.220446049250313e-16 -1.5707963267948966 1.5707963267948966 -1.5707963267948966 -1.5707963267948966 0.0 0.0 0.0 0.0 0.0 0.0 0.0 0.0 0.0 0.0 0.0 0.0 0.0 -1.1512442590619146e-26 -0.5442396572688689 -0.7673661111166267 -0.229354796466502 -1.3146049461972196e-11 0.0 -1.511583712148294e-25 -7.14586669994025 -7.145866699940251 -1.0424175499402515 -5.974879480466362e-11 0.0 2.220446049250313e-16 -1.570796314870016 1.5707963705062866 -1.570796314870016 -1.570796314870016 0.0 0.0 0.0 0.0 0.0 0.0 0.0 -1.151244268742903e-26 -0.5442396402359009 -0.7673661112785339 -0.22935479879379272 -1.3146049353263134e-11 0.0 -1.151244268742903e-26 -0.5442396402359009 -0.7673661112785339 -0.22935479879379272 -1.3146049353263134e-11 0.0 -0.29859999735544024 -0.11235000099231768 0.3136499823461779 2.2214412195942916 2.2214412191386654 6.515886891884209e-08 0.0 0.0 0.0 0.0 0.0 0.0 9.240738067961098e-07 3.4768818278582935e-07 4.253146293222069e-08 -2.847566213175547e-08 6.147405365792548e-08 -2.6501511911833498e-15 -0.29859999998320197 -0.11235000001566997 0.31364999997695675 2.2214414693069955 2.2214414688513706 4.556249894594308e-10 0.0 0.0 0.0 0.0 0.0 0.0
154703.19999999998 2.220446049250313e-16 -1.5707963267948966 1.5707963267948966 -1.5707963267948966 -1.5707963267948966 0.0 0.0 0.0 0.0 0.0 0.0 0.0 0.0 0.0 0.0 0.0 0.0 0.0 -1.1512442590619146e-26 -0.5442396572688689 -0.7673661111166267 -0.229354796466502 -1.3146049461972196e-11 0.0 -1.511583712148294e-25 -7.14586669994025 -7.145866699940251 -1.0424175499402515 -5.974879480466362e-11 0.0 2.220446049250313e-16 -1.570796314870016 1.5707963705062866 -1.570796314870016 -1.570796314870016 0.0 0.0 0.0 0.0 0.0 0.0 0.0 -1.151244268742903e-26 -0.5442396402359009 -0.7673661112785339 -0.22935479879379272 -1.3146049353263134e-11 0.0 -1.151244268742903e-26 -0.5442396402359009 -0.7673661112785339 -0.22935479879379272 -1.3146049353263134e-11 0.0 -0.29859999735544024 -0.11235000099231768 0.3136499823461779 2.2214412195942916 2.2214412191386654 6.515886891884209e-08 0.0 0.0 0.0 0.0 0.0 0.0 9.240738067961098e-07 3.4768818278582935e-07 4.253146293222069e-08 -2.847566213175547e-08 6.147405365792548e-08 -2.6501511911833498e-15 -0.29859999998320197 -0.11235000001566997 0.31364999997695675 2.2214414693069955 2.2214414688513706 4.556249894594308e-10 0.0 0.0 0.0 0.0 0.0 0.0
154703.20799999998 2.220446049250313e-16 -1.5707963267948966 1.5707963267948966 -1.5707963267948966 -1.5707963267948966 0.0 0.0 0.0 0.0 0.0 0.0 0.0 0.0 0.0 0.0 0.0 0.0 0.0 -1.1512442590619146e-26 -0.5442396572688689 -0.7673661111166267 -0.229354796466502 -1.3146049461972196e-11 0.0 -1.511583712148294e-25 -7.14586669994025 -7.145866699940251 -1.0424175499402515 -5.974879480466362e-11 0.0 2.220446049250313e-16 -1.570796314870016 1.5707963705062866 -1.570796314870016 -1.570796314870016 0.0 0.0 0.0 0.0 0.0 0.0 0.0 -1.151244268742903e-26 -0.5442396402359009 -0.7673661112785339 -0.22935479879379272 -1.3146049353263134e-11 0.0 -1.151244268742903e-26 -0.5442396402359009 -0.7673661112785339 -0.22935479879379272 -1.3146049353263134e-11 0.0 -0.29859999735544024 -0.11235000099231768 0.3136499823461779 2.2214412195942916 2.2214412191386654 6.515886891884209e-08 0.0 0.0 0.0 0.0 0.0 0.0 9.240738067961098e-07 3.4768818278582935e-07 4.253146293222069e-08 -2.847566213175547e-08 6.147405365792548e-08 -2.6501511911833498e-15 -0.29859999998320197 -0.11235000001566997 0.31364999997695675 2.2214414693069955 2.2214414688513706 4.556249894594308e-10 0.0 0.0 0.0 0.0 0.0 0.0
154703.216 2.220446049250313e-16 -1.5707963267948966 1.5707963267948966 -1.5707963267948966 -1.5707963267948966 0.0 0.0 0.0 0.0 0.0 0.0 0.0 0.0 0.0 0.0 0.0 0.0 0.0 -1.1512442590619146e-26 -0.5442396572688689 -0.7673661111166267 -0.229354796466502 -1.3146049461972196e-11 0.0 -1.511583712148294e-25 -7.14586669994025 -7.145866699940251 -1.0424175499402515 -5.974879480466362e-11 0.0 2.220446049250313e-16 -1.570796314870016 1.5707963705062866 -1.570796314870016 -1.570796314870016 0.0 0.0 0.0 0.0 0.0 0.0 0.0 -1.151244268742903e-26 -0.5442396402359009 -0.7673661112785339 -0.22935479879379272 -1.3146049353263134e-11 0.0 -1.151244268742903e-26 -0.5442396402359009 -0.7673661112785339 -0.22935479879379272 -1.3146049353263134e-11 0.0 -0.29859999735544024 -0.11235000099231768 0.3136499823461779 2.2214412195942916 2.2214412191386654 6.515886891884209e-08 0.0 0.0 0.0 0.0 0.0 0.0 9.240738067961098e-07 3.4768818278582935e-07 4.253146293222069e-08 -2.847566213175547e-08 6.147405365792548e-08 -2.6501511911833498e-15 -0.29859999998320197 -0.11235000001566997 0.31364999997695675 2.2214414693069955 2.2214414688513706 4.556249894594308e-10 0.0 0.0 0.0 0.0 0.0 0.0
154703.224 2.220446049250313e-16 -1.5707963267948966 1.5707963267948966 -1.5707963267948966 -1.5707963267948966 0.0 0.0 0.0 0.0 0.0 0.0 0.0 0.0 0.0 0.0 0.0 0.0 0.0 -1.1512442590619146e-26 -0.5442396572688689 -0.7673661111166267 -0.229354796466502 -1.3146049461972196e-11 0.0 -1.511583712148294e-25 -7.14586669994025 -7.145866699940251 -1.0424175499402515 -5.974879480466362e-11 0.0 2.220446049250313e-16 -1.570796314870016 1.5707963705062866 -1.570796314870016 -1.570796314870016 0.0 0.0 0.0 0.0 0.0 0.0 0.0 -1.151244268742903e-26 -0.5442396402359009 -0.7673661112785339 -0.22935479879379272 -1.3146049353263134e-11 0.0 -1.151244268742903e-26 -0.5442396402359009 -0.7673661112785339 -0.22935479879379272 -1.3146049353263134e-11 0.0 -0.29859999735544024 -0.11235000099231768 0.3136499823461779 2.2214412195942916 2.2214412191386654 6.515886891884209e-08 0.0 0.0 0.0 0.0 0.0 0.0 9.240738067961098e-07 3.4768818278582935e-07 4.253146293222069e-08 -2.847566213175547e-08 6.147405365792548e-08 -2.6501511911833498e-15 -0.29859999998320197 -0.11235000001566997 0.31364999997695675 2.2214414693069955 2.2214414688513706 4.556249894594308e-10 0.0 0.0 0.0 0.0 0.0 0.0
154703.232 2.220446049250313e-16 -1.5707963267948966 1.5707963267948966 -1.5707963267948966 -1.5707963267948966 0.0 0.0 0.0 0.0 0.0 0.0 0.0 0.0 0.0 0.0 0.0 0.0 0.0 -1.1512442590619146e-26 -0.5442396572688689 -0.7673661111166267 -0.229354796466502 -1.3146049461972196e-11 0.0 -1.511583712148294e-25 -7.14586669994025 -7.145866699940251 -1.0424175499402515 -5.974879480466362e-11 0.0 2.220446049250313e-16 -1.570796314870016 1.5707963705062866 -1.570796314870016 -1.570796314870016 0.0 0.0 0.0 0.0 0.0 0.0 0.0 -1.151244268742903e-26 -0.5442396402359009 -0.7673661112785339 -0.22935479879379272 -1.3146049353263134e-11 0.0 -1.151244268742903e-26 -0.5442396402359009 -0.7673661112785339 -0.22935479879379272 -1.3146049353263134e-11 0.0 -0.29859999735544024 -0.11235000099231768 0.3136499823461779 2.2214412195942916 2.2214412191386654 6.515886891884209e-08 0.0 0.0 0.0 0.0 0.0 0.0 9.240738067961098e-07 3.4768818278582935e-07 4.253146293222069e-08 -2.847566213175547e-08 6.147405365792548e-08 -2.6501511911833498e-15 -0.29859999998320197 -0.11235000001566997 0.31364999997695675 2.2214414693069955 2.2214414688513706 4.556249894594308e-10 0.0 0.0 0.0 0.0 0.0 0.0
154703.24 2.220446049250313e-16 -1.5707963267948966 1.5707963267948966 -1.5707963267948966 -1.5707963267948966 0.0 0.0 0.0 0.0 0.0 0.0 0.0 0.0 0.0 0.0 0.0 0.0 0.0 -1.1512442590619146e-26 -0.5442396572688689 -0.7673661111166267 -0.229354796466502 -1.3146049461972196e-11 0.0 -1.511583712148294e-25 -7.14586669994025 -7.145866699940251 -1.0424175499402515 -5.974879480466362e-11 0.0 2.220446049250313e-16 -1.570796314870016 1.5707963705062866 -1.570796314870016 -1.570796314870016 0.0 0.0 0.0 0.0 0.0 0.0 0.0 -1.151244268742903e-26 -0.5442396402359009 -0.7673661112785339 -0.22935479879379272 -1.3146049353263134e-11 0.0 -1.151244268742903e-26 -0.5442396402359009 -0.7673661112785339 -0.22935479879379272 -1.3146049353263134e-11 0.0 -0.29859999735544024 -0.11235000099231768 0.3136499823461779 2.2214412195942916 2.2214412191386654 6.515886891884209e-08 0.0 0.0 0.0 0.0 0.0 0.0 9.240738067961098e-07 3.4768818278582935e-07 4.253146293222069e-08 -2.847566213175547e-08 6.147405365792548e-08 -2.6501511911833498e-15 -0.29859999998320197 -0.11235000001566997 0.31364999997695675 2.2214414693069955 2.2214414688513706 4.556249894594308e-10 0.0 0.0 0.0 0.0 0.0 0.0
154703.248 2.220446049250313e-16 -1.5707963267948966 1.5707963267948966 -1.5707963267948966 -1.5707963267948966 0.0 0.0 0.0 0.0 0.0 0.0 0.0 0.0 0.0 0.0 0.0 0.0 0.0 -1.1512442590619146e-26 -0.5442396572688689 -0.7673661111166267 -0.229354796466502 -1.3146049461972196e-11 0.0 -1.511583712148294e-25 -7.14586669994025 -7.145866699940251 -1.0424175499402515 -5.974879480466362e-11 0.0 2.220446049250313e-16 -1.570796314870016 1.5707963705062866 -1.570796314870016 -1.570796314870016 0.0 0.0 0.0 0.0 0.0 0.0 0.0 -1.151244268742903e-26 -0.5442396402359009 -0.7673661112785339 -0.22935479879379272 -1.3146049353263134e-11 0.0 -1.151244268742903e-26 -0.5442396402359009 -0.7673661112785339 -0.22935479879379272 -1.3146049353263134e-11 0.0 -0.29859999735544024 -0.11235000099231768 0.3136499823461779 2.2214412195942916 2.2214412191386654 6.515886891884209e-08 0.0 0.0 0.0 0.0 0.0 0.0 9.240738067961098e-07 3.4768818278582935e-07 4.253146293222069e-08 -2.847566213175547e-08 6.147405365792548e-08 -2.6501511911833498e-15 -0.29859999998320197 -0.11235000001566997 0.31364999997695675 2.2214414693069955 2.2214414688513706 4.556249894594308e-10 0.0 0.0 0.0 0.0 0.0 0.0
154703.256 2.220446049250313e-16 -1.5707963267948966 1.5707963267948966 -1.5707963267948966 -1.5707963267948966 0.0 0.0 0.0 0.0 0.0 0.0 0.0 0.0 0.0 0.0 0.0 0.0 0.0 -1.1512442590619146e-26 -0.5442396572688689 -0.7673661111166267 -0.229354796466502 -1.3146049461972196e-11 0.0 -1.511583712148294e-25 -7.14586669994025 -7.145866699940251 -1.0424175499402515 -5.974879480466362e-11 0.0 2.220446049250313e-16 -1.570796314870016 1.5707963705062866 -1.570796314870016 -1.570796314870016 0.0 0.0 0.0 0.0 0.0 0.0 0.0 -1.151244268742903e-26 -0.5442396402359009 -0.7673661112785339 -0.22935479879379272 -1.3146049353263134e-11 0.0 -1.151244268742903e-26 -0.5442396402359009 -0.7673661112785339 -0.22935479879379272 -1.3146049353263134e-11 0.0 -0.29859999735544024 -0.11235000099231768 0.3136499823461779 2.2214412195942916 2.2214412191386654 6.515886891884209e-08 0.0 0.0 0.0 0.0 0.0 0.0 9.240738067961098e-07 3.4768818278582935e-07 4.253146293222069e-08 -2.847566213175547e-08 6.147405365792548e-08 -2.6501511911833498e-15 -0.29859999998320197 -0.11235000001566997 0.31364999997695675 2.2214414693069955 2.2214414688513706 4.556249894594308e-10 0.0 0.0 0.0 0.0 0.0 0.0
154703.264 2.220446049250313e-16 -1.5707963267948966 1.5707963267948966 -1.5707963267948966 -1.5707963267948966 0.0 0.0 0.0 0.0 0.0 0.0 0.0 0.0 0.0 0.0 0.0 0.0 0.0 -1.1512442590619146e-26 -0.5442396572688689 -0.7673661111166267 -0.229354796466502 -1.3146049461972196e-11 0.0 -1.511583712148294e-25 -7.14586669994025 -7.145866699940251 -1.0424175499402515 -5.974879480466362e-11 0.0 2.220446049250313e-16 -1.570796314870016 1.5707963705062866 -1.570796314870016 -1.570796314870016 0.0 0.0 0.0 0.0 0.0 0.0 0.0 -1.151244268742903e-26 -0.5442396402359009 -0.7673661112785339 -0.22935479879379272 -1.3146049353263134e-11 0.0 -1.151244268742903e-26 -0.5442396402359009 -0.7673661112785339 -0.22935479879379272 -1.3146049353263134e-11 0.0 -0.29859999735544024 -0.11235000099231768 0.3136499823461779 2.2214412195942916 2.2214412191386654 6.515886891884209e-08 0.0 0.0 0.0 0.0 0.0 0.0 9.240738067961098e-07 3.4768818278582935e-07 4.253146293222069e-08 -2.847566213175547e-08 6.147405365792548e-08 -2.6501511911833498e-15 -0.29859999998320197 -0.11235000001566997 0.31364999997695675 2.2214414693069955 2.2214414688513706 4.556249894594308e-10 0.0 0.0 0.0 0.0 0.0 0.0
154703.272 2.220446049250313e-16 -1.5707963267948966 1.5707963267948966 -1.5707963267948966 -1.5707963267948966 0.0 0.0 0.0 0.0 0.0 0.0 0.0 0.0 0.0 0.0 0.0 0.0 0.0 -1.1512442590619146e-26 -0.5442396572688689 -0.7673661111166267 -0.229354796466502 -1.3146049461972196e-11 0.0 -1.511583712148294e-25 -7.14586669994025 -7.145866699940251 -1.0424175499402515 -5.974879480466362e-11 0.0 2.220446049250313e-16 -1.570796314870016 1.5707963705062866 -1.570796314870016 -1.570796314870016 0.0 0.0 0.0 0.0 0.0 0.0 0.0 -1.151244268742903e-26 -0.5442396402359009 -0.7673661112785339 -0.22935479879379272 -1.3146049353263134e-11 0.0 -1.151244268742903e-26 -0.5442396402359009 -0.7673661112785339 -0.22935479879379272 -1.3146049353263134e-11 0.0 -0.29859999735544024 -0.11235000099231768 0.3136499823461779 2.2214412195942916 2.2214412191386654 6.515886891884209e-08 0.0 0.0 0.0 0.0 0.0 0.0 9.240738067961098e-07 3.4768818278582935e-07 4.253146293222069e-08 -2.847566213175547e-08 6.147405365792548e-08 -2.6501511911833498e-15 -0.29859999998320197 -0.11235000001566997 0.31364999997695675 2.2214414693069955 2.2214414688513706 4.556249894594308e-10 0.0 0.0 0.0 0.0 0.0 0.0
154703.28 2.220446049250313e-16 -1.5707963267948966 1.5707963267948966 -1.5707963267948966 -1.5707963267948966 0.0 0.0 0.0 0.0 0.0 0.0 0.0 0.0 0.0 0.0 0.0 0.0 0.0 -1.1512442590619146e-26 -0.5442396572688689 -0.7673661111166267 -0.229354796466502 -1.3146049461972196e-11 0.0 -1.511583712148294e-25 -7.14586669994025 -7.145866699940251 -1.0424175499402515 -5.974879480466362e-11 0.0 2.220446049250313e-16 -1.570796314870016 1.5707963705062866 -1.570796314870016 -1.570796314870016 0.0 0.0 0.0 0.0 0.0 0.0 0.0 -1.151244268742903e-26 -0.5442396402359009 -0.7673661112785339 -0.22935479879379272 -1.3146049353263134e-11 0.0 -1.151244268742903e-26 -0.5442396402359009 -0.7673661112785339 -0.22935479879379272 -1.3146049353263134e-11 0.0 -0.29859999735544024 -0.11235000099231768 0.3136499823461779 2.2214412195942916 2.2214412191386654 6.515886891884209e-08 0.0 0.0 0.0 0.0 0.0 0.0 9.240738067961098e-07 3.4768818278582935e-07 4.253146293222069e-08 -2.847566213175547e-08 6.147405365792548e-08 -2.6501511911833498e-15 -0.29859999998320197 -0.11235000001566997 0.31364999997695675 2.2214414693069955 2.2214414688513706 4.556249894594308e-10 0.0 0.0 0.0 0.0 0.0 0.0
154703.288 2.220446049250313e-16 -1.5707963267948966 1.5707963267948966 -1.5707963267948966 -1.5707963267948966 0.0 0.0 0.0 0.0 0.0 0.0 0.0 0.0 0.0 0.0 0.0 0.0 0.0 -1.1512442590619146e-26 -0.5442396572688689 -0.7673661111166267 -0.229354796466502 -1.3146049461972196e-11 0.0 -1.511583712148294e-25 -7.14586669994025 -7.145866699940251 -1.0424175499402515 -5.974879480466362e-11 0.0 2.220446049250313e-16 -1.570796314870016 1.5707963705062866 -1.570796314870016 -1.570796314870016 0.0 0.0 0.0 0.0 0.0 0.0 0.0 -1.151244268742903e-26 -0.5442396402359009 -0.7673661112785339 -0.22935479879379272 -1.3146049353263134e-11 0.0 -1.151244268742903e-26 -0.5442396402359009 -0.7673661112785339 -0.22935479879379272 -1.3146049353263134e-11 0.0 -0.29859999735544024 -0.11235000099231768 0.3136499823461779 2.2214412195942916 2.2214412191386654 6.515886891884209e-08 0.0 0.0 0.0 0.0 0.0 0.0 9.240738067961098e-07 3.4768818278582935e-07 4.253146293222069e-08 -2.847566213175547e-08 6.147405365792548e-08 -2.6501511911833498e-15 -0.29859999998320197 -0.11235000001566997 0.31364999997695675 2.2214414693069955 2.2214414688513706 4.556249894594308e-10 0.0 0.0 0.0 0.0 0.0 0.0
154703.296 2.220446049250313e-16 -1.5707963267948966 1.5707963267948966 -1.5707963267948966 -1.5707963267948966 0.0 0.0 0.0 0.0 0.0 0.0 0.0 0.0 0.0 0.0 0.0 0.0 0.0 -1.1512442590619146e-26 -0.5442396572688689 -0.7673661111166267 -0.229354796466502 -1.3146049461972196e-11 0.0 -1.511583712148294e-25 -7.14586669994025 -7.145866699940251 -1.0424175499402515 -5.974879480466362e-11 0.0 2.220446049250313e-16 -1.570796314870016 1.5707963705062866 -1.570796314870016 -1.570796314870016 0.0 0.0 0.0 0.0 0.0 0.0 0.0 -1.151244268742903e-26 -0.5442396402359009 -0.7673661112785339 -0.22935479879379272 -1.3146049353263134e-11 0.0 -1.151244268742903e-26 -0.5442396402359009 -0.7673661112785339 -0.22935479879379272 -1.3146049353263134e-11 0.0 -0.29859999735544024 -0.11235000099231768 0.3136499823461779 2.2214412195942916 2.2214412191386654 6.515886891884209e-08 0.0 0.0 0.0 0.0 0.0 0.0 9.240738067961098e-07 3.4768818278582935e-07 4.253146293222069e-08 -2.847566213175547e-08 6.147405365792548e-08 -2.6501511911833498e-15 -0.29859999998320197 -0.11235000001566997 0.31364999997695675 2.2214414693069955 2.2214414688513706 4.556249894594308e-10 0.0 0.0 0.0 0.0 0.0 0.0
154703.304 2.220446049250313e-16 -1.5707963267948966 1.5707963267948966 -1.5707963267948966 -1.5707963267948966 0.0 0.0 0.0 0.0 0.0 0.0 0.0 0.0 0.0 0.0 0.0 0.0 0.0 -1.1512442590619146e-26 -0.5442396572688689 -0.7673661111166267 -0.229354796466502 -1.3146049461972196e-11 0.0 -1.511583712148294e-25 -7.14586669994025 -7.145866699940251 -1.0424175499402515 -5.974879480466362e-11 0.0 2.220446049250313e-16 -1.570796314870016 1.5707963705062866 -1.570796314870016 -1.570796314870016 0.0 0.0 0.0 0.0 0.0 0.0 0.0 -1.151244268742903e-26 -0.5442396402359009 -0.7673661112785339 -0.22935479879379272 -1.3146049353263134e-11 0.0 -1.151244268742903e-26 -0.5442396402359009 -0.7673661112785339 -0.22935479879379272 -1.3146049353263134e-11 0.0 -0.29859999735544024 -0.11235000099231768 0.3136499823461779 2.2214412195942916 2.2214412191386654 6.515886891884209e-08 0.0 0.0 0.0 0.0 0.0 0.0 9.240738067961098e-07 3.4768818278582935e-07 4.253146293222069e-08 -2.847566213175547e-08 6.147405365792548e-08 -2.6501511911833498e-15 -0.29859999998320197 -0.11235000001566997 0.31364999997695675 2.2214414693069955 2.2214414688513706 4.556249894594308e-10 0.0 0.0 0.0 0.0 0.0 0.0
154703.312 2.220446049250313e-16 -1.5707963267948966 1.5707963267948966 -1.5707963267948966 -1.5707963267948966 0.0 0.0 0.0 0.0 0.0 0.0 0.0 0.0 0.0 0.0 0.0 0.0 0.0 -1.1512442590619146e-26 -0.5442396572688689 -0.7673661111166267 -0.229354796466502 -1.3146049461972196e-11 0.0 -1.511583712148294e-25 -7.14586669994025 -7.145866699940251 -1.0424175499402515 -5.974879480466362e-11 0.0 2.220446049250313e-16 -1.570796314870016 1.5707963705062866 -1.570796314870016 -1.570796314870016 0.0 0.0 0.0 0.0 0.0 0.0 0.0 -1.151244268742903e-26 -0.5442396402359009 -0.7673661112785339 -0.22935479879379272 -1.3146049353263134e-11 0.0 -1.151244268742903e-26 -0.5442396402359009 -0.7673661112785339 -0.22935479879379272 -1.3146049353263134e-11 0.0 -0.29859999735544024 -0.11235000099231768 0.3136499823461779 2.2214412195942916 2.2214412191386654 6.515886891884209e-08 0.0 0.0 0.0 0.0 0.0 0.0 9.240738067961098e-07 3.4768818278582935e-07 4.253146293222069e-08 -2.847566213175547e-08 6.147405365792548e-08 -2.6501511911833498e-15 -0.29859999998320197 -0.11235000001566997 0.31364999997695675 2.2214414693069955 2.2214414688513706 4.556249894594308e-10 0.0 0.0 0.0 0.0 0.0 0.0
154703.32 2.220446049250313e-16 -1.5707963267948966 1.5707963267948966 -1.5707963267948966 -1.5707963267948966 0.0 0.0 0.0 0.0 0.0 0.0 0.0 0.0 0.0 0.0 0.0 0.0 0.0 -1.1512442590619146e-26 -0.5442396572688689 -0.7673661111166267 -0.229354796466502 -1.3146049461972196e-11 0.0 -1.511583712148294e-25 -7.14586669994025 -7.145866699940251 -1.0424175499402515 -5.974879480466362e-11 0.0 2.220446049250313e-16 -1.570796314870016 1.5707963705062866 -1.570796314870016 -1.570796314870016 0.0 0.0 0.0 0.0 0.0 0.0 0.0 -1.151244268742903e-26 -0.5442396402359009 -0.7673661112785339 -0.22935479879379272 -1.3146049353263134e-11 0.0 -1.151244268742903e-26 -0.5442396402359009 -0.7673661112785339 -0.22935479879379272 -1.3146049353263134e-11 0.0 -0.29859999735544024 -0.11235000099231768 0.3136499823461779 2.2214412195942916 2.2214412191386654 6.515886891884209e-08 0.0 0.0 0.0 0.0 0.0 0.0 9.240738067961098e-07 3.4768818278582935e-07 4.253146293222069e-08 -2.847566213175547e-08 6.147405365792548e-08 -2.6501511911833498e-15 -0.29859999998320197 -0.11235000001566997 0.31364999997695675 2.2214414693069955 2.2214414688513706 4.556249894594308e-10 0.0 0.0 0.0 0.0 0.0 0.0
154703.32799999998 2.220446049250313e-16 -1.5707963267948966 1.5707963267948966 -1.5707963267948966 -1.5707963267948966 0.0 0.0 0.0 0.0 0.0 0.0 0.0 0.0 0.0 0.0 0.0 0.0 0.0 -1.1512442590619146e-26 -0.5442396572688689 -0.7673661111166267 -0.229354796466502 -1.3146049461972196e-11 0.0 -1.511583712148294e-25 -7.14586669994025 -7.145866699940251 -1.0424175499402515 -5.974879480466362e-11 0.0 2.220446049250313e-16 -1.570796314870016 1.5707963705062866 -1.570796314870016 -1.570796314870016 0.0 0.0 0.0 0.0 0.0 0.0 0.0 -1.151244268742903e-26 -0.5442396402359009 -0.7673661112785339 -0.22935479879379272 -1.3146049353263134e-11 0.0 -1.151244268742903e-26 -0.5442396402359009 -0.7673661112785339 -0.22935479879379272 -1.3146049353263134e-11 0.0 -0.29859999735544024 -0.11235000099231768 0.3136499823461779 2.2214412195942916 2.2214412191386654 6.515886891884209e-08 0.0 0.0 0.0 0.0 0.0 0.0 9.240738067961098e-07 3.4768818278582935e-07 4.253146293222069e-08 -2.847566213175547e-08 6.147405365792548e-08 -2.6501511911833498e-15 -0.29859999998320197 -0.11235000001566997 0.31364999997695675 2.2214414693069955 2.2214414688513706 4.556249894594308e-10 0.0 0.0 0.0 0.0 0.0 0.0
154703.33599999998 2.220446049250313e-16 -1.5707963267948966 1.5707963267948966 -1.5707963267948966 -1.5707963267948966 0.0 0.0 0.0 0.0 0.0 0.0 0.0 0.0 0.0 0.0 0.0 0.0 0.0 -1.1512442590619146e-26 -0.5442396572688689 -0.7673661111166267 -0.229354796466502 -1.3146049461972196e-11 0.0 -1.511583712148294e-25 -7.14586669994025 -7.145866699940251 -1.0424175499402515 -5.974879480466362e-11 0.0 2.220446049250313e-16 -1.570796314870016 1.5707963705062866 -1.570796314870016 -1.570796314870016 0.0 0.0 0.0 0.0 0.0 0.0 0.0 -1.151244268742903e-26 -0.5442396402359009 -0.7673661112785339 -0.22935479879379272 -1.3146049353263134e-11 0.0 -1.151244268742903e-26 -0.5442396402359009 -0.7673661112785339 -0.22935479879379272 -1.3146049353263134e-11 0.0 -0.29859999735544024 -0.11235000099231768 0.3136499823461779 2.2214412195942916 2.2214412191386654 6.515886891884209e-08 0.0 0.0 0.0 0.0 0.0 0.0 9.240738067961098e-07 3.4768818278582935e-07 4.253146293222069e-08 -2.847566213175547e-08 6.147405365792548e-08 -2.6501511911833498e-15 -0.29859999998320197 -0.11235000001566997 0.31364999997695675 2.2214414693069955 2.2214414688513706 4.556249894594308e-10 0.0 0.0 0.0 0.0 0.0 0.0
154703.34399999998 2.220446049250313e-16 -1.5707963267948966 1.5707963267948966 -1.5707963267948966 -1.5707963267948966 0.0 0.0 0.0 0.0 0.0 0.0 0.0 0.0 0.0 0.0 0.0 0.0 0.0 -1.1512442590619146e-26 -0.5442396572688689 -0.7673661111166267 -0.229354796466502 -1.3146049461972196e-11 0.0 -1.511583712148294e-25 -7.14586669994025 -7.145866699940251 -1.0424175499402515 -5.974879480466362e-11 0.0 2.220446049250313e-16 -1.570796314870016 1.5707963705062866 -1.570796314870016 -1.570796314870016 0.0 0.0 0.0 0.0 0.0 0.0 0.0 -1.151244268742903e-26 -0.5442396402359009 -0.7673661112785339 -0.22935479879379272 -1.3146049353263134e-11 0.0 -1.151244268742903e-26 -0.5442396402359009 -0.7673661112785339 -0.22935479879379272 -1.3146049353263134e-11 0.0 -0.29859999735544024 -0.11235000099231768 0.3136499823461779 2.2214412195942916 2.2214412191386654 6.515886891884209e-08 0.0 0.0 0.0 0.0 0.0 0.0 9.240738067961098e-07 3.4768818278582935e-07 4.253146293222069e-08 -2.847566213175547e-08 6.147405365792548e-08 -2.6501511911833498e-15 -0.29859999998320197 -0.11235000001566997 0.31364999997695675 2.2214414693069955 2.2214414688513706 4.556249894594308e-10 0.0 0.0 0.0 0.0 0.0 0.0
154703.35199999998 2.220446049250313e-16 -1.5707963267948966 1.5707963267948966 -1.5707963267948966 -1.5707963267948966 0.0 0.0 0.0 0.0 0.0 0.0 0.0 0.0 0.0 0.0 0.0 0.0 0.0 -1.1512442590619146e-26 -0.5442396572688689 -0.7673661111166267 -0.229354796466502 -1.3146049461972196e-11 0.0 -1.511583712148294e-25 -7.14586669994025 -7.145866699940251 -1.0424175499402515 -5.974879480466362e-11 0.0 2.220446049250313e-16 -1.570796314870016 1.5707963705062866 -1.570796314870016 -1.570796314870016 0.0 0.0 0.0 0.0 0.0 0.0 0.0 -1.151244268742903e-26 -0.5442396402359009 -0.7673661112785339 -0.22935479879379272 -1.3146049353263134e-11 0.0 -1.151244268742903e-26 -0.5442396402359009 -0.7673661112785339 -0.22935479879379272 -1.3146049353263134e-11 0.0 -0.29859999735544024 -0.11235000099231768 0.3136499823461779 2.2214412195942916 2.2214412191386654 6.515886891884209e-08 0.0 0.0 0.0 0.0 0.0 0.0 9.240738067961098e-07 3.4768818278582935e-07 4.253146293222069e-08 -2.847566213175547e-08 6.147405365792548e-08 -2.6501511911833498e-15 -0.29859999998320197 -0.11235000001566997 0.31364999997695675 2.2214414693069955 2.2214414688513706 4.556249894594308e-10 0.0 0.0 0.0 0.0 0.0 0.0
154703.36 2.220446049250313e-16 -1.5707963267948966 1.5707963267948966 -1.5707963267948966 -1.5707963267948966 0.0 0.0 0.0 0.0 0.0 0.0 0.0 0.0 0.0 0.0 0.0 0.0 0.0 -1.1512442590619146e-26 -0.5442396572688689 -0.7673661111166267 -0.229354796466502 -1.3146049461972196e-11 0.0 -1.511583712148294e-25 -7.14586669994025 -7.145866699940251 -1.0424175499402515 -5.974879480466362e-11 0.0 2.220446049250313e-16 -1.570796314870016 1.5707963705062866 -1.570796314870016 -1.570796314870016 0.0 0.0 0.0 0.0 0.0 0.0 0.0 -1.151244268742903e-26 -0.5442396402359009 -0.7673661112785339 -0.22935479879379272 -1.3146049353263134e-11 0.0 -1.151244268742903e-26 -0.5442396402359009 -0.7673661112785339 -0.22935479879379272 -1.3146049353263134e-11 0.0 -0.29859999735544024 -0.11235000099231768 0.3136499823461779 2.2214412195942916 2.2214412191386654 6.515886891884209e-08 0.0 0.0 0.0 0.0 0.0 0.0 9.240738067961098e-07 3.4768818278582935e-07 4.253146293222069e-08 -2.847566213175547e-08 6.147405365792548e-08 -2.6501511911833498e-15 -0.29859999998320197 -0.11235000001566997 0.31364999997695675 2.2214414693069955 2.2214414688513706 4.556249894594308e-10 0.0 0.0 0.0 0.0 0.0 0.0
154703.368 2.220446049250313e-16 -1.5707963267948966 1.5707963267948966 -1.5707963267948966 -1.5707963267948966 0.0 0.0 0.0 0.0 0.0 0.0 0.0 0.0 0.0 0.0 0.0 0.0 0.0 -1.1512442590619146e-26 -0.5442396572688689 -0.7673661111166267 -0.229354796466502 -1.3146049461972196e-11 0.0 -1.511583712148294e-25 -7.14586669994025 -7.145866699940251 -1.0424175499402515 -5.974879480466362e-11 0.0 2.220446049250313e-16 -1.570796314870016 1.5707963705062866 -1.570796314870016 -1.570796314870016 0.0 0.0 0.0 0.0 0.0 0.0 0.0 -1.151244268742903e-26 -0.5442396402359009 -0.7673661112785339 -0.22935479879379272 -1.3146049353263134e-11 0.0 -1.151244268742903e-26 -0.5442396402359009 -0.7673661112785339 -0.22935479879379272 -1.3146049353263134e-11 0.0 -0.29859999735544024 -0.11235000099231768 0.3136499823461779 2.2214412195942916 2.2214412191386654 6.515886891884209e-08 0.0 0.0 0.0 0.0 0.0 0.0 9.240738067961098e-07 3.4768818278582935e-07 4.253146293222069e-08 -2.847566213175547e-08 6.147405365792548e-08 -2.6501511911833498e-15 -0.29859999998320197 -0.11235000001566997 0.31364999997695675 2.2214414693069955 2.2214414688513706 4.556249894594308e-10 0.0 0.0 0.0 0.0 0.0 0.0
154703.376 2.220446049250313e-16 -1.5707963267948966 1.5707963267948966 -1.5707963267948966 -1.5707963267948966 0.0 0.0 0.0 0.0 0.0 0.0 0.0 0.0 0.0 0.0 0.0 0.0 0.0 -1.1512442590619146e-26 -0.5442396572688689 -0.7673661111166267 -0.229354796466502 -1.3146049461972196e-11 0.0 -1.511583712148294e-25 -7.14586669994025 -7.145866699940251 -1.0424175499402515 -5.974879480466362e-11 0.0 2.220446049250313e-16 -1.570796314870016 1.5707963705062866 -1.570796314870016 -1.570796314870016 0.0 0.0 0.0 0.0 0.0 0.0 0.0 -1.151244268742903e-26 -0.5442396402359009 -0.7673661112785339 -0.22935479879379272 -1.3146049353263134e-11 0.0 -1.151244268742903e-26 -0.5442396402359009 -0.7673661112785339 -0.22935479879379272 -1.3146049353263134e-11 0.0 -0.29859999735544024 -0.11235000099231768 0.3136499823461779 2.2214412195942916 2.2214412191386654 6.515886891884209e-08 0.0 0.0 0.0 0.0 0.0 0.0 9.240738067961098e-07 3.4768818278582935e-07 4.253146293222069e-08 -2.847566213175547e-08 6.147405365792548e-08 -2.6501511911833498e-15 -0.29859999998320197 -0.11235000001566997 0.31364999997695675 2.2214414693069955 2.2214414688513706 4.556249894594308e-10 0.0 0.0 0.0 0.0 0.0 0.0
154703.384 2.220446049250313e-16 -1.5707963267948966 1.5707963267948966 -1.5707963267948966 -1.5707963267948966 0.0 0.0 0.0 0.0 0.0 0.0 0.0 0.0 0.0 0.0 0.0 0.0 0.0 -1.1512442590619146e-26 -0.5442396572688689 -0.7673661111166267 -0.229354796466502 -1.3146049461972196e-11 0.0 -1.511583712148294e-25 -7.14586669994025 -7.145866699940251 -1.0424175499402515 -5.974879480466362e-11 0.0 2.220446049250313e-16 -1.570796314870016 1.5707963705062866 -1.570796314870016 -1.570796314870016 0.0 0.0 0.0 0.0 0.0 0.0 0.0 -1.151244268742903e-26 -0.5442396402359009 -0.7673661112785339 -0.22935479879379272 -1.3146049353263134e-11 0.0 -1.151244268742903e-26 -0.5442396402359009 -0.7673661112785339 -0.22935479879379272 -1.3146049353263134e-11 0.0 -0.29859999735544024 -0.11235000099231768 0.3136499823461779 2.2214412195942916 2.2214412191386654 6.515886891884209e-08 0.0 0.0 0.0 0.0 0.0 0.0 9.240738067961098e-07 3.4768818278582935e-07 4.253146293222069e-08 -2.847566213175547e-08 6.147405365792548e-08 -2.6501511911833498e-15 -0.29859999998320197 -0.11235000001566997 0.31364999997695675 2.2214414693069955 2.2214414688513706 4.556249894594308e-10 0.0 0.0 0.0 0.0 0.0 0.0
154703.392 2.220446049250313e-16 -1.5707963267948966 1.5707963267948966 -1.5707963267948966 -1.5707963267948966 0.0 0.0 0.0 0.0 0.0 0.0 0.0 0.0 0.0 0.0 0.0 0.0 0.0 -1.1512442590619146e-26 -0.5442396572688689 -0.7673661111166267 -0.229354796466502 -1.3146049461972196e-11 0.0 -1.511583712148294e-25 -7.14586669994025 -7.145866699940251 -1.0424175499402515 -5.974879480466362e-11 0.0 2.220446049250313e-16 -1.570796314870016 1.5707963705062866 -1.570796314870016 -1.570796314870016 0.0 0.0 0.0 0.0 0.0 0.0 0.0 -1.151244268742903e-26 -0.5442396402359009 -0.7673661112785339 -0.22935479879379272 -1.3146049353263134e-11 0.0 -1.151244268742903e-26 -0.5442396402359009 -0.7673661112785339 -0.22935479879379272 -1.3146049353263134e-11 0.0 -0.29859999735544024 -0.11235000099231768 0.3136499823461779 2.2214412195942916 2.2214412191386654 6.515886891884209e-08 0.0 0.0 0.0 0.0 0.0 0.0 9.240738067961098e-07 3.4768818278582935e-07 4.253146293222069e-08 -2.847566213175547e-08 6.147405365792548e-08 -2.6501511911833498e-15 -0.29859999998320197 -0.11235000001566997 0.31364999997695675 2.2214414693069955 2.2214414688513706 4.556249894594308e-10 0.0 0.0 0.0 0.0 0.0 0.0
154703.4 2.220446049250313e-16 -1.5707963267948966 1.5707963267948966 -1.5707963267948966 -1.5707963267948966 0.0 0.0 0.0 0.0 0.0 0.0 0.0 0.0 0.0 0.0 0.0 0.0 0.0 -1.1512442590619146e-26 -0.5442396572688689 -0.7673661111166267 -0.229354796466502 -1.3146049461972196e-11 0.0 -1.511583712148294e-25 -7.14586669994025 -7.145866699940251 -1.0424175499402515 -5.974879480466362e-11 0.0 2.220446049250313e-16 -1.570796314870016 1.5707963705062866 -1.570796314870016 -1.570796314870016 0.0 0.0 0.0 0.0 0.0 0.0 0.0 -1.151244268742903e-26 -0.5442396402359009 -0.7673661112785339 -0.22935479879379272 -1.3146049353263134e-11 0.0 -1.151244268742903e-26 -0.5442396402359009 -0.7673661112785339 -0.22935479879379272 -1.3146049353263134e-11 0.0 -0.29859999735544024 -0.11235000099231768 0.3136499823461779 2.2214412195942916 2.2214412191386654 6.515886891884209e-08 0.0 0.0 0.0 0.0 0.0 0.0 9.240738067961098e-07 3.4768818278582935e-07 4.253146293222069e-08 -2.847566213175547e-08 6.147405365792548e-08 -2.6501511911833498e-15 -0.29859999998320197 -0.11235000001566997 0.31364999997695675 2.2214414693069955 2.2214414688513706 4.556249894594308e-10 0.0 0.0 0.0 0.0 0.0 0.0
154703.408 2.220446049250313e-16 -1.5707963267948966 1.5707963267948966 -1.5707963267948966 -1.5707963267948966 0.0 0.0 0.0 0.0 0.0 0.0 0.0 0.0 0.0 0.0 0.0 0.0 0.0 -1.1512442590619146e-26 -0.5442396572688689 -0.7673661111166267 -0.229354796466502 -1.3146049461972196e-11 0.0 -1.511583712148294e-25 -7.14586669994025 -7.145866699940251 -1.0424175499402515 -5.974879480466362e-11 0.0 2.220446049250313e-16 -1.570796314870016 1.5707963705062866 -1.570796314870016 -1.570796314870016 0.0 0.0 0.0 0.0 0.0 0.0 0.0 -1.151244268742903e-26 -0.5442396402359009 -0.7673661112785339 -0.22935479879379272 -1.3146049353263134e-11 0.0 -1.151244268742903e-26 -0.5442396402359009 -0.7673661112785339 -0.22935479879379272 -1.3146049353263134e-11 0.0 -0.29859999735544024 -0.11235000099231768 0.3136499823461779 2.2214412195942916 2.2214412191386654 6.515886891884209e-08 0.0 0.0 0.0 0.0 0.0 0.0 9.240738067961098e-07 3.4768818278582935e-07 4.253146293222069e-08 -2.847566213175547e-08 6.147405365792548e-08 -2.6501511911833498e-15 -0.29859999998320197 -0.11235000001566997 0.31364999997695675 2.2214414693069955 2.2214414688513706 4.556249894594308e-10 0.0 0.0 0.0 0.0 0.0 0.0
154703.416 2.220446049250313e-16 -1.5707963267948966 1.5707963267948966 -1.5707963267948966 -1.5707963267948966 0.0 0.0 0.0 0.0 0.0 0.0 0.0 0.0 0.0 0.0 0.0 0.0 0.0 -1.1512442590619146e-26 -0.5442396572688689 -0.7673661111166267 -0.229354796466502 -1.3146049461972196e-11 0.0 -1.511583712148294e-25 -7.14586669994025 -7.145866699940251 -1.0424175499402515 -5.974879480466362e-11 0.0 2.220446049250313e-16 -1.570796314870016 1.5707963705062866 -1.570796314870016 -1.570796314870016 0.0 0.0 0.0 0.0 0.0 0.0 0.0 -1.151244268742903e-26 -0.5442396402359009 -0.7673661112785339 -0.22935479879379272 -1.3146049353263134e-11 0.0 -1.151244268742903e-26 -0.5442396402359009 -0.7673661112785339 -0.22935479879379272 -1.3146049353263134e-11 0.0 -0.29859999735544024 -0.11235000099231768 0.3136499823461779 2.2214412195942916 2.2214412191386654 6.515886891884209e-08 0.0 0.0 0.0 0.0 0.0 0.0 9.240738067961098e-07 3.4768818278582935e-07 4.253146293222069e-08 -2.847566213175547e-08 6.147405365792548e-08 -2.6501511911833498e-15 -0.29859999998320197 -0.11235000001566997 0.31364999997695675 2.2214414693069955 2.2214414688513706 4.556249894594308e-10 0.0 0.0 0.0 0.0 0.0 0.0
154703.424 2.220446049250313e-16 -1.5707963267948966 1.5707963267948966 -1.5707963267948966 -1.5707963267948966 0.0 0.0 0.0 0.0 0.0 0.0 0.0 0.0 0.0 0.0 0.0 0.0 0.0 -1.1512442590619146e-26 -0.5442396572688689 -0.7673661111166267 -0.229354796466502 -1.3146049461972196e-11 0.0 -1.511583712148294e-25 -7.14586669994025 -7.145866699940251 -1.0424175499402515 -5.974879480466362e-11 0.0 2.220446049250313e-16 -1.570796314870016 1.5707963705062866 -1.570796314870016 -1.570796314870016 0.0 0.0 0.0 0.0 0.0 0.0 0.0 -1.151244268742903e-26 -0.5442396402359009 -0.7673661112785339 -0.22935479879379272 -1.3146049353263134e-11 0.0 -1.151244268742903e-26 -0.5442396402359009 -0.7673661112785339 -0.22935479879379272 -1.3146049353263134e-11 0.0 -0.29859999735544024 -0.11235000099231768 0.3136499823461779 2.2214412195942916 2.2214412191386654 6.515886891884209e-08 0.0 0.0 0.0 0.0 0.0 0.0 9.240738067961098e-07 3.4768818278582935e-07 4.253146293222069e-08 -2.847566213175547e-08 6.147405365792548e-08 -2.6501511911833498e-15 -0.29859999998320197 -0.11235000001566997 0.31364999997695675 2.2214414693069955 2.2214414688513706 4.556249894594308e-10 0.0 0.0 0.0 0.0 0.0 0.0
154703.432 2.220446049250313e-16 -1.5707963267948966 1.5707963267948966 -1.5707963267948966 -1.5707963267948966 0.0 0.0 0.0 0.0 0.0 0.0 0.0 0.0 0.0 0.0 0.0 0.0 0.0 -1.1512442590619146e-26 -0.5442396572688689 -0.7673661111166267 -0.229354796466502 -1.3146049461972196e-11 0.0 -1.511583712148294e-25 -7.14586669994025 -7.145866699940251 -1.0424175499402515 -5.974879480466362e-11 0.0 2.220446049250313e-16 -1.570796314870016 1.5707963705062866 -1.570796314870016 -1.570796314870016 0.0 0.0 0.0 0.0 0.0 0.0 0.0 -1.151244268742903e-26 -0.5442396402359009 -0.7673661112785339 -0.22935479879379272 -1.3146049353263134e-11 0.0 -1.151244268742903e-26 -0.5442396402359009 -0.7673661112785339 -0.22935479879379272 -1.3146049353263134e-11 0.0 -0.29859999735544024 -0.11235000099231768 0.3136499823461779 2.2214412195942916 2.2214412191386654 6.515886891884209e-08 0.0 0.0 0.0 0.0 0.0 0.0 9.240738067961098e-07 3.4768818278582935e-07 4.253146293222069e-08 -2.847566213175547e-08 6.147405365792548e-08 -2.6501511911833498e-15 -0.29859999998320197 -0.11235000001566997 0.31364999997695675 2.2214414693069955 2.2214414688513706 4.556249894594308e-10 0.0 0.0 0.0 0.0 0.0 0.0
154703.44 2.220446049250313e-16 -1.5707963267948966 1.5707963267948966 -1.5707963267948966 -1.5707963267948966 0.0 0.0 0.0 0.0 0.0 0.0 0.0 0.0 0.0 0.0 0.0 0.0 0.0 -1.1512442590619146e-26 -0.5442396572688689 -0.7673661111166267 -0.229354796466502 -1.3146049461972196e-11 0.0 -1.511583712148294e-25 -7.14586669994025 -7.145866699940251 -1.0424175499402515 -5.974879480466362e-11 0.0 2.220446049250313e-16 -1.570796314870016 1.5707963705062866 -1.570796314870016 -1.570796314870016 0.0 0.0 0.0 0.0 0.0 0.0 0.0 -1.151244268742903e-26 -0.5442396402359009 -0.7673661112785339 -0.22935479879379272 -1.3146049353263134e-11 0.0 -1.151244268742903e-26 -0.5442396402359009 -0.7673661112785339 -0.22935479879379272 -1.3146049353263134e-11 0.0 -0.29859999735544024 -0.11235000099231768 0.3136499823461779 2.2214412195942916 2.2214412191386654 6.515886891884209e-08 0.0 0.0 0.0 0.0 0.0 0.0 9.240738067961098e-07 3.4768818278582935e-07 4.253146293222069e-08 -2.847566213175547e-08 6.147405365792548e-08 -2.6501511911833498e-15 -0.29859999998320197 -0.11235000001566997 0.31364999997695675 2.2214414693069955 2.2214414688513706 4.556249894594308e-10 0.0 0.0 0.0 0.0 0.0 0.0
154703.448 2.220446049250313e-16 -1.5707963267948966 1.5707963267948966 -1.5707963267948966 -1.5707963267948966 0.0 0.0 0.0 0.0 0.0 0.0 0.0 0.0 0.0 0.0 0.0 0.0 0.0 -1.1512442590619146e-26 -0.5442396572688689 -0.7673661111166267 -0.229354796466502 -1.3146049461972196e-11 0.0 -1.511583712148294e-25 -7.14586669994025 -7.145866699940251 -1.0424175499402515 -5.974879480466362e-11 0.0 2.220446049250313e-16 -1.570796314870016 1.5707963705062866 -1.570796314870016 -1.570796314870016 0.0 0.0 0.0 0.0 0.0 0.0 0.0 -1.151244268742903e-26 -0.5442396402359009 -0.7673661112785339 -0.22935479879379272 -1.3146049353263134e-11 0.0 -1.151244268742903e-26 -0.5442396402359009 -0.7673661112785339 -0.22935479879379272 -1.3146049353263134e-11 0.0 -0.29859999735544024 -0.11235000099231768 0.3136499823461779 2.2214412195942916 2.2214412191386654 6.515886891884209e-08 0.0 0.0 0.0 0.0 0.0 0.0 9.240738067961098e-07 3.4768818278582935e-07 4.253146293222069e-08 -2.847566213175547e-08 6.147405365792548e-08 -2.6501511911833498e-15 -0.29859999998320197 -0.11235000001566997 0.31364999997695675 2.2214414693069955 2.2214414688513706 4.556249894594308e-10 0.0 0.0 0.0 0.0 0.0 0.0
154703.456 2.220446049250313e-16 -1.5707963267948966 1.5707963267948966 -1.5707963267948966 -1.5707963267948966 0.0 0.0 0.0 0.0 0.0 0.0 0.0 0.0 0.0 0.0 0.0 0.0 0.0 -1.1512442590619146e-26 -0.5442396572688689 -0.7673661111166267 -0.229354796466502 -1.3146049461972196e-11 0.0 -1.511583712148294e-25 -7.14586669994025 -7.145866699940251 -1.0424175499402515 -5.974879480466362e-11 0.0 2.220446049250313e-16 -1.570796314870016 1.5707963705062866 -1.570796314870016 -1.570796314870016 0.0 0.0 0.0 0.0 0.0 0.0 0.0 -1.151244268742903e-26 -0.5442396402359009 -0.7673661112785339 -0.22935479879379272 -1.3146049353263134e-11 0.0 -1.151244268742903e-26 -0.5442396402359009 -0.7673661112785339 -0.22935479879379272 -1.3146049353263134e-11 0.0 -0.29859999735544024 -0.11235000099231768 0.3136499823461779 2.2214412195942916 2.2214412191386654 6.515886891884209e-08 0.0 0.0 0.0 0.0 0.0 0.0 9.240738067961098e-07 3.4768818278582935e-07 4.253146293222069e-08 -2.847566213175547e-08 6.147405365792548e-08 -2.6501511911833498e-15 -0.29859999998320197 -0.11235000001566997 0.31364999997695675 2.2214414693069955 2.2214414688513706 4.556249894594308e-10 0.0 0.0 0.0 0.0 0.0 0.0
154703.464 2.220446049250313e-16 -1.5707963267948966 1.5707963267948966 -1.5707963267948966 -1.5707963267948966 0.0 0.0 0.0 0.0 0.0 0.0 0.0 0.0 0.0 0.0 0.0 0.0 0.0 -1.1512442590619146e-26 -0.5442396572688689 -0.7673661111166267 -0.229354796466502 -1.3146049461972196e-11 0.0 -1.511583712148294e-25 -7.14586669994025 -7.145866699940251 -1.0424175499402515 -5.974879480466362e-11 0.0 2.220446049250313e-16 -1.570796314870016 1.5707963705062866 -1.570796314870016 -1.570796314870016 0.0 0.0 0.0 0.0 0.0 0.0 0.0 -1.151244268742903e-26 -0.5442396402359009 -0.7673661112785339 -0.22935479879379272 -1.3146049353263134e-11 0.0 -1.151244268742903e-26 -0.5442396402359009 -0.7673661112785339 -0.22935479879379272 -1.3146049353263134e-11 0.0 -0.29859999735544024 -0.11235000099231768 0.3136499823461779 2.2214412195942916 2.2214412191386654 6.515886891884209e-08 0.0 0.0 0.0 0.0 0.0 0.0 9.240738067961098e-07 3.4768818278582935e-07 4.253146293222069e-08 -2.847566213175547e-08 6.147405365792548e-08 -2.6501511911833498e-15 -0.29859999998320197 -0.11235000001566997 0.31364999997695675 2.2214414693069955 2.2214414688513706 4.556249894594308e-10 0.0 0.0 0.0 0.0 0.0 0.0
154703.47199999998 2.220446049250313e-16 -1.5707963267948966 1.5707963267948966 -1.5707963267948966 -1.5707963267948966 0.0 0.0 0.0 0.0 0.0 0.0 0.0 0.0 0.0 0.0 0.0 0.0 0.0 -1.1512442590619146e-26 -0.5442396572688689 -0.7673661111166267 -0.229354796466502 -1.3146049461972196e-11 0.0 -1.511583712148294e-25 -7.14586669994025 -7.145866699940251 -1.0424175499402515 -5.974879480466362e-11 0.0 2.220446049250313e-16 -1.570796314870016 1.5707963705062866 -1.570796314870016 -1.570796314870016 0.0 0.0 0.0 0.0 0.0 0.0 0.0 -1.151244268742903e-26 -0.5442396402359009 -0.7673661112785339 -0.22935479879379272 -1.3146049353263134e-11 0.0 -1.151244268742903e-26 -0.5442396402359009 -0.7673661112785339 -0.22935479879379272 -1.3146049353263134e-11 0.0 -0.29859999735544024 -0.11235000099231768 0.3136499823461779 2.2214412195942916 2.2214412191386654 6.515886891884209e-08 0.0 0.0 0.0 0.0 0.0 0.0 9.240738067961098e-07 3.4768818278582935e-07 4.253146293222069e-08 -2.847566213175547e-08 6.147405365792548e-08 -2.6501511911833498e-15 -0.29859999998320197 -0.11235000001566997 0.31364999997695675 2.2214414693069955 2.2214414688513706 4.556249894594308e-10 0.0 0.0 0.0 0.0 0.0 0.0
154703.47999999998 2.220446049250313e-16 -1.5707963267948966 1.5707963267948966 -1.5707963267948966 -1.5707963267948966 0.0 0.0 0.0 0.0 0.0 0.0 0.0 0.0 0.0 0.0 0.0 0.0 0.0 -1.1512442590619146e-26 -0.5442396572688689 -0.7673661111166267 -0.229354796466502 -1.3146049461972196e-11 0.0 -1.511583712148294e-25 -7.14586669994025 -7.145866699940251 -1.0424175499402515 -5.974879480466362e-11 0.0 2.220446049250313e-16 -1.570796314870016 1.5707963705062866 -1.570796314870016 -1.570796314870016 0.0 0.0 0.0 0.0 0.0 0.0 0.0 -1.151244268742903e-26 -0.5442396402359009 -0.7673661112785339 -0.22935479879379272 -1.3146049353263134e-11 0.0 -1.151244268742903e-26 -0.5442396402359009 -0.7673661112785339 -0.22935479879379272 -1.3146049353263134e-11 0.0 -0.29859999735544024 -0.11235000099231768 0.3136499823461779 2.2214412195942916 2.2214412191386654 6.515886891884209e-08 0.0 0.0 0.0 0.0 0.0 0.0 9.240738067961098e-07 3.4768818278582935e-07 4.253146293222069e-08 -2.847566213175547e-08 6.147405365792548e-08 -2.6501511911833498e-15 -0.29859999998320197 -0.11235000001566997 0.31364999997695675 2.2214414693069955 2.2214414688513706 4.556249894594308e-10 0.0 0.0 0.0 0.0 0.0 0.0
154703.48799999998 2.220446049250313e-16 -1.5707963267948966 1.5707963267948966 -1.5707963267948966 -1.5707963267948966 0.0 0.0 0.0 0.0 0.0 0.0 0.0 0.0 0.0 0.0 0.0 0.0 0.0 -1.1512442590619146e-26 -0.5442396572688689 -0.7673661111166267 -0.229354796466502 -1.3146049461972196e-11 0.0 -1.511583712148294e-25 -7.14586669994025 -7.145866699940251 -1.0424175499402515 -5.974879480466362e-11 0.0 2.220446049250313e-16 -1.570796314870016 1.5707963705062866 -1.570796314870016 -1.570796314870016 0.0 0.0 0.0 0.0 0.0 0.0 0.0 -1.151244268742903e-26 -0.5442396402359009 -0.7673661112785339 -0.22935479879379272 -1.3146049353263134e-11 0.0 -1.151244268742903e-26 -0.5442396402359009 -0.7673661112785339 -0.22935479879379272 -1.3146049353263134e-11 0.0 -0.29859999735544024 -0.11235000099231768 0.3136499823461779 2.2214412195942916 2.2214412191386654 6.515886891884209e-08 0.0 0.0 0.0 0.0 0.0 0.0 9.240738067961098e-07 3.4768818278582935e-07 4.253146293222069e-08 -2.847566213175547e-08 6.147405365792548e-08 -2.6501511911833498e-15 -0.29859999998320197 -0.11235000001566997 0.31364999997695675 2.2214414693069955 2.2214414688513706 4.556249894594308e-10 0.0 0.0 0.0 0.0 0.0 0.0
154703.49599999998 2.220446049250313e-16 -1.5707963267948966 1.5707963267948966 -1.5707963267948966 -1.5707963267948966 0.0 0.0 0.0 0.0 0.0 0.0 0.0 0.0 0.0 0.0 0.0 0.0 0.0 -1.1512442590619146e-26 -0.5442396572688689 -0.7673661111166267 -0.229354796466502 -1.3146049461972196e-11 0.0 -1.511583712148294e-25 -7.14586669994025 -7.145866699940251 -1.0424175499402515 -5.974879480466362e-11 0.0 2.220446049250313e-16 -1.570796314870016 1.5707963705062866 -1.570796314870016 -1.570796314870016 0.0 0.0 0.0 0.0 0.0 0.0 0.0 -1.151244268742903e-26 -0.5442396402359009 -0.7673661112785339 -0.22935479879379272 -1.3146049353263134e-11 0.0 -1.151244268742903e-26 -0.5442396402359009 -0.7673661112785339 -0.22935479879379272 -1.3146049353263134e-11 0.0 -0.29859999735544024 -0.11235000099231768 0.3136499823461779 2.2214412195942916 2.2214412191386654 6.515886891884209e-08 0.0 0.0 0.0 0.0 0.0 0.0 9.240738067961098e-07 3.4768818278582935e-07 4.253146293222069e-08 -2.847566213175547e-08 6.147405365792548e-08 -2.6501511911833498e-15 -0.29859999998320197 -0.11235000001566997 0.31364999997695675 2.2214414693069955 2.2214414688513706 4.556249894594308e-10 0.0 0.0 0.0 0.0 0.0 0.0
154703.504 2.220446049250313e-16 -1.5707963267948966 1.5707963267948966 -1.5707963267948966 -1.5707963267948966 0.0 0.0 0.0 0.0 0.0 0.0 0.0 0.0 0.0 0.0 0.0 0.0 0.0 -1.1512442590619146e-26 -0.5442396572688689 -0.7673661111166267 -0.229354796466502 -1.3146049461972196e-11 0.0 -1.511583712148294e-25 -7.14586669994025 -7.145866699940251 -1.0424175499402515 -5.974879480466362e-11 0.0 2.220446049250313e-16 -1.570796314870016 1.5707963705062866 -1.570796314870016 -1.570796314870016 0.0 0.0 0.0 0.0 0.0 0.0 0.0 -1.151244268742903e-26 -0.5442396402359009 -0.7673661112785339 -0.22935479879379272 -1.3146049353263134e-11 0.0 -1.151244268742903e-26 -0.5442396402359009 -0.7673661112785339 -0.22935479879379272 -1.3146049353263134e-11 0.0 -0.29859999735544024 -0.11235000099231768 0.3136499823461779 2.2214412195942916 2.2214412191386654 6.515886891884209e-08 0.0 0.0 0.0 0.0 0.0 0.0 9.240738067961098e-07 3.4768818278582935e-07 4.253146293222069e-08 -2.847566213175547e-08 6.147405365792548e-08 -2.6501511911833498e-15 -0.29859999998320197 -0.11235000001566997 0.31364999997695675 2.2214414693069955 2.2214414688513706 4.556249894594308e-10 0.0 0.0 0.0 0.0 0.0 0.0
154703.512 2.220446049250313e-16 -1.5707963267948966 1.5707963267948966 -1.5707963267948966 -1.5707963267948966 0.0 0.0 0.0 0.0 0.0 0.0 0.0 0.0 0.0 0.0 0.0 0.0 0.0 -1.1512442590619146e-26 -0.5442396572688689 -0.7673661111166267 -0.229354796466502 -1.3146049461972196e-11 0.0 -1.511583712148294e-25 -7.14586669994025 -7.145866699940251 -1.0424175499402515 -5.974879480466362e-11 0.0 2.220446049250313e-16 -1.570796314870016 1.5707963705062866 -1.570796314870016 -1.570796314870016 0.0 0.0 0.0 0.0 0.0 0.0 0.0 -1.151244268742903e-26 -0.5442396402359009 -0.7673661112785339 -0.22935479879379272 -1.3146049353263134e-11 0.0 -1.151244268742903e-26 -0.5442396402359009 -0.7673661112785339 -0.22935479879379272 -1.3146049353263134e-11 0.0 -0.29859999735544024 -0.11235000099231768 0.3136499823461779 2.2214412195942916 2.2214412191386654 6.515886891884209e-08 0.0 0.0 0.0 0.0 0.0 0.0 9.240738067961098e-07 3.4768818278582935e-07 4.253146293222069e-08 -2.847566213175547e-08 6.147405365792548e-08 -2.6501511911833498e-15 -0.29859999998320197 -0.11235000001566997 0.31364999997695675 2.2214414693069955 2.2214414688513706 4.556249894594308e-10 0.0 0.0 0.0 0.0 0.0 0.0
154703.52 2.220446049250313e-16 -1.5707963267948966 1.5707963267948966 -1.5707963267948966 -1.5707963267948966 0.0 0.0 0.0 0.0 0.0 0.0 0.0 0.0 0.0 0.0 0.0 0.0 0.0 -1.1512442590619146e-26 -0.5442396572688689 -0.7673661111166267 -0.229354796466502 -1.3146049461972196e-11 0.0 -1.511583712148294e-25 -7.14586669994025 -7.145866699940251 -1.0424175499402515 -5.974879480466362e-11 0.0 2.220446049250313e-16 -1.570796314870016 1.5707963705062866 -1.570796314870016 -1.570796314870016 0.0 0.0 0.0 0.0 0.0 0.0 0.0 -1.151244268742903e-26 -0.5442396402359009 -0.7673661112785339 -0.22935479879379272 -1.3146049353263134e-11 0.0 -1.151244268742903e-26 -0.5442396402359009 -0.7673661112785339 -0.22935479879379272 -1.3146049353263134e-11 0.0 -0.29859999735544024 -0.11235000099231768 0.3136499823461779 2.2214412195942916 2.2214412191386654 6.515886891884209e-08 0.0 0.0 0.0 0.0 0.0 0.0 9.240738067961098e-07 3.4768818278582935e-07 4.253146293222069e-08 -2.847566213175547e-08 6.147405365792548e-08 -2.6501511911833498e-15 -0.29859999998320197 -0.11235000001566997 0.31364999997695675 2.2214414693069955 2.2214414688513706 4.556249894594308e-10 0.0 0.0 0.0 0.0 0.0 0.0
154703.528 2.220446049250313e-16 -1.5707963267948966 1.5707963267948966 -1.5707963267948966 -1.5707963267948966 0.0 0.0 0.0 0.0 0.0 0.0 0.0 0.0 0.0 0.0 0.0 0.0 0.0 -1.1512442590619146e-26 -0.5442396572688689 -0.7673661111166267 -0.229354796466502 -1.3146049461972196e-11 0.0 -1.511583712148294e-25 -7.14586669994025 -7.145866699940251 -1.0424175499402515 -5.974879480466362e-11 0.0 2.220446049250313e-16 -1.570796314870016 1.5707963705062866 -1.570796314870016 -1.570796314870016 0.0 0.0 0.0 0.0 0.0 0.0 0.0 -1.151244268742903e-26 -0.5442396402359009 -0.7673661112785339 -0.22935479879379272 -1.3146049353263134e-11 0.0 -1.151244268742903e-26 -0.5442396402359009 -0.7673661112785339 -0.22935479879379272 -1.3146049353263134e-11 0.0 -0.29859999735544024 -0.11235000099231768 0.3136499823461779 2.2214412195942916 2.2214412191386654 6.515886891884209e-08 0.0 0.0 0.0 0.0 0.0 0.0 9.240738067961098e-07 3.4768818278582935e-07 4.253146293222069e-08 -2.847566213175547e-08 6.147405365792548e-08 -2.6501511911833498e-15 -0.29859999998320197 -0.11235000001566997 0.31364999997695675 2.2214414693069955 2.2214414688513706 4.556249894594308e-10 0.0 0.0 0.0 0.0 0.0 0.0
154703.536 2.220446049250313e-16 -1.5707963267948966 1.5707963267948966 -1.5707963267948966 -1.5707963267948966 0.0 0.0 0.0 0.0 0.0 0.0 0.0 0.0 0.0 0.0 0.0 0.0 0.0 -1.1512442590619146e-26 -0.5442396572688689 -0.7673661111166267 -0.229354796466502 -1.3146049461972196e-11 0.0 -1.511583712148294e-25 -7.14586669994025 -7.145866699940251 -1.0424175499402515 -5.974879480466362e-11 0.0 2.220446049250313e-16 -1.570796314870016 1.5707963705062866 -1.570796314870016 -1.570796314870016 0.0 0.0 0.0 0.0 0.0 0.0 0.0 -1.151244268742903e-26 -0.5442396402359009 -0.7673661112785339 -0.22935479879379272 -1.3146049353263134e-11 0.0 -1.151244268742903e-26 -0.5442396402359009 -0.7673661112785339 -0.22935479879379272 -1.3146049353263134e-11 0.0 -0.29859999735544024 -0.11235000099231768 0.3136499823461779 2.2214412195942916 2.2214412191386654 6.515886891884209e-08 0.0 0.0 0.0 0.0 0.0 0.0 9.240738067961098e-07 3.4768818278582935e-07 4.253146293222069e-08 -2.847566213175547e-08 6.147405365792548e-08 -2.6501511911833498e-15 -0.29859999998320197 -0.11235000001566997 0.31364999997695675 2.2214414693069955 2.2214414688513706 4.556249894594308e-10 0.0 0.0 0.0 0.0 0.0 0.0
154703.544 2.220446049250313e-16 -1.5707963267948966 1.5707963267948966 -1.5707963267948966 -1.5707963267948966 0.0 0.0 0.0 0.0 0.0 0.0 0.0 0.0 0.0 0.0 0.0 0.0 0.0 -1.1512442590619146e-26 -0.5442396572688689 -0.7673661111166267 -0.229354796466502 -1.3146049461972196e-11 0.0 -1.511583712148294e-25 -7.14586669994025 -7.145866699940251 -1.0424175499402515 -5.974879480466362e-11 0.0 2.220446049250313e-16 -1.570796314870016 1.5707963705062866 -1.570796314870016 -1.570796314870016 0.0 0.0 0.0 0.0 0.0 0.0 0.0 -1.151244268742903e-26 -0.5442396402359009 -0.7673661112785339 -0.22935479879379272 -1.3146049353263134e-11 0.0 -1.151244268742903e-26 -0.5442396402359009 -0.7673661112785339 -0.22935479879379272 -1.3146049353263134e-11 0.0 -0.29859999735544024 -0.11235000099231768 0.3136499823461779 2.2214412195942916 2.2214412191386654 6.515886891884209e-08 0.0 0.0 0.0 0.0 0.0 0.0 9.240738067961098e-07 3.4768818278582935e-07 4.253146293222069e-08 -2.847566213175547e-08 6.147405365792548e-08 -2.6501511911833498e-15 -0.29859999998320197 -0.11235000001566997 0.31364999997695675 2.2214414693069955 2.2214414688513706 4.556249894594308e-10 0.0 0.0 0.0 0.0 0.0 0.0
154703.552 2.220446049250313e-16 -1.5707963267948966 1.5707963267948966 -1.5707963267948966 -1.5707963267948966 0.0 0.0 0.0 0.0 0.0 0.0 0.0 0.0 0.0 0.0 0.0 0.0 0.0 -1.1512442590619146e-26 -0.5442396572688689 -0.7673661111166267 -0.229354796466502 -1.3146049461972196e-11 0.0 -1.511583712148294e-25 -7.14586669994025 -7.145866699940251 -1.0424175499402515 -5.974879480466362e-11 0.0 2.220446049250313e-16 -1.570796314870016 1.5707963705062866 -1.570796314870016 -1.570796314870016 0.0 0.0 0.0 0.0 0.0 0.0 0.0 -1.151244268742903e-26 -0.5442396402359009 -0.7673661112785339 -0.22935479879379272 -1.3146049353263134e-11 0.0 -1.151244268742903e-26 -0.5442396402359009 -0.7673661112785339 -0.22935479879379272 -1.3146049353263134e-11 0.0 -0.29859999735544024 -0.11235000099231768 0.3136499823461779 2.2214412195942916 2.2214412191386654 6.515886891884209e-08 0.0 0.0 0.0 0.0 0.0 0.0 9.240738067961098e-07 3.4768818278582935e-07 4.253146293222069e-08 -2.847566213175547e-08 6.147405365792548e-08 -2.6501511911833498e-15 -0.29859999998320197 -0.11235000001566997 0.31364999997695675 2.2214414693069955 2.2214414688513706 4.556249894594308e-10 0.0 0.0 0.0 0.0 0.0 0.0
154703.56 2.220446049250313e-16 -1.5707963267948966 1.5707963267948966 -1.5707963267948966 -1.5707963267948966 0.0 0.0 0.0 0.0 0.0 0.0 0.0 0.0 0.0 0.0 0.0 0.0 0.0 -1.1512442590619146e-26 -0.5442396572688689 -0.7673661111166267 -0.229354796466502 -1.3146049461972196e-11 0.0 -1.511583712148294e-25 -7.14586669994025 -7.145866699940251 -1.0424175499402515 -5.974879480466362e-11 0.0 2.220446049250313e-16 -1.570796314870016 1.5707963705062866 -1.570796314870016 -1.570796314870016 0.0 0.0 0.0 0.0 0.0 0.0 0.0 -1.151244268742903e-26 -0.5442396402359009 -0.7673661112785339 -0.22935479879379272 -1.3146049353263134e-11 0.0 -1.151244268742903e-26 -0.5442396402359009 -0.7673661112785339 -0.22935479879379272 -1.3146049353263134e-11 0.0 -0.29859999735544024 -0.11235000099231768 0.3136499823461779 2.2214412195942916 2.2214412191386654 6.515886891884209e-08 0.0 0.0 0.0 0.0 0.0 0.0 9.240738067961098e-07 3.4768818278582935e-07 4.253146293222069e-08 -2.847566213175547e-08 6.147405365792548e-08 -2.6501511911833498e-15 -0.29859999998320197 -0.11235000001566997 0.31364999997695675 2.2214414693069955 2.2214414688513706 4.556249894594308e-10 0.0 0.0 0.0 0.0 0.0 0.0
154703.568 2.220446049250313e-16 -1.5707963267948966 1.5707963267948966 -1.5707963267948966 -1.5707963267948966 0.0 0.0 0.0 0.0 0.0 0.0 0.0 0.0 0.0 0.0 0.0 0.0 0.0 -1.1512442590619146e-26 -0.5442396572688689 -0.7673661111166267 -0.229354796466502 -1.3146049461972196e-11 0.0 -1.511583712148294e-25 -7.14586669994025 -7.145866699940251 -1.0424175499402515 -5.974879480466362e-11 0.0 2.220446049250313e-16 -1.570796314870016 1.5707963705062866 -1.570796314870016 -1.570796314870016 0.0 0.0 0.0 0.0 0.0 0.0 0.0 -1.151244268742903e-26 -0.5442396402359009 -0.7673661112785339 -0.22935479879379272 -1.3146049353263134e-11 0.0 -1.151244268742903e-26 -0.5442396402359009 -0.7673661112785339 -0.22935479879379272 -1.3146049353263134e-11 0.0 -0.29859999735544024 -0.11235000099231768 0.3136499823461779 2.2214412195942916 2.2214412191386654 6.515886891884209e-08 0.0 0.0 0.0 0.0 0.0 0.0 9.240738067961098e-07 3.4768818278582935e-07 4.253146293222069e-08 -2.847566213175547e-08 6.147405365792548e-08 -2.6501511911833498e-15 -0.29859999998320197 -0.11235000001566997 0.31364999997695675 2.2214414693069955 2.2214414688513706 4.556249894594308e-10 0.0 0.0 0.0 0.0 0.0 0.0
154703.576 2.220446049250313e-16 -1.5707963267948966 1.5707963267948966 -1.5707963267948966 -1.5707963267948966 0.0 0.0 0.0 0.0 0.0 0.0 0.0 0.0 0.0 0.0 0.0 0.0 0.0 -1.1512442590619146e-26 -0.5442396572688689 -0.7673661111166267 -0.229354796466502 -1.3146049461972196e-11 0.0 -1.511583712148294e-25 -7.14586669994025 -7.145866699940251 -1.0424175499402515 -5.974879480466362e-11 0.0 2.220446049250313e-16 -1.570796314870016 1.5707963705062866 -1.570796314870016 -1.570796314870016 0.0 0.0 0.0 0.0 0.0 0.0 0.0 -1.151244268742903e-26 -0.5442396402359009 -0.7673661112785339 -0.22935479879379272 -1.3146049353263134e-11 0.0 -1.151244268742903e-26 -0.5442396402359009 -0.7673661112785339 -0.22935479879379272 -1.3146049353263134e-11 0.0 -0.29859999735544024 -0.11235000099231768 0.3136499823461779 2.2214412195942916 2.2214412191386654 6.515886891884209e-08 0.0 0.0 0.0 0.0 0.0 0.0 9.240738067961098e-07 3.4768818278582935e-07 4.253146293222069e-08 -2.847566213175547e-08 6.147405365792548e-08 -2.6501511911833498e-15 -0.29859999998320197 -0.11235000001566997 0.31364999997695675 2.2214414693069955 2.2214414688513706 4.556249894594308e-10 0.0 0.0 0.0 0.0 0.0 0.0
154703.584 2.220446049250313e-16 -1.5707963267948966 1.5707963267948966 -1.5707963267948966 -1.5707963267948966 0.0 0.0 0.0 0.0 0.0 0.0 0.0 0.0 0.0 0.0 0.0 0.0 0.0 -1.1512442590619146e-26 -0.5442396572688689 -0.7673661111166267 -0.229354796466502 -1.3146049461972196e-11 0.0 -1.511583712148294e-25 -7.14586669994025 -7.145866699940251 -1.0424175499402515 -5.974879480466362e-11 0.0 2.220446049250313e-16 -1.570796314870016 1.5707963705062866 -1.570796314870016 -1.570796314870016 0.0 0.0 0.0 0.0 0.0 0.0 0.0 -1.151244268742903e-26 -0.5442396402359009 -0.7673661112785339 -0.22935479879379272 -1.3146049353263134e-11 0.0 -1.151244268742903e-26 -0.5442396402359009 -0.7673661112785339 -0.22935479879379272 -1.3146049353263134e-11 0.0 -0.29859999735544024 -0.11235000099231768 0.3136499823461779 2.2214412195942916 2.2214412191386654 6.515886891884209e-08 0.0 0.0 0.0 0.0 0.0 0.0 9.240738067961098e-07 3.4768818278582935e-07 4.253146293222069e-08 -2.847566213175547e-08 6.147405365792548e-08 -2.6501511911833498e-15 -0.29859999998320197 -0.11235000001566997 0.31364999997695675 2.2214414693069955 2.2214414688513706 4.556249894594308e-10 0.0 0.0 0.0 0.0 0.0 0.0
154703.592 2.220446049250313e-16 -1.5707963267948966 1.5707963267948966 -1.5707963267948966 -1.5707963267948966 0.0 0.0 0.0 0.0 0.0 0.0 0.0 0.0 0.0 0.0 0.0 0.0 0.0 -1.1512442590619146e-26 -0.5442396572688689 -0.7673661111166267 -0.229354796466502 -1.3146049461972196e-11 0.0 -1.511583712148294e-25 -7.14586669994025 -7.145866699940251 -1.0424175499402515 -5.974879480466362e-11 0.0 2.220446049250313e-16 -1.570796314870016 1.5707963705062866 -1.570796314870016 -1.570796314870016 0.0 0.0 0.0 0.0 0.0 0.0 0.0 -1.151244268742903e-26 -0.5442396402359009 -0.7673661112785339 -0.22935479879379272 -1.3146049353263134e-11 0.0 -1.151244268742903e-26 -0.5442396402359009 -0.7673661112785339 -0.22935479879379272 -1.3146049353263134e-11 0.0 -0.29859999735544024 -0.11235000099231768 0.3136499823461779 2.2214412195942916 2.2214412191386654 6.515886891884209e-08 0.0 0.0 0.0 0.0 0.0 0.0 9.240738067961098e-07 3.4768818278582935e-07 4.253146293222069e-08 -2.847566213175547e-08 6.147405365792548e-08 -2.6501511911833498e-15 -0.29859999998320197 -0.11235000001566997 0.31364999997695675 2.2214414693069955 2.2214414688513706 4.556249894594308e-10 0.0 0.0 0.0 0.0 0.0 0.0
154703.6 2.220446049250313e-16 -1.5707963267948966 1.5707963267948966 -1.5707963267948966 -1.5707963267948966 0.0 0.0 0.0 0.0 0.0 0.0 0.0 0.0 0.0 0.0 0.0 0.0 0.0 -1.1512442590619146e-26 -0.5442396572688689 -0.7673661111166267 -0.229354796466502 -1.3146049461972196e-11 0.0 -1.511583712148294e-25 -7.14586669994025 -7.145866699940251 -1.0424175499402515 -5.974879480466362e-11 0.0 2.220446049250313e-16 -1.570796314870016 1.5707963705062866 -1.570796314870016 -1.570796314870016 0.0 0.0 0.0 0.0 0.0 0.0 0.0 -1.151244268742903e-26 -0.5442396402359009 -0.7673661112785339 -0.22935479879379272 -1.3146049353263134e-11 0.0 -1.151244268742903e-26 -0.5442396402359009 -0.7673661112785339 -0.22935479879379272 -1.3146049353263134e-11 0.0 -0.29859999735544024 -0.11235000099231768 0.3136499823461779 2.2214412195942916 2.2214412191386654 6.515886891884209e-08 0.0 0.0 0.0 0.0 0.0 0.0 9.240738067961098e-07 3.4768818278582935e-07 4.253146293222069e-08 -2.847566213175547e-08 6.147405365792548e-08 -2.6501511911833498e-15 -0.29859999998320197 -0.11235000001566997 0.31364999997695675 2.2214414693069955 2.2214414688513706 4.556249894594308e-10 0.0 0.0 0.0 0.0 0.0 0.0
154703.608 2.220446049250313e-16 -1.5707963267948966 1.5707963267948966 -1.5707963267948966 -1.5707963267948966 0.0 0.0 0.0 0.0 0.0 0.0 0.0 0.0 0.0 0.0 0.0 0.0 0.0 -1.1512442590619146e-26 -0.5442396572688689 -0.7673661111166267 -0.229354796466502 -1.3146049461972196e-11 0.0 -1.511583712148294e-25 -7.14586669994025 -7.145866699940251 -1.0424175499402515 -5.974879480466362e-11 0.0 2.220446049250313e-16 -1.570796314870016 1.5707963705062866 -1.570796314870016 -1.570796314870016 0.0 0.0 0.0 0.0 0.0 0.0 0.0 -1.151244268742903e-26 -0.5442396402359009 -0.7673661112785339 -0.22935479879379272 -1.3146049353263134e-11 0.0 -1.151244268742903e-26 -0.5442396402359009 -0.7673661112785339 -0.22935479879379272 -1.3146049353263134e-11 0.0 -0.29859999735544024 -0.11235000099231768 0.3136499823461779 2.2214412195942916 2.2214412191386654 6.515886891884209e-08 0.0 0.0 0.0 0.0 0.0 0.0 9.240738067961098e-07 3.4768818278582935e-07 4.253146293222069e-08 -2.847566213175547e-08 6.147405365792548e-08 -2.6501511911833498e-15 -0.29859999998320197 -0.11235000001566997 0.31364999997695675 2.2214414693069955 2.2214414688513706 4.556249894594308e-10 0.0 0.0 0.0 0.0 0.0 0.0
154703.61599999998 2.220446049250313e-16 -1.5707963267948966 1.5707963267948966 -1.5707963267948966 -1.5707963267948966 0.0 0.0 0.0 0.0 0.0 0.0 0.0 0.0 0.0 0.0 0.0 0.0 0.0 -1.1512442590619146e-26 -0.5442396572688689 -0.7673661111166267 -0.229354796466502 -1.3146049461972196e-11 0.0 -1.511583712148294e-25 -7.14586669994025 -7.145866699940251 -1.0424175499402515 -5.974879480466362e-11 0.0 2.220446049250313e-16 -1.570796314870016 1.5707963705062866 -1.570796314870016 -1.570796314870016 0.0 0.0 0.0 0.0 0.0 0.0 0.0 -1.151244268742903e-26 -0.5442396402359009 -0.7673661112785339 -0.22935479879379272 -1.3146049353263134e-11 0.0 -1.151244268742903e-26 -0.5442396402359009 -0.7673661112785339 -0.22935479879379272 -1.3146049353263134e-11 0.0 -0.29859999735544024 -0.11235000099231768 0.3136499823461779 2.2214412195942916 2.2214412191386654 6.515886891884209e-08 0.0 0.0 0.0 0.0 0.0 0.0 9.240738067961098e-07 3.4768818278582935e-07 4.253146293222069e-08 -2.847566213175547e-08 6.147405365792548e-08 -2.6501511911833498e-15 -0.29859999998320197 -0.11235000001566997 0.31364999997695675 2.2214414693069955 2.2214414688513706 4.556249894594308e-10 0.0 0.0 0.0 0.0 0.0 0.0
154703.62399999998 2.220446049250313e-16 -1.5707963267948966 1.5707963267948966 -1.5707963267948966 -1.5707963267948966 0.0 0.0 0.0 0.0 0.0 0.0 0.0 0.0 0.0 0.0 0.0 0.0 0.0 -1.1512442590619146e-26 -0.5442396572688689 -0.7673661111166267 -0.229354796466502 -1.3146049461972196e-11 0.0 -1.511583712148294e-25 -7.14586669994025 -7.145866699940251 -1.0424175499402515 -5.974879480466362e-11 0.0 2.220446049250313e-16 -1.570796314870016 1.5707963705062866 -1.570796314870016 -1.570796314870016 0.0 0.0 0.0 0.0 0.0 0.0 0.0 -1.151244268742903e-26 -0.5442396402359009 -0.7673661112785339 -0.22935479879379272 -1.3146049353263134e-11 0.0 -1.151244268742903e-26 -0.5442396402359009 -0.7673661112785339 -0.22935479879379272 -1.3146049353263134e-11 0.0 -0.29859999735544024 -0.11235000099231768 0.3136499823461779 2.2214412195942916 2.2214412191386654 6.515886891884209e-08 0.0 0.0 0.0 0.0 0.0 0.0 9.240738067961098e-07 3.4768818278582935e-07 4.253146293222069e-08 -2.847566213175547e-08 6.147405365792548e-08 -2.6501511911833498e-15 -0.29859999998320197 -0.11235000001566997 0.31364999997695675 2.2214414693069955 2.2214414688513706 4.556249894594308e-10 0.0 0.0 0.0 0.0 0.0 0.0
154703.63199999998 2.220446049250313e-16 -1.5707963267948966 1.5707963267948966 -1.5707963267948966 -1.5707963267948966 0.0 0.0 0.0 0.0 0.0 0.0 0.0 0.0 0.0 0.0 0.0 0.0 0.0 -1.1512442590619146e-26 -0.5442396572688689 -0.7673661111166267 -0.229354796466502 -1.3146049461972196e-11 0.0 -1.511583712148294e-25 -7.14586669994025 -7.145866699940251 -1.0424175499402515 -5.974879480466362e-11 0.0 2.220446049250313e-16 -1.570796314870016 1.5707963705062866 -1.570796314870016 -1.570796314870016 0.0 0.0 0.0 0.0 0.0 0.0 0.0 -1.151244268742903e-26 -0.5442396402359009 -0.7673661112785339 -0.22935479879379272 -1.3146049353263134e-11 0.0 -1.151244268742903e-26 -0.5442396402359009 -0.7673661112785339 -0.22935479879379272 -1.3146049353263134e-11 0.0 -0.29859999735544024 -0.11235000099231768 0.3136499823461779 2.2214412195942916 2.2214412191386654 6.515886891884209e-08 0.0 0.0 0.0 0.0 0.0 0.0 9.240738067961098e-07 3.4768818278582935e-07 4.253146293222069e-08 -2.847566213175547e-08 6.147405365792548e-08 -2.6501511911833498e-15 -0.29859999998320197 -0.11235000001566997 0.31364999997695675 2.2214414693069955 2.2214414688513706 4.556249894594308e-10 0.0 0.0 0.0 0.0 0.0 0.0
154703.63999999998 2.220446049250313e-16 -1.5707963267948966 1.5707963267948966 -1.5707963267948966 -1.5707963267948966 0.0 0.0 0.0 0.0 0.0 0.0 0.0 0.0 0.0 0.0 0.0 0.0 0.0 -1.1512442590619146e-26 -0.5442396572688689 -0.7673661111166267 -0.229354796466502 -1.3146049461972196e-11 0.0 -1.511583712148294e-25 -7.14586669994025 -7.145866699940251 -1.0424175499402515 -5.974879480466362e-11 0.0 2.220446049250313e-16 -1.570796314870016 1.5707963705062866 -1.570796314870016 -1.570796314870016 0.0 0.0 0.0 0.0 0.0 0.0 0.0 -1.151244268742903e-26 -0.5442396402359009 -0.7673661112785339 -0.22935479879379272 -1.3146049353263134e-11 0.0 -1.151244268742903e-26 -0.5442396402359009 -0.7673661112785339 -0.22935479879379272 -1.3146049353263134e-11 0.0 -0.29859999735544024 -0.11235000099231768 0.3136499823461779 2.2214412195942916 2.2214412191386654 6.515886891884209e-08 0.0 0.0 0.0 0.0 0.0 0.0 9.240738067961098e-07 3.4768818278582935e-07 4.253146293222069e-08 -2.847566213175547e-08 6.147405365792548e-08 -2.6501511911833498e-15 -0.29859999998320197 -0.11235000001566997 0.31364999997695675 2.2214414693069955 2.2214414688513706 4.556249894594308e-10 0.0 0.0 0.0 0.0 0.0 0.0
154703.648 2.220446049250313e-16 -1.5707963267948966 1.5707963267948966 -1.5707963267948966 -1.5707963267948966 0.0 0.0 0.0 0.0 0.0 0.0 0.0 0.0 0.0 0.0 0.0 0.0 0.0 -1.1512442590619146e-26 -0.5442396572688689 -0.7673661111166267 -0.229354796466502 -1.3146049461972196e-11 0.0 -1.511583712148294e-25 -7.14586669994025 -7.145866699940251 -1.0424175499402515 -5.974879480466362e-11 0.0 2.220446049250313e-16 -1.570796314870016 1.5707963705062866 -1.570796314870016 -1.570796314870016 0.0 0.0 0.0 0.0 0.0 0.0 0.0 -1.151244268742903e-26 -0.5442396402359009 -0.7673661112785339 -0.22935479879379272 -1.3146049353263134e-11 0.0 -1.151244268742903e-26 -0.5442396402359009 -0.7673661112785339 -0.22935479879379272 -1.3146049353263134e-11 0.0 -0.29859999735544024 -0.11235000099231768 0.3136499823461779 2.2214412195942916 2.2214412191386654 6.515886891884209e-08 0.0 0.0 0.0 0.0 0.0 0.0 9.240738067961098e-07 3.4768818278582935e-07 4.253146293222069e-08 -2.847566213175547e-08 6.147405365792548e-08 -2.6501511911833498e-15 -0.29859999998320197 -0.11235000001566997 0.31364999997695675 2.2214414693069955 2.2214414688513706 4.556249894594308e-10 0.0 0.0 0.0 0.0 0.0 0.0
154703.656 2.220446049250313e-16 -1.5707963267948966 1.5707963267948966 -1.5707963267948966 -1.5707963267948966 0.0 0.0 0.0 0.0 0.0 0.0 0.0 0.0 0.0 0.0 0.0 0.0 0.0 -1.1512442590619146e-26 -0.5442396572688689 -0.7673661111166267 -0.229354796466502 -1.3146049461972196e-11 0.0 -1.511583712148294e-25 -7.14586669994025 -7.145866699940251 -1.0424175499402515 -5.974879480466362e-11 0.0 2.220446049250313e-16 -1.570796314870016 1.5707963705062866 -1.570796314870016 -1.570796314870016 0.0 0.0 0.0 0.0 0.0 0.0 0.0 -1.151244268742903e-26 -0.5442396402359009 -0.7673661112785339 -0.22935479879379272 -1.3146049353263134e-11 0.0 -1.151244268742903e-26 -0.5442396402359009 -0.7673661112785339 -0.22935479879379272 -1.3146049353263134e-11 0.0 -0.29859999735544024 -0.11235000099231768 0.3136499823461779 2.2214412195942916 2.2214412191386654 6.515886891884209e-08 0.0 0.0 0.0 0.0 0.0 0.0 9.240738067961098e-07 3.4768818278582935e-07 4.253146293222069e-08 -2.847566213175547e-08 6.147405365792548e-08 -2.6501511911833498e-15 -0.29859999998320197 -0.11235000001566997 0.31364999997695675 2.2214414693069955 2.2214414688513706 4.556249894594308e-10 0.0 0.0 0.0 0.0 0.0 0.0
154703.664 2.220446049250313e-16 -1.5707963267948966 1.5707963267948966 -1.5707963267948966 -1.5707963267948966 0.0 0.0 0.0 0.0 0.0 0.0 0.0 0.0 0.0 0.0 0.0 0.0 0.0 -1.1512442590619146e-26 -0.5442396572688689 -0.7673661111166267 -0.229354796466502 -1.3146049461972196e-11 0.0 -1.511583712148294e-25 -7.14586669994025 -7.145866699940251 -1.0424175499402515 -5.974879480466362e-11 0.0 2.220446049250313e-16 -1.570796314870016 1.5707963705062866 -1.570796314870016 -1.570796314870016 0.0 0.0 0.0 0.0 0.0 0.0 0.0 -1.151244268742903e-26 -0.5442396402359009 -0.7673661112785339 -0.22935479879379272 -1.3146049353263134e-11 0.0 -1.151244268742903e-26 -0.5442396402359009 -0.7673661112785339 -0.22935479879379272 -1.3146049353263134e-11 0.0 -0.29859999735544024 -0.11235000099231768 0.3136499823461779 2.2214412195942916 2.2214412191386654 6.515886891884209e-08 0.0 0.0 0.0 0.0 0.0 0.0 9.240738067961098e-07 3.4768818278582935e-07 4.253146293222069e-08 -2.847566213175547e-08 6.147405365792548e-08 -2.6501511911833498e-15 -0.29859999998320197 -0.11235000001566997 0.31364999997695675 2.2214414693069955 2.2214414688513706 4.556249894594308e-10 0.0 0.0 0.0 0.0 0.0 0.0
154703.672 2.220446049250313e-16 -1.5707963267948966 1.5707963267948966 -1.5707963267948966 -1.5707963267948966 0.0 0.0 0.0 0.0 0.0 0.0 0.0 0.0 0.0 0.0 0.0 0.0 0.0 -1.1512442590619146e-26 -0.5442396572688689 -0.7673661111166267 -0.229354796466502 -1.3146049461972196e-11 0.0 -1.511583712148294e-25 -7.14586669994025 -7.145866699940251 -1.0424175499402515 -5.974879480466362e-11 0.0 2.220446049250313e-16 -1.570796314870016 1.5707963705062866 -1.570796314870016 -1.570796314870016 0.0 0.0 0.0 0.0 0.0 0.0 0.0 -1.151244268742903e-26 -0.5442396402359009 -0.7673661112785339 -0.22935479879379272 -1.3146049353263134e-11 0.0 -1.151244268742903e-26 -0.5442396402359009 -0.7673661112785339 -0.22935479879379272 -1.3146049353263134e-11 0.0 -0.29859999735544024 -0.11235000099231768 0.3136499823461779 2.2214412195942916 2.2214412191386654 6.515886891884209e-08 0.0 0.0 0.0 0.0 0.0 0.0 9.240738067961098e-07 3.4768818278582935e-07 4.253146293222069e-08 -2.847566213175547e-08 6.147405365792548e-08 -2.6501511911833498e-15 -0.29859999998320197 -0.11235000001566997 0.31364999997695675 2.2214414693069955 2.2214414688513706 4.556249894594308e-10 0.0 0.0 0.0 0.0 0.0 0.0
