mkrssg/UniversalRobots/rtde_client_3.5/examples/falscheWerte da mit movel/q1_0-10.csv
timestamp target_q_0 target_q_1 target_q_2 target_q_3 target_q_4 target_q_5 target_qd_0 target_qd_1 target_qd_2 target_qd_3 target_qd_4 target_qd_5 target_qdd_0 target_qdd_1 target_qdd_2 target_qdd_3 target_qdd_4 target_qdd_5 target_current_0 target_current_1 target_current_2 target_current_3 target_current_4 target_current_5 target_moment_0 target_moment_1 target_moment_2 target_moment_3 target_moment_4 target_moment_5 actual_q_0 actual_q_1 actual_q_2 actual_q_3 actual_q_4 actual_q_5 actual_qd_0 actual_qd_1 actual_qd_2 actual_qd_3 actual_qd_4 actual_qd_5 actual_current_0 actual_current_1 actual_current_2 actual_current_3 actual_current_4 actual_current_5 joint_control_output_0 joint_control_output_1 joint_control_output_2 joint_control_output_3 joint_control_output_4 joint_control_output_5 actual_TCP_pose_0 actual_TCP_pose_1 actual_TCP_pose_2 actual_TCP_pose_3 actual_TCP_pose_4 actual_TCP_pose_5 actual_TCP_speed_0 actual_TCP_speed_1 actual_TCP_speed_2 actual_TCP_speed_3 actual_TCP_speed_4 actual_TCP_speed_5 actual_TCP_force_0 actual_TCP_force_1 actual_TCP_force_2 actual_TCP_force_3 actual_TCP_force_4 actual_TCP_force_5 target_TCP_pose_0 target_TCP_pose_1 target_TCP_pose_2 target_TCP_pose_3 target_TCP_pose_4 target_TCP_pose_5 target_TCP_speed_0 target_TCP_speed_1 target_TCP_speed_2 target_TCP_speed_3 target_TCP_speed_4 target_TCP_speed_5
154020.576 1.1041514924592377e-15 -1.5707963267948966 1.5707963267948966 -1.5707963267948966 -1.5707963267948966 0.0 0.0 0.0 0.0 0.0 0.0 0.0 0.0 0.0 0.0 0.0 0.0 0.0 -1.1512442590619146e-26 -0.5442396572688689 -0.7673661111166267 -0.229354796466502 -1.3146049461972196e-11 0.0 -1.511583712148294e-25 -7.14586669994025 -7.145866699940251 -1.0424175499402515 -5.974879480466362e-11 0.0 1.1041514924592377e-15 -1.570796314870016 1.5707963705062866 -1.570796314870016 -1.570796314870016 0.0 0.0 0.0 0.0 0.0 0.0 0.0 -1.151244268742903e-26 -0.5442396402359009 -0.7673661112785339 -0.22935479879379272 -1.3146049353263134e-11 0.0 -1.151244268742903e-26 -0.5442396402359009 -0.7673661112785339 -0.22935479879379272 -1.3146049353263134e-11 0.0 -0.2985999973554402 -0.11235000099231794 0.3136499823461779 2.2214412195942903 2.2214412191386663 6.51588689188421e-08 0.0 0.0 0.0 0.0 0.0 0.0 9.240738067961094e-07 3.476881827858303e-07 4.253146293222056e-08 -2.8475662131755596e-08 6.147405365792542e-08 -2.6501511670479847e-15 -0.29859999998320186 -0.11235000001567023 0.31364999997695675 2.221441469306994 2.2214414688513715 4.556249894594308e-10 0.0 0.0 0.0 0.0 0.0 0.0
154020.584 1.1041514924592377e-15 -1.5707963267948966 1.5707963267948966 -1.5707963267948966 -1.5707963267948966 0.0 0.0 0.0 0.0 0.0 0.0 0.0 0.0 0.0 0.0 0.0 0.0 0.0 -1.1512442590619146e-26 -0.5442396572688689 -0.7673661111166267 -0.229354796466502 -1.3146049461972196e-11 0.0 -1.511583712148294e-25 -7.14586669994025 -7.145866699940251 -1.0424175499402515 -5.974879480466362e-11 0.0 1.1041514924592377e-15 -1.570796314870016 1.5707963705062866 -1.570796314870016 -1.570796314870016 0.0 0.0 0.0 0.0 0.0 0.0 0.0 -1.151244268742903e-26 -0.5442396402359009 -0.7673661112785339 -0.22935479879379272 -1.3146049353263134e-11 0.0 -1.151244268742903e-26 -0.5442396402359009 -0.7673661112785339 -0.22935479879379272 -1.3146049353263134e-11 0.0 -0.2985999973554402 -0.11235000099231794 0.3136499823461779 2.2214412195942903 2.2214412191386663 6.51588689188421e-08 0.0 0.0 0.0 0.0 0.0 0.0 9.240738067961094e-07 3.476881827858303e-07 4.253146293222056e-08 -2.8475662131755596e-08 6.147405365792542e-08 -2.6501511670479847e-15 -0.29859999998320186 -0.11235000001567023 0.31364999997695675 2.221441469306994 2.2214414688513715 4.556249894594308e-10 0.0 0.0 0.0 0.0 0.0 0.0
154020.592 1.1041514924592377e-15 -1.5707963267948966 1.5707963267948966 -1.5707963267948966 -1.5707963267948966 0.0 0.0 0.0 0.0 0.0 0.0 0.0 0.0 0.0 0.0 0.0 0.0 0.0 -1.1512442590619146e-26 -0.5442396572688689 -0.7673661111166267 -0.229354796466502 -1.3146049461972196e-11 0.0 -1.511583712148294e-25 -7.14586669994025 -7.145866699940251 -1.0424175499402515 -5.974879480466362e-11 0.0 1.1041514924592377e-15 -1.570796314870016 1.5707963705062866 -1.570796314870016 -1.570796314870016 0.0 0.0 0.0 0.0 0.0 0.0 0.0 -1.151244268742903e-26 -0.5442396402359009 -0.7673661112785339 -0.22935479879379272 -1.3146049353263134e-11 0.0 -1.151244268742903e-26 -0.5442396402359009 -0.7673661112785339 -0.22935479879379272 -1.3146049353263134e-11 0.0 -0.2985999973554402 -0.11235000099231794 0.3136499823461779 2.2214412195942903 2.2214412191386663 6.51588689188421e-08 0.0 0.0 0.0 0.0 0.0 0.0 9.240738067961094e-07 3.476881827858303e-07 4.253146293222056e-08 -2.8475662131755596e-08 6.147405365792542e-08 -2.6501511670479847e-15 -0.29859999998320186 -0.11235000001567023 0.31364999997695675 2.221441469306994 2.2214414688513715 4.556249894594308e-10 0.0 0.0 0.0 0.0 0.0 0.0
154020.6 1.1041514924592377e-15 -1.5707963267948966 1.5707963267948966 -1.5707963267948966 -1.5707963267948966 0.0 0.0 0.0 0.0 0.0 0.0 0.0 0.0 0.0 0.0 0.0 0.0 0.0 -1.1512442590619146e-26 -0.5442396572688689 -0.7673661111166267 -0.229354796466502 -1.3146049461972196e-11 0.0 -1.511583712148294e-25 -7.14586669994025 -7.145866699940251 -1.0424175499402515 -5.974879480466362e-11 0.0 1.1041514924592377e-15 -1.570796314870016 1.5707963705062866 -1.570796314870016 -1.570796314870016 0.0 0.0 0.0 0.0 0.0 0.0 0.0 -1.151244268742903e-26 -0.5442396402359009 -0.7673661112785339 -0.22935479879379272 -1.3146049353263134e-11 0.0 -1.151244268742903e-26 -0.5442396402359009 -0.7673661112785339 -0.22935479879379272 -1.3146049353263134e-11 0.0 -0.2985999973554402 -0.11235000099231794 0.3136499823461779 2.2214412195942903 2.2214412191386663 6.51588689188421e-08 0.0 0.0 0.0 0.0 0.0 0.0 9.240738067961094e-07 3.476881827858303e-07 4.253146293222056e-08 -2.8475662131755596e-08 6.147405365792542e-08 -2.6501511670479847e-15 -0.29859999998320186 -0.11235000001567023 0.31364999997695675 2.221441469306994 2.2214414688513715 4.556249894594308e-10 0.0 0.0 0.0 0.0 0.0 0.0
154020.608 1.1041514924592377e-15 -1.5707963267948966 1.5707963267948966 -1.5707963267948966 -1.5707963267948966 0.0 0.0 0.0 0.0 0.0 0.0 0.0 0.0 0.0 0.0 0.0 0.0 0.0 -1.1512442590619146e-26 -0.5442396572688689 -0.7673661111166267 -0.229354796466502 -1.3146049461972196e-11 0.0 -1.511583712148294e-25 -7.14586669994025 -7.145866699940251 -1.0424175499402515 -5.974879480466362e-11 0.0 1.1041514924592377e-15 -1.570796314870016 1.5707963705062866 -1.570796314870016 -1.570796314870016 0.0 0.0 0.0 0.0 0.0 0.0 0.0 -1.151244268742903e-26 -0.5442396402359009 -0.7673661112785339 -0.22935479879379272 -1.3146049353263134e-11 0.0 -1.151244268742903e-26 -0.5442396402359009 -0.7673661112785339 -0.22935479879379272 -1.3146049353263134e-11 0.0 -0.2985999973554402 -0.11235000099231794 0.3136499823461779 2.2214412195942903 2.2214412191386663 6.51588689188421e-08 0.0 0.0 0.0 0.0 0.0 0.0 9.240738067961094e-07 3.476881827858303e-07 4.253146293222056e-08 -2.8475662131755596e-08 6.147405365792542e-08 -2.6501511670479847e-15 -0.29859999998320186 -0.11235000001567023 0.31364999997695675 2.221441469306994 2.2214414688513715 4.556249894594308e-10 0.0 0.0 0.0 0.0 0.0 0.0
154020.61599999998 1.1041514924592377e-15 -1.5707963267948966 1.5707963267948966 -1.5707963267948966 -1.5707963267948966 0.0 0.0 0.0 0.0 0.0 0.0 0.0 0.0 0.0 0.0 0.0 0.0 0.0 -1.1512442590619146e-26 -0.5442396572688689 -0.7673661111166267 -0.229354796466502 -1.3146049461972196e-11 0.0 -1.511583712148294e-25 -7.14586669994025 -7.145866699940251 -1.0424175499402515 -5.974879480466362e-11 0.0 1.1041514924592377e-15 -1.570796314870016 1.5707963705062866 -1.570796314870016 -1.570796314870016 0.0 0.0 0.0 0.0 0.0 0.0 0.0 -1.151244268742903e-26 -0.5442396402359009 -0.7673661112785339 -0.22935479879379272 -1.3146049353263134e-11 0.0 -1.151244268742903e-26 -0.5442396402359009 -0.7673661112785339 -0.22935479879379272 -1.3146049353263134e-11 0.0 -0.2985999973554402 -0.11235000099231794 0.3136499823461779 2.2214412195942903 2.2214412191386663 6.51588689188421e-08 0.0 0.0 0.0 0.0 0.0 0.0 9.240738067961094e-07 3.476881827858303e-07 4.253146293222056e-08 -2.8475662131755596e-08 6.147405365792542e-08 -2.6501511670479847e-15 -0.29859999998320186 -0.11235000001567023 0.31364999997695675 2.221441469306994 2.2214414688513715 4.556249894594308e-10 0.0 0.0 0.0 0.0 0.0 0.0
154020.62399999998 1.1041514924592377e-15 -1.5707963267948966 1.5707963267948966 -1.5707963267948966 -1.5707963267948966 0.0 0.0 0.0 0.0 0.0 0.0 0.0 0.0 0.0 0.0 0.0 0.0 0.0 -1.1512442590619146e-26 -0.5442396572688689 -0.7673661111166267 -0.229354796466502 -1.3146049461972196e-11 0.0 -1.511583712148294e-25 -7.14586669994025 -7.145866699940251 -1.0424175499402515 -5.974879480466362e-11 0.0 1.1041514924592377e-15 -1.570796314870016 1.5707963705062866 -1.570796314870016 -1.570796314870016 0.0 0.0 0.0 0.0 0.0 0.0 0.0 -1.151244268742903e-26 -0.5442396402359009 -0.7673661112785339 -0.22935479879379272 -1.3146049353263134e-11 0.0 -1.151244268742903e-26 -0.5442396402359009 -0.7673661112785339 -0.22935479879379272 -1.3146049353263134e-11 0.0 -0.2985999973554402 -0.11235000099231794 0.3136499823461779 2.2214412195942903 2.2214412191386663 6.51588689188421e-08 0.0 0.0 0.0 0.0 0.0 0.0 9.240738067961094e-07 3.476881827858303e-07 4.253146293222056e-08 -2.8475662131755596e-08 6.147405365792542e-08 -2.6501511670479847e-15 -0.29859999998320186 -0.11235000001567023 0.31364999997695675 2.221441469306994 2.2214414688513715 4.556249894594308e-10 0.0 0.0 0.0 0.0 0.0 0.0
154020.63199999998 1.1041514924592377e-15 -1.5707963267948966 1.5707963267948966 -1.5707963267948966 -1.5707963267948966 0.0 0.0 0.0 0.0 0.0 0.0 0.0 0.0 0.0 0.0 0.0 0.0 0.0 -1.1512442590619146e-26 -0.5442396572688689 -0.7673661111166267 -0.229354796466502 -1.3146049461972196e-11 0.0 -1.511583712148294e-25 -7.14586669994025 -7.145866699940251 -1.0424175499402515 -5.974879480466362e-11 0.0 1.1041514924592377e-15 -1.570796314870016 1.5707963705062866 -1.570796314870016 -1.570796314870016 0.0 0.0 0.0 0.0 0.0 0.0 0.0 -1.151244268742903e-26 -0.5442396402359009 -0.7673661112785339 -0.22935479879379272 -1.3146049353263134e-11 0.0 -1.151244268742903e-26 -0.5442396402359009 -0.7673661112785339 -0.22935479879379272 -1.3146049353263134e-11 0.0 -0.2985999973554402 -0.11235000099231794 0.3136499823461779 2.2214412195942903 2.2214412191386663 6.51588689188421e-08 0.0 0.0 0.0 0.0 0.0 0.0 9.240738067961094e-07 3.476881827858303e-07 4.253146293222056e-08 -2.8475662131755596e-08 6.147405365792542e-08 -2.6501511670479847e-15 -0.29859999998320186 -0.11235000001567023 0.31364999997695675 2.221441469306994 2.2214414688513715 4.556249894594308e-10 0.0 0.0 0.0 0.0 0.0 0.0
154020.63999999998 1.1041514924592377e-15 -1.5707963267948966 1.5707963267948966 -1.5707963267948966 -1.5707963267948966 0.0 0.0 0.0 0.0 0.0 0.0 0.0 0.0 0.0 0.0 0.0 0.0 0.0 -1.1512442590619146e-26 -0.5442396572688689 -0.7673661111166267 -0.229354796466502 -1.3146049461972196e-11 0.0 -1.511583712148294e-25 -7.14586669994025 -7.145866699940251 -1.0424175499402515 -5.974879480466362e-11 0.0 1.1041514924592377e-15 -1.570796314870016 1.5707963705062866 -1.570796314870016 -1.570796314870016 0.0 0.0 0.0 0.0 0.0 0.0 0.0 -1.151244268742903e-26 -0.5442396402359009 -0.7673661112785339 -0.22935479879379272 -1.3146049353263134e-11 0.0 -1.151244268742903e-26 -0.5442396402359009 -0.7673661112785339 -0.22935479879379272 -1.3146049353263134e-11 0.0 -0.2985999973554402 -0.11235000099231794 0.3136499823461779 2.2214412195942903 2.2214412191386663 6.51588689188421e-08 0.0 0.0 0.0 0.0 0.0 0.0 9.240738067961094e-07 3.476881827858303e-07 4.253146293222056e-08 -2.8475662131755596e-08 6.147405365792542e-08 -2.6501511670479847e-15 -0.29859999998320186 -0.11235000001567023 0.31364999997695675 2.221441469306994 2.2214414688513715 4.556249894594308e-10 0.0 0.0 0.0 0.0 0.0 0.0
154020.648 1.1041514924592377e-15 -1.5707963267948966 1.5707963267948966 -1.5707963267948966 -1.5707963267948966 0.0 0.0 0.0 0.0 0.0 0.0 0.0 0.0 0.0 0.0 0.0 0.0 0.0 -1.1512442590619146e-26 -0.5442396572688689 -0.7673661111166267 -0.229354796466502 -1.3146049461972196e-11 0.0 -1.511583712148294e-25 -7.14586669994025 -7.145866699940251 -1.0424175499402515 -5.974879480466362e-11 0.0 1.1041514924592377e-15 -1.570796314870016 1.5707963705062866 -1.570796314870016 -1.570796314870016 0.0 0.0 0.0 0.0 0.0 0.0 0.0 -1.151244268742903e-26 -0.5442396402359009 -0.7673661112785339 -0.22935479879379272 -1.3146049353263134e-11 0.0 -1.151244268742903e-26 -0.5442396402359009 -0.7673661112785339 -0.22935479879379272 -1.3146049353263134e-11 0.0 -0.2985999973554402 -0.11235000099231794 0.3136499823461779 2.2214412195942903 2.2214412191386663 6.51588689188421e-08 0.0 0.0 0.0 0.0 0.0 0.0 9.240738067961094e-07 3.476881827858303e-07 4.253146293222056e-08 -2.8475662131755596e-08 6.147405365792542e-08 -2.6501511670479847e-15 -0.29859999998320186 -0.11235000001567023 0.31364999997695675 2.221441469306994 2.2214414688513715 4.556249894594308e-10 0.0 0.0 0.0 0.0 0.0 0.0
154020.656 1.1041514924592377e-15 -1.5707963267948966 1.5707963267948966 -1.5707963267948966 -1.5707963267948966 0.0 0.0 0.0 0.0 0.0 0.0 0.0 0.0 0.0 0.0 0.0 0.0 0.0 -1.1512442590619146e-26 -0.5442396572688689 -0.7673661111166267 -0.229354796466502 -1.3146049461972196e-11 0.0 -1.511583712148294e-25 -7.14586669994025 -7.145866699940251 -1.0424175499402515 -5.974879480466362e-11 0.0 1.1041514924592377e-15 -1.570796314870016 1.5707963705062866 -1.570796314870016 -1.570796314870016 0.0 0.0 0.0 0.0 0.0 0.0 0.0 -1.151244268742903e-26 -0.5442396402359009 -0.7673661112785339 -0.22935479879379272 -1.3146049353263134e-11 0.0 -1.151244268742903e-26 -0.5442396402359009 -0.7673661112785339 -0.22935479879379272 -1.3146049353263134e-11 0.0 -0.2985999973554402 -0.11235000099231794 0.3136499823461779 2.2214412195942903 2.2214412191386663 6.51588689188421e-08 0.0 0.0 0.0 0.0 0.0 0.0 9.240738067961094e-07 3.476881827858303e-07 4.253146293222056e-08 -2.8475662131755596e-08 6.147405365792542e-08 -2.6501511670479847e-15 -0.29859999998320186 -0.11235000001567023 0.31364999997695675 2.221441469306994 2.2214414688513715 4.556249894594308e-10 0.0 0.0 0.0 0.0 0.0 0.0
154020.664 1.1041514924592377e-15 -1.5707963267948966 1.5707963267948966 -1.5707963267948966 -1.5707963267948966 0.0 0.0 0.0 0.0 0.0 0.0 0.0 0.0 0.0 0.0 0.0 0.0 0.0 -1.1512442590619146e-26 -0.5442396572688689 -0.7673661111166267 -0.229354796466502 -1.3146049461972196e-11 0.0 -1.511583712148294e-25 -7.14586669994025 -7.145866699940251 -1.0424175499402515 -5.974879480466362e-11 0.0 1.1041514924592377e-15 -1.570796314870016 1.5707963705062866 -1.570796314870016 -1.570796314870016 0.0 0.0 0.0 0.0 0.0 0.0 0.0 -1.151244268742903e-26 -0.5442396402359009 -0.7673661112785339 -0.22935479879379272 -1.3146049353263134e-11 0.0 -1.151244268742903e-26 -0.5442396402359009 -0.7673661112785339 -0.22935479879379272 -1.3146049353263134e-11 0.0 -0.2985999973554402 -0.11235000099231794 0.3136499823461779 2.2214412195942903 2.2214412191386663 6.51588689188421e-08 0.0 0.0 0.0 0.0 0.0 0.0 9.240738067961094e-07 3.476881827858303e-07 4.253146293222056e-08 -2.8475662131755596e-08 6.147405365792542e-08 -2.6501511670479847e-15 -0.29859999998320186 -0.11235000001567023 0.31364999997695675 2.221441469306994 2.2214414688513715 4.556249894594308e-10 0.0 0.0 0.0 0.0 0.0 0.0
154020.672 1.1041514924592377e-15 -1.5707963267948966 1.5707963267948966 -1.5707963267948966 -1.5707963267948966 0.0 0.0 0.0 0.0 0.0 0.0 0.0 0.0 0.0 0.0 0.0 0.0 0.0 -1.1512442590619146e-26 -0.5442396572688689 -0.7673661111166267 -0.229354796466502 -1.3146049461972196e-11 0.0 -1.511583712148294e-25 -7.14586669994025 -7.145866699940251 -1.0424175499402515 -5.974879480466362e-11 0.0 1.1041514924592377e-15 -1.570796314870016 1.5707963705062866 -1.570796314870016 -1.570796314870016 0.0 0.0 0.0 0.0 0.0 0.0 0.0 -1.151244268742903e-26 -0.5442396402359009 -0.7673661112785339 -0.22935479879379272 -1.3146049353263134e-11 0.0 -1.151244268742903e-26 -0.5442396402359009 -0.7673661112785339 -0.22935479879379272 -1.3146049353263134e-11 0.0 -0.2985999973554402 -0.11235000099231794 0.3136499823461779 2.2214412195942903 2.2214412191386663 6.51588689188421e-08 0.0 0.0 0.0 0.0 0.0 0.0 9.240738067961094e-07 3.476881827858303e-07 4.253146293222056e-08 -2.8475662131755596e-08 6.147405365792542e-08 -2.6501511670479847e-15 -0.29859999998320186 -0.11235000001567023 0.31364999997695675 2.221441469306994 2.2214414688513715 4.556249894594308e-10 0.0 0.0 0.0 0.0 0.0 0.0
154020.68 1.1041514924592377e-15 -1.5707963267948966 1.5707963267948966 -1.5707963267948966 -1.5707963267948966 0.0 0.0 0.0 0.0 0.0 0.0 0.0 0.0 0.0 0.0 0.0 0.0 0.0 -1.1512442590619146e-26 -0.5442396572688689 -0.7673661111166267 -0.229354796466502 -1.3146049461972196e-11 0.0 -1.511583712148294e-25 -7.14586669994025 -7.145866699940251 -1.0424175499402515 -5.974879480466362e-11 0.0 1.1041514924592377e-15 -1.570796314870016 1.5707963705062866 -1.570796314870016 -1.570796314870016 0.0 0.0 0.0 0.0 0.0 0.0 0.0 -1.151244268742903e-26 -0.5442396402359009 -0.7673661112785339 -0.22935479879379272 -1.3146049353263134e-11 0.0 -1.151244268742903e-26 -0.5442396402359009 -0.7673661112785339 -0.22935479879379272 -1.3146049353263134e-11 0.0 -0.2985999973554402 -0.11235000099231794 0.3136499823461779 2.2214412195942903 2.2214412191386663 6.51588689188421e-08 0.0 0.0 0.0 0.0 0.0 0.0 9.240738067961094e-07 3.476881827858303e-07 4.253146293222056e-08 -2.8475662131755596e-08 6.147405365792542e-08 -2.6501511670479847e-15 -0.29859999998320186 -0.11235000001567023 0.31364999997695675 2.221441469306994 2.2214414688513715 4.556249894594308e-10 0.0 0.0 0.0 0.0 0.0 0.0
154020.688 1.1041514924592377e-15 -1.5707963267948966 1.5707963267948966 -1.5707963267948966 -1.5707963267948966 0.0 0.0 0.0 0.0 0.0 0.0 0.0 0.0 0.0 0.0 0.0 0.0 0.0 -1.1512442590619146e-26 -0.5442396572688689 -0.7673661111166267 -0.229354796466502 -1.3146049461972196e-11 0.0 -1.511583712148294e-25 -7.14586669994025 -7.145866699940251 -1.0424175499402515 -5.974879480466362e-11 0.0 1.1041514924592377e-15 -1.570796314870016 1.5707963705062866 -1.570796314870016 -1.570796314870016 0.0 0.0 0.0 0.0 0.0 0.0 0.0 -1.151244268742903e-26 -0.5442396402359009 -0.7673661112785339 -0.22935479879379272 -1.3146049353263134e-11 0.0 -1.151244268742903e-26 -0.5442396402359009 -0.7673661112785339 -0.22935479879379272 -1.3146049353263134e-11 0.0 -0.2985999973554402 -0.11235000099231794 0.3136499823461779 2.2214412195942903 2.2214412191386663 6.51588689188421e-08 0.0 0.0 0.0 0.0 0.0 0.0 9.240738067961094e-07 3.476881827858303e-07 4.253146293222056e-08 -2.8475662131755596e-08 6.147405365792542e-08 -2.6501511670479847e-15 -0.29859999998320186 -0.11235000001567023 0.31364999997695675 2.221441469306994 2.2214414688513715 4.556249894594308e-10 0.0 0.0 0.0 0.0 0.0 0.0
154020.696 1.1041514924592377e-15 -1.5707963267948966 1.5707963267948966 -1.5707963267948966 -1.5707963267948966 0.0 0.0 0.0 0.0 0.0 0.0 0.0 0.0 0.0 0.0 0.0 0.0 0.0 -1.1512442590619146e-26 -0.5442396572688689 -0.7673661111166267 -0.229354796466502 -1.3146049461972196e-11 0.0 -1.511583712148294e-25 -7.14586669994025 -7.145866699940251 -1.0424175499402515 -5.974879480466362e-11 0.0 1.1041514924592377e-15 -1.570796314870016 1.5707963705062866 -1.570796314870016 -1.570796314870016 0.0 0.0 0.0 0.0 0.0 0.0 0.0 -1.151244268742903e-26 -0.5442396402359009 -0.7673661112785339 -0.22935479879379272 -1.3146049353263134e-11 0.0 -1.151244268742903e-26 -0.5442396402359009 -0.7673661112785339 -0.22935479879379272 -1.3146049353263134e-11 0.0 -0.2985999973554402 -0.11235000099231794 0.3136499823461779 2.2214412195942903 2.2214412191386663 6.51588689188421e-08 0.0 0.0 0.0 0.0 0.0 0.0 9.240738067961094e-07 3.476881827858303e-07 4.253146293222056e-08 -2.8475662131755596e-08 6.147405365792542e-08 -2.6501511670479847e-15 -0.29859999998320186 -0.11235000001567023 0.31364999997695675 2.221441469306994 2.2214414688513715 4.556249894594308e-10 0.0 0.0 0.0 0.0 0.0 0.0
154020.704 1.1041514924592377e-15 -1.5707963267948966 1.5707963267948966 -1.5707963267948966 -1.5707963267948966 0.0 0.0 0.0 0.0 0.0 0.0 0.0 0.0 0.0 0.0 0.0 0.0 0.0 -1.1512442590619146e-26 -0.5442396572688689 -0.7673661111166267 -0.229354796466502 -1.3146049461972196e-11 0.0 -1.511583712148294e-25 -7.14586669994025 -7.145866699940251 -1.0424175499402515 -5.974879480466362e-11 0.0 1.1041514924592377e-15 -1.570796314870016 1.5707963705062866 -1.570796314870016 -1.570796314870016 0.0 0.0 0.0 0.0 0.0 0.0 0.0 -1.151244268742903e-26 -0.5442396402359009 -0.7673661112785339 -0.22935479879379272 -1.3146049353263134e-11 0.0 -1.151244268742903e-26 -0.5442396402359009 -0.7673661112785339 -0.22935479879379272 -1.3146049353263134e-11 0.0 -0.2985999973554402 -0.11235000099231794 0.3136499823461779 2.2214412195942903 2.2214412191386663 6.51588689188421e-08 0.0 0.0 0.0 0.0 0.0 0.0 9.240738067961094e-07 3.476881827858303e-07 4.253146293222056e-08 -2.8475662131755596e-08 6.147405365792542e-08 -2.6501511670479847e-15 -0.29859999998320186 -0.11235000001567023 0.31364999997695675 2.221441469306994 2.2214414688513715 4.556249894594308e-10 0.0 0.0 0.0 0.0 0.0 0.0
154020.712 1.1041514924592377e-15 -1.5707963267948966 1.5707963267948966 -1.5707963267948966 -1.5707963267948966 0.0 0.0 0.0 0.0 0.0 0.0 0.0 0.0 0.0 0.0 0.0 0.0 0.0 -1.1512442590619146e-26 -0.5442396572688689 -0.7673661111166267 -0.229354796466502 -1.3146049461972196e-11 0.0 -1.511583712148294e-25 -7.14586669994025 -7.145866699940251 -1.0424175499402515 -5.974879480466362e-11 0.0 1.1041514924592377e-15 -1.570796314870016 1.5707963705062866 -1.570796314870016 -1.570796314870016 0.0 0.0 0.0 0.0 0.0 0.0 0.0 -1.151244268742903e-26 -0.5442396402359009 -0.7673661112785339 -0.22935479879379272 -1.3146049353263134e-11 0.0 -1.151244268742903e-26 -0.5442396402359009 -0.7673661112785339 -0.22935479879379272 -1.3146049353263134e-11 0.0 -0.2985999973554402 -0.11235000099231794 0.3136499823461779 2.2214412195942903 2.2214412191386663 6.51588689188421e-08 0.0 0.0 0.0 0.0 0.0 0.0 9.240738067961094e-07 3.476881827858303e-07 4.253146293222056e-08 -2.8475662131755596e-08 6.147405365792542e-08 -2.6501511670479847e-15 -0.29859999998320186 -0.11235000001567023 0.31364999997695675 2.221441469306994 2.2214414688513715 4.556249894594308e-10 0.0 0.0 0.0 0.0 0.0 0.0
154020.72 1.1041514924592377e-15 -1.5707963267948966 1.5707963267948966 -1.5707963267948966 -1.5707963267948966 0.0 0.0 0.0 0.0 0.0 0.0 0.0 0.0 0.0 0.0 0.0 0.0 0.0 -1.1512442590619146e-26 -0.5442396572688689 -0.7673661111166267 -0.229354796466502 -1.3146049461972196e-11 0.0 -1.511583712148294e-25 -7.14586669994025 -7.145866699940251 -1.0424175499402515 -5.974879480466362e-11 0.0 1.1041514924592377e-15 -1.570796314870016 1.5707963705062866 -1.570796314870016 -1.570796314870016 0.0 0.0 0.0 0.0 0.0 0.0 0.0 -1.151244268742903e-26 -0.5442396402359009 -0.7673661112785339 -0.22935479879379272 -1.3146049353263134e-11 0.0 -1.151244268742903e-26 -0.5442396402359009 -0.7673661112785339 -0.22935479879379272 -1.3146049353263134e-11 0.0 -0.2985999973554402 -0.11235000099231794 0.3136499823461779 2.2214412195942903 2.2214412191386663 6.51588689188421e-08 0.0 0.0 0.0 0.0 0.0 0.0 9.240738067961094e-07 3.476881827858303e-07 4.253146293222056e-08 -2.8475662131755596e-08 6.147405365792542e-08 -2.6501511670479847e-15 -0.29859999998320186 -0.11235000001567023 0.31364999997695675 2.221441469306994 2.2214414688513715 4.556249894594308e-10 0.0 0.0 0.0 0.0 0.0 0.0
154020.728 1.1041514924592377e-15 -1.5707963267948966 1.5707963267948966 -1.5707963267948966 -1.5707963267948966 0.0 0.0 0.0 0.0 0.0 0.0 0.0 0.0 0.0 0.0 0.0 0.0 0.0 -1.1512442590619146e-26 -0.5442396572688689 -0.7673661111166267 -0.229354796466502 -1.3146049461972196e-11 0.0 -1.511583712148294e-25 -7.14586669994025 -7.145866699940251 -1.0424175499402515 -5.974879480466362e-11 0.0 1.1041514924592377e-15 -1.570796314870016 1.5707963705062866 -1.570796314870016 -1.570796314870016 0.0 0.0 0.0 0.0 0.0 0.0 0.0 -1.151244268742903e-26 -0.5442396402359009 -0.7673661112785339 -0.22935479879379272 -1.3146049353263134e-11 0.0 -1.151244268742903e-26 -0.5442396402359009 -0.7673661112785339 -0.22935479879379272 -1.3146049353263134e-11 0.0 -0.2985999973554402 -0.11235000099231794 0.3136499823461779 2.2214412195942903 2.2214412191386663 6.51588689188421e-08 0.0 0.0 0.0 0.0 0.0 0.0 9.240738067961094e-07 3.476881827858303e-07 4.253146293222056e-08 -2.8475662131755596e-08 6.147405365792542e-08 -2.6501511670479847e-15 -0.29859999998320186 -0.11235000001567023 0.31364999997695675 2.221441469306994 2.2214414688513715 4.556249894594308e-10 0.0 0.0 0.0 0.0 0.0 0.0
154020.736 1.1041514924592377e-15 -1.5707963267948966 1.5707963267948966 -1.5707963267948966 -1.5707963267948966 0.0 0.0 0.0 0.0 0.0 0.0 0.0 0.0 0.0 0.0 0.0 0.0 0.0 -1.1512442590619146e-26 -0.5442396572688689 -0.7673661111166267 -0.229354796466502 -1.3146049461972196e-11 0.0 -1.511583712148294e-25 -7.14586669994025 -7.145866699940251 -1.0424175499402515 -5.974879480466362e-11 0.0 1.1041514924592377e-15 -1.570796314870016 1.5707963705062866 -1.570796314870016 -1.570796314870016 0.0 0.0 0.0 0.0 0.0 0.0 0.0 -1.151244268742903e-26 -0.5442396402359009 -0.7673661112785339 -0.22935479879379272 -1.3146049353263134e-11 0.0 -1.151244268742903e-26 -0.5442396402359009 -0.7673661112785339 -0.22935479879379272 -1.3146049353263134e-11 0.0 -0.2985999973554402 -0.11235000099231794 0.3136499823461779 2.2214412195942903 2.2214412191386663 6.51588689188421e-08 0.0 0.0 0.0 0.0 0.0 0.0 9.240738067961094e-07 3.476881827858303e-07 4.253146293222056e-08 -2.8475662131755596e-08 6.147405365792542e-08 -2.6501511670479847e-15 -0.29859999998320186 -0.11235000001567023 0.31364999997695675 2.221441469306994 2.2214414688513715 4.556249894594308e-10 0.0 0.0 0.0 0.0 0.0 0.0
154020.744 1.1041514924592377e-15 -1.5707963267948966 1.5707963267948966 -1.5707963267948966 -1.5707963267948966 0.0 0.0 0.0 0.0 0.0 0.0 0.0 0.0 0.0 0.0 0.0 0.0 0.0 -1.1512442590619146e-26 -0.5442396572688689 -0.7673661111166267 -0.229354796466502 -1.3146049461972196e-11 0.0 -1.511583712148294e-25 -7.14586669994025 -7.145866699940251 -1.0424175499402515 -5.974879480466362e-11 0.0 1.1041514924592377e-15 -1.570796314870016 1.5707963705062866 -1.570796314870016 -1.570796314870016 0.0 0.0 0.0 0.0 0.0 0.0 0.0 -1.151244268742903e-26 -0.5442396402359009 -0.7673661112785339 -0.22935479879379272 -1.3146049353263134e-11 0.0 -1.151244268742903e-26 -0.5442396402359009 -0.7673661112785339 -0.22935479879379272 -1.3146049353263134e-11 0.0 -0.2985999973554402 -0.11235000099231794 0.3136499823461779 2.2214412195942903 2.2214412191386663 6.51588689188421e-08 0.0 0.0 0.0 0.0 0.0 0.0 9.240738067961094e-07 3.476881827858303e-07 4.253146293222056e-08 -2.8475662131755596e-08 6.147405365792542e-08 -2.6501511670479847e-15 -0.29859999998320186 -0.11235000001567023 0.31364999997695675 2.221441469306994 2.2214414688513715 4.556249894594308e-10 0.0 0.0 0.0 0.0 0.0 0.0
154020.75199999998 1.1041514924592377e-15 -1.5707963267948966 1.5707963267948966 -1.5707963267948966 -1.5707963267948966 0.0 0.0 0.0 0.0 0.0 0.0 0.0 0.0 0.0 0.0 0.0 0.0 0.0 -1.1512442590619146e-26 -0.5442396572688689 -0.7673661111166267 -0.229354796466502 -1.3146049461972196e-11 0.0 -1.511583712148294e-25 -7.14586669994025 -7.145866699940251 -1.0424175499402515 -5.974879480466362e-11 0.0 1.1041514924592377e-15 -1.570796314870016 1.5707963705062866 -1.570796314870016 -1.570796314870016 0.0 0.0 0.0 0.0 0.0 0.0 0.0 -1.151244268742903e-26 -0.5442396402359009 -0.7673661112785339 -0.22935479879379272 -1.3146049353263134e-11 0.0 -1.151244268742903e-26 -0.5442396402359009 -0.7673661112785339 -0.22935479879379272 -1.3146049353263134e-11 0.0 -0.2985999973554402 -0.11235000099231794 0.3136499823461779 2.2214412195942903 2.2214412191386663 6.51588689188421e-08 0.0 0.0 0.0 0.0 0.0 0.0 9.240738067961094e-07 3.476881827858303e-07 4.253146293222056e-08 -2.8475662131755596e-08 6.147405365792542e-08 -2.6501511670479847e-15 -0.29859999998320186 -0.11235000001567023 0.31364999997695675 2.221441469306994 2.2214414688513715 4.556249894594308e-10 0.0 0.0 0.0 0.0 0.0 0.0
154020.75999999998 1.1041514924592377e-15 -1.5707963267948966 1.5707963267948966 -1.5707963267948966 -1.5707963267948966 0.0 0.0 0.0 0.0 0.0 0.0 0.0 0.0 0.0 0.0 0.0 0.0 0.0 -1.1512442590619146e-26 -0.5442396572688689 -0.7673661111166267 -0.229354796466502 -1.3146049461972196e-11 0.0 -1.511583712148294e-25 -7.14586669994025 -7.145866699940251 -1.0424175499402515 -5.974879480466362e-11 0.0 1.1041514924592377e-15 -1.570796314870016 1.5707963705062866 -1.570796314870016 -1.570796314870016 0.0 0.0 0.0 0.0 0.0 0.0 0.0 -1.151244268742903e-26 -0.5442396402359009 -0.7673661112785339 -0.22935479879379272 -1.3146049353263134e-11 0.0 -1.151244268742903e-26 -0.5442396402359009 -0.7673661112785339 -0.22935479879379272 -1.3146049353263134e-11 0.0 -0.2985999973554402 -0.11235000099231794 0.3136499823461779 2.2214412195942903 2.2214412191386663 6.51588689188421e-08 0.0 0.0 0.0 0.0 0.0 0.0 9.240738067961094e-07 3.476881827858303e-07 4.253146293222056e-08 -2.8475662131755596e-08 6.147405365792542e-08 -2.6501511670479847e-15 -0.29859999998320186 -0.11235000001567023 0.31364999997695675 2.221441469306994 2.2214414688513715 4.556249894594308e-10 0.0 0.0 0.0 0.0 0.0 0.0
154020.76799999998 1.1041514924592377e-15 -1.5707963267948966 1.5707963267948966 -1.5707963267948966 -1.5707963267948966 0.0 0.0 0.0 0.0 0.0 0.0 0.0 0.0 0.0 0.0 0.0 0.0 0.0 -1.1512442590619146e-26 -0.5442396572688689 -0.7673661111166267 -0.229354796466502 -1.3146049461972196e-11 0.0 -1.511583712148294e-25 -7.14586669994025 -7.145866699940251 -1.0424175499402515 -5.974879480466362e-11 0.0 1.1041514924592377e-15 -1.570796314870016 1.5707963705062866 -1.570796314870016 -1.570796314870016 0.0 0.0 0.0 0.0 0.0 0.0 0.0 -1.151244268742903e-26 -0.5442396402359009 -0.7673661112785339 -0.22935479879379272 -1.3146049353263134e-11 0.0 -1.151244268742903e-26 -0.5442396402359009 -0.7673661112785339 -0.22935479879379272 -1.3146049353263134e-11 0.0 -0.2985999973554402 -0.11235000099231794 0.3136499823461779 2.2214412195942903 2.2214412191386663 6.51588689188421e-08 0.0 0.0 0.0 0.0 0.0 0.0 9.240738067961094e-07 3.476881827858303e-07 4.253146293222056e-08 -2.8475662131755596e-08 6.147405365792542e-08 -2.6501511670479847e-15 -0.29859999998320186 -0.11235000001567023 0.31364999997695675 2.221441469306994 2.2214414688513715 4.556249894594308e-10 0.0 0.0 0.0 0.0 0.0 0.0
154020.77599999998 1.1041514924592377e-15 -1.5707963267948966 1.5707963267948966 -1.5707963267948966 -1.5707963267948966 0.0 0.0 0.0 0.0 0.0 0.0 0.0 0.0 0.0 0.0 0.0 0.0 0.0 -1.1512442590619146e-26 -0.5442396572688689 -0.7673661111166267 -0.229354796466502 -1.3146049461972196e-11 0.0 -1.511583712148294e-25 -7.14586669994025 -7.145866699940251 -1.0424175499402515 -5.974879480466362e-11 0.0 1.1041514924592377e-15 -1.570796314870016 1.5707963705062866 -1.570796314870016 -1.570796314870016 0.0 0.0 0.0 0.0 0.0 0.0 0.0 -1.151244268742903e-26 -0.5442396402359009 -0.7673661112785339 -0.22935479879379272 -1.3146049353263134e-11 0.0 -1.151244268742903e-26 -0.5442396402359009 -0.7673661112785339 -0.22935479879379272 -1.3146049353263134e-11 0.0 -0.2985999973554402 -0.11235000099231794 0.3136499823461779 2.2214412195942903 2.2214412191386663 6.51588689188421e-08 0.0 0.0 0.0 0.0 0.0 0.0 9.240738067961094e-07 3.476881827858303e-07 4.253146293222056e-08 -2.8475662131755596e-08 6.147405365792542e-08 -2.6501511670479847e-15 -0.29859999998320186 -0.11235000001567023 0.31364999997695675 2.221441469306994 2.2214414688513715 4.556249894594308e-10 0.0 0.0 0.0 0.0 0.0 0.0
154020.78399999999 1.1041514924592377e-15 -1.5707963267948966 1.5707963267948966 -1.5707963267948966 -1.5707963267948966 0.0 0.0 0.0 0.0 0.0 0.0 0.0 0.0 0.0 0.0 0.0 0.0 0.0 -1.1512442590619146e-26 -0.5442396572688689 -0.7673661111166267 -0.229354796466502 -1.3146049461972196e-11 0.0 -1.511583712148294e-25 -7.14586669994025 -7.145866699940251 -1.0424175499402515 -5.974879480466362e-11 0.0 1.1041514924592377e-15 -1.570796314870016 1.5707963705062866 -1.570796314870016 -1.570796314870016 0.0 0.0 0.0 0.0 0.0 0.0 0.0 -1.151244268742903e-26 -0.5442396402359009 -0.7673661112785339 -0.22935479879379272 -1.3146049353263134e-11 0.0 -1.151244268742903e-26 -0.5442396402359009 -0.7673661112785339 -0.22935479879379272 -1.3146049353263134e-11 0.0 -0.2985999973554402 -0.11235000099231794 0.3136499823461779 2.2214412195942903 2.2214412191386663 6.51588689188421e-08 0.0 0.0 0.0 0.0 0.0 0.0 9.240738067961094e-07 3.476881827858303e-07 4.253146293222056e-08 -2.8475662131755596e-08 6.147405365792542e-08 -2.6501511670479847e-15 -0.29859999998320186 -0.11235000001567023 0.31364999997695675 2.221441469306994 2.2214414688513715 4.556249894594308e-10 0.0 0.0 0.0 0.0 0.0 0.0
154020.792 1.1041514924592377e-15 -1.5707963267948966 1.5707963267948966 -1.5707963267948966 -1.5707963267948966 0.0 0.0 0.0 0.0 0.0 0.0 0.0 0.0 0.0 0.0 0.0 0.0 0.0 -1.1512442590619146e-26 -0.5442396572688689 -0.7673661111166267 -0.229354796466502 -1.3146049461972196e-11 0.0 -1.511583712148294e-25 -7.14586669994025 -7.145866699940251 -1.0424175499402515 -5.974879480466362e-11 0.0 1.1041514924592377e-15 -1.570796314870016 1.5707963705062866 -1.570796314870016 -1.570796314870016 0.0 0.0 0.0 0.0 0.0 0.0 0.0 -1.151244268742903e-26 -0.5442396402359009 -0.7673661112785339 -0.22935479879379272 -1.3146049353263134e-11 0.0 -1.151244268742903e-26 -0.5442396402359009 -0.7673661112785339 -0.22935479879379272 -1.3146049353263134e-11 0.0 -0.2985999973554402 -0.11235000099231794 0.3136499823461779 2.2214412195942903 2.2214412191386663 6.51588689188421e-08 0.0 0.0 0.0 0.0 0.0 0.0 9.240738067961094e-07 3.476881827858303e-07 4.253146293222056e-08 -2.8475662131755596e-08 6.147405365792542e-08 -2.6501511670479847e-15 -0.29859999998320186 -0.11235000001567023 0.31364999997695675 2.221441469306994 2.2214414688513715 4.556249894594308e-10 0.0 0.0 0.0 0.0 0.0 0.0
154020.8 1.1041514924592377e-15 -1.5707963267948966 1.5707963267948966 -1.5707963267948966 -1.5707963267948966 0.0 0.0 0.0 0.0 0.0 0.0 0.0 0.0 0.0 0.0 0.0 0.0 0.0 -1.1512442590619146e-26 -0.5442396572688689 -0.7673661111166267 -0.229354796466502 -1.3146049461972196e-11 0.0 -1.511583712148294e-25 -7.14586669994025 -7.145866699940251 -1.0424175499402515 -5.974879480466362e-11 0.0 1.1041514924592377e-15 -1.570796314870016 1.5707963705062866 -1.570796314870016 -1.570796314870016 0.0 0.0 0.0 0.0 0.0 0.0 0.0 -1.151244268742903e-26 -0.5442396402359009 -0.7673661112785339 -0.22935479879379272 -1.3146049353263134e-11 0.0 -1.151244268742903e-26 -0.5442396402359009 -0.7673661112785339 -0.22935479879379272 -1.3146049353263134e-11 0.0 -0.2985999973554402 -0.11235000099231794 0.3136499823461779 2.2214412195942903 2.2214412191386663 6.51588689188421e-08 0.0 0.0 0.0 0.0 0.0 0.0 9.240738067961094e-07 3.476881827858303e-07 4.253146293222056e-08 -2.8475662131755596e-08 6.147405365792542e-08 -2.6501511670479847e-15 -0.29859999998320186 -0.11235000001567023 0.31364999997695675 2.221441469306994 2.2214414688513715 4.556249894594308e-10 0.0 0.0 0.0 0.0 0.0 0.0
154020.808 1.1041514924592377e-15 -1.5707963267948966 1.5707963267948966 -1.5707963267948966 -1.5707963267948966 0.0 0.0 0.0 0.0 0.0 0.0 0.0 0.0 0.0 0.0 0.0 0.0 0.0 -1.1512442590619146e-26 -0.5442396572688689 -0.7673661111166267 -0.229354796466502 -1.3146049461972196e-11 0.0 -1.511583712148294e-25 -7.14586669994025 -7.145866699940251 -1.0424175499402515 -5.974879480466362e-11 0.0 1.1041514924592377e-15 -1.570796314870016 1.5707963705062866 -1.570796314870016 -1.570796314870016 0.0 0.0 0.0 0.0 0.0 0.0 0.0 -1.151244268742903e-26 -0.5442396402359009 -0.7673661112785339 -0.22935479879379272 -1.3146049353263134e-11 0.0 -1.151244268742903e-26 -0.5442396402359009 -0.7673661112785339 -0.22935479879379272 -1.3146049353263134e-11 0.0 -0.2985999973554402 -0.11235000099231794 0.3136499823461779 2.2214412195942903 2.2214412191386663 6.51588689188421e-08 0.0 0.0 0.0 0.0 0.0 0.0 9.240738067961094e-07 3.476881827858303e-07 4.253146293222056e-08 -2.8475662131755596e-08 6.147405365792542e-08 -2.6501511670479847e-15 -0.29859999998320186 -0.11235000001567023 0.31364999997695675 2.221441469306994 2.2214414688513715 4.556249894594308e-10 0.0 0.0 0.0 0.0 0.0 0.0
154020.816 1.1041514924592377e-15 -1.5707963267948966 1.5707963267948966 -1.5707963267948966 -1.5707963267948966 0.0 0.0 0.0 0.0 0.0 0.0 0.0 0.0 0.0 0.0 0.0 0.0 0.0 -1.1512442590619146e-26 -0.5442396572688689 -0.7673661111166267 -0.229354796466502 -1.3146049461972196e-11 0.0 -1.511583712148294e-25 -7.14586669994025 -7.145866699940251 -1.0424175499402515 -5.974879480466362e-11 0.0 1.1041514924592377e-15 -1.570796314870016 1.5707963705062866 -1.570796314870016 -1.570796314870016 0.0 0.0 0.0 0.0 0.0 0.0 0.0 -1.151244268742903e-26 -0.5442396402359009 -0.7673661112785339 -0.22935479879379272 -1.3146049353263134e-11 0.0 -1.151244268742903e-26 -0.5442396402359009 -0.7673661112785339 -0.22935479879379272 -1.3146049353263134e-11 0.0 -0.2985999973554402 -0.11235000099231794 0.3136499823461779 2.2214412195942903 2.2214412191386663 6.51588689188421e-08 0.0 0.0 0.0 0.0 0.0 0.0 9.240738067961094e-07 3.476881827858303e-07 4.253146293222056e-08 -2.8475662131755596e-08 6.147405365792542e-08 -2.6501511670479847e-15 -0.29859999998320186 -0.11235000001567023 0.31364999997695675 2.221441469306994 2.2214414688513715 4.556249894594308e-10 0.0 0.0 0.0 0.0 0.0 0.0
154020.824 1.1041514924592377e-15 -1.5707963267948966 1.5707963267948966 -1.5707963267948966 -1.5707963267948966 0.0 0.0 0.0 0.0 0.0 0.0 0.0 0.0 0.0 0.0 0.0 0.0 0.0 -1.1512442590619146e-26 -0.5442396572688689 -0.7673661111166267 -0.229354796466502 -1.3146049461972196e-11 0.0 -1.511583712148294e-25 -7.14586669994025 -7.145866699940251 -1.0424175499402515 -5.974879480466362e-11 0.0 1.1041514924592377e-15 -1.570796314870016 1.5707963705062866 -1.570796314870016 -1.570796314870016 0.0 0.0 0.0 0.0 0.0 0.0 0.0 -1.151244268742903e-26 -0.5442396402359009 -0.7673661112785339 -0.22935479879379272 -1.3146049353263134e-11 0.0 -1.151244268742903e-26 -0.5442396402359009 -0.7673661112785339 -0.22935479879379272 -1.3146049353263134e-11 0.0 -0.2985999973554402 -0.11235000099231794 0.3136499823461779 2.2214412195942903 2.2214412191386663 6.51588689188421e-08 0.0 0.0 0.0 0.0 0.0 0.0 9.240738067961094e-07 3.476881827858303e-07 4.253146293222056e-08 -2.8475662131755596e-08 6.147405365792542e-08 -2.6501511670479847e-15 -0.29859999998320186 -0.11235000001567023 0.31364999997695675 2.221441469306994 2.2214414688513715 4.556249894594308e-10 0.0 0.0 0.0 0.0 0.0 0.0
154020.832 1.1041514924592377e-15 -1.5707963267948966 1.5707963267948966 -1.5707963267948966 -1.5707963267948966 0.0 0.0 0.0 0.0 0.0 0.0 0.0 0.0 0.0 0.0 0.0 0.0 0.0 -1.1512442590619146e-26 -0.5442396572688689 -0.7673661111166267 -0.229354796466502 -1.3146049461972196e-11 0.0 -1.511583712148294e-25 -7.14586669994025 -7.145866699940251 -1.0424175499402515 -5.974879480466362e-11 0.0 1.1041514924592377e-15 -1.570796314870016 1.5707963705062866 -1.570796314870016 -1.570796314870016 0.0 0.0 0.0 0.0 0.0 0.0 0.0 -1.151244268742903e-26 -0.5442396402359009 -0.7673661112785339 -0.22935479879379272 -1.3146049353263134e-11 0.0 -1.151244268742903e-26 -0.5442396402359009 -0.7673661112785339 -0.22935479879379272 -1.3146049353263134e-11 0.0 -0.2985999973554402 -0.11235000099231794 0.3136499823461779 2.2214412195942903 2.2214412191386663 6.51588689188421e-08 0.0 0.0 0.0 0.0 0.0 0.0 9.240738067961094e-07 3.476881827858303e-07 4.253146293222056e-08 -2.8475662131755596e-08 6.147405365792542e-08 -2.6501511670479847e-15 -0.29859999998320186 -0.11235000001567023 0.31364999997695675 2.221441469306994 2.2214414688513715 4.556249894594308e-10 0.0 0.0 0.0 0.0 0.0 0.0
154020.84 1.1041514924592377e-15 -1.5707963267948966 1.5707963267948966 -1.5707963267948966 -1.5707963267948966 0.0 0.0 0.0 0.0 0.0 0.0 0.0 0.0 0.0 0.0 0.0 0.0 0.0 -1.1512442590619146e-26 -0.5442396572688689 -0.7673661111166267 -0.229354796466502 -1.3146049461972196e-11 0.0 -1.511583712148294e-25 -7.14586669994025 -7.145866699940251 -1.0424175499402515 -5.974879480466362e-11 0.0 1.1041514924592377e-15 -1.570796314870016 1.5707963705062866 -1.570796314870016 -1.570796314870016 0.0 0.0 0.0 0.0 0.0 0.0 0.0 -1.151244268742903e-26 -0.5442396402359009 -0.7673661112785339 -0.22935479879379272 -1.3146049353263134e-11 0.0 -1.151244268742903e-26 -0.5442396402359009 -0.7673661112785339 -0.22935479879379272 -1.3146049353263134e-11 0.0 -0.2985999973554402 -0.11235000099231794 0.3136499823461779 2.2214412195942903 2.2214412191386663 6.51588689188421e-08 0.0 0.0 0.0 0.0 0.0 0.0 9.240738067961094e-07 3.476881827858303e-07 4.253146293222056e-08 -2.8475662131755596e-08 6.147405365792542e-08 -2.6501511670479847e-15 -0.29859999998320186 -0.11235000001567023 0.31364999997695675 2.221441469306994 2.2214414688513715 4.556249894594308e-10 0.0 0.0 0.0 0.0 0.0 0.0
154020.848 1.1041514924592377e-15 -1.5707963267948966 1.5707963267948966 -1.5707963267948966 -1.5707963267948966 0.0 0.0 0.0 0.0 0.0 0.0 0.0 0.0 0.0 0.0 0.0 0.0 0.0 -1.1512442590619146e-26 -0.5442396572688689 -0.7673661111166267 -0.229354796466502 -1.3146049461972196e-11 0.0 -1.511583712148294e-25 -7.14586669994025 -7.145866699940251 -1.0424175499402515 -5.974879480466362e-11 0.0 1.1041514924592377e-15 -1.570796314870016 1.5707963705062866 -1.570796314870016 -1.570796314870016 0.0 0.0 0.0 0.0 0.0 0.0 0.0 -1.151244268742903e-26 -0.5442396402359009 -0.7673661112785339 -0.22935479879379272 -1.3146049353263134e-11 0.0 -1.151244268742903e-26 -0.5442396402359009 -0.7673661112785339 -0.22935479879379272 -1.3146049353263134e-11 0.0 -0.2985999973554402 -0.11235000099231794 0.3136499823461779 2.2214412195942903 2.2214412191386663 6.51588689188421e-08 0.0 0.0 0.0 0.0 0.0 0.0 9.240738067961094e-07 3.476881827858303e-07 4.253146293222056e-08 -2.8475662131755596e-08 6.147405365792542e-08 -2.6501511670479847e-15 -0.29859999998320186 -0.11235000001567023 0.31364999997695675 2.221441469306994 2.2214414688513715 4.556249894594308e-10 0.0 0.0 0.0 0.0 0.0 0.0
154020.856 1.1041514924592377e-15 -1.5707963267948966 1.5707963267948966 -1.5707963267948966 -1.5707963267948966 0.0 0.0 0.0 0.0 0.0 0.0 0.0 0.0 0.0 0.0 0.0 0.0 0.0 -1.1512442590619146e-26 -0.5442396572688689 -0.7673661111166267 -0.229354796466502 -1.3146049461972196e-11 0.0 -1.511583712148294e-25 -7.14586669994025 -7.145866699940251 -1.0424175499402515 -5.974879480466362e-11 0.0 1.1041514924592377e-15 -1.570796314870016 1.5707963705062866 -1.570796314870016 -1.570796314870016 0.0 0.0 0.0 0.0 0.0 0.0 0.0 -1.151244268742903e-26 -0.5442396402359009 -0.7673661112785339 -0.22935479879379272 -1.3146049353263134e-11 0.0 -1.151244268742903e-26 -0.5442396402359009 -0.7673661112785339 -0.22935479879379272 -1.3146049353263134e-11 0.0 -0.2985999973554402 -0.11235000099231794 0.3136499823461779 2.2214412195942903 2.2214412191386663 6.51588689188421e-08 0.0 0.0 0.0 0.0 0.0 0.0 9.240738067961094e-07 3.476881827858303e-07 4.253146293222056e-08 -2.8475662131755596e-08 6.147405365792542e-08 -2.6501511670479847e-15 -0.29859999998320186 -0.11235000001567023 0.31364999997695675 2.221441469306994 2.2214414688513715 4.556249894594308e-10 0.0 0.0 0.0 0.0 0.0 0.0
154020.864 1.1041514924592377e-15 -1.5707963267948966 1.5707963267948966 -1.5707963267948966 -1.5707963267948966 0.0 0.0 0.0 0.0 0.0 0.0 0.0 0.0 0.0 0.0 0.0 0.0 0.0 -1.1512442590619146e-26 -0.5442396572688689 -0.7673661111166267 -0.229354796466502 -1.3146049461972196e-11 0.0 -1.511583712148294e-25 -7.14586669994025 -7.145866699940251 -1.0424175499402515 -5.974879480466362e-11 0.0 1.1041514924592377e-15 -1.570796314870016 1.5707963705062866 -1.570796314870016 -1.570796314870016 0.0 0.0 0.0 0.0 0.0 0.0 0.0 -1.151244268742903e-26 -0.5442396402359009 -0.7673661112785339 -0.22935479879379272 -1.3146049353263134e-11 0.0 -1.151244268742903e-26 -0.5442396402359009 -0.7673661112785339 -0.22935479879379272 -1.3146049353263134e-11 0.0 -0.2985999973554402 -0.11235000099231794 0.3136499823461779 2.2214412195942903 2.2214412191386663 6.51588689188421e-08 0.0 0.0 0.0 0.0 0.0 0.0 9.240738067961094e-07 3.476881827858303e-07 4.253146293222056e-08 -2.8475662131755596e-08 6.147405365792542e-08 -2.6501511670479847e-15 -0.29859999998320186 -0.11235000001567023 0.31364999997695675 2.221441469306994 2.2214414688513715 4.556249894594308e-10 0.0 0.0 0.0 0.0 0.0 0.0
154020.872 1.1041514924592377e-15 -1.5707963267948966 1.5707963267948966 -1.5707963267948966 -1.5707963267948966 0.0 0.0 0.0 0.0 0.0 0.0 0.0 0.0 0.0 0.0 0.0 0.0 0.0 -1.1512442590619146e-26 -0.5442396572688689 -0.7673661111166267 -0.229354796466502 -1.3146049461972196e-11 0.0 -1.511583712148294e-25 -7.14586669994025 -7.145866699940251 -1.0424175499402515 -5.974879480466362e-11 0.0 1.1041514924592377e-15 -1.570796314870016 1.5707963705062866 -1.570796314870016 -1.570796314870016 0.0 0.0 0.0 0.0 0.0 0.0 0.0 -1.151244268742903e-26 -0.5442396402359009 -0.7673661112785339 -0.22935479879379272 -1.3146049353263134e-11 0.0 -1.151244268742903e-26 -0.5442396402359009 -0.7673661112785339 -0.22935479879379272 -1.3146049353263134e-11 0.0 -0.2985999973554402 -0.11235000099231794 0.3136499823461779 2.2214412195942903 2.2214412191386663 6.51588689188421e-08 0.0 0.0 0.0 0.0 0.0 0.0 9.240738067961094e-07 3.476881827858303e-07 4.253146293222056e-08 -2.8475662131755596e-08 6.147405365792542e-08 -2.6501511670479847e-15 -0.29859999998320186 -0.11235000001567023 0.31364999997695675 2.221441469306994 2.2214414688513715 4.556249894594308e-10 0.0 0.0 0.0 0.0 0.0 0.0
154020.88 1.1041514924592377e-15 -1.5707963267948966 1.5707963267948966 -1.5707963267948966 -1.5707963267948966 0.0 0.0 0.0 0.0 0.0 0.0 0.0 0.0 0.0 0.0 0.0 0.0 0.0 -1.1512442590619146e-26 -0.5442396572688689 -0.7673661111166267 -0.229354796466502 -1.3146049461972196e-11 0.0 -1.511583712148294e-25 -7.14586669994025 -7.145866699940251 -1.0424175499402515 -5.974879480466362e-11 0.0 1.1041514924592377e-15 -1.570796314870016 1.5707963705062866 -1.570796314870016 -1.570796314870016 0.0 0.0 0.0 0.0 0.0 0.0 0.0 -1.151244268742903e-26 -0.5442396402359009 -0.7673661112785339 -0.22935479879379272 -1.3146049353263134e-11 0.0 -1.151244268742903e-26 -0.5442396402359009 -0.7673661112785339 -0.22935479879379272 -1.3146049353263134e-11 0.0 -0.2985999973554402 -0.11235000099231794 0.3136499823461779 2.2214412195942903 2.2214412191386663 6.51588689188421e-08 0.0 0.0 0.0 0.0 0.0 0.0 9.240738067961094e-07 3.476881827858303e-07 4.253146293222056e-08 -2.8475662131755596e-08 6.147405365792542e-08 -2.6501511670479847e-15 -0.29859999998320186 -0.11235000001567023 0.31364999997695675 2.221441469306994 2.2214414688513715 4.556249894594308e-10 0.0 0.0 0.0 0.0 0.0 0.0
154020.888 1.1041514924592377e-15 -1.5707963267948966 1.5707963267948966 -1.5707963267948966 -1.5707963267948966 0.0 0.0 0.0 0.0 0.0 0.0 0.0 0.0 0.0 0.0 0.0 0.0 0.0 -1.1512442590619146e-26 -0.5442396572688689 -0.7673661111166267 -0.229354796466502 -1.3146049461972196e-11 0.0 -1.511583712148294e-25 -7.14586669994025 -7.145866699940251 -1.0424175499402515 -5.974879480466362e-11 0.0 1.1041514924592377e-15 -1.570796314870016 1.5707963705062866 -1.570796314870016 -1.570796314870016 0.0 0.0 0.0 0.0 0.0 0.0 0.0 -1.151244268742903e-26 -0.5442396402359009 -0.7673661112785339 -0.22935479879379272 -1.3146049353263134e-11 0.0 -1.151244268742903e-26 -0.5442396402359009 -0.7673661112785339 -0.22935479879379272 -1.3146049353263134e-11 0.0 -0.2985999973554402 -0.11235000099231794 0.3136499823461779 2.2214412195942903 2.2214412191386663 6.51588689188421e-08 0.0 0.0 0.0 0.0 0.0 0.0 9.240738067961094e-07 3.476881827858303e-07 4.253146293222056e-08 -2.8475662131755596e-08 6.147405365792542e-08 -2.6501511670479847e-15 -0.29859999998320186 -0.11235000001567023 0.31364999997695675 2.221441469306994 2.2214414688513715 4.556249894594308e-10 0.0 0.0 0.0 0.0 0.0 0.0
154020.89599999998 1.1041514924592377e-15 -1.5707963267948966 1.5707963267948966 -1.5707963267948966 -1.5707963267948966 0.0 0.0 0.0 0.0 0.0 0.0 0.0 0.0 0.0 0.0 0.0 0.0 0.0 -1.1512442590619146e-26 -0.5442396572688689 -0.7673661111166267 -0.229354796466502 -1.3146049461972196e-11 0.0 -1.511583712148294e-25 -7.14586669994025 -7.145866699940251 -1.0424175499402515 -5.974879480466362e-11 0.0 1.1041514924592377e-15 -1.570796314870016 1.5707963705062866 -1.570796314870016 -1.570796314870016 0.0 0.0 0.0 0.0 0.0 0.0 0.0 -1.151244268742903e-26 -0.5442396402359009 -0.7673661112785339 -0.22935479879379272 -1.3146049353263134e-11 0.0 -1.151244268742903e-26 -0.5442396402359009 -0.7673661112785339 -0.22935479879379272 -1.3146049353263134e-11 0.0 -0.2985999973554402 -0.11235000099231794 0.3136499823461779 2.2214412195942903 2.2214412191386663 6.51588689188421e-08 0.0 0.0 0.0 0.0 0.0 0.0 9.240738067961094e-07 3.476881827858303e-07 4.253146293222056e-08 -2.8475662131755596e-08 6.147405365792542e-08 -2.6501511670479847e-15 -0.29859999998320186 -0.11235000001567023 0.31364999997695675 2.221441469306994 2.2214414688513715 4.556249894594308e-10 0.0 0.0 0.0 0.0 0.0 0.0
154020.90399999998 1.1041514924592377e-15 -1.5707963267948966 1.5707963267948966 -1.5707963267948966 -1.5707963267948966 0.0 0.0 0.0 0.0 0.0 0.0 0.0 0.0 0.0 0.0 0.0 0.0 0.0 -1.1512442590619146e-26 -0.5442396572688689 -0.7673661111166267 -0.229354796466502 -1.3146049461972196e-11 0.0 -1.511583712148294e-25 -7.14586669994025 -7.145866699940251 -1.0424175499402515 -5.974879480466362e-11 0.0 1.1041514924592377e-15 -1.570796314870016 1.5707963705062866 -1.570796314870016 -1.570796314870016 0.0 0.0 0.0 0.0 0.0 0.0 0.0 -1.151244268742903e-26 -0.5442396402359009 -0.7673661112785339 -0.22935479879379272 -1.3146049353263134e-11 0.0 -1.151244268742903e-26 -0.5442396402359009 -0.7673661112785339 -0.22935479879379272 -1.3146049353263134e-11 0.0 -0.2985999973554402 -0.11235000099231794 0.3136499823461779 2.2214412195942903 2.2214412191386663 6.51588689188421e-08 0.0 0.0 0.0 0.0 0.0 0.0 9.240738067961094e-07 3.476881827858303e-07 4.253146293222056e-08 -2.8475662131755596e-08 6.147405365792542e-08 -2.6501511670479847e-15 -0.29859999998320186 -0.11235000001567023 0.31364999997695675 2.221441469306994 2.2214414688513715 4.556249894594308e-10 0.0 0.0 0.0 0.0 0.0 0.0
154020.91199999998 1.1041514924592377e-15 -1.5707963267948966 1.5707963267948966 -1.5707963267948966 -1.5707963267948966 0.0 0.0 0.0 0.0 0.0 0.0 0.0 0.0 0.0 0.0 0.0 0.0 0.0 -1.1512442590619146e-26 -0.5442396572688689 -0.7673661111166267 -0.229354796466502 -1.3146049461972196e-11 0.0 -1.511583712148294e-25 -7.14586669994025 -7.145866699940251 -1.0424175499402515 -5.974879480466362e-11 0.0 1.1041514924592377e-15 -1.570796314870016 1.5707963705062866 -1.570796314870016 -1.570796314870016 0.0 0.0 0.0 0.0 0.0 0.0 0.0 -1.151244268742903e-26 -0.5442396402359009 -0.7673661112785339 -0.22935479879379272 -1.3146049353263134e-11 0.0 -1.151244268742903e-26 -0.5442396402359009 -0.7673661112785339 -0.22935479879379272 -1.3146049353263134e-11 0.0 -0.2985999973554402 -0.11235000099231794 0.3136499823461779 2.2214412195942903 2.2214412191386663 6.51588689188421e-08 0.0 0.0 0.0 0.0 0.0 0.0 9.240738067961094e-07 3.476881827858303e-07 4.253146293222056e-08 -2.8475662131755596e-08 6.147405365792542e-08 -2.6501511670479847e-15 -0.29859999998320186 -0.11235000001567023 0.31364999997695675 2.221441469306994 2.2214414688513715 4.556249894594308e-10 0.0 0.0 0.0 0.0 0.0 0.0
154020.91999999998 1.1041514924592377e-15 -1.5707963267948966 1.5707963267948966 -1.5707963267948966 -1.5707963267948966 0.0 0.0 0.0 0.0 0.0 0.0 0.0 0.0 0.0 0.0 0.0 0.0 0.0 -1.1512442590619146e-26 -0.5442396572688689 -0.7673661111166267 -0.229354796466502 -1.3146049461972196e-11 0.0 -1.511583712148294e-25 -7.14586669994025 -7.145866699940251 -1.0424175499402515 -5.974879480466362e-11 0.0 1.1041514924592377e-15 -1.570796314870016 1.5707963705062866 -1.570796314870016 -1.570796314870016 0.0 0.0 0.0 0.0 0.0 0.0 0.0 -1.151244268742903e-26 -0.5442396402359009 -0.7673661112785339 -0.22935479879379272 -1.3146049353263134e-11 0.0 -1.151244268742903e-26 -0.5442396402359009 -0.7673661112785339 -0.22935479879379272 -1.3146049353263134e-11 0.0 -0.2985999973554402 -0.11235000099231794 0.3136499823461779 2.2214412195942903 2.2214412191386663 6.51588689188421e-08 0.0 0.0 0.0 0.0 0.0 0.0 9.240738067961094e-07 3.476881827858303e-07 4.253146293222056e-08 -2.8475662131755596e-08 6.147405365792542e-08 -2.6501511670479847e-15 -0.29859999998320186 -0.11235000001567023 0.31364999997695675 2.221441469306994 2.2214414688513715 4.556249894594308e-10 0.0 0.0 0.0 0.0 0.0 0.0
154020.92799999999 1.1041514924592377e-15 -1.5707963267948966 1.5707963267948966 -1.5707963267948966 -1.5707963267948966 0.0 0.0 0.0 0.0 0.0 0.0 0.0 0.0 0.0 0.0 0.0 0.0 0.0 -1.1512442590619146e-26 -0.5442396572688689 -0.7673661111166267 -0.229354796466502 -1.3146049461972196e-11 0.0 -1.511583712148294e-25 -7.14586669994025 -7.145866699940251 -1.0424175499402515 -5.974879480466362e-11 0.0 1.1041514924592377e-15 -1.570796314870016 1.5707963705062866 -1.570796314870016 -1.570796314870016 0.0 0.0 0.0 0.0 0.0 0.0 0.0 -1.151244268742903e-26 -0.5442396402359009 -0.7673661112785339 -0.22935479879379272 -1.3146049353263134e-11 0.0 -1.151244268742903e-26 -0.5442396402359009 -0.7673661112785339 -0.22935479879379272 -1.3146049353263134e-11 0.0 -0.2985999973554402 -0.11235000099231794 0.3136499823461779 2.2214412195942903 2.2214412191386663 6.51588689188421e-08 0.0 0.0 0.0 0.0 0.0 0.0 9.240738067961094e-07 3.476881827858303e-07 4.253146293222056e-08 -2.8475662131755596e-08 6.147405365792542e-08 -2.6501511670479847e-15 -0.29859999998320186 -0.11235000001567023 0.31364999997695675 2.221441469306994 2.2214414688513715 4.556249894594308e-10 0.0 0.0 0.0 0.0 0.0 0.0
154020.936 1.1041514924592377e-15 -1.5707963267948966 1.5707963267948966 -1.5707963267948966 -1.5707963267948966 0.0 0.0 0.0 0.0 0.0 0.0 0.0 0.0 0.0 0.0 0.0 0.0 0.0 -1.1512442590619146e-26 -0.5442396572688689 -0.7673661111166267 -0.229354796466502 -1.3146049461972196e-11 0.0 -1.511583712148294e-25 -7.14586669994025 -7.145866699940251 -1.0424175499402515 -5.974879480466362e-11 0.0 1.1041514924592377e-15 -1.570796314870016 1.5707963705062866 -1.570796314870016 -1.570796314870016 0.0 0.0 0.0 0.0 0.0 0.0 0.0 -1.151244268742903e-26 -0.5442396402359009 -0.7673661112785339 -0.22935479879379272 -1.3146049353263134e-11 0.0 -1.151244268742903e-26 -0.5442396402359009 -0.7673661112785339 -0.22935479879379272 -1.3146049353263134e-11 0.0 -0.2985999973554402 -0.11235000099231794 0.3136499823461779 2.2214412195942903 2.2214412191386663 6.51588689188421e-08 0.0 0.0 0.0 0.0 0.0 0.0 9.240738067961094e-07 3.476881827858303e-07 4.253146293222056e-08 -2.8475662131755596e-08 6.147405365792542e-08 -2.6501511670479847e-15 -0.29859999998320186 -0.11235000001567023 0.31364999997695675 2.221441469306994 2.2214414688513715 4.556249894594308e-10 0.0 0.0 0.0 0.0 0.0 0.0
154020.944 1.1041514924592377e-15 -1.5707963267948966 1.5707963267948966 -1.5707963267948966 -1.5707963267948966 0.0 0.0 0.0 0.0 0.0 0.0 0.0 0.0 0.0 0.0 0.0 0.0 0.0 -1.1512442590619146e-26 -0.5442396572688689 -0.7673661111166267 -0.229354796466502 -1.3146049461972196e-11 0.0 -1.511583712148294e-25 -7.14586669994025 -7.145866699940251 -1.0424175499402515 -5.974879480466362e-11 0.0 1.1041514924592377e-15 -1.570796314870016 1.5707963705062866 -1.570796314870016 -1.570796314870016 0.0 0.0 0.0 0.0 0.0 0.0 0.0 -1.151244268742903e-26 -0.5442396402359009 -0.7673661112785339 -0.22935479879379272 -1.3146049353263134e-11 0.0 -1.151244268742903e-26 -0.5442396402359009 -0.7673661112785339 -0.22935479879379272 -1.3146049353263134e-11 0.0 -0.2985999973554402 -0.11235000099231794 0.3136499823461779 2.2214412195942903 2.2214412191386663 6.51588689188421e-08 0.0 0.0 0.0 0.0 0.0 0.0 9.240738067961094e-07 3.476881827858303e-07 4.253146293222056e-08 -2.8475662131755596e-08 6.147405365792542e-08 -2.6501511670479847e-15 -0.29859999998320186 -0.11235000001567023 0.31364999997695675 2.221441469306994 2.2214414688513715 4.556249894594308e-10 0.0 0.0 0.0 0.0 0.0 0.0
154020.952 1.1041514924592377e-15 -1.5707963267948966 1.5707963267948966 -1.5707963267948966 -1.5707963267948966 0.0 0.0 0.0 0.0 0.0 0.0 0.0 0.0 0.0 0.0 0.0 0.0 0.0 -1.1512442590619146e-26 -0.5442396572688689 -0.7673661111166267 -0.229354796466502 -1.3146049461972196e-11 0.0 -1.511583712148294e-25 -7.14586669994025 -7.145866699940251 -1.0424175499402515 -5.974879480466362e-11 0.0 1.1041514924592377e-15 -1.570796314870016 1.5707963705062866 -1.570796314870016 -1.570796314870016 0.0 0.0 0.0 0.0 0.0 0.0 0.0 -1.151244268742903e-26 -0.5442396402359009 -0.7673661112785339 -0.22935479879379272 -1.3146049353263134e-11 0.0 -1.151244268742903e-26 -0.5442396402359009 -0.7673661112785339 -0.22935479879379272 -1.3146049353263134e-11 0.0 -0.2985999973554402 -0.11235000099231794 0.3136499823461779 2.2214412195942903 2.2214412191386663 6.51588689188421e-08 0.0 0.0 0.0 0.0 0.0 0.0 9.240738067961094e-07 3.476881827858303e-07 4.253146293222056e-08 -2.8475662131755596e-08 6.147405365792542e-08 -2.6501511670479847e-15 -0.29859999998320186 -0.11235000001567023 0.31364999997695675 2.221441469306994 2.2214414688513715 4.556249894594308e-10 0.0 0.0 0.0 0.0 0.0 0.0
154020.96 1.1041514924592377e-15 -1.5707963267948966 1.5707963267948966 -1.5707963267948966 -1.5707963267948966 0.0 0.0 0.0 0.0 0.0 0.0 0.0 0.0 0.0 0.0 0.0 0.0 0.0 -1.1512442590619146e-26 -0.5442396572688689 -0.7673661111166267 -0.229354796466502 -1.3146049461972196e-11 0.0 -1.511583712148294e-25 -7.14586669994025 -7.145866699940251 -1.0424175499402515 -5.974879480466362e-11 0.0 1.1041514924592377e-15 -1.570796314870016 1.5707963705062866 -1.570796314870016 -1.570796314870016 0.0 0.0 0.0 0.0 0.0 0.0 0.0 -1.151244268742903e-26 -0.5442396402359009 -0.7673661112785339 -0.22935479879379272 -1.3146049353263134e-11 0.0 -1.151244268742903e-26 -0.5442396402359009 -0.7673661112785339 -0.22935479879379272 -1.3146049353263134e-11 0.0 -0.2985999973554402 -0.11235000099231794 0.3136499823461779 2.2214412195942903 2.2214412191386663 6.51588689188421e-08 0.0 0.0 0.0 0.0 0.0 0.0 9.240738067961094e-07 3.476881827858303e-07 4.253146293222056e-08 -2.8475662131755596e-08 6.147405365792542e-08 -2.6501511670479847e-15 -0.29859999998320186 -0.11235000001567023 0.31364999997695675 2.221441469306994 2.2214414688513715 4.556249894594308e-10 0.0 0.0 0.0 0.0 0.0 0.0
154020.968 1.1041514924592377e-15 -1.5707963267948966 1.5707963267948966 -1.5707963267948966 -1.5707963267948966 0.0 0.0 0.0 0.0 0.0 0.0 0.0 0.0 0.0 0.0 0.0 0.0 0.0 -1.1512442590619146e-26 -0.5442396572688689 -0.7673661111166267 -0.229354796466502 -1.3146049461972196e-11 0.0 -1.511583712148294e-25 -7.14586669994025 -7.145866699940251 -1.0424175499402515 -5.974879480466362e-11 0.0 1.1041514924592377e-15 -1.570796314870016 1.5707963705062866 -1.570796314870016 -1.570796314870016 0.0 0.0 0.0 0.0 0.0 0.0 0.0 -1.151244268742903e-26 -0.5442396402359009 -0.7673661112785339 -0.22935479879379272 -1.3146049353263134e-11 0.0 -1.151244268742903e-26 -0.5442396402359009 -0.7673661112785339 -0.22935479879379272 -1.3146049353263134e-11 0.0 -0.2985999973554402 -0.11235000099231794 0.3136499823461779 2.2214412195942903 2.2214412191386663 6.51588689188421e-08 0.0 0.0 0.0 0.0 0.0 0.0 9.240738067961094e-07 3.476881827858303e-07 4.253146293222056e-08 -2.8475662131755596e-08 6.147405365792542e-08 -2.6501511670479847e-15 -0.29859999998320186 -0.11235000001567023 0.31364999997695675 2.221441469306994 2.2214414688513715 4.556249894594308e-10 0.0 0.0 0.0 0.0 0.0 0.0
154020.976 1.1041514924592377e-15 -1.5707963267948966 1.5707963267948966 -1.5707963267948966 -1.5707963267948966 0.0 0.0 0.0 0.0 0.0 0.0 0.0 0.0 0.0 0.0 0.0 0.0 0.0 -1.1512442590619146e-26 -0.5442396572688689 -0.7673661111166267 -0.229354796466502 -1.3146049461972196e-11 0.0 -1.511583712148294e-25 -7.14586669994025 -7.145866699940251 -1.0424175499402515 -5.974879480466362e-11 0.0 1.1041514924592377e-15 -1.570796314870016 1.5707963705062866 -1.570796314870016 -1.570796314870016 0.0 0.0 0.0 0.0 0.0 0.0 0.0 -1.151244268742903e-26 -0.5442396402359009 -0.7673661112785339 -0.22935479879379272 -1.3146049353263134e-11 0.0 -1.151244268742903e-26 -0.5442396402359009 -0.7673661112785339 -0.22935479879379272 -1.3146049353263134e-11 0.0 -0.2985999973554402 -0.11235000099231794 0.3136499823461779 2.2214412195942903 2.2214412191386663 6.51588689188421e-08 0.0 0.0 0.0 0.0 0.0 0.0 9.240738067961094e-07 3.476881827858303e-07 4.253146293222056e-08 -2.8475662131755596e-08 6.147405365792542e-08 -2.6501511670479847e-15 -0.29859999998320186 -0.11235000001567023 0.31364999997695675 2.221441469306994 2.2214414688513715 4.556249894594308e-10 0.0 0.0 0.0 0.0 0.0 0.0
154020.984 1.1041514924592377e-15 -1.5707963267948966 1.5707963267948966 -1.5707963267948966 -1.5707963267948966 0.0 0.0 0.0 0.0 0.0 0.0 0.0 0.0 0.0 0.0 0.0 0.0 0.0 -1.1512442590619146e-26 -0.5442396572688689 -0.7673661111166267 -0.229354796466502 -1.3146049461972196e-11 0.0 -1.511583712148294e-25 -7.14586669994025 -7.145866699940251 -1.0424175499402515 -5.974879480466362e-11 0.0 1.1041514924592377e-15 -1.570796314870016 1.5707963705062866 -1.570796314870016 -1.570796314870016 0.0 0.0 0.0 0.0 0.0 0.0 0.0 -1.151244268742903e-26 -0.5442396402359009 -0.7673661112785339 -0.22935479879379272 -1.3146049353263134e-11 0.0 -1.151244268742903e-26 -0.5442396402359009 -0.7673661112785339 -0.22935479879379272 -1.3146049353263134e-11 0.0 -0.2985999973554402 -0.11235000099231794 0.3136499823461779 2.2214412195942903 2.2214412191386663 6.51588689188421e-08 0.0 0.0 0.0 0.0 0.0 0.0 9.240738067961094e-07 3.476881827858303e-07 4.253146293222056e-08 -2.8475662131755596e-08 6.147405365792542e-08 -2.6501511670479847e-15 -0.29859999998320186 -0.11235000001567023 0.31364999997695675 2.221441469306994 2.2214414688513715 4.556249894594308e-10 0.0 0.0 0.0 0.0 0.0 0.0
154020.992 1.1041514924592377e-15 -1.5707963267948966 1.5707963267948966 -1.5707963267948966 -1.5707963267948966 0.0 0.0 0.0 0.0 0.0 0.0 0.0 0.0 0.0 0.0 0.0 0.0 0.0 -1.1512442590619146e-26 -0.5442396572688689 -0.7673661111166267 -0.229354796466502 -1.3146049461972196e-11 0.0 -1.511583712148294e-25 -7.14586669994025 -7.145866699940251 -1.0424175499402515 -5.974879480466362e-11 0.0 1.1041514924592377e-15 -1.570796314870016 1.5707963705062866 -1.570796314870016 -1.570796314870016 0.0 0.0 0.0 0.0 0.0 0.0 0.0 -1.151244268742903e-26 -0.5442396402359009 -0.7673661112785339 -0.22935479879379272 -1.3146049353263134e-11 0.0 -1.151244268742903e-26 -0.5442396402359009 -0.7673661112785339 -0.22935479879379272 -1.3146049353263134e-11 0.0 -0.2985999973554402 -0.11235000099231794 0.3136499823461779 2.2214412195942903 2.2214412191386663 6.51588689188421e-08 0.0 0.0 0.0 0.0 0.0 0.0 9.240738067961094e-07 3.476881827858303e-07 4.253146293222056e-08 -2.8475662131755596e-08 6.147405365792542e-08 -2.6501511670479847e-15 -0.29859999998320186 -0.11235000001567023 0.31364999997695675 2.221441469306994 2.2214414688513715 4.556249894594308e-10 0.0 0.0 0.0 0.0 0.0 0.0
154021.0 1.1041514924592377e-15 -1.5707963267948966 1.5707963267948966 -1.5707963267948966 -1.5707963267948966 0.0 0.0 0.0 0.0 0.0 0.0 0.0 0.0 0.0 0.0 0.0 0.0 0.0 -1.1512442590619146e-26 -0.5442396572688689 -0.7673661111166267 -0.229354796466502 -1.3146049461972196e-11 0.0 -1.511583712148294e-25 -7.14586669994025 -7.145866699940251 -1.0424175499402515 -5.974879480466362e-11 0.0 1.1041514924592377e-15 -1.570796314870016 1.5707963705062866 -1.570796314870016 -1.570796314870016 0.0 0.0 0.0 0.0 0.0 0.0 0.0 -1.151244268742903e-26 -0.5442396402359009 -0.7673661112785339 -0.22935479879379272 -1.3146049353263134e-11 0.0 -1.151244268742903e-26 -0.5442396402359009 -0.7673661112785339 -0.22935479879379272 -1.3146049353263134e-11 0.0 -0.2985999973554402 -0.11235000099231794 0.3136499823461779 2.2214412195942903 2.2214412191386663 6.51588689188421e-08 0.0 0.0 0.0 0.0 0.0 0.0 9.240738067961094e-07 3.476881827858303e-07 4.253146293222056e-08 -2.8475662131755596e-08 6.147405365792542e-08 -2.6501511670479847e-15 -0.29859999998320186 -0.11235000001567023 0.31364999997695675 2.221441469306994 2.2214414688513715 4.556249894594308e-10 0.0 0.0 0.0 0.0 0.0 0.0
154021.008 1.1041514924592377e-15 -1.5707963267948966 1.5707963267948966 -1.5707963267948966 -1.5707963267948966 0.0 0.0 0.0 0.0 0.0 0.0 0.0 0.0 0.0 0.0 0.0 0.0 0.0 -1.1512442590619146e-26 -0.5442396572688689 -0.7673661111166267 -0.229354796466502 -1.3146049461972196e-11 0.0 -1.511583712148294e-25 -7.14586669994025 -7.145866699940251 -1.0424175499402515 -5.974879480466362e-11 0.0 1.1041514924592377e-15 -1.570796314870016 1.5707963705062866 -1.570796314870016 -1.570796314870016 0.0 0.0 0.0 0.0 0.0 0.0 0.0 -1.151244268742903e-26 -0.5442396402359009 -0.7673661112785339 -0.22935479879379272 -1.3146049353263134e-11 0.0 -1.151244268742903e-26 -0.5442396402359009 -0.7673661112785339 -0.22935479879379272 -1.3146049353263134e-11 0.0 -0.2985999973554402 -0.11235000099231794 0.3136499823461779 2.2214412195942903 2.2214412191386663 6.51588689188421e-08 0.0 0.0 0.0 0.0 0.0 0.0 9.240738067961094e-07 3.476881827858303e-07 4.253146293222056e-08 -2.8475662131755596e-08 6.147405365792542e-08 -2.6501511670479847e-15 -0.29859999998320186 -0.11235000001567023 0.31364999997695675 2.221441469306994 2.2214414688513715 4.556249894594308e-10 0.0 0.0 0.0 0.0 0.0 0.0
154021.016 1.1041514924592377e-15 -1.5707963267948966 1.5707963267948966 -1.5707963267948966 -1.5707963267948966 0.0 0.0 0.0 0.0 0.0 0.0 0.0 0.0 0.0 0.0 0.0 0.0 0.0 -1.1512442590619146e-26 -0.5442396572688689 -0.7673661111166267 -0.229354796466502 -1.3146049461972196e-11 0.0 -1.511583712148294e-25 -7.14586669994025 -7.145866699940251 -1.0424175499402515 -5.974879480466362e-11 0.0 1.1041514924592377e-15 -1.570796314870016 1.5707963705062866 -1.570796314870016 -1.570796314870016 0.0 0.0 0.0 0.0 0.0 0.0 0.0 -1.151244268742903e-26 -0.5442396402359009 -0.7673661112785339 -0.22935479879379272 -1.3146049353263134e-11 0.0 -1.151244268742903e-26 -0.5442396402359009 -0.7673661112785339 -0.22935479879379272 -1.3146049353263134e-11 0.0 -0.2985999973554402 -0.11235000099231794 0.3136499823461779 2.2214412195942903 2.2214412191386663 6.51588689188421e-08 0.0 0.0 0.0 0.0 0.0 0.0 9.240738067961094e-07 3.476881827858303e-07 4.253146293222056e-08 -2.8475662131755596e-08 6.147405365792542e-08 -2.6501511670479847e-15 -0.29859999998320186 -0.11235000001567023 0.31364999997695675 2.221441469306994 2.2214414688513715 4.556249894594308e-10 0.0 0.0 0.0 0.0 0.0 0.0
154021.024 1.1041514924592377e-15 -1.5707963267948966 1.5707963267948966 -1.5707963267948966 -1.5707963267948966 0.0 0.0 0.0 0.0 0.0 0.0 0.0 0.0 0.0 0.0 0.0 0.0 0.0 -1.1512442590619146e-26 -0.5442396572688689 -0.7673661111166267 -0.229354796466502 -1.3146049461972196e-11 0.0 -1.511583712148294e-25 -7.14586669994025 -7.145866699940251 -1.0424175499402515 -5.974879480466362e-11 0.0 1.1041514924592377e-15 -1.570796314870016 1.5707963705062866 -1.570796314870016 -1.570796314870016 0.0 0.0 0.0 0.0 0.0 0.0 0.0 -1.151244268742903e-26 -0.5442396402359009 -0.7673661112785339 -0.22935479879379272 -1.3146049353263134e-11 0.0 -1.151244268742903e-26 -0.5442396402359009 -0.7673661112785339 -0.22935479879379272 -1.3146049353263134e-11 0.0 -0.2985999973554402 -0.11235000099231794 0.3136499823461779 2.2214412195942903 2.2214412191386663 6.51588689188421e-08 0.0 0.0 0.0 0.0 0.0 0.0 9.240738067961094e-07 3.476881827858303e-07 4.253146293222056e-08 -2.8475662131755596e-08 6.147405365792542e-08 -2.6501511670479847e-15 -0.29859999998320186 -0.11235000001567023 0.31364999997695675 2.221441469306994 2.2214414688513715 4.556249894594308e-10 0.0 0.0 0.0 0.0 0.0 0.0
154021.032 1.1041514924592377e-15 -1.5707963267948966 1.5707963267948966 -1.5707963267948966 -1.5707963267948966 0.0 0.0 0.0 0.0 0.0 0.0 0.0 0.0 0.0 0.0 0.0 0.0 0.0 -1.1512442590619146e-26 -0.5442396572688689 -0.7673661111166267 -0.229354796466502 -1.3146049461972196e-11 0.0 -1.511583712148294e-25 -7.14586669994025 -7.145866699940251 -1.0424175499402515 -5.974879480466362e-11 0.0 1.1041514924592377e-15 -1.570796314870016 1.5707963705062866 -1.570796314870016 -1.570796314870016 0.0 0.0 0.0 0.0 0.0 0.0 0.0 -1.151244268742903e-26 -0.5442396402359009 -0.7673661112785339 -0.22935479879379272 -1.3146049353263134e-11 0.0 -1.151244268742903e-26 -0.5442396402359009 -0.7673661112785339 -0.22935479879379272 -1.3146049353263134e-11 0.0 -0.2985999973554402 -0.11235000099231794 0.3136499823461779 2.2214412195942903 2.2214412191386663 6.51588689188421e-08 0.0 0.0 0.0 0.0 0.0 0.0 9.240738067961094e-07 3.476881827858303e-07 4.253146293222056e-08 -2.8475662131755596e-08 6.147405365792542e-08 -2.6501511670479847e-15 -0.29859999998320186 -0.11235000001567023 0.31364999997695675 2.221441469306994 2.2214414688513715 4.556249894594308e-10 0.0 0.0 0.0 0.0 0.0 0.0
154021.03999999998 1.1041514924592377e-15 -1.5707963267948966 1.5707963267948966 -1.5707963267948966 -1.5707963267948966 0.0 0.0 0.0 0.0 0.0 0.0 0.0 0.0 0.0 0.0 0.0 0.0 0.0 -1.1512442590619146e-26 -0.5442396572688689 -0.7673661111166267 -0.229354796466502 -1.3146049461972196e-11 0.0 -1.511583712148294e-25 -7.14586669994025 -7.145866699940251 -1.0424175499402515 -5.974879480466362e-11 0.0 1.1041514924592377e-15 -1.570796314870016 1.5707963705062866 -1.570796314870016 -1.570796314870016 0.0 0.0 0.0 0.0 0.0 0.0 0.0 -1.151244268742903e-26 -0.5442396402359009 -0.7673661112785339 -0.22935479879379272 -1.3146049353263134e-11 0.0 -1.151244268742903e-26 -0.5442396402359009 -0.7673661112785339 -0.22935479879379272 -1.3146049353263134e-11 0.0 -0.2985999973554402 -0.11235000099231794 0.3136499823461779 2.2214412195942903 2.2214412191386663 6.51588689188421e-08 0.0 0.0 0.0 0.0 0.0 0.0 9.240738067961094e-07 3.476881827858303e-07 4.253146293222056e-08 -2.8475662131755596e-08 6.147405365792542e-08 -2.6501511670479847e-15 -0.29859999998320186 -0.11235000001567023 0.31364999997695675 2.221441469306994 2.2214414688513715 4.556249894594308e-10 0.0 0.0 0.0 0.0 0.0 0.0
154021.04799999998 1.1041514924592377e-15 -1.5707963267948966 1.5707963267948966 -1.5707963267948966 -1.5707963267948966 0.0 0.0 0.0 0.0 0.0 0.0 0.0 0.0 0.0 0.0 0.0 0.0 0.0 -1.1512442590619146e-26 -0.5442396572688689 -0.7673661111166267 -0.229354796466502 -1.3146049461972196e-11 0.0 -1.511583712148294e-25 -7.14586669994025 -7.145866699940251 -1.0424175499402515 -5.974879480466362e-11 0.0 1.1041514924592377e-15 -1.570796314870016 1.5707963705062866 -1.570796314870016 -1.570796314870016 0.0 0.0 0.0 0.0 0.0 0.0 0.0 -1.151244268742903e-26 -0.5442396402359009 -0.7673661112785339 -0.22935479879379272 -1.3146049353263134e-11 0.0 -1.151244268742903e-26 -0.5442396402359009 -0.7673661112785339 -0.22935479879379272 -1.3146049353263134e-11 0.0 -0.2985999973554402 -0.11235000099231794 0.3136499823461779 2.2214412195942903 2.2214412191386663 6.51588689188421e-08 0.0 0.0 0.0 0.0 0.0 0.0 9.240738067961094e-07 3.476881827858303e-07 4.253146293222056e-08 -2.8475662131755596e-08 6.147405365792542e-08 -2.6501511670479847e-15 -0.29859999998320186 -0.11235000001567023 0.31364999997695675 2.221441469306994 2.2214414688513715 4.556249894594308e-10 0.0 0.0 0.0 0.0 0.0 0.0
154021.05599999998 1.1041514924592377e-15 -1.5707963267948966 1.5707963267948966 -1.5707963267948966 -1.5707963267948966 0.0 0.0 0.0 0.0 0.0 0.0 0.0 0.0 0.0 0.0 0.0 0.0 0.0 -1.1512442590619146e-26 -0.5442396572688689 -0.7673661111166267 -0.229354796466502 -1.3146049461972196e-11 0.0 -1.511583712148294e-25 -7.14586669994025 -7.145866699940251 -1.0424175499402515 -5.974879480466362e-11 0.0 1.1041514924592377e-15 -1.570796314870016 1.5707963705062866 -1.570796314870016 -1.570796314870016 0.0 0.0 0.0 0.0 0.0 0.0 0.0 -1.151244268742903e-26 -0.5442396402359009 -0.7673661112785339 -0.22935479879379272 -1.3146049353263134e-11 0.0 -1.151244268742903e-26 -0.5442396402359009 -0.7673661112785339 -0.22935479879379272 -1.3146049353263134e-11 0.0 -0.2985999973554402 -0.11235000099231794 0.3136499823461779 2.2214412195942903 2.2214412191386663 6.51588689188421e-08 0.0 0.0 0.0 0.0 0.0 0.0 9.240738067961094e-07 3.476881827858303e-07 4.253146293222056e-08 -2.8475662131755596e-08 6.147405365792542e-08 -2.6501511670479847e-15 -0.29859999998320186 -0.11235000001567023 0.31364999997695675 2.221441469306994 2.2214414688513715 4.556249894594308e-10 0.0 0.0 0.0 0.0 0.0 0.0
154021.06399999998 1.1041514924592377e-15 -1.5707963267948966 1.5707963267948966 -1.5707963267948966 -1.5707963267948966 0.0 0.0 0.0 0.0 0.0 0.0 0.0 0.0 0.0 0.0 0.0 0.0 0.0 -1.1512442590619146e-26 -0.5442396572688689 -0.7673661111166267 -0.229354796466502 -1.3146049461972196e-11 0.0 -1.511583712148294e-25 -7.14586669994025 -7.145866699940251 -1.0424175499402515 -5.974879480466362e-11 0.0 1.1041514924592377e-15 -1.570796314870016 1.5707963705062866 -1.570796314870016 -1.570796314870016 0.0 0.0 0.0 0.0 0.0 0.0 0.0 -1.151244268742903e-26 -0.5442396402359009 -0.7673661112785339 -0.22935479879379272 -1.3146049353263134e-11 0.0 -1.151244268742903e-26 -0.5442396402359009 -0.7673661112785339 -0.22935479879379272 -1.3146049353263134e-11 0.0 -0.2985999973554402 -0.11235000099231794 0.3136499823461779 2.2214412195942903 2.2214412191386663 6.51588689188421e-08 0.0 0.0 0.0 0.0 0.0 0.0 9.240738067961094e-07 3.476881827858303e-07 4.253146293222056e-08 -2.8475662131755596e-08 6.147405365792542e-08 -2.6501511670479847e-15 -0.29859999998320186 -0.11235000001567023 0.31364999997695675 2.221441469306994 2.2214414688513715 4.556249894594308e-10 0.0 0.0 0.0 0.0 0.0 0.0
154021.072 1.1041514924592377e-15 -1.5707963267948966 1.5707963267948966 -1.5707963267948966 -1.5707963267948966 0.0 0.0 0.0 0.0 0.0 0.0 0.0 0.0 0.0 0.0 0.0 0.0 0.0 -1.1512442590619146e-26 -0.5442396572688689 -0.7673661111166267 -0.229354796466502 -1.3146049461972196e-11 0.0 -1.511583712148294e-25 -7.14586669994025 -7.145866699940251 -1.0424175499402515 -5.974879480466362e-11 0.0 1.1041514924592377e-15 -1.570796314870016 1.5707963705062866 -1.570796314870016 -1.570796314870016 0.0 0.0 0.0 0.0 0.0 0.0 0.0 -1.151244268742903e-26 -0.5442396402359009 -0.7673661112785339 -0.22935479879379272 -1.3146049353263134e-11 0.0 -1.151244268742903e-26 -0.5442396402359009 -0.7673661112785339 -0.22935479879379272 -1.3146049353263134e-11 0.0 -0.2985999973554402 -0.11235000099231794 0.3136499823461779 2.2214412195942903 2.2214412191386663 6.51588689188421e-08 0.0 0.0 0.0 0.0 0.0 0.0 9.240738067961094e-07 3.476881827858303e-07 4.253146293222056e-08 -2.8475662131755596e-08 6.147405365792542e-08 -2.6501511670479847e-15 -0.29859999998320186 -0.11235000001567023 0.31364999997695675 2.221441469306994 2.2214414688513715 4.556249894594308e-10 0.0 0.0 0.0 0.0 0.0 0.0
154021.08 1.1041514924592377e-15 -1.5707963267948966 1.5707963267948966 -1.5707963267948966 -1.5707963267948966 0.0 0.0 0.0 0.0 0.0 0.0 0.0 0.0 0.0 0.0 0.0 0.0 0.0 -1.1512442590619146e-26 -0.5442396572688689 -0.7673661111166267 -0.229354796466502 -1.3146049461972196e-11 0.0 -1.511583712148294e-25 -7.14586669994025 -7.145866699940251 -1.0424175499402515 -5.974879480466362e-11 0.0 1.1041514924592377e-15 -1.570796314870016 1.5707963705062866 -1.570796314870016 -1.570796314870016 0.0 0.0 0.0 0.0 0.0 0.0 0.0 -1.151244268742903e-26 -0.5442396402359009 -0.7673661112785339 -0.22935479879379272 -1.3146049353263134e-11 0.0 -1.151244268742903e-26 -0.5442396402359009 -0.7673661112785339 -0.22935479879379272 -1.3146049353263134e-11 0.0 -0.2985999973554402 -0.11235000099231794 0.3136499823461779 2.2214412195942903 2.2214412191386663 6.51588689188421e-08 0.0 0.0 0.0 0.0 0.0 0.0 9.240738067961094e-07 3.476881827858303e-07 4.253146293222056e-08 -2.8475662131755596e-08 6.147405365792542e-08 -2.6501511670479847e-15 -0.29859999998320186 -0.11235000001567023 0.31364999997695675 2.221441469306994 2.2214414688513715 4.556249894594308e-10 0.0 0.0 0.0 0.0 0.0 0.0
154021.088 1.1041514924592377e-15 -1.5707963267948966 1.5707963267948966 -1.5707963267948966 -1.5707963267948966 0.0 0.0 0.0 0.0 0.0 0.0 0.0 0.0 0.0 0.0 0.0 0.0 0.0 -1.1512442590619146e-26 -0.5442396572688689 -0.7673661111166267 -0.229354796466502 -1.3146049461972196e-11 0.0 -1.511583712148294e-25 -7.14586669994025 -7.145866699940251 -1.0424175499402515 -5.974879480466362e-11 0.0 1.1041514924592377e-15 -1.570796314870016 1.5707963705062866 -1.570796314870016 -1.570796314870016 0.0 0.0 0.0 0.0 0.0 0.0 0.0 -1.151244268742903e-26 -0.5442396402359009 -0.7673661112785339 -0.22935479879379272 -1.3146049353263134e-11 0.0 -1.151244268742903e-26 -0.5442396402359009 -0.7673661112785339 -0.22935479879379272 -1.3146049353263134e-11 0.0 -0.2985999973554402 -0.11235000099231794 0.3136499823461779 2.2214412195942903 2.2214412191386663 6.51588689188421e-08 0.0 0.0 0.0 0.0 0.0 0.0 9.240738067961094e-07 3.476881827858303e-07 4.253146293222056e-08 -2.8475662131755596e-08 6.147405365792542e-08 -2.6501511670479847e-15 -0.29859999998320186 -0.11235000001567023 0.31364999997695675 2.221441469306994 2.2214414688513715 4.556249894594308e-10 0.0 0.0 0.0 0.0 0.0 0.0
154021.096 1.1041514924592377e-15 -1.5707963267948966 1.5707963267948966 -1.5707963267948966 -1.5707963267948966 0.0 0.0 0.0 0.0 0.0 0.0 0.0 0.0 0.0 0.0 0.0 0.0 0.0 -1.1512442590619146e-26 -0.5442396572688689 -0.7673661111166267 -0.229354796466502 -1.3146049461972196e-11 0.0 -1.511583712148294e-25 -7.14586669994025 -7.145866699940251 -1.0424175499402515 -5.974879480466362e-11 0.0 1.1041514924592377e-15 -1.570796314870016 1.5707963705062866 -1.570796314870016 -1.570796314870016 0.0 0.0 0.0 0.0 0.0 0.0 0.0 -1.151244268742903e-26 -0.5442396402359009 -0.7673661112785339 -0.22935479879379272 -1.3146049353263134e-11 0.0 -1.151244268742903e-26 -0.5442396402359009 -0.7673661112785339 -0.22935479879379272 -1.3146049353263134e-11 0.0 -0.2985999973554402 -0.11235000099231794 0.3136499823461779 2.2214412195942903 2.2214412191386663 6.51588689188421e-08 0.0 0.0 0.0 0.0 0.0 0.0 9.240738067961094e-07 3.476881827858303e-07 4.253146293222056e-08 -2.8475662131755596e-08 6.147405365792542e-08 -2.6501511670479847e-15 -0.29859999998320186 -0.11235000001567023 0.31364999997695675 2.221441469306994 2.2214414688513715 4.556249894594308e-10 0.0 0.0 0.0 0.0 0.0 0.0
154021.104 1.1041514924592377e-15 -1.5707963267948966 1.5707963267948966 -1.5707963267948966 -1.5707963267948966 0.0 0.0 0.0 0.0 0.0 0.0 0.0 0.0 0.0 0.0 0.0 0.0 0.0 -1.1512442590619146e-26 -0.5442396572688689 -0.7673661111166267 -0.229354796466502 -1.3146049461972196e-11 0.0 -1.511583712148294e-25 -7.14586669994025 -7.145866699940251 -1.0424175499402515 -5.974879480466362e-11 0.0 1.1041514924592377e-15 -1.570796314870016 1.5707963705062866 -1.570796314870016 -1.570796314870016 0.0 0.0 0.0 0.0 0.0 0.0 0.0 -1.151244268742903e-26 -0.5442396402359009 -0.7673661112785339 -0.22935479879379272 -1.3146049353263134e-11 0.0 -1.151244268742903e-26 -0.5442396402359009 -0.7673661112785339 -0.22935479879379272 -1.3146049353263134e-11 0.0 -0.2985999973554402 -0.11235000099231794 0.3136499823461779 2.2214412195942903 2.2214412191386663 6.51588689188421e-08 0.0 0.0 0.0 0.0 0.0 0.0 9.240738067961094e-07 3.476881827858303e-07 4.253146293222056e-08 -2.8475662131755596e-08 6.147405365792542e-08 -2.6501511670479847e-15 -0.29859999998320186 -0.11235000001567023 0.31364999997695675 2.221441469306994 2.2214414688513715 4.556249894594308e-10 0.0 0.0 0.0 0.0 0.0 0.0
154021.112 1.1041514924592377e-15 -1.5707963267948966 1.5707963267948966 -1.5707963267948966 -1.5707963267948966 0.0 0.0 0.0 0.0 0.0 0.0 0.0 0.0 0.0 0.0 0.0 0.0 0.0 -1.1512442590619146e-26 -0.5442396572688689 -0.7673661111166267 -0.229354796466502 -1.3146049461972196e-11 0.0 -1.511583712148294e-25 -7.14586669994025 -7.145866699940251 -1.0424175499402515 -5.974879480466362e-11 0.0 1.1041514924592377e-15 -1.570796314870016 1.5707963705062866 -1.570796314870016 -1.570796314870016 0.0 0.0 0.0 0.0 0.0 0.0 0.0 -1.151244268742903e-26 -0.5442396402359009 -0.7673661112785339 -0.22935479879379272 -1.3146049353263134e-11 0.0 -1.151244268742903e-26 -0.5442396402359009 -0.7673661112785339 -0.22935479879379272 -1.3146049353263134e-11 0.0 -0.2985999973554402 -0.11235000099231794 0.3136499823461779 2.2214412195942903 2.2214412191386663 6.51588689188421e-08 0.0 0.0 0.0 0.0 0.0 0.0 9.240738067961094e-07 3.476881827858303e-07 4.253146293222056e-08 -2.8475662131755596e-08 6.147405365792542e-08 -2.6501511670479847e-15 -0.29859999998320186 -0.11235000001567023 0.31364999997695675 2.221441469306994 2.2214414688513715 4.556249894594308e-10 0.0 0.0 0.0 0.0 0.0 0.0
154021.12 1.1041514924592377e-15 -1.5707963267948966 1.5707963267948966 -1.5707963267948966 -1.5707963267948966 0.0 0.0 0.0 0.0 0.0 0.0 0.0 0.0 0.0 0.0 0.0 0.0 0.0 -1.1512442590619146e-26 -0.5442396572688689 -0.7673661111166267 -0.229354796466502 -1.3146049461972196e-11 0.0 -1.511583712148294e-25 -7.14586669994025 -7.145866699940251 -1.0424175499402515 -5.974879480466362e-11 0.0 1.1041514924592377e-15 -1.570796314870016 1.5707963705062866 -1.570796314870016 -1.570796314870016 0.0 0.0 0.0 0.0 0.0 0.0 0.0 -1.151244268742903e-26 -0.5442396402359009 -0.7673661112785339 -0.22935479879379272 -1.3146049353263134e-11 0.0 -1.151244268742903e-26 -0.5442396402359009 -0.7673661112785339 -0.22935479879379272 -1.3146049353263134e-11 0.0 -0.2985999973554402 -0.11235000099231794 0.3136499823461779 2.2214412195942903 2.2214412191386663 6.51588689188421e-08 0.0 0.0 0.0 0.0 0.0 0.0 9.240738067961094e-07 3.476881827858303e-07 4.253146293222056e-08 -2.8475662131755596e-08 6.147405365792542e-08 -2.6501511670479847e-15 -0.29859999998320186 -0.11235000001567023 0.31364999997695675 2.221441469306994 2.2214414688513715 4.556249894594308e-10 0.0 0.0 0.0 0.0 0.0 0.0
154021.128 1.1041514924592377e-15 -1.5707963267948966 1.5707963267948966 -1.5707963267948966 -1.5707963267948966 0.0 0.0 0.0 0.0 0.0 0.0 0.0 0.0 0.0 0.0 0.0 0.0 0.0 -1.1512442590619146e-26 -0.5442396572688689 -0.7673661111166267 -0.229354796466502 -1.3146049461972196e-11 0.0 -1.511583712148294e-25 -7.14586669994025 -7.145866699940251 -1.0424175499402515 -5.974879480466362e-11 0.0 1.1041514924592377e-15 -1.570796314870016 1.5707963705062866 -1.570796314870016 -1.570796314870016 0.0 0.0 0.0 0.0 0.0 0.0 0.0 -1.151244268742903e-26 -0.5442396402359009 -0.7673661112785339 -0.22935479879379272 -1.3146049353263134e-11 0.0 -1.151244268742903e-26 -0.5442396402359009 -0.7673661112785339 -0.22935479879379272 -1.3146049353263134e-11 0.0 -0.2985999973554402 -0.11235000099231794 0.3136499823461779 2.2214412195942903 2.2214412191386663 6.51588689188421e-08 0.0 0.0 0.0 0.0 0.0 0.0 9.240738067961094e-07 3.476881827858303e-07 4.253146293222056e-08 -2.8475662131755596e-08 6.147405365792542e-08 -2.6501511670479847e-15 -0.29859999998320186 -0.11235000001567023 0.31364999997695675 2.221441469306994 2.2214414688513715 4.556249894594308e-10 0.0 0.0 0.0 0.0 0.0 0.0
154021.136 1.1041514924592377e-15 -1.5707963267948966 1.5707963267948966 -1.5707963267948966 -1.5707963267948966 0.0 0.0 0.0 0.0 0.0 0.0 0.0 0.0 0.0 0.0 0.0 0.0 0.0 -1.1512442590619146e-26 -0.5442396572688689 -0.7673661111166267 -0.229354796466502 -1.3146049461972196e-11 0.0 -1.511583712148294e-25 -7.14586669994025 -7.145866699940251 -1.0424175499402515 -5.974879480466362e-11 0.0 1.1041514924592377e-15 -1.570796314870016 1.5707963705062866 -1.570796314870016 -1.570796314870016 0.0 0.0 0.0 0.0 0.0 0.0 0.0 -1.151244268742903e-26 -0.5442396402359009 -0.7673661112785339 -0.22935479879379272 -1.3146049353263134e-11 0.0 -1.151244268742903e-26 -0.5442396402359009 -0.7673661112785339 -0.22935479879379272 -1.3146049353263134e-11 0.0 -0.2985999973554402 -0.11235000099231794 0.3136499823461779 2.2214412195942903 2.2214412191386663 6.51588689188421e-08 0.0 0.0 0.0 0.0 0.0 0.0 9.240738067961094e-07 3.476881827858303e-07 4.253146293222056e-08 -2.8475662131755596e-08 6.147405365792542e-08 -2.6501511670479847e-15 -0.29859999998320186 -0.11235000001567023 0.31364999997695675 2.221441469306994 2.2214414688513715 4.556249894594308e-10 0.0 0.0 0.0 0.0 0.0 0.0
154021.144 1.1041514924592377e-15 -1.5707963267948966 1.5707963267948966 -1.5707963267948966 -1.5707963267948966 0.0 0.0 0.0 0.0 0.0 0.0 0.0 0.0 0.0 0.0 0.0 0.0 0.0 -1.1512442590619146e-26 -0.5442396572688689 -0.7673661111166267 -0.229354796466502 -1.3146049461972196e-11 0.0 -1.511583712148294e-25 -7.14586669994025 -7.145866699940251 -1.0424175499402515 -5.974879480466362e-11 0.0 1.1041514924592377e-15 -1.570796314870016 1.5707963705062866 -1.570796314870016 -1.570796314870016 0.0 0.0 0.0 0.0 0.0 0.0 0.0 -1.151244268742903e-26 -0.5442396402359009 -0.7673661112785339 -0.22935479879379272 -1.3146049353263134e-11 0.0 -1.151244268742903e-26 -0.5442396402359009 -0.7673661112785339 -0.22935479879379272 -1.3146049353263134e-11 0.0 -0.2985999973554402 -0.11235000099231794 0.3136499823461779 2.2214412195942903 2.2214412191386663 6.51588689188421e-08 0.0 0.0 0.0 0.0 0.0 0.0 9.240738067961094e-07 3.476881827858303e-07 4.253146293222056e-08 -2.8475662131755596e-08 6.147405365792542e-08 -2.6501511670479847e-15 -0.29859999998320186 -0.11235000001567023 0.31364999997695675 2.221441469306994 2.2214414688513715 4.556249894594308e-10 0.0 0.0 0.0 0.0 0.0 0.0
154021.152 1.1041514924592377e-15 -1.5707963267948966 1.5707963267948966 -1.5707963267948966 -1.5707963267948966 0.0 0.0 0.0 0.0 0.0 0.0 0.0 0.0 0.0 0.0 0.0 0.0 0.0 -1.1512442590619146e-26 -0.5442396572688689 -0.7673661111166267 -0.229354796466502 -1.3146049461972196e-11 0.0 -1.511583712148294e-25 -7.14586669994025 -7.145866699940251 -1.0424175499402515 -5.974879480466362e-11 0.0 1.1041514924592377e-15 -1.570796314870016 1.5707963705062866 -1.570796314870016 -1.570796314870016 0.0 0.0 0.0 0.0 0.0 0.0 0.0 -1.151244268742903e-26 -0.5442396402359009 -0.7673661112785339 -0.22935479879379272 -1.3146049353263134e-11 0.0 -1.151244268742903e-26 -0.5442396402359009 -0.7673661112785339 -0.22935479879379272 -1.3146049353263134e-11 0.0 -0.2985999973554402 -0.11235000099231794 0.3136499823461779 2.2214412195942903 2.2214412191386663 6.51588689188421e-08 0.0 0.0 0.0 0.0 0.0 0.0 9.240738067961094e-07 3.476881827858303e-07 4.253146293222056e-08 -2.8475662131755596e-08 6.147405365792542e-08 -2.6501511670479847e-15 -0.29859999998320186 -0.11235000001567023 0.31364999997695675 2.221441469306994 2.2214414688513715 4.556249894594308e-10 0.0 0.0 0.0 0.0 0.0 0.0
154021.16 1.1041514924592377e-15 -1.5707963267948966 1.5707963267948966 -1.5707963267948966 -1.5707963267948966 0.0 0.0 0.0 0.0 0.0 0.0 0.0 0.0 0.0 0.0 0.0 0.0 0.0 -1.1512442590619146e-26 -0.5442396572688689 -0.7673661111166267 -0.229354796466502 -1.3146049461972196e-11 0.0 -1.511583712148294e-25 -7.14586669994025 -7.145866699940251 -1.0424175499402515 -5.974879480466362e-11 0.0 1.1041514924592377e-15 -1.570796314870016 1.5707963705062866 -1.570796314870016 -1.570796314870016 0.0 0.0 0.0 0.0 0.0 0.0 0.0 -1.151244268742903e-26 -0.5442396402359009 -0.7673661112785339 -0.22935479879379272 -1.3146049353263134e-11 0.0 -1.151244268742903e-26 -0.5442396402359009 -0.7673661112785339 -0.22935479879379272 -1.3146049353263134e-11 0.0 -0.2985999973554402 -0.11235000099231794 0.3136499823461779 2.2214412195942903 2.2214412191386663 6.51588689188421e-08 0.0 0.0 0.0 0.0 0.0 0.0 9.240738067961094e-07 3.476881827858303e-07 4.253146293222056e-08 -2.8475662131755596e-08 6.147405365792542e-08 -2.6501511670479847e-15 -0.29859999998320186 -0.11235000001567023 0.31364999997695675 2.221441469306994 2.2214414688513715 4.556249894594308e-10 0.0 0.0 0.0 0.0 0.0 0.0
154021.168 1.1041514924592377e-15 -1.5707963267948966 1.5707963267948966 -1.5707963267948966 -1.5707963267948966 0.0 0.0 0.0 0.0 0.0 0.0 0.0 0.0 0.0 0.0 0.0 0.0 0.0 -1.1512442590619146e-26 -0.5442396572688689 -0.7673661111166267 -0.229354796466502 -1.3146049461972196e-11 0.0 -1.511583712148294e-25 -7.14586669994025 -7.145866699940251 -1.0424175499402515 -5.974879480466362e-11 0.0 1.1041514924592377e-15 -1.570796314870016 1.5707963705062866 -1.570796314870016 -1.570796314870016 0.0 0.0 0.0 0.0 0.0 0.0 0.0 -1.151244268742903e-26 -0.5442396402359009 -0.7673661112785339 -0.22935479879379272 -1.3146049353263134e-11 0.0 -1.151244268742903e-26 -0.5442396402359009 -0.7673661112785339 -0.22935479879379272 -1.3146049353263134e-11 0.0 -0.2985999973554402 -0.11235000099231794 0.3136499823461779 2.2214412195942903 2.2214412191386663 6.51588689188421e-08 0.0 0.0 0.0 0.0 0.0 0.0 9.240738067961094e-07 3.476881827858303e-07 4.253146293222056e-08 -2.8475662131755596e-08 6.147405365792542e-08 -2.6501511670479847e-15 -0.29859999998320186 -0.11235000001567023 0.31364999997695675 2.221441469306994 2.2214414688513715 4.556249894594308e-10 0.0 0.0 0.0 0.0 0.0 0.0
154021.176 1.1041514924592377e-15 -1.5707963267948966 1.5707963267948966 -1.5707963267948966 -1.5707963267948966 0.0 0.0 0.0 0.0 0.0 0.0 0.0 0.0 0.0 0.0 0.0 0.0 0.0 -1.1512442590619146e-26 -0.5442396572688689 -0.7673661111166267 -0.229354796466502 -1.3146049461972196e-11 0.0 -1.511583712148294e-25 -7.14586669994025 -7.145866699940251 -1.0424175499402515 -5.974879480466362e-11 0.0 1.1041514924592377e-15 -1.570796314870016 1.5707963705062866 -1.570796314870016 -1.570796314870016 0.0 0.0 0.0 0.0 0.0 0.0 0.0 -1.151244268742903e-26 -0.5442396402359009 -0.7673661112785339 -0.22935479879379272 -1.3146049353263134e-11 0.0 -1.151244268742903e-26 -0.5442396402359009 -0.7673661112785339 -0.22935479879379272 -1.3146049353263134e-11 0.0 -0.2985999973554402 -0.11235000099231794 0.3136499823461779 2.2214412195942903 2.2214412191386663 6.51588689188421e-08 0.0 0.0 0.0 0.0 0.0 0.0 9.240738067961094e-07 3.476881827858303e-07 4.253146293222056e-08 -2.8475662131755596e-08 6.147405365792542e-08 -2.6501511670479847e-15 -0.29859999998320186 -0.11235000001567023 0.31364999997695675 2.221441469306994 2.2214414688513715 4.556249894594308e-10 0.0 0.0 0.0 0.0 0.0 0.0
154021.18399999998 1.1041514924592377e-15 -1.5707963267948966 1.5707963267948966 -1.5707963267948966 -1.5707963267948966 0.0 0.0 0.0 0.0 0.0 0.0 0.0 0.0 0.0 0.0 0.0 0.0 0.0 -1.1512442590619146e-26 -0.5442396572688689 -0.7673661111166267 -0.229354796466502 -1.3146049461972196e-11 0.0 -1.511583712148294e-25 -7.14586669994025 -7.145866699940251 -1.0424175499402515 -5.974879480466362e-11 0.0 1.1041514924592377e-15 -1.570796314870016 1.5707963705062866 -1.570796314870016 -1.570796314870016 0.0 0.0 0.0 0.0 0.0 0.0 0.0 -1.151244268742903e-26 -0.5442396402359009 -0.7673661112785339 -0.22935479879379272 -1.3146049353263134e-11 0.0 -1.151244268742903e-26 -0.5442396402359009 -0.7673661112785339 -0.22935479879379272 -1.3146049353263134e-11 0.0 -0.2985999973554402 -0.11235000099231794 0.3136499823461779 2.2214412195942903 2.2214412191386663 6.51588689188421e-08 0.0 0.0 0.0 0.0 0.0 0.0 9.240738067961094e-07 3.476881827858303e-07 4.253146293222056e-08 -2.8475662131755596e-08 6.147405365792542e-08 -2.6501511670479847e-15 -0.29859999998320186 -0.11235000001567023 0.31364999997695675 2.221441469306994 2.2214414688513715 4.556249894594308e-10 0.0 0.0 0.0 0.0 0.0 0.0
154021.19199999998 1.1041514924592377e-15 -1.5707963267948966 1.5707963267948966 -1.5707963267948966 -1.5707963267948966 0.0 0.0 0.0 0.0 0.0 0.0 0.0 0.0 0.0 0.0 0.0 0.0 0.0 -1.1512442590619146e-26 -0.5442396572688689 -0.7673661111166267 -0.229354796466502 -1.3146049461972196e-11 0.0 -1.511583712148294e-25 -7.14586669994025 -7.145866699940251 -1.0424175499402515 -5.974879480466362e-11 0.0 1.1041514924592377e-15 -1.570796314870016 1.5707963705062866 -1.570796314870016 -1.570796314870016 0.0 0.0 0.0 0.0 0.0 0.0 0.0 -1.151244268742903e-26 -0.5442396402359009 -0.7673661112785339 -0.22935479879379272 -1.3146049353263134e-11 0.0 -1.151244268742903e-26 -0.5442396402359009 -0.7673661112785339 -0.22935479879379272 -1.3146049353263134e-11 0.0 -0.2985999973554402 -0.11235000099231794 0.3136499823461779 2.2214412195942903 2.2214412191386663 6.51588689188421e-08 0.0 0.0 0.0 0.0 0.0 0.0 9.240738067961094e-07 3.476881827858303e-07 4.253146293222056e-08 -2.8475662131755596e-08 6.147405365792542e-08 -2.6501511670479847e-15 -0.29859999998320186 -0.11235000001567023 0.31364999997695675 2.221441469306994 2.2214414688513715 4.556249894594308e-10 0.0 0.0 0.0 0.0 0.0 0.0
154021.19999999998 1.1041514924592377e-15 -1.5707963267948966 1.5707963267948966 -1.5707963267948966 -1.5707963267948966 0.0 0.0 0.0 0.0 0.0 0.0 0.0 0.0 0.0 0.0 0.0 0.0 0.0 -1.1512442590619146e-26 -0.5442396572688689 -0.7673661111166267 -0.229354796466502 -1.3146049461972196e-11 0.0 -1.511583712148294e-25 -7.14586669994025 -7.145866699940251 -1.0424175499402515 -5.974879480466362e-11 0.0 1.1041514924592377e-15 -1.570796314870016 1.5707963705062866 -1.570796314870016 -1.570796314870016 0.0 0.0 0.0 0.0 0.0 0.0 0.0 -1.151244268742903e-26 -0.5442396402359009 -0.7673661112785339 -0.22935479879379272 -1.3146049353263134e-11 0.0 -1.151244268742903e-26 -0.5442396402359009 -0.7673661112785339 -0.22935479879379272 -1.3146049353263134e-11 0.0 -0.2985999973554402 -0.11235000099231794 0.3136499823461779 2.2214412195942903 2.2214412191386663 6.51588689188421e-08 0.0 0.0 0.0 0.0 0.0 0.0 9.240738067961094e-07 3.476881827858303e-07 4.253146293222056e-08 -2.8475662131755596e-08 6.147405365792542e-08 -2.6501511670479847e-15 -0.29859999998320186 -0.11235000001567023 0.31364999997695675 2.221441469306994 2.2214414688513715 4.556249894594308e-10 0.0 0.0 0.0 0.0 0.0 0.0
154021.20799999998 1.1041514924592377e-15 -1.5707963267948966 1.5707963267948966 -1.5707963267948966 -1.5707963267948966 0.0 0.0 0.0 0.0 0.0 0.0 0.0 0.0 0.0 0.0 0.0 0.0 0.0 -1.1512442590619146e-26 -0.5442396572688689 -0.7673661111166267 -0.229354796466502 -1.3146049461972196e-11 0.0 -1.511583712148294e-25 -7.14586669994025 -7.145866699940251 -1.0424175499402515 -5.974879480466362e-11 0.0 1.1041514924592377e-15 -1.570796314870016 1.5707963705062866 -1.570796314870016 -1.570796314870016 0.0 0.0 0.0 0.0 0.0 0.0 0.0 -1.151244268742903e-26 -0.5442396402359009 -0.7673661112785339 -0.22935479879379272 -1.3146049353263134e-11 0.0 -1.151244268742903e-26 -0.5442396402359009 -0.7673661112785339 -0.22935479879379272 -1.3146049353263134e-11 0.0 -0.2985999973554402 -0.11235000099231794 0.3136499823461779 2.2214412195942903 2.2214412191386663 6.51588689188421e-08 0.0 0.0 0.0 0.0 0.0 0.0 9.240738067961094e-07 3.476881827858303e-07 4.253146293222056e-08 -2.8475662131755596e-08 6.147405365792542e-08 -2.6501511670479847e-15 -0.29859999998320186 -0.11235000001567023 0.31364999997695675 2.221441469306994 2.2214414688513715 4.556249894594308e-10 0.0 0.0 0.0 0.0 0.0 0.0
154021.216 1.1041514924592377e-15 -1.5707963267948966 1.5707963267948966 -1.5707963267948966 -1.5707963267948966 0.0 0.0 0.0 0.0 0.0 0.0 0.0 0.0 0.0 0.0 0.0 0.0 0.0 -1.1512442590619146e-26 -0.5442396572688689 -0.7673661111166267 -0.229354796466502 -1.3146049461972196e-11 0.0 -1.511583712148294e-25 -7.14586669994025 -7.145866699940251 -1.0424175499402515 -5.974879480466362e-11 0.0 1.1041514924592377e-15 -1.570796314870016 1.5707963705062866 -1.570796314870016 -1.570796314870016 0.0 0.0 0.0 0.0 0.0 0.0 0.0 -1.151244268742903e-26 -0.5442396402359009 -0.7673661112785339 -0.22935479879379272 -1.3146049353263134e-11 0.0 -1.151244268742903e-26 -0.5442396402359009 -0.7673661112785339 -0.22935479879379272 -1.3146049353263134e-11 0.0 -0.2985999973554402 -0.11235000099231794 0.3136499823461779 2.2214412195942903 2.2214412191386663 6.51588689188421e-08 0.0 0.0 0.0 0.0 0.0 0.0 9.240738067961094e-07 3.476881827858303e-07 4.253146293222056e-08 -2.8475662131755596e-08 6.147405365792542e-08 -2.6501511670479847e-15 -0.29859999998320186 -0.11235000001567023 0.31364999997695675 2.221441469306994 2.2214414688513715 4.556249894594308e-10 0.0 0.0 0.0 0.0 0.0 0.0
154021.224 1.1041514924592377e-15 -1.5707963267948966 1.5707963267948966 -1.5707963267948966 -1.5707963267948966 0.0 0.0 0.0 0.0 0.0 0.0 0.0 0.0 0.0 0.0 0.0 0.0 0.0 -1.1512442590619146e-26 -0.5442396572688689 -0.7673661111166267 -0.229354796466502 -1.3146049461972196e-11 0.0 -1.511583712148294e-25 -7.14586669994025 -7.145866699940251 -1.0424175499402515 -5.974879480466362e-11 0.0 1.1041514924592377e-15 -1.570796314870016 1.5707963705062866 -1.570796314870016 -1.570796314870016 0.0 0.0 0.0 0.0 0.0 0.0 0.0 -1.151244268742903e-26 -0.5442396402359009 -0.7673661112785339 -0.22935479879379272 -1.3146049353263134e-11 0.0 -1.151244268742903e-26 -0.5442396402359009 -0.7673661112785339 -0.22935479879379272 -1.3146049353263134e-11 0.0 -0.2985999973554402 -0.11235000099231794 0.3136499823461779 2.2214412195942903 2.2214412191386663 6.51588689188421e-08 0.0 0.0 0.0 0.0 0.0 0.0 9.240738067961094e-07 3.476881827858303e-07 4.253146293222056e-08 -2.8475662131755596e-08 6.147405365792542e-08 -2.6501511670479847e-15 -0.29859999998320186 -0.11235000001567023 0.31364999997695675 2.221441469306994 2.2214414688513715 4.556249894594308e-10 0.0 0.0 0.0 0.0 0.0 0.0
154021.232 1.1041514924592377e-15 -1.5707963267948966 1.5707963267948966 -1.5707963267948966 -1.5707963267948966 0.0 0.0 0.0 0.0 0.0 0.0 0.0 0.0 0.0 0.0 0.0 0.0 0.0 -1.1512442590619146e-26 -0.5442396572688689 -0.7673661111166267 -0.229354796466502 -1.3146049461972196e-11 0.0 -1.511583712148294e-25 -7.14586669994025 -7.145866699940251 -1.0424175499402515 -5.974879480466362e-11 0.0 1.1041514924592377e-15 -1.570796314870016 1.5707963705062866 -1.570796314870016 -1.570796314870016 0.0 0.0 0.0 0.0 0.0 0.0 0.0 -1.151244268742903e-26 -0.5442396402359009 -0.7673661112785339 -0.22935479879379272 -1.3146049353263134e-11 0.0 -1.151244268742903e-26 -0.5442396402359009 -0.7673661112785339 -0.22935479879379272 -1.3146049353263134e-11 0.0 -0.2985999973554402 -0.11235000099231794 0.3136499823461779 2.2214412195942903 2.2214412191386663 6.51588689188421e-08 0.0 0.0 0.0 0.0 0.0 0.0 9.240738067961094e-07 3.476881827858303e-07 4.253146293222056e-08 -2.8475662131755596e-08 6.147405365792542e-08 -2.6501511670479847e-15 -0.29859999998320186 -0.11235000001567023 0.31364999997695675 2.221441469306994 2.2214414688513715 4.556249894594308e-10 0.0 0.0 0.0 0.0 0.0 0.0
154021.24 1.1041514924592377e-15 -1.5707963267948966 1.5707963267948966 -1.5707963267948966 -1.5707963267948966 0.0 0.0 0.0 0.0 0.0 0.0 0.0 0.0 0.0 0.0 0.0 0.0 0.0 -1.1512442590619146e-26 -0.5442396572688689 -0.7673661111166267 -0.229354796466502 -1.3146049461972196e-11 0.0 -1.511583712148294e-25 -7.14586669994025 -7.145866699940251 -1.0424175499402515 -5.974879480466362e-11 0.0 1.1041514924592377e-15 -1.570796314870016 1.5707963705062866 -1.570796314870016 -1.570796314870016 0.0 0.0 0.0 0.0 0.0 0.0 0.0 -1.151244268742903e-26 -0.5442396402359009 -0.7673661112785339 -0.22935479879379272 -1.3146049353263134e-11 0.0 -1.151244268742903e-26 -0.5442396402359009 -0.7673661112785339 -0.22935479879379272 -1.3146049353263134e-11 0.0 -0.2985999973554402 -0.11235000099231794 0.3136499823461779 2.2214412195942903 2.2214412191386663 6.51588689188421e-08 0.0 0.0 0.0 0.0 0.0 0.0 9.240738067961094e-07 3.476881827858303e-07 4.253146293222056e-08 -2.8475662131755596e-08 6.147405365792542e-08 -2.6501511670479847e-15 -0.29859999998320186 -0.11235000001567023 0.31364999997695675 2.221441469306994 2.2214414688513715 4.556249894594308e-10 0.0 0.0 0.0 0.0 0.0 0.0
