mkrssg/UniversalRobots/rtde_client_3.5/examples/falscheWerte da mit movel/q1_0-180_t=10s.csv
timestamp target_q_0 target_q_1 target_q_2 target_q_3 target_q_4 target_q_5 target_qd_0 target_qd_1 target_qd_2 target_qd_3 target_qd_4 target_qd_5 target_qdd_0 target_qdd_1 target_qdd_2 target_qdd_3 target_qdd_4 target_qdd_5 target_current_0 target_current_1 target_current_2 target_current_3 target_current_4 target_current_5 target_moment_0 target_moment_1 target_moment_2 target_moment_3 target_moment_4 target_moment_5 actual_q_0 actual_q_1 actual_q_2 actual_q_3 actual_q_4 actual_q_5 actual_qd_0 actual_qd_1 actual_qd_2 actual_qd_3 actual_qd_4 actual_qd_5 actual_current_0 actual_current_1 actual_current_2 actual_current_3 actual_current_4 actual_current_5 joint_control_output_0 joint_control_output_1 joint_control_output_2 joint_control_output_3 joint_control_output_4 joint_control_output_5 actual_TCP_pose_0 actual_TCP_pose_1 actual_TCP_pose_2 actual_TCP_pose_3 actual_TCP_pose_4 actual_TCP_pose_5 actual_TCP_speed_0 actual_TCP_speed_1 actual_TCP_speed_2 actual_TCP_speed_3 actual_TCP_speed_4 actual_TCP_speed_5 actual_TCP_force_0 actual_TCP_force_1 actual_TCP_force_2 actual_TCP_force_3 actual_TCP_force_4 actual_TCP_force_5 target_TCP_pose_0 target_TCP_pose_1 target_TCP_pose_2 target_TCP_pose_3 target_TCP_pose_4 target_TCP_pose_5 target_TCP_speed_0 target_TCP_speed_1 target_TCP_speed_2 target_TCP_speed_3 target_TCP_speed_4 target_TCP_speed_5
154770.032 1.3877787807814457e-16 -1.5707963267948966 1.5707963267948966 -1.5707963267948966 -1.5707963267948966 0.0 0.0 0.0 0.0 0.0 0.0 0.0 0.0 0.0 0.0 0.0 0.0 0.0 -1.1512442590619146e-26 -0.5442396572688689 -0.7673661111166267 -0.229354796466502 -1.3146049461972196e-11 0.0 -1.511583712148294e-25 -7.14586669994025 -7.145866699940251 -1.0424175499402515 -5.974879480466362e-11 0.0 1.3877787807814457e-16 -1.570796314870016 1.5707963705062866 -1.570796314870016 -1.570796314870016 0.0 0.0 0.0 0.0 0.0 0.0 0.0 -1.151244268742903e-26 -0.5442396402359009 -0.7673661112785339 -0.22935479879379272 -1.3146049353263134e-11 0.0 -1.151244268742903e-26 -0.5442396402359009 -0.7673661112785339 -0.22935479879379272 -1.3146049353263134e-11 0.0 -0.29859999735544024 -0.11235000099231766 0.3136499823461779 2.2214412195942916 2.2214412191386654 6.515886891884209e-08 0.0 0.0 0.0 0.0 0.0 0.0 9.240738067961096e-07 3.476881827858294e-07 4.25314629322205e-08 -2.8475662131755526e-08 6.14740536579255e-08 -2.6501512071418584e-15 -0.29859999998320197 -0.11235000001566994 0.31364999997695675 2.2214414693069955 2.2214414688513706 4.556249894594308e-10 0.0 0.0 0.0 0.0 0.0 0.0
154770.03999999998 1.3877787807814457e-16 -1.5707963267948966 1.5707963267948966 -1.5707963267948966 -1.5707963267948966 0.0 0.0 0.0 0.0 0.0 0.0 0.0 0.0 0.0 0.0 0.0 0.0 0.0 -1.1512442590619146e-26 -0.5442396572688689 -0.7673661111166267 -0.229354796466502 -1.3146049461972196e-11 0.0 -1.511583712148294e-25 -7.14586669994025 -7.145866699940251 -1.0424175499402515 -5.974879480466362e-11 0.0 1.3877787807814457e-16 -1.570796314870016 1.5707963705062866 -1.570796314870016 -1.570796314870016 0.0 0.0 0.0 0.0 0.0 0.0 0.0 -1.151244268742903e-26 -0.5442396402359009 -0.7673661112785339 -0.22935479879379272 -1.3146049353263134e-11 0.0 -1.151244268742903e-26 -0.5442396402359009 -0.7673661112785339 -0.22935479879379272 -1.3146049353263134e-11 0.0 -0.29859999735544024 -0.11235000099231766 0.3136499823461779 2.2214412195942916 2.2214412191386654 6.515886891884209e-08 0.0 0.0 0.0 0.0 0.0 0.0 9.240738067961096e-07 3.476881827858294e-07 4.25314629322205e-08 -2.8475662131755526e-08 6.14740536579255e-08 -2.6501512071418584e-15 -0.29859999998320197 -0.11235000001566994 0.31364999997695675 2.2214414693069955 2.2214414688513706 4.556249894594308e-10 0.0 0.0 0.0 0.0 0.0 0.0
154770.04799999998 1.3877787807814457e-16 -1.5707963267948966 1.5707963267948966 -1.5707963267948966 -1.5707963267948966 0.0 0.0 0.0 0.0 0.0 0.0 0.0 0.0 0.0 0.0 0.0 0.0 0.0 -1.1512442590619146e-26 -0.5442396572688689 -0.7673661111166267 -0.229354796466502 -1.3146049461972196e-11 0.0 -1.511583712148294e-25 -7.14586669994025 -7.145866699940251 -1.0424175499402515 -5.974879480466362e-11 0.0 1.3877787807814457e-16 -1.570796314870016 1.5707963705062866 -1.570796314870016 -1.570796314870016 0.0 0.0 0.0 0.0 0.0 0.0 0.0 -1.151244268742903e-26 -0.5442396402359009 -0.7673661112785339 -0.22935479879379272 -1.3146049353263134e-11 0.0 -1.151244268742903e-26 -0.5442396402359009 -0.7673661112785339 -0.22935479879379272 -1.3146049353263134e-11 0.0 -0.29859999735544024 -0.11235000099231766 0.3136499823461779 2.2214412195942916 2.2214412191386654 6.515886891884209e-08 0.0 0.0 0.0 0.0 0.0 0.0 9.240738067961096e-07 3.476881827858294e-07 4.25314629322205e-08 -2.8475662131755526e-08 6.14740536579255e-08 -2.6501512071418584e-15 -0.29859999998320197 -0.11235000001566994 0.31364999997695675 2.2214414693069955 2.2214414688513706 4.556249894594308e-10 0.0 0.0 0.0 0.0 0.0 0.0
154770.05599999998 1.3877787807814457e-16 -1.5707963267948966 1.5707963267948966 -1.5707963267948966 -1.5707963267948966 0.0 0.0 0.0 0.0 0.0 0.0 0.0 0.0 0.0 0.0 0.0 0.0 0.0 -1.1512442590619146e-26 -0.5442396572688689 -0.7673661111166267 -0.229354796466502 -1.3146049461972196e-11 0.0 -1.511583712148294e-25 -7.14586669994025 -7.145866699940251 -1.0424175499402515 -5.974879480466362e-11 0.0 1.3877787807814457e-16 -1.570796314870016 1.5707963705062866 -1.570796314870016 -1.570796314870016 0.0 0.0 0.0 0.0 0.0 0.0 0.0 -1.151244268742903e-26 -0.5442396402359009 -0.7673661112785339 -0.22935479879379272 -1.3146049353263134e-11 0.0 -1.151244268742903e-26 -0.5442396402359009 -0.7673661112785339 -0.22935479879379272 -1.3146049353263134e-11 0.0 -0.29859999735544024 -0.11235000099231766 0.3136499823461779 2.2214412195942916 2.2214412191386654 6.515886891884209e-08 0.0 0.0 0.0 0.0 0.0 0.0 9.240738067961096e-07 3.476881827858294e-07 4.25314629322205e-08 -2.8475662131755526e-08 6.14740536579255e-08 -2.6501512071418584e-15 -0.29859999998320197 -0.11235000001566994 0.31364999997695675 2.2214414693069955 2.2214414688513706 4.556249894594308e-10 0.0 0.0 0.0 0.0 0.0 0.0
154770.06399999998 1.3877787807814457e-16 -1.5707963267948966 1.5707963267948966 -1.5707963267948966 -1.5707963267948966 0.0 0.0 0.0 0.0 0.0 0.0 0.0 0.0 0.0 0.0 0.0 0.0 0.0 -1.1512442590619146e-26 -0.5442396572688689 -0.7673661111166267 -0.229354796466502 -1.3146049461972196e-11 0.0 -1.511583712148294e-25 -7.14586669994025 -7.145866699940251 -1.0424175499402515 -5.974879480466362e-11 0.0 1.3877787807814457e-16 -1.570796314870016 1.5707963705062866 -1.570796314870016 -1.570796314870016 0.0 0.0 0.0 0.0 0.0 0.0 0.0 -1.151244268742903e-26 -0.5442396402359009 -0.7673661112785339 -0.22935479879379272 -1.3146049353263134e-11 0.0 -1.151244268742903e-26 -0.5442396402359009 -0.7673661112785339 -0.22935479879379272 -1.3146049353263134e-11 0.0 -0.29859999735544024 -0.11235000099231766 0.3136499823461779 2.2214412195942916 2.2214412191386654 6.515886891884209e-08 0.0 0.0 0.0 0.0 0.0 0.0 9.240738067961096e-07 3.476881827858294e-07 4.25314629322205e-08 -2.8475662131755526e-08 6.14740536579255e-08 -2.6501512071418584e-15 -0.29859999998320197 -0.11235000001566994 0.31364999997695675 2.2214414693069955 2.2214414688513706 4.556249894594308e-10 0.0 0.0 0.0 0.0 0.0 0.0
154770.072 1.3877787807814457e-16 -1.5707963267948966 1.5707963267948966 -1.5707963267948966 -1.5707963267948966 0.0 0.0 0.0 0.0 0.0 0.0 0.0 0.0 0.0 0.0 0.0 0.0 0.0 -1.1512442590619146e-26 -0.5442396572688689 -0.7673661111166267 -0.229354796466502 -1.3146049461972196e-11 0.0 -1.511583712148294e-25 -7.14586669994025 -7.145866699940251 -1.0424175499402515 -5.974879480466362e-11 0.0 1.3877787807814457e-16 -1.570796314870016 1.5707963705062866 -1.570796314870016 -1.570796314870016 0.0 0.0 0.0 0.0 0.0 0.0 0.0 -1.151244268742903e-26 -0.5442396402359009 -0.7673661112785339 -0.22935479879379272 -1.3146049353263134e-11 0.0 -1.151244268742903e-26 -0.5442396402359009 -0.7673661112785339 -0.22935479879379272 -1.3146049353263134e-11 0.0 -0.29859999735544024 -0.11235000099231766 0.3136499823461779 2.2214412195942916 2.2214412191386654 6.515886891884209e-08 0.0 0.0 0.0 0.0 0.0 0.0 9.240738067961096e-07 3.476881827858294e-07 4.25314629322205e-08 -2.8475662131755526e-08 6.14740536579255e-08 -2.6501512071418584e-15 -0.29859999998320197 -0.11235000001566994 0.31364999997695675 2.2214414693069955 2.2214414688513706 4.556249894594308e-10 0.0 0.0 0.0 0.0 0.0 0.0
154770.08 1.3877787807814457e-16 -1.5707963267948966 1.5707963267948966 -1.5707963267948966 -1.5707963267948966 0.0 0.0 0.0 0.0 0.0 0.0 0.0 0.0 0.0 0.0 0.0 0.0 0.0 -1.1512442590619146e-26 -0.5442396572688689 -0.7673661111166267 -0.229354796466502 -1.3146049461972196e-11 0.0 -1.511583712148294e-25 -7.14586669994025 -7.145866699940251 -1.0424175499402515 -5.974879480466362e-11 0.0 1.3877787807814457e-16 -1.570796314870016 1.5707963705062866 -1.570796314870016 -1.570796314870016 0.0 0.0 0.0 0.0 0.0 0.0 0.0 -1.151244268742903e-26 -0.5442396402359009 -0.7673661112785339 -0.22935479879379272 -1.3146049353263134e-11 0.0 -1.151244268742903e-26 -0.5442396402359009 -0.7673661112785339 -0.22935479879379272 -1.3146049353263134e-11 0.0 -0.29859999735544024 -0.11235000099231766 0.3136499823461779 2.2214412195942916 2.2214412191386654 6.515886891884209e-08 0.0 0.0 0.0 0.0 0.0 0.0 9.240738067961096e-07 3.476881827858294e-07 4.25314629322205e-08 -2.8475662131755526e-08 6.14740536579255e-08 -2.6501512071418584e-15 -0.29859999998320197 -0.11235000001566994 0.31364999997695675 2.2214414693069955 2.2214414688513706 4.556249894594308e-10 0.0 0.0 0.0 0.0 0.0 0.0
154770.088 1.3877787807814457e-16 -1.5707963267948966 1.5707963267948966 -1.5707963267948966 -1.5707963267948966 0.0 0.0 0.0 0.0 0.0 0.0 0.0 0.0 0.0 0.0 0.0 0.0 0.0 -1.1512442590619146e-26 -0.5442396572688689 -0.7673661111166267 -0.229354796466502 -1.3146049461972196e-11 0.0 -1.511583712148294e-25 -7.14586669994025 -7.145866699940251 -1.0424175499402515 -5.974879480466362e-11 0.0 1.3877787807814457e-16 -1.570796314870016 1.5707963705062866 -1.570796314870016 -1.570796314870016 0.0 0.0 0.0 0.0 0.0 0.0 0.0 -1.151244268742903e-26 -0.5442396402359009 -0.7673661112785339 -0.22935479879379272 -1.3146049353263134e-11 0.0 -1.151244268742903e-26 -0.5442396402359009 -0.7673661112785339 -0.22935479879379272 -1.3146049353263134e-11 0.0 -0.29859999735544024 -0.11235000099231766 0.3136499823461779 2.2214412195942916 2.2214412191386654 6.515886891884209e-08 0.0 0.0 0.0 0.0 0.0 0.0 9.240738067961096e-07 3.476881827858294e-07 4.25314629322205e-08 -2.8475662131755526e-08 6.14740536579255e-08 -2.6501512071418584e-15 -0.29859999998320197 -0.11235000001566994 0.31364999997695675 2.2214414693069955 2.2214414688513706 4.556249894594308e-10 0.0 0.0 0.0 0.0 0.0 0.0
154770.096 1.3877787807814457e-16 -1.5707963267948966 1.5707963267948966 -1.5707963267948966 -1.5707963267948966 0.0 0.0 0.0 0.0 0.0 0.0 0.0 0.0 0.0 0.0 0.0 0.0 0.0 -1.1512442590619146e-26 -0.5442396572688689 -0.7673661111166267 -0.229354796466502 -1.3146049461972196e-11 0.0 -1.511583712148294e-25 -7.14586669994025 -7.145866699940251 -1.0424175499402515 -5.974879480466362e-11 0.0 1.3877787807814457e-16 -1.570796314870016 1.5707963705062866 -1.570796314870016 -1.570796314870016 0.0 0.0 0.0 0.0 0.0 0.0 0.0 -1.151244268742903e-26 -0.5442396402359009 -0.7673661112785339 -0.22935479879379272 -1.3146049353263134e-11 0.0 -1.151244268742903e-26 -0.5442396402359009 -0.7673661112785339 -0.22935479879379272 -1.3146049353263134e-11 0.0 -0.29859999735544024 -0.11235000099231766 0.3136499823461779 2.2214412195942916 2.2214412191386654 6.515886891884209e-08 0.0 0.0 0.0 0.0 0.0 0.0 9.240738067961096e-07 3.476881827858294e-07 4.25314629322205e-08 -2.8475662131755526e-08 6.14740536579255e-08 -2.6501512071418584e-15 -0.29859999998320197 -0.11235000001566994 0.31364999997695675 2.2214414693069955 2.2214414688513706 4.556249894594308e-10 0.0 0.0 0.0 0.0 0.0 0.0
154770.104 1.3877787807814457e-16 -1.5707963267948966 1.5707963267948966 -1.5707963267948966 -1.5707963267948966 0.0 0.0 0.0 0.0 0.0 0.0 0.0 0.0 0.0 0.0 0.0 0.0 0.0 -1.1512442590619146e-26 -0.5442396572688689 -0.7673661111166267 -0.229354796466502 -1.3146049461972196e-11 0.0 -1.511583712148294e-25 -7.14586669994025 -7.145866699940251 -1.0424175499402515 -5.974879480466362e-11 0.0 1.3877787807814457e-16 -1.570796314870016 1.5707963705062866 -1.570796314870016 -1.570796314870016 0.0 0.0 0.0 0.0 0.0 0.0 0.0 -1.151244268742903e-26 -0.5442396402359009 -0.7673661112785339 -0.22935479879379272 -1.3146049353263134e-11 0.0 -1.151244268742903e-26 -0.5442396402359009 -0.7673661112785339 -0.22935479879379272 -1.3146049353263134e-11 0.0 -0.29859999735544024 -0.11235000099231766 0.3136499823461779 2.2214412195942916 2.2214412191386654 6.515886891884209e-08 0.0 0.0 0.0 0.0 0.0 0.0 9.240738067961096e-07 3.476881827858294e-07 4.25314629322205e-08 -2.8475662131755526e-08 6.14740536579255e-08 -2.6501512071418584e-15 -0.29859999998320197 -0.11235000001566994 0.31364999997695675 2.2214414693069955 2.2214414688513706 4.556249894594308e-10 0.0 0.0 0.0 0.0 0.0 0.0
154770.112 1.3877787807814457e-16 -1.5707963267948966 1.5707963267948966 -1.5707963267948966 -1.5707963267948966 0.0 0.0 0.0 0.0 0.0 0.0 0.0 0.0 0.0 0.0 0.0 0.0 0.0 -1.1512442590619146e-26 -0.5442396572688689 -0.7673661111166267 -0.229354796466502 -1.3146049461972196e-11 0.0 -1.511583712148294e-25 -7.14586669994025 -7.145866699940251 -1.0424175499402515 -5.974879480466362e-11 0.0 1.3877787807814457e-16 -1.570796314870016 1.5707963705062866 -1.570796314870016 -1.570796314870016 0.0 0.0 0.0 0.0 0.0 0.0 0.0 -1.151244268742903e-26 -0.5442396402359009 -0.7673661112785339 -0.22935479879379272 -1.3146049353263134e-11 0.0 -1.151244268742903e-26 -0.5442396402359009 -0.7673661112785339 -0.22935479879379272 -1.3146049353263134e-11 0.0 -0.29859999735544024 -0.11235000099231766 0.3136499823461779 2.2214412195942916 2.2214412191386654 6.515886891884209e-08 0.0 0.0 0.0 0.0 0.0 0.0 9.240738067961096e-07 3.476881827858294e-07 4.25314629322205e-08 -2.8475662131755526e-08 6.14740536579255e-08 -2.6501512071418584e-15 -0.29859999998320197 -0.11235000001566994 0.31364999997695675 2.2214414693069955 2.2214414688513706 4.556249894594308e-10 0.0 0.0 0.0 0.0 0.0 0.0
154770.12 1.3877787807814457e-16 -1.5707963267948966 1.5707963267948966 -1.5707963267948966 -1.5707963267948966 0.0 0.0 0.0 0.0 0.0 0.0 0.0 0.0 0.0 0.0 0.0 0.0 0.0 -1.1512442590619146e-26 -0.5442396572688689 -0.7673661111166267 -0.229354796466502 -1.3146049461972196e-11 0.0 -1.511583712148294e-25 -7.14586669994025 -7.145866699940251 -1.0424175499402515 -5.974879480466362e-11 0.0 1.3877787807814457e-16 -1.570796314870016 1.5707963705062866 -1.570796314870016 -1.570796314870016 0.0 0.0 0.0 0.0 0.0 0.0 0.0 -1.151244268742903e-26 -0.5442396402359009 -0.7673661112785339 -0.22935479879379272 -1.3146049353263134e-11 0.0 -1.151244268742903e-26 -0.5442396402359009 -0.7673661112785339 -0.22935479879379272 -1.3146049353263134e-11 0.0 -0.29859999735544024 -0.11235000099231766 0.3136499823461779 2.2214412195942916 2.2214412191386654 6.515886891884209e-08 0.0 0.0 0.0 0.0 0.0 0.0 9.240738067961096e-07 3.476881827858294e-07 4.25314629322205e-08 -2.8475662131755526e-08 6.14740536579255e-08 -2.6501512071418584e-15 -0.29859999998320197 -0.11235000001566994 0.31364999997695675 2.2214414693069955 2.2214414688513706 4.556249894594308e-10 0.0 0.0 0.0 0.0 0.0 0.0
154770.128 1.3877787807814457e-16 -1.5707963267948966 1.5707963267948966 -1.5707963267948966 -1.5707963267948966 0.0 0.0 0.0 0.0 0.0 0.0 0.0 0.0 0.0 0.0 0.0 0.0 0.0 -1.1512442590619146e-26 -0.5442396572688689 -0.7673661111166267 -0.229354796466502 -1.3146049461972196e-11 0.0 -1.511583712148294e-25 -7.14586669994025 -7.145866699940251 -1.0424175499402515 -5.974879480466362e-11 0.0 1.3877787807814457e-16 -1.570796314870016 1.5707963705062866 -1.570796314870016 -1.570796314870016 0.0 0.0 0.0 0.0 0.0 0.0 0.0 -1.151244268742903e-26 -0.5442396402359009 -0.7673661112785339 -0.22935479879379272 -1.3146049353263134e-11 0.0 -1.151244268742903e-26 -0.5442396402359009 -0.7673661112785339 -0.22935479879379272 -1.3146049353263134e-11 0.0 -0.29859999735544024 -0.11235000099231766 0.3136499823461779 2.2214412195942916 2.2214412191386654 6.515886891884209e-08 0.0 0.0 0.0 0.0 0.0 0.0 9.240738067961096e-07 3.476881827858294e-07 4.25314629322205e-08 -2.8475662131755526e-08 6.14740536579255e-08 -2.6501512071418584e-15 -0.29859999998320197 -0.11235000001566994 0.31364999997695675 2.2214414693069955 2.2214414688513706 4.556249894594308e-10 0.0 0.0 0.0 0.0 0.0 0.0
154770.136 1.3877787807814457e-16 -1.5707963267948966 1.5707963267948966 -1.5707963267948966 -1.5707963267948966 0.0 0.0 0.0 0.0 0.0 0.0 0.0 0.0 0.0 0.0 0.0 0.0 0.0 -1.1512442590619146e-26 -0.5442396572688689 -0.7673661111166267 -0.229354796466502 -1.3146049461972196e-11 0.0 -1.511583712148294e-25 -7.14586669994025 -7.145866699940251 -1.0424175499402515 -5.974879480466362e-11 0.0 1.3877787807814457e-16 -1.570796314870016 1.5707963705062866 -1.570796314870016 -1.570796314870016 0.0 0.0 0.0 0.0 0.0 0.0 0.0 -1.151244268742903e-26 -0.5442396402359009 -0.7673661112785339 -0.22935479879379272 -1.3146049353263134e-11 0.0 -1.151244268742903e-26 -0.5442396402359009 -0.7673661112785339 -0.22935479879379272 -1.3146049353263134e-11 0.0 -0.29859999735544024 -0.11235000099231766 0.3136499823461779 2.2214412195942916 2.2214412191386654 6.515886891884209e-08 0.0 0.0 0.0 0.0 0.0 0.0 9.240738067961096e-07 3.476881827858294e-07 4.25314629322205e-08 -2.8475662131755526e-08 6.14740536579255e-08 -2.6501512071418584e-15 -0.29859999998320197 -0.11235000001566994 0.31364999997695675 2.2214414693069955 2.2214414688513706 4.556249894594308e-10 0.0 0.0 0.0 0.0 0.0 0.0
154770.144 1.3877787807814457e-16 -1.5707963267948966 1.5707963267948966 -1.5707963267948966 -1.5707963267948966 0.0 0.0 0.0 0.0 0.0 0.0 0.0 0.0 0.0 0.0 0.0 0.0 0.0 -1.1512442590619146e-26 -0.5442396572688689 -0.7673661111166267 -0.229354796466502 -1.3146049461972196e-11 0.0 -1.511583712148294e-25 -7.14586669994025 -7.145866699940251 -1.0424175499402515 -5.974879480466362e-11 0.0 1.3877787807814457e-16 -1.570796314870016 1.5707963705062866 -1.570796314870016 -1.570796314870016 0.0 0.0 0.0 0.0 0.0 0.0 0.0 -1.151244268742903e-26 -0.5442396402359009 -0.7673661112785339 -0.22935479879379272 -1.3146049353263134e-11 0.0 -1.151244268742903e-26 -0.5442396402359009 -0.7673661112785339 -0.22935479879379272 -1.3146049353263134e-11 0.0 -0.29859999735544024 -0.11235000099231766 0.3136499823461779 2.2214412195942916 2.2214412191386654 6.515886891884209e-08 0.0 0.0 0.0 0.0 0.0 0.0 9.240738067961096e-07 3.476881827858294e-07 4.25314629322205e-08 -2.8475662131755526e-08 6.14740536579255e-08 -2.6501512071418584e-15 -0.29859999998320197 -0.11235000001566994 0.31364999997695675 2.2214414693069955 2.2214414688513706 4.556249894594308e-10 0.0 0.0 0.0 0.0 0.0 0.0
154770.152 1.3877787807814457e-16 -1.5707963267948966 1.5707963267948966 -1.5707963267948966 -1.5707963267948966 0.0 0.0 0.0 0.0 0.0 0.0 0.0 0.0 0.0 0.0 0.0 0.0 0.0 -1.1512442590619146e-26 -0.5442396572688689 -0.7673661111166267 -0.229354796466502 -1.3146049461972196e-11 0.0 -1.511583712148294e-25 -7.14586669994025 -7.145866699940251 -1.0424175499402515 -5.974879480466362e-11 0.0 1.3877787807814457e-16 -1.570796314870016 1.5707963705062866 -1.570796314870016 -1.570796314870016 0.0 0.0 0.0 0.0 0.0 0.0 0.0 -1.151244268742903e-26 -0.5442396402359009 -0.7673661112785339 -0.22935479879379272 -1.3146049353263134e-11 0.0 -1.151244268742903e-26 -0.5442396402359009 -0.7673661112785339 -0.22935479879379272 -1.3146049353263134e-11 0.0 -0.29859999735544024 -0.11235000099231766 0.3136499823461779 2.2214412195942916 2.2214412191386654 6.515886891884209e-08 0.0 0.0 0.0 0.0 0.0 0.0 9.240738067961096e-07 3.476881827858294e-07 4.25314629322205e-08 -2.8475662131755526e-08 6.14740536579255e-08 -2.6501512071418584e-15 -0.29859999998320197 -0.11235000001566994 0.31364999997695675 2.2214414693069955 2.2214414688513706 4.556249894594308e-10 0.0 0.0 0.0 0.0 0.0 0.0
154770.16 1.3877787807814457e-16 -1.5707963267948966 1.5707963267948966 -1.5707963267948966 -1.5707963267948966 0.0 0.0 0.0 0.0 0.0 0.0 0.0 0.0 0.0 0.0 0.0 0.0 0.0 -1.1512442590619146e-26 -0.5442396572688689 -0.7673661111166267 -0.229354796466502 -1.3146049461972196e-11 0.0 -1.511583712148294e-25 -7.14586669994025 -7.145866699940251 -1.0424175499402515 -5.974879480466362e-11 0.0 1.3877787807814457e-16 -1.570796314870016 1.5707963705062866 -1.570796314870016 -1.570796314870016 0.0 0.0 0.0 0.0 0.0 0.0 0.0 -1.151244268742903e-26 -0.5442396402359009 -0.7673661112785339 -0.22935479879379272 -1.3146049353263134e-11 0.0 -1.151244268742903e-26 -0.5442396402359009 -0.7673661112785339 -0.22935479879379272 -1.3146049353263134e-11 0.0 -0.29859999735544024 -0.11235000099231766 0.3136499823461779 2.2214412195942916 2.2214412191386654 6.515886891884209e-08 0.0 0.0 0.0 0.0 0.0 0.0 9.240738067961096e-07 3.476881827858294e-07 4.25314629322205e-08 -2.8475662131755526e-08 6.14740536579255e-08 -2.6501512071418584e-15 -0.29859999998320197 -0.11235000001566994 0.31364999997695675 2.2214414693069955 2.2214414688513706 4.556249894594308e-10 0.0 0.0 0.0 0.0 0.0 0.0
154770.168 1.3877787807814457e-16 -1.5707963267948966 1.5707963267948966 -1.5707963267948966 -1.5707963267948966 0.0 0.0 0.0 0.0 0.0 0.0 0.0 0.0 0.0 0.0 0.0 0.0 0.0 -1.1512442590619146e-26 -0.5442396572688689 -0.7673661111166267 -0.229354796466502 -1.3146049461972196e-11 0.0 -1.511583712148294e-25 -7.14586669994025 -7.145866699940251 -1.0424175499402515 -5.974879480466362e-11 0.0 1.3877787807814457e-16 -1.570796314870016 1.5707963705062866 -1.570796314870016 -1.570796314870016 0.0 0.0 0.0 0.0 0.0 0.0 0.0 -1.151244268742903e-26 -0.5442396402359009 -0.7673661112785339 -0.22935479879379272 -1.3146049353263134e-11 0.0 -1.151244268742903e-26 -0.5442396402359009 -0.7673661112785339 -0.22935479879379272 -1.3146049353263134e-11 0.0 -0.29859999735544024 -0.11235000099231766 0.3136499823461779 2.2214412195942916 2.2214412191386654 6.515886891884209e-08 0.0 0.0 0.0 0.0 0.0 0.0 9.240738067961096e-07 3.476881827858294e-07 4.25314629322205e-08 -2.8475662131755526e-08 6.14740536579255e-08 -2.6501512071418584e-15 -0.29859999998320197 -0.11235000001566994 0.31364999997695675 2.2214414693069955 2.2214414688513706 4.556249894594308e-10 0.0 0.0 0.0 0.0 0.0 0.0
154770.176 1.3877787807814457e-16 -1.5707963267948966 1.5707963267948966 -1.5707963267948966 -1.5707963267948966 0.0 0.0 0.0 0.0 0.0 0.0 0.0 0.0 0.0 0.0 0.0 0.0 0.0 -1.1512442590619146e-26 -0.5442396572688689 -0.7673661111166267 -0.229354796466502 -1.3146049461972196e-11 0.0 -1.511583712148294e-25 -7.14586669994025 -7.145866699940251 -1.0424175499402515 -5.974879480466362e-11 0.0 1.3877787807814457e-16 -1.570796314870016 1.5707963705062866 -1.570796314870016 -1.570796314870016 0.0 0.0 0.0 0.0 0.0 0.0 0.0 -1.151244268742903e-26 -0.5442396402359009 -0.7673661112785339 -0.22935479879379272 -1.3146049353263134e-11 0.0 -1.151244268742903e-26 -0.5442396402359009 -0.7673661112785339 -0.22935479879379272 -1.3146049353263134e-11 0.0 -0.29859999735544024 -0.11235000099231766 0.3136499823461779 2.2214412195942916 2.2214412191386654 6.515886891884209e-08 0.0 0.0 0.0 0.0 0.0 0.0 9.240738067961096e-07 3.476881827858294e-07 4.25314629322205e-08 -2.8475662131755526e-08 6.14740536579255e-08 -2.6501512071418584e-15 -0.29859999998320197 -0.11235000001566994 0.31364999997695675 2.2214414693069955 2.2214414688513706 4.556249894594308e-10 0.0 0.0 0.0 0.0 0.0 0.0
154770.18399999998 1.3877787807814457e-16 -1.5707963267948966 1.5707963267948966 -1.5707963267948966 -1.5707963267948966 0.0 0.0 0.0 0.0 0.0 0.0 0.0 0.0 0.0 0.0 0.0 0.0 0.0 -1.1512442590619146e-26 -0.5442396572688689 -0.7673661111166267 -0.229354796466502 -1.3146049461972196e-11 0.0 -1.511583712148294e-25 -7.14586669994025 -7.145866699940251 -1.0424175499402515 -5.974879480466362e-11 0.0 1.3877787807814457e-16 -1.570796314870016 1.5707963705062866 -1.570796314870016 -1.570796314870016 0.0 0.0 0.0 0.0 0.0 0.0 0.0 -1.151244268742903e-26 -0.5442396402359009 -0.7673661112785339 -0.22935479879379272 -1.3146049353263134e-11 0.0 -1.151244268742903e-26 -0.5442396402359009 -0.7673661112785339 -0.22935479879379272 -1.3146049353263134e-11 0.0 -0.29859999735544024 -0.11235000099231766 0.3136499823461779 2.2214412195942916 2.2214412191386654 6.515886891884209e-08 0.0 0.0 0.0 0.0 0.0 0.0 9.240738067961096e-07 3.476881827858294e-07 4.25314629322205e-08 -2.8475662131755526e-08 6.14740536579255e-08 -2.6501512071418584e-15 -0.29859999998320197 -0.11235000001566994 0.31364999997695675 2.2214414693069955 2.2214414688513706 4.556249894594308e-10 0.0 0.0 0.0 0.0 0.0 0.0
154770.19199999998 1.3877787807814457e-16 -1.5707963267948966 1.5707963267948966 -1.5707963267948966 -1.5707963267948966 0.0 0.0 0.0 0.0 0.0 0.0 0.0 0.0 0.0 0.0 0.0 0.0 0.0 -1.1512442590619146e-26 -0.5442396572688689 -0.7673661111166267 -0.229354796466502 -1.3146049461972196e-11 0.0 -1.511583712148294e-25 -7.14586669994025 -7.145866699940251 -1.0424175499402515 -5.974879480466362e-11 0.0 1.3877787807814457e-16 -1.570796314870016 1.5707963705062866 -1.570796314870016 -1.570796314870016 0.0 0.0 0.0 0.0 0.0 0.0 0.0 -1.151244268742903e-26 -0.5442396402359009 -0.7673661112785339 -0.22935479879379272 -1.3146049353263134e-11 0.0 -1.151244268742903e-26 -0.5442396402359009 -0.7673661112785339 -0.22935479879379272 -1.3146049353263134e-11 0.0 -0.29859999735544024 -0.11235000099231766 0.3136499823461779 2.2214412195942916 2.2214412191386654 6.515886891884209e-08 0.0 0.0 0.0 0.0 0.0 0.0 9.240738067961096e-07 3.476881827858294e-07 4.25314629322205e-08 -2.8475662131755526e-08 6.14740536579255e-08 -2.6501512071418584e-15 -0.29859999998320197 -0.11235000001566994 0.31364999997695675 2.2214414693069955 2.2214414688513706 4.556249894594308e-10 0.0 0.0 0.0 0.0 0.0 0.0
154770.19999999998 1.3877787807814457e-16 -1.5707963267948966 1.5707963267948966 -1.5707963267948966 -1.5707963267948966 0.0 0.0 0.0 0.0 0.0 0.0 0.0 0.0 0.0 0.0 0.0 0.0 0.0 -1.1512442590619146e-26 -0.5442396572688689 -0.7673661111166267 -0.229354796466502 -1.3146049461972196e-11 0.0 -1.511583712148294e-25 -7.14586669994025 -7.145866699940251 -1.0424175499402515 -5.974879480466362e-11 0.0 1.3877787807814457e-16 -1.570796314870016 1.5707963705062866 -1.570796314870016 -1.570796314870016 0.0 0.0 0.0 0.0 0.0 0.0 0.0 -1.151244268742903e-26 -0.5442396402359009 -0.7673661112785339 -0.22935479879379272 -1.3146049353263134e-11 0.0 -1.151244268742903e-26 -0.5442396402359009 -0.7673661112785339 -0.22935479879379272 -1.3146049353263134e-11 0.0 -0.29859999735544024 -0.11235000099231766 0.3136499823461779 2.2214412195942916 2.2214412191386654 6.515886891884209e-08 0.0 0.0 0.0 0.0 0.0 0.0 9.240738067961096e-07 3.476881827858294e-07 4.25314629322205e-08 -2.8475662131755526e-08 6.14740536579255e-08 -2.6501512071418584e-15 -0.29859999998320197 -0.11235000001566994 0.31364999997695675 2.2214414693069955 2.2214414688513706 4.556249894594308e-10 0.0 0.0 0.0 0.0 0.0 0.0
154770.20799999998 1.3877787807814457e-16 -1.5707963267948966 1.5707963267948966 -1.5707963267948966 -1.5707963267948966 0.0 0.0 0.0 0.0 0.0 0.0 0.0 0.0 0.0 0.0 0.0 0.0 0.0 -1.1512442590619146e-26 -0.5442396572688689 -0.7673661111166267 -0.229354796466502 -1.3146049461972196e-11 0.0 -1.511583712148294e-25 -7.14586669994025 -7.145866699940251 -1.0424175499402515 -5.974879480466362e-11 0.0 1.3877787807814457e-16 -1.570796314870016 1.5707963705062866 -1.570796314870016 -1.570796314870016 0.0 0.0 0.0 0.0 0.0 0.0 0.0 -1.151244268742903e-26 -0.5442396402359009 -0.7673661112785339 -0.22935479879379272 -1.3146049353263134e-11 0.0 -1.151244268742903e-26 -0.5442396402359009 -0.7673661112785339 -0.22935479879379272 -1.3146049353263134e-11 0.0 -0.29859999735544024 -0.11235000099231766 0.3136499823461779 2.2214412195942916 2.2214412191386654 6.515886891884209e-08 0.0 0.0 0.0 0.0 0.0 0.0 9.240738067961096e-07 3.476881827858294e-07 4.25314629322205e-08 -2.8475662131755526e-08 6.14740536579255e-08 -2.6501512071418584e-15 -0.29859999998320197 -0.11235000001566994 0.31364999997695675 2.2214414693069955 2.2214414688513706 4.556249894594308e-10 0.0 0.0 0.0 0.0 0.0 0.0
154770.216 1.3877787807814457e-16 -1.5707963267948966 1.5707963267948966 -1.5707963267948966 -1.5707963267948966 0.0 0.0 0.0 0.0 0.0 0.0 0.0 0.0 0.0 0.0 0.0 0.0 0.0 -1.1512442590619146e-26 -0.5442396572688689 -0.7673661111166267 -0.229354796466502 -1.3146049461972196e-11 0.0 -1.511583712148294e-25 -7.14586669994025 -7.145866699940251 -1.0424175499402515 -5.974879480466362e-11 0.0 1.3877787807814457e-16 -1.570796314870016 1.5707963705062866 -1.570796314870016 -1.570796314870016 0.0 0.0 0.0 0.0 0.0 0.0 0.0 -1.151244268742903e-26 -0.5442396402359009 -0.7673661112785339 -0.22935479879379272 -1.3146049353263134e-11 0.0 -1.151244268742903e-26 -0.5442396402359009 -0.7673661112785339 -0.22935479879379272 -1.3146049353263134e-11 0.0 -0.29859999735544024 -0.11235000099231766 0.3136499823461779 2.2214412195942916 2.2214412191386654 6.515886891884209e-08 0.0 0.0 0.0 0.0 0.0 0.0 9.240738067961096e-07 3.476881827858294e-07 4.25314629322205e-08 -2.8475662131755526e-08 6.14740536579255e-08 -2.6501512071418584e-15 -0.29859999998320197 -0.11235000001566994 0.31364999997695675 2.2214414693069955 2.2214414688513706 4.556249894594308e-10 0.0 0.0 0.0 0.0 0.0 0.0
154770.224 1.3877787807814457e-16 -1.5707963267948966 1.5707963267948966 -1.5707963267948966 -1.5707963267948966 0.0 0.0 0.0 0.0 0.0 0.0 0.0 0.0 0.0 0.0 0.0 0.0 0.0 -1.1512442590619146e-26 -0.5442396572688689 -0.7673661111166267 -0.229354796466502 -1.3146049461972196e-11 0.0 -1.511583712148294e-25 -7.14586669994025 -7.145866699940251 -1.0424175499402515 -5.974879480466362e-11 0.0 1.3877787807814457e-16 -1.570796314870016 1.5707963705062866 -1.570796314870016 -1.570796314870016 0.0 0.0 0.0 0.0 0.0 0.0 0.0 -1.151244268742903e-26 -0.5442396402359009 -0.7673661112785339 -0.22935479879379272 -1.3146049353263134e-11 0.0 -1.151244268742903e-26 -0.5442396402359009 -0.7673661112785339 -0.22935479879379272 -1.3146049353263134e-11 0.0 -0.29859999735544024 -0.11235000099231766 0.3136499823461779 2.2214412195942916 2.2214412191386654 6.515886891884209e-08 0.0 0.0 0.0 0.0 0.0 0.0 9.240738067961096e-07 3.476881827858294e-07 4.25314629322205e-08 -2.8475662131755526e-08 6.14740536579255e-08 -2.6501512071418584e-15 -0.29859999998320197 -0.11235000001566994 0.31364999997695675 2.2214414693069955 2.2214414688513706 4.556249894594308e-10 0.0 0.0 0.0 0.0 0.0 0.0
154770.232 1.3877787807814457e-16 -1.5707963267948966 1.5707963267948966 -1.5707963267948966 -1.5707963267948966 0.0 0.0 0.0 0.0 0.0 0.0 0.0 0.0 0.0 0.0 0.0 0.0 0.0 -1.1512442590619146e-26 -0.5442396572688689 -0.7673661111166267 -0.229354796466502 -1.3146049461972196e-11 0.0 -1.511583712148294e-25 -7.14586669994025 -7.145866699940251 -1.0424175499402515 -5.974879480466362e-11 0.0 1.3877787807814457e-16 -1.570796314870016 1.5707963705062866 -1.570796314870016 -1.570796314870016 0.0 0.0 0.0 0.0 0.0 0.0 0.0 -1.151244268742903e-26 -0.5442396402359009 -0.7673661112785339 -0.22935479879379272 -1.3146049353263134e-11 0.0 -1.151244268742903e-26 -0.5442396402359009 -0.7673661112785339 -0.22935479879379272 -1.3146049353263134e-11 0.0 -0.29859999735544024 -0.11235000099231766 0.3136499823461779 2.2214412195942916 2.2214412191386654 6.515886891884209e-08 0.0 0.0 0.0 0.0 0.0 0.0 9.240738067961096e-07 3.476881827858294e-07 4.25314629322205e-08 -2.8475662131755526e-08 6.14740536579255e-08 -2.6501512071418584e-15 -0.29859999998320197 -0.11235000001566994 0.31364999997695675 2.2214414693069955 2.2214414688513706 4.556249894594308e-10 0.0 0.0 0.0 0.0 0.0 0.0
154770.24 1.3877787807814457e-16 -1.5707963267948966 1.5707963267948966 -1.5707963267948966 -1.5707963267948966 0.0 0.0 0.0 0.0 0.0 0.0 0.0 0.0 0.0 0.0 0.0 0.0 0.0 -1.1512442590619146e-26 -0.5442396572688689 -0.7673661111166267 -0.229354796466502 -1.3146049461972196e-11 0.0 -1.511583712148294e-25 -7.14586669994025 -7.145866699940251 -1.0424175499402515 -5.974879480466362e-11 0.0 1.3877787807814457e-16 -1.570796314870016 1.5707963705062866 -1.570796314870016 -1.570796314870016 0.0 0.0 0.0 0.0 0.0 0.0 0.0 -1.151244268742903e-26 -0.5442396402359009 -0.7673661112785339 -0.22935479879379272 -1.3146049353263134e-11 0.0 -1.151244268742903e-26 -0.5442396402359009 -0.7673661112785339 -0.22935479879379272 -1.3146049353263134e-11 0.0 -0.29859999735544024 -0.11235000099231766 0.3136499823461779 2.2214412195942916 2.2214412191386654 6.515886891884209e-08 0.0 0.0 0.0 0.0 0.0 0.0 9.240738067961096e-07 3.476881827858294e-07 4.25314629322205e-08 -2.8475662131755526e-08 6.14740536579255e-08 -2.6501512071418584e-15 -0.29859999998320197 -0.11235000001566994 0.31364999997695675 2.2214414693069955 2.2214414688513706 4.556249894594308e-10 0.0 0.0 0.0 0.0 0.0 0.0
154770.248 1.3877787807814457e-16 -1.5707963267948966 1.5707963267948966 -1.5707963267948966 -1.5707963267948966 0.0 0.0 0.0 0.0 0.0 0.0 0.0 0.0 0.0 0.0 0.0 0.0 0.0 -1.1512442590619146e-26 -0.5442396572688689 -0.7673661111166267 -0.229354796466502 -1.3146049461972196e-11 0.0 -1.511583712148294e-25 -7.14586669994025 -7.145866699940251 -1.0424175499402515 -5.974879480466362e-11 0.0 1.3877787807814457e-16 -1.570796314870016 1.5707963705062866 -1.570796314870016 -1.570796314870016 0.0 0.0 0.0 0.0 0.0 0.0 0.0 -1.151244268742903e-26 -0.5442396402359009 -0.7673661112785339 -0.22935479879379272 -1.3146049353263134e-11 0.0 -1.151244268742903e-26 -0.5442396402359009 -0.7673661112785339 -0.22935479879379272 -1.3146049353263134e-11 0.0 -0.29859999735544024 -0.11235000099231766 0.3136499823461779 2.2214412195942916 2.2214412191386654 6.515886891884209e-08 0.0 0.0 0.0 0.0 0.0 0.0 9.240738067961096e-07 3.476881827858294e-07 4.25314629322205e-08 -2.8475662131755526e-08 6.14740536579255e-08 -2.6501512071418584e-15 -0.29859999998320197 -0.11235000001566994 0.31364999997695675 2.2214414693069955 2.2214414688513706 4.556249894594308e-10 0.0 0.0 0.0 0.0 0.0 0.0
154770.256 1.3877787807814457e-16 -1.5707963267948966 1.5707963267948966 -1.5707963267948966 -1.5707963267948966 0.0 0.0 0.0 0.0 0.0 0.0 0.0 0.0 0.0 0.0 0.0 0.0 0.0 -1.1512442590619146e-26 -0.5442396572688689 -0.7673661111166267 -0.229354796466502 -1.3146049461972196e-11 0.0 -1.511583712148294e-25 -7.14586669994025 -7.145866699940251 -1.0424175499402515 -5.974879480466362e-11 0.0 1.3877787807814457e-16 -1.570796314870016 1.5707963705062866 -1.570796314870016 -1.570796314870016 0.0 0.0 0.0 0.0 0.0 0.0 0.0 -1.151244268742903e-26 -0.5442396402359009 -0.7673661112785339 -0.22935479879379272 -1.3146049353263134e-11 0.0 -1.151244268742903e-26 -0.5442396402359009 -0.7673661112785339 -0.22935479879379272 -1.3146049353263134e-11 0.0 -0.29859999735544024 -0.11235000099231766 0.3136499823461779 2.2214412195942916 2.2214412191386654 6.515886891884209e-08 0.0 0.0 0.0 0.0 0.0 0.0 9.240738067961096e-07 3.476881827858294e-07 4.25314629322205e-08 -2.8475662131755526e-08 6.14740536579255e-08 -2.6501512071418584e-15 -0.29859999998320197 -0.11235000001566994 0.31364999997695675 2.2214414693069955 2.2214414688513706 4.556249894594308e-10 0.0 0.0 0.0 0.0 0.0 0.0
154770.264 1.3877787807814457e-16 -1.5707963267948966 1.5707963267948966 -1.5707963267948966 -1.5707963267948966 0.0 0.0 0.0 0.0 0.0 0.0 0.0 0.0 0.0 0.0 0.0 0.0 0.0 -1.1512442590619146e-26 -0.5442396572688689 -0.7673661111166267 -0.229354796466502 -1.3146049461972196e-11 0.0 -1.511583712148294e-25 -7.14586669994025 -7.145866699940251 -1.0424175499402515 -5.974879480466362e-11 0.0 1.3877787807814457e-16 -1.570796314870016 1.5707963705062866 -1.570796314870016 -1.570796314870016 0.0 0.0 0.0 0.0 0.0 0.0 0.0 -1.151244268742903e-26 -0.5442396402359009 -0.7673661112785339 -0.22935479879379272 -1.3146049353263134e-11 0.0 -1.151244268742903e-26 -0.5442396402359009 -0.7673661112785339 -0.22935479879379272 -1.3146049353263134e-11 0.0 -0.29859999735544024 -0.11235000099231766 0.3136499823461779 2.2214412195942916 2.2214412191386654 6.515886891884209e-08 0.0 0.0 0.0 0.0 0.0 0.0 9.240738067961096e-07 3.476881827858294e-07 4.25314629322205e-08 -2.8475662131755526e-08 6.14740536579255e-08 -2.6501512071418584e-15 -0.29859999998320197 -0.11235000001566994 0.31364999997695675 2.2214414693069955 2.2214414688513706 4.556249894594308e-10 0.0 0.0 0.0 0.0 0.0 0.0
154770.272 1.3877787807814457e-16 -1.5707963267948966 1.5707963267948966 -1.5707963267948966 -1.5707963267948966 0.0 0.0 0.0 0.0 0.0 0.0 0.0 0.0 0.0 0.0 0.0 0.0 0.0 -1.1512442590619146e-26 -0.5442396572688689 -0.7673661111166267 -0.229354796466502 -1.3146049461972196e-11 0.0 -1.511583712148294e-25 -7.14586669994025 -7.145866699940251 -1.0424175499402515 -5.974879480466362e-11 0.0 1.3877787807814457e-16 -1.570796314870016 1.5707963705062866 -1.570796314870016 -1.570796314870016 0.0 0.0 0.0 0.0 0.0 0.0 0.0 -1.151244268742903e-26 -0.5442396402359009 -0.7673661112785339 -0.22935479879379272 -1.3146049353263134e-11 0.0 -1.151244268742903e-26 -0.5442396402359009 -0.7673661112785339 -0.22935479879379272 -1.3146049353263134e-11 0.0 -0.29859999735544024 -0.11235000099231766 0.3136499823461779 2.2214412195942916 2.2214412191386654 6.515886891884209e-08 0.0 0.0 0.0 0.0 0.0 0.0 9.240738067961096e-07 3.476881827858294e-07 4.25314629322205e-08 -2.8475662131755526e-08 6.14740536579255e-08 -2.6501512071418584e-15 -0.29859999998320197 -0.11235000001566994 0.31364999997695675 2.2214414693069955 2.2214414688513706 4.556249894594308e-10 0.0 0.0 0.0 0.0 0.0 0.0
154770.28 1.3877787807814457e-16 -1.5707963267948966 1.5707963267948966 -1.5707963267948966 -1.5707963267948966 0.0 0.0 0.0 0.0 0.0 0.0 0.0 0.0 0.0 0.0 0.0 0.0 0.0 -1.1512442590619146e-26 -0.5442396572688689 -0.7673661111166267 -0.229354796466502 -1.3146049461972196e-11 0.0 -1.511583712148294e-25 -7.14586669994025 -7.145866699940251 -1.0424175499402515 -5.974879480466362e-11 0.0 1.3877787807814457e-16 -1.570796314870016 1.5707963705062866 -1.570796314870016 -1.570796314870016 0.0 0.0 0.0 0.0 0.0 0.0 0.0 -1.151244268742903e-26 -0.5442396402359009 -0.7673661112785339 -0.22935479879379272 -1.3146049353263134e-11 0.0 -1.151244268742903e-26 -0.5442396402359009 -0.7673661112785339 -0.22935479879379272 -1.3146049353263134e-11 0.0 -0.29859999735544024 -0.11235000099231766 0.3136499823461779 2.2214412195942916 2.2214412191386654 6.515886891884209e-08 0.0 0.0 0.0 0.0 0.0 0.0 9.240738067961096e-07 3.476881827858294e-07 4.25314629322205e-08 -2.8475662131755526e-08 6.14740536579255e-08 -2.6501512071418584e-15 -0.29859999998320197 -0.11235000001566994 0.31364999997695675 2.2214414693069955 2.2214414688513706 4.556249894594308e-10 0.0 0.0 0.0 0.0 0.0 0.0
154770.288 1.3877787807814457e-16 -1.5707963267948966 1.5707963267948966 -1.5707963267948966 -1.5707963267948966 0.0 0.0 0.0 0.0 0.0 0.0 0.0 0.0 0.0 0.0 0.0 0.0 0.0 -1.1512442590619146e-26 -0.5442396572688689 -0.7673661111166267 -0.229354796466502 -1.3146049461972196e-11 0.0 -1.511583712148294e-25 -7.14586669994025 -7.145866699940251 -1.0424175499402515 -5.974879480466362e-11 0.0 1.3877787807814457e-16 -1.570796314870016 1.5707963705062866 -1.570796314870016 -1.570796314870016 0.0 0.0 0.0 0.0 0.0 0.0 0.0 -1.151244268742903e-26 -0.5442396402359009 -0.7673661112785339 -0.22935479879379272 -1.3146049353263134e-11 0.0 -1.151244268742903e-26 -0.5442396402359009 -0.7673661112785339 -0.22935479879379272 -1.3146049353263134e-11 0.0 -0.29859999735544024 -0.11235000099231766 0.3136499823461779 2.2214412195942916 2.2214412191386654 6.515886891884209e-08 0.0 0.0 0.0 0.0 0.0 0.0 9.240738067961096e-07 3.476881827858294e-07 4.25314629322205e-08 -2.8475662131755526e-08 6.14740536579255e-08 -2.6501512071418584e-15 -0.29859999998320197 -0.11235000001566994 0.31364999997695675 2.2214414693069955 2.2214414688513706 4.556249894594308e-10 0.0 0.0 0.0 0.0 0.0 0.0
154770.296 1.3877787807814457e-16 -1.5707963267948966 1.5707963267948966 -1.5707963267948966 -1.5707963267948966 0.0 0.0 0.0 0.0 0.0 0.0 0.0 0.0 0.0 0.0 0.0 0.0 0.0 -1.1512442590619146e-26 -0.5442396572688689 -0.7673661111166267 -0.229354796466502 -1.3146049461972196e-11 0.0 -1.511583712148294e-25 -7.14586669994025 -7.145866699940251 -1.0424175499402515 -5.974879480466362e-11 0.0 1.3877787807814457e-16 -1.570796314870016 1.5707963705062866 -1.570796314870016 -1.570796314870016 0.0 0.0 0.0 0.0 0.0 0.0 0.0 -1.151244268742903e-26 -0.5442396402359009 -0.7673661112785339 -0.22935479879379272 -1.3146049353263134e-11 0.0 -1.151244268742903e-26 -0.5442396402359009 -0.7673661112785339 -0.22935479879379272 -1.3146049353263134e-11 0.0 -0.29859999735544024 -0.11235000099231766 0.3136499823461779 2.2214412195942916 2.2214412191386654 6.515886891884209e-08 0.0 0.0 0.0 0.0 0.0 0.0 9.240738067961096e-07 3.476881827858294e-07 4.25314629322205e-08 -2.8475662131755526e-08 6.14740536579255e-08 -2.6501512071418584e-15 -0.29859999998320197 -0.11235000001566994 0.31364999997695675 2.2214414693069955 2.2214414688513706 4.556249894594308e-10 0.0 0.0 0.0 0.0 0.0 0.0
154770.304 1.3877787807814457e-16 -1.5707963267948966 1.5707963267948966 -1.5707963267948966 -1.5707963267948966 0.0 0.0 0.0 0.0 0.0 0.0 0.0 0.0 0.0 0.0 0.0 0.0 0.0 -1.1512442590619146e-26 -0.5442396572688689 -0.7673661111166267 -0.229354796466502 -1.3146049461972196e-11 0.0 -1.511583712148294e-25 -7.14586669994025 -7.145866699940251 -1.0424175499402515 -5.974879480466362e-11 0.0 1.3877787807814457e-16 -1.570796314870016 1.5707963705062866 -1.570796314870016 -1.570796314870016 0.0 0.0 0.0 0.0 0.0 0.0 0.0 -1.151244268742903e-26 -0.5442396402359009 -0.7673661112785339 -0.22935479879379272 -1.3146049353263134e-11 0.0 -1.151244268742903e-26 -0.5442396402359009 -0.7673661112785339 -0.22935479879379272 -1.3146049353263134e-11 0.0 -0.29859999735544024 -0.11235000099231766 0.3136499823461779 2.2214412195942916 2.2214412191386654 6.515886891884209e-08 0.0 0.0 0.0 0.0 0.0 0.0 9.240738067961096e-07 3.476881827858294e-07 4.25314629322205e-08 -2.8475662131755526e-08 6.14740536579255e-08 -2.6501512071418584e-15 -0.29859999998320197 -0.11235000001566994 0.31364999997695675 2.2214414693069955 2.2214414688513706 4.556249894594308e-10 0.0 0.0 0.0 0.0 0.0 0.0
154770.312 1.3877787807814457e-16 -1.5707963267948966 1.5707963267948966 -1.5707963267948966 -1.5707963267948966 0.0 0.0 0.0 0.0 0.0 0.0 0.0 0.0 0.0 0.0 0.0 0.0 0.0 -1.1512442590619146e-26 -0.5442396572688689 -0.7673661111166267 -0.229354796466502 -1.3146049461972196e-11 0.0 -1.511583712148294e-25 -7.14586669994025 -7.145866699940251 -1.0424175499402515 -5.974879480466362e-11 0.0 1.3877787807814457e-16 -1.570796314870016 1.5707963705062866 -1.570796314870016 -1.570796314870016 0.0 0.0 0.0 0.0 0.0 0.0 0.0 -1.151244268742903e-26 -0.5442396402359009 -0.7673661112785339 -0.22935479879379272 -1.3146049353263134e-11 0.0 -1.151244268742903e-26 -0.5442396402359009 -0.7673661112785339 -0.22935479879379272 -1.3146049353263134e-11 0.0 -0.29859999735544024 -0.11235000099231766 0.3136499823461779 2.2214412195942916 2.2214412191386654 6.515886891884209e-08 0.0 0.0 0.0 0.0 0.0 0.0 9.240738067961096e-07 3.476881827858294e-07 4.25314629322205e-08 -2.8475662131755526e-08 6.14740536579255e-08 -2.6501512071418584e-15 -0.29859999998320197 -0.11235000001566994 0.31364999997695675 2.2214414693069955 2.2214414688513706 4.556249894594308e-10 0.0 0.0 0.0 0.0 0.0 0.0
154770.32 1.3877787807814457e-16 -1.5707963267948966 1.5707963267948966 -1.5707963267948966 -1.5707963267948966 0.0 0.0 0.0 0.0 0.0 0.0 0.0 0.0 0.0 0.0 0.0 0.0 0.0 -1.1512442590619146e-26 -0.5442396572688689 -0.7673661111166267 -0.229354796466502 -1.3146049461972196e-11 0.0 -1.511583712148294e-25 -7.14586669994025 -7.145866699940251 -1.0424175499402515 -5.974879480466362e-11 0.0 1.3877787807814457e-16 -1.570796314870016 1.5707963705062866 -1.570796314870016 -1.570796314870016 0.0 0.0 0.0 0.0 0.0 0.0 0.0 -1.151244268742903e-26 -0.5442396402359009 -0.7673661112785339 -0.22935479879379272 -1.3146049353263134e-11 0.0 -1.151244268742903e-26 -0.5442396402359009 -0.7673661112785339 -0.22935479879379272 -1.3146049353263134e-11 0.0 -0.29859999735544024 -0.11235000099231766 0.3136499823461779 2.2214412195942916 2.2214412191386654 6.515886891884209e-08 0.0 0.0 0.0 0.0 0.0 0.0 9.240738067961096e-07 3.476881827858294e-07 4.25314629322205e-08 -2.8475662131755526e-08 6.14740536579255e-08 -2.6501512071418584e-15 -0.29859999998320197 -0.11235000001566994 0.31364999997695675 2.2214414693069955 2.2214414688513706 4.556249894594308e-10 0.0 0.0 0.0 0.0 0.0 0.0
154770.32799999998 1.3877787807814457e-16 -1.5707963267948966 1.5707963267948966 -1.5707963267948966 -1.5707963267948966 0.0 0.0 0.0 0.0 0.0 0.0 0.0 0.0 0.0 0.0 0.0 0.0 0.0 -1.1512442590619146e-26 -0.5442396572688689 -0.7673661111166267 -0.229354796466502 -1.3146049461972196e-11 0.0 -1.511583712148294e-25 -7.14586669994025 -7.145866699940251 -1.0424175499402515 -5.974879480466362e-11 0.0 1.3877787807814457e-16 -1.570796314870016 1.5707963705062866 -1.570796314870016 -1.570796314870016 0.0 0.0 0.0 0.0 0.0 0.0 0.0 -1.151244268742903e-26 -0.5442396402359009 -0.7673661112785339 -0.22935479879379272 -1.3146049353263134e-11 0.0 -1.151244268742903e-26 -0.5442396402359009 -0.7673661112785339 -0.22935479879379272 -1.3146049353263134e-11 0.0 -0.29859999735544024 -0.11235000099231766 0.3136499823461779 2.2214412195942916 2.2214412191386654 6.515886891884209e-08 0.0 0.0 0.0 0.0 0.0 0.0 9.240738067961096e-07 3.476881827858294e-07 4.25314629322205e-08 -2.8475662131755526e-08 6.14740536579255e-08 -2.6501512071418584e-15 -0.29859999998320197 -0.11235000001566994 0.31364999997695675 2.2214414693069955 2.2214414688513706 4.556249894594308e-10 0.0 0.0 0.0 0.0 0.0 0.0
154770.33599999998 1.3877787807814457e-16 -1.5707963267948966 1.5707963267948966 -1.5707963267948966 -1.5707963267948966 0.0 0.0 0.0 0.0 0.0 0.0 0.0 0.0 0.0 0.0 0.0 0.0 0.0 -1.1512442590619146e-26 -0.5442396572688689 -0.7673661111166267 -0.229354796466502 -1.3146049461972196e-11 0.0 -1.511583712148294e-25 -7.14586669994025 -7.145866699940251 -1.0424175499402515 -5.974879480466362e-11 0.0 1.3877787807814457e-16 -1.570796314870016 1.5707963705062866 -1.570796314870016 -1.570796314870016 0.0 0.0 0.0 0.0 0.0 0.0 0.0 -1.151244268742903e-26 -0.5442396402359009 -0.7673661112785339 -0.22935479879379272 -1.3146049353263134e-11 0.0 -1.151244268742903e-26 -0.5442396402359009 -0.7673661112785339 -0.22935479879379272 -1.3146049353263134e-11 0.0 -0.29859999735544024 -0.11235000099231766 0.3136499823461779 2.2214412195942916 2.2214412191386654 6.515886891884209e-08 0.0 0.0 0.0 0.0 0.0 0.0 9.240738067961096e-07 3.476881827858294e-07 4.25314629322205e-08 -2.8475662131755526e-08 6.14740536579255e-08 -2.6501512071418584e-15 -0.29859999998320197 -0.11235000001566994 0.31364999997695675 2.2214414693069955 2.2214414688513706 4.556249894594308e-10 0.0 0.0 0.0 0.0 0.0 0.0
154770.34399999998 1.3877787807814457e-16 -1.5707963267948966 1.5707963267948966 -1.5707963267948966 -1.5707963267948966 0.0 0.0 0.0 0.0 0.0 0.0 0.0 0.0 0.0 0.0 0.0 0.0 0.0 -1.1512442590619146e-26 -0.5442396572688689 -0.7673661111166267 -0.229354796466502 -1.3146049461972196e-11 0.0 -1.511583712148294e-25 -7.14586669994025 -7.145866699940251 -1.0424175499402515 -5.974879480466362e-11 0.0 1.3877787807814457e-16 -1.570796314870016 1.5707963705062866 -1.570796314870016 -1.570796314870016 0.0 0.0 0.0 0.0 0.0 0.0 0.0 -1.151244268742903e-26 -0.5442396402359009 -0.7673661112785339 -0.22935479879379272 -1.3146049353263134e-11 0.0 -1.151244268742903e-26 -0.5442396402359009 -0.7673661112785339 -0.22935479879379272 -1.3146049353263134e-11 0.0 -0.29859999735544024 -0.11235000099231766 0.3136499823461779 2.2214412195942916 2.2214412191386654 6.515886891884209e-08 0.0 0.0 0.0 0.0 0.0 0.0 9.240738067961096e-07 3.476881827858294e-07 4.25314629322205e-08 -2.8475662131755526e-08 6.14740536579255e-08 -2.6501512071418584e-15 -0.29859999998320197 -0.11235000001566994 0.31364999997695675 2.2214414693069955 2.2214414688513706 4.556249894594308e-10 0.0 0.0 0.0 0.0 0.0 0.0
154770.35199999998 1.3877787807814457e-16 -1.5707963267948966 1.5707963267948966 -1.5707963267948966 -1.5707963267948966 0.0 0.0 0.0 0.0 0.0 0.0 0.0 0.0 0.0 0.0 0.0 0.0 0.0 -1.1512442590619146e-26 -0.5442396572688689 -0.7673661111166267 -0.229354796466502 -1.3146049461972196e-11 0.0 -1.511583712148294e-25 -7.14586669994025 -7.145866699940251 -1.0424175499402515 -5.974879480466362e-11 0.0 1.3877787807814457e-16 -1.570796314870016 1.5707963705062866 -1.570796314870016 -1.570796314870016 0.0 0.0 0.0 0.0 0.0 0.0 0.0 -1.151244268742903e-26 -0.5442396402359009 -0.7673661112785339 -0.22935479879379272 -1.3146049353263134e-11 0.0 -1.151244268742903e-26 -0.5442396402359009 -0.7673661112785339 -0.22935479879379272 -1.3146049353263134e-11 0.0 -0.29859999735544024 -0.11235000099231766 0.3136499823461779 2.2214412195942916 2.2214412191386654 6.515886891884209e-08 0.0 0.0 0.0 0.0 0.0 0.0 9.240738067961096e-07 3.476881827858294e-07 4.25314629322205e-08 -2.8475662131755526e-08 6.14740536579255e-08 -2.6501512071418584e-15 -0.29859999998320197 -0.11235000001566994 0.31364999997695675 2.2214414693069955 2.2214414688513706 4.556249894594308e-10 0.0 0.0 0.0 0.0 0.0 0.0
154770.36 1.3877787807814457e-16 -1.5707963267948966 1.5707963267948966 -1.5707963267948966 -1.5707963267948966 0.0 0.0 0.0 0.0 0.0 0.0 0.0 0.0 0.0 0.0 0.0 0.0 0.0 -1.1512442590619146e-26 -0.5442396572688689 -0.7673661111166267 -0.229354796466502 -1.3146049461972196e-11 0.0 -1.511583712148294e-25 -7.14586669994025 -7.145866699940251 -1.0424175499402515 -5.974879480466362e-11 0.0 1.3877787807814457e-16 -1.570796314870016 1.5707963705062866 -1.570796314870016 -1.570796314870016 0.0 0.0 0.0 0.0 0.0 0.0 0.0 -1.151244268742903e-26 -0.5442396402359009 -0.7673661112785339 -0.22935479879379272 -1.3146049353263134e-11 0.0 -1.151244268742903e-26 -0.5442396402359009 -0.7673661112785339 -0.22935479879379272 -1.3146049353263134e-11 0.0 -0.29859999735544024 -0.11235000099231766 0.3136499823461779 2.2214412195942916 2.2214412191386654 6.515886891884209e-08 0.0 0.0 0.0 0.0 0.0 0.0 9.240738067961096e-07 3.476881827858294e-07 4.25314629322205e-08 -2.8475662131755526e-08 6.14740536579255e-08 -2.6501512071418584e-15 -0.29859999998320197 -0.11235000001566994 0.31364999997695675 2.2214414693069955 2.2214414688513706 4.556249894594308e-10 0.0 0.0 0.0 0.0 0.0 0.0
154770.368 1.3877787807814457e-16 -1.5707963267948966 1.5707963267948966 -1.5707963267948966 -1.5707963267948966 0.0 0.0 0.0 0.0 0.0 0.0 0.0 0.0 0.0 0.0 0.0 0.0 0.0 -1.1512442590619146e-26 -0.5442396572688689 -0.7673661111166267 -0.229354796466502 -1.3146049461972196e-11 0.0 -1.511583712148294e-25 -7.14586669994025 -7.145866699940251 -1.0424175499402515 -5.974879480466362e-11 0.0 1.3877787807814457e-16 -1.570796314870016 1.5707963705062866 -1.570796314870016 -1.570796314870016 0.0 0.0 0.0 0.0 0.0 0.0 0.0 -1.151244268742903e-26 -0.5442396402359009 -0.7673661112785339 -0.22935479879379272 -1.3146049353263134e-11 0.0 -1.151244268742903e-26 -0.5442396402359009 -0.7673661112785339 -0.22935479879379272 -1.3146049353263134e-11 0.0 -0.29859999735544024 -0.11235000099231766 0.3136499823461779 2.2214412195942916 2.2214412191386654 6.515886891884209e-08 0.0 0.0 0.0 0.0 0.0 0.0 9.240738067961096e-07 3.476881827858294e-07 4.25314629322205e-08 -2.8475662131755526e-08 6.14740536579255e-08 -2.6501512071418584e-15 -0.29859999998320197 -0.11235000001566994 0.31364999997695675 2.2214414693069955 2.2214414688513706 4.556249894594308e-10 0.0 0.0 0.0 0.0 0.0 0.0
154770.376 1.3877787807814457e-16 -1.5707963267948966 1.5707963267948966 -1.5707963267948966 -1.5707963267948966 0.0 0.0 0.0 0.0 0.0 0.0 0.0 0.0 0.0 0.0 0.0 0.0 0.0 -1.1512442590619146e-26 -0.5442396572688689 -0.7673661111166267 -0.229354796466502 -1.3146049461972196e-11 0.0 -1.511583712148294e-25 -7.14586669994025 -7.145866699940251 -1.0424175499402515 -5.974879480466362e-11 0.0 1.3877787807814457e-16 -1.570796314870016 1.5707963705062866 -1.570796314870016 -1.570796314870016 0.0 0.0 0.0 0.0 0.0 0.0 0.0 -1.151244268742903e-26 -0.5442396402359009 -0.7673661112785339 -0.22935479879379272 -1.3146049353263134e-11 0.0 -1.151244268742903e-26 -0.5442396402359009 -0.7673661112785339 -0.22935479879379272 -1.3146049353263134e-11 0.0 -0.29859999735544024 -0.11235000099231766 0.3136499823461779 2.2214412195942916 2.2214412191386654 6.515886891884209e-08 0.0 0.0 0.0 0.0 0.0 0.0 9.240738067961096e-07 3.476881827858294e-07 4.25314629322205e-08 -2.8475662131755526e-08 6.14740536579255e-08 -2.6501512071418584e-15 -0.29859999998320197 -0.11235000001566994 0.31364999997695675 2.2214414693069955 2.2214414688513706 4.556249894594308e-10 0.0 0.0 0.0 0.0 0.0 0.0
154770.384 1.3877787807814457e-16 -1.5707963267948966 1.5707963267948966 -1.5707963267948966 -1.5707963267948966 0.0 0.0 0.0 0.0 0.0 0.0 0.0 0.0 0.0 0.0 0.0 0.0 0.0 -1.1512442590619146e-26 -0.5442396572688689 -0.7673661111166267 -0.229354796466502 -1.3146049461972196e-11 0.0 -1.511583712148294e-25 -7.14586669994025 -7.145866699940251 -1.0424175499402515 -5.974879480466362e-11 0.0 1.3877787807814457e-16 -1.570796314870016 1.5707963705062866 -1.570796314870016 -1.570796314870016 0.0 0.0 0.0 0.0 0.0 0.0 0.0 -1.151244268742903e-26 -0.5442396402359009 -0.7673661112785339 -0.22935479879379272 -1.3146049353263134e-11 0.0 -1.151244268742903e-26 -0.5442396402359009 -0.7673661112785339 -0.22935479879379272 -1.3146049353263134e-11 0.0 -0.29859999735544024 -0.11235000099231766 0.3136499823461779 2.2214412195942916 2.2214412191386654 6.515886891884209e-08 0.0 0.0 0.0 0.0 0.0 0.0 9.240738067961096e-07 3.476881827858294e-07 4.25314629322205e-08 -2.8475662131755526e-08 6.14740536579255e-08 -2.6501512071418584e-15 -0.29859999998320197 -0.11235000001566994 0.31364999997695675 2.2214414693069955 2.2214414688513706 4.556249894594308e-10 0.0 0.0 0.0 0.0 0.0 0.0
154770.392 1.3877787807814457e-16 -1.5707963267948966 1.5707963267948966 -1.5707963267948966 -1.5707963267948966 0.0 0.0 0.0 0.0 0.0 0.0 0.0 0.0 0.0 0.0 0.0 0.0 0.0 -1.1512442590619146e-26 -0.5442396572688689 -0.7673661111166267 -0.229354796466502 -1.3146049461972196e-11 0.0 -1.511583712148294e-25 -7.14586669994025 -7.145866699940251 -1.0424175499402515 -5.974879480466362e-11 0.0 1.3877787807814457e-16 -1.570796314870016 1.5707963705062866 -1.570796314870016 -1.570796314870016 0.0 0.0 0.0 0.0 0.0 0.0 0.0 -1.151244268742903e-26 -0.5442396402359009 -0.7673661112785339 -0.22935479879379272 -1.3146049353263134e-11 0.0 -1.151244268742903e-26 -0.5442396402359009 -0.7673661112785339 -0.22935479879379272 -1.3146049353263134e-11 0.0 -0.29859999735544024 -0.11235000099231766 0.3136499823461779 2.2214412195942916 2.2214412191386654 6.515886891884209e-08 0.0 0.0 0.0 0.0 0.0 0.0 9.240738067961096e-07 3.476881827858294e-07 4.25314629322205e-08 -2.8475662131755526e-08 6.14740536579255e-08 -2.6501512071418584e-15 -0.29859999998320197 -0.11235000001566994 0.31364999997695675 2.2214414693069955 2.2214414688513706 4.556249894594308e-10 0.0 0.0 0.0 0.0 0.0 0.0
154770.4 1.3877787807814457e-16 -1.5707963267948966 1.5707963267948966 -1.5707963267948966 -1.5707963267948966 0.0 0.0 0.0 0.0 0.0 0.0 0.0 0.0 0.0 0.0 0.0 0.0 0.0 -1.1512442590619146e-26 -0.5442396572688689 -0.7673661111166267 -0.229354796466502 -1.3146049461972196e-11 0.0 -1.511583712148294e-25 -7.14586669994025 -7.145866699940251 -1.0424175499402515 -5.974879480466362e-11 0.0 1.3877787807814457e-16 -1.570796314870016 1.5707963705062866 -1.570796314870016 -1.570796314870016 0.0 0.0 0.0 0.0 0.0 0.0 0.0 -1.151244268742903e-26 -0.5442396402359009 -0.7673661112785339 -0.22935479879379272 -1.3146049353263134e-11 0.0 -1.151244268742903e-26 -0.5442396402359009 -0.7673661112785339 -0.22935479879379272 -1.3146049353263134e-11 0.0 -0.29859999735544024 -0.11235000099231766 0.3136499823461779 2.2214412195942916 2.2214412191386654 6.515886891884209e-08 0.0 0.0 0.0 0.0 0.0 0.0 9.240738067961096e-07 3.476881827858294e-07 4.25314629322205e-08 -2.8475662131755526e-08 6.14740536579255e-08 -2.6501512071418584e-15 -0.29859999998320197 -0.11235000001566994 0.31364999997695675 2.2214414693069955 2.2214414688513706 4.556249894594308e-10 0.0 0.0 0.0 0.0 0.0 0.0
154770.408 1.3877787807814457e-16 -1.5707963267948966 1.5707963267948966 -1.5707963267948966 -1.5707963267948966 0.0 0.0 0.0 0.0 0.0 0.0 0.0 0.0 0.0 0.0 0.0 0.0 0.0 -1.1512442590619146e-26 -0.5442396572688689 -0.7673661111166267 -0.229354796466502 -1.3146049461972196e-11 0.0 -1.511583712148294e-25 -7.14586669994025 -7.145866699940251 -1.0424175499402515 -5.974879480466362e-11 0.0 1.3877787807814457e-16 -1.570796314870016 1.5707963705062866 -1.570796314870016 -1.570796314870016 0.0 0.0 0.0 0.0 0.0 0.0 0.0 -1.151244268742903e-26 -0.5442396402359009 -0.7673661112785339 -0.22935479879379272 -1.3146049353263134e-11 0.0 -1.151244268742903e-26 -0.5442396402359009 -0.7673661112785339 -0.22935479879379272 -1.3146049353263134e-11 0.0 -0.29859999735544024 -0.11235000099231766 0.3136499823461779 2.2214412195942916 2.2214412191386654 6.515886891884209e-08 0.0 0.0 0.0 0.0 0.0 0.0 9.240738067961096e-07 3.476881827858294e-07 4.25314629322205e-08 -2.8475662131755526e-08 6.14740536579255e-08 -2.6501512071418584e-15 -0.29859999998320197 -0.11235000001566994 0.31364999997695675 2.2214414693069955 2.2214414688513706 4.556249894594308e-10 0.0 0.0 0.0 0.0 0.0 0.0
154770.416 1.3877787807814457e-16 -1.5707963267948966 1.5707963267948966 -1.5707963267948966 -1.5707963267948966 0.0 0.0 0.0 0.0 0.0 0.0 0.0 0.0 0.0 0.0 0.0 0.0 0.0 -1.1512442590619146e-26 -0.5442396572688689 -0.7673661111166267 -0.229354796466502 -1.3146049461972196e-11 0.0 -1.511583712148294e-25 -7.14586669994025 -7.145866699940251 -1.0424175499402515 -5.974879480466362e-11 0.0 1.3877787807814457e-16 -1.570796314870016 1.5707963705062866 -1.570796314870016 -1.570796314870016 0.0 0.0 0.0 0.0 0.0 0.0 0.0 -1.151244268742903e-26 -0.5442396402359009 -0.7673661112785339 -0.22935479879379272 -1.3146049353263134e-11 0.0 -1.151244268742903e-26 -0.5442396402359009 -0.7673661112785339 -0.22935479879379272 -1.3146049353263134e-11 0.0 -0.29859999735544024 -0.11235000099231766 0.3136499823461779 2.2214412195942916 2.2214412191386654 6.515886891884209e-08 0.0 0.0 0.0 0.0 0.0 0.0 9.240738067961096e-07 3.476881827858294e-07 4.25314629322205e-08 -2.8475662131755526e-08 6.14740536579255e-08 -2.6501512071418584e-15 -0.29859999998320197 -0.11235000001566994 0.31364999997695675 2.2214414693069955 2.2214414688513706 4.556249894594308e-10 0.0 0.0 0.0 0.0 0.0 0.0
154770.424 1.3877787807814457e-16 -1.5707963267948966 1.5707963267948966 -1.5707963267948966 -1.5707963267948966 0.0 0.0 0.0 0.0 0.0 0.0 0.0 0.0 0.0 0.0 0.0 0.0 0.0 -1.1512442590619146e-26 -0.5442396572688689 -0.7673661111166267 -0.229354796466502 -1.3146049461972196e-11 0.0 -1.511583712148294e-25 -7.14586669994025 -7.145866699940251 -1.0424175499402515 -5.974879480466362e-11 0.0 1.3877787807814457e-16 -1.570796314870016 1.5707963705062866 -1.570796314870016 -1.570796314870016 0.0 0.0 0.0 0.0 0.0 0.0 0.0 -1.151244268742903e-26 -0.5442396402359009 -0.7673661112785339 -0.22935479879379272 -1.3146049353263134e-11 0.0 -1.151244268742903e-26 -0.5442396402359009 -0.7673661112785339 -0.22935479879379272 -1.3146049353263134e-11 0.0 -0.29859999735544024 -0.11235000099231766 0.3136499823461779 2.2214412195942916 2.2214412191386654 6.515886891884209e-08 0.0 0.0 0.0 0.0 0.0 0.0 9.240738067961096e-07 3.476881827858294e-07 4.25314629322205e-08 -2.8475662131755526e-08 6.14740536579255e-08 -2.6501512071418584e-15 -0.29859999998320197 -0.11235000001566994 0.31364999997695675 2.2214414693069955 2.2214414688513706 4.556249894594308e-10 0.0 0.0 0.0 0.0 0.0 0.0
154770.432 1.3877787807814457e-16 -1.5707963267948966 1.5707963267948966 -1.5707963267948966 -1.5707963267948966 0.0 0.0 0.0 0.0 0.0 0.0 0.0 0.0 0.0 0.0 0.0 0.0 0.0 -1.1512442590619146e-26 -0.5442396572688689 -0.7673661111166267 -0.229354796466502 -1.3146049461972196e-11 0.0 -1.511583712148294e-25 -7.14586669994025 -7.145866699940251 -1.0424175499402515 -5.974879480466362e-11 0.0 1.3877787807814457e-16 -1.570796314870016 1.5707963705062866 -1.570796314870016 -1.570796314870016 0.0 0.0 0.0 0.0 0.0 0.0 0.0 -1.151244268742903e-26 -0.5442396402359009 -0.7673661112785339 -0.22935479879379272 -1.3146049353263134e-11 0.0 -1.151244268742903e-26 -0.5442396402359009 -0.7673661112785339 -0.22935479879379272 -1.3146049353263134e-11 0.0 -0.29859999735544024 -0.11235000099231766 0.3136499823461779 2.2214412195942916 2.2214412191386654 6.515886891884209e-08 0.0 0.0 0.0 0.0 0.0 0.0 9.240738067961096e-07 3.476881827858294e-07 4.25314629322205e-08 -2.8475662131755526e-08 6.14740536579255e-08 -2.6501512071418584e-15 -0.29859999998320197 -0.11235000001566994 0.31364999997695675 2.2214414693069955 2.2214414688513706 4.556249894594308e-10 0.0 0.0 0.0 0.0 0.0 0.0
154770.44 1.3877787807814457e-16 -1.5707963267948966 1.5707963267948966 -1.5707963267948966 -1.5707963267948966 0.0 0.0 0.0 0.0 0.0 0.0 0.0 0.0 0.0 0.0 0.0 0.0 0.0 -1.1512442590619146e-26 -0.5442396572688689 -0.7673661111166267 -0.229354796466502 -1.3146049461972196e-11 0.0 -1.511583712148294e-25 -7.14586669994025 -7.145866699940251 -1.0424175499402515 -5.974879480466362e-11 0.0 1.3877787807814457e-16 -1.570796314870016 1.5707963705062866 -1.570796314870016 -1.570796314870016 0.0 0.0 0.0 0.0 0.0 0.0 0.0 -1.151244268742903e-26 -0.5442396402359009 -0.7673661112785339 -0.22935479879379272 -1.3146049353263134e-11 0.0 -1.151244268742903e-26 -0.5442396402359009 -0.7673661112785339 -0.22935479879379272 -1.3146049353263134e-11 0.0 -0.29859999735544024 -0.11235000099231766 0.3136499823461779 2.2214412195942916 2.2214412191386654 6.515886891884209e-08 0.0 0.0 0.0 0.0 0.0 0.0 9.240738067961096e-07 3.476881827858294e-07 4.25314629322205e-08 -2.8475662131755526e-08 6.14740536579255e-08 -2.6501512071418584e-15 -0.29859999998320197 -0.11235000001566994 0.31364999997695675 2.2214414693069955 2.2214414688513706 4.556249894594308e-10 0.0 0.0 0.0 0.0 0.0 0.0
154770.448 1.3877787807814457e-16 -1.5707963267948966 1.5707963267948966 -1.5707963267948966 -1.5707963267948966 0.0 0.0 0.0 0.0 0.0 0.0 0.0 0.0 0.0 0.0 0.0 0.0 0.0 -1.1512442590619146e-26 -0.5442396572688689 -0.7673661111166267 -0.229354796466502 -1.3146049461972196e-11 0.0 -1.511583712148294e-25 -7.14586669994025 -7.145866699940251 -1.0424175499402515 -5.974879480466362e-11 0.0 1.3877787807814457e-16 -1.570796314870016 1.5707963705062866 -1.570796314870016 -1.570796314870016 0.0 0.0 0.0 0.0 0.0 0.0 0.0 -1.151244268742903e-26 -0.5442396402359009 -0.7673661112785339 -0.22935479879379272 -1.3146049353263134e-11 0.0 -1.151244268742903e-26 -0.5442396402359009 -0.7673661112785339 -0.22935479879379272 -1.3146049353263134e-11 0.0 -0.29859999735544024 -0.11235000099231766 0.3136499823461779 2.2214412195942916 2.2214412191386654 6.515886891884209e-08 0.0 0.0 0.0 0.0 0.0 0.0 9.240738067961096e-07 3.476881827858294e-07 4.25314629322205e-08 -2.8475662131755526e-08 6.14740536579255e-08 -2.6501512071418584e-15 -0.29859999998320197 -0.11235000001566994 0.31364999997695675 2.2214414693069955 2.2214414688513706 4.556249894594308e-10 0.0 0.0 0.0 0.0 0.0 0.0
154770.456 1.3877787807814457e-16 -1.5707963267948966 1.5707963267948966 -1.5707963267948966 -1.5707963267948966 0.0 0.0 0.0 0.0 0.0 0.0 0.0 0.0 0.0 0.0 0.0 0.0 0.0 -1.1512442590619146e-26 -0.5442396572688689 -0.7673661111166267 -0.229354796466502 -1.3146049461972196e-11 0.0 -1.511583712148294e-25 -7.14586669994025 -7.145866699940251 -1.0424175499402515 -5.974879480466362e-11 0.0 1.3877787807814457e-16 -1.570796314870016 1.5707963705062866 -1.570796314870016 -1.570796314870016 0.0 0.0 0.0 0.0 0.0 0.0 0.0 -1.151244268742903e-26 -0.5442396402359009 -0.7673661112785339 -0.22935479879379272 -1.3146049353263134e-11 0.0 -1.151244268742903e-26 -0.5442396402359009 -0.7673661112785339 -0.22935479879379272 -1.3146049353263134e-11 0.0 -0.29859999735544024 -0.11235000099231766 0.3136499823461779 2.2214412195942916 2.2214412191386654 6.515886891884209e-08 0.0 0.0 0.0 0.0 0.0 0.0 9.240738067961096e-07 3.476881827858294e-07 4.25314629322205e-08 -2.8475662131755526e-08 6.14740536579255e-08 -2.6501512071418584e-15 -0.29859999998320197 -0.11235000001566994 0.31364999997695675 2.2214414693069955 2.2214414688513706 4.556249894594308e-10 0.0 0.0 0.0 0.0 0.0 0.0
154770.464 1.3877787807814457e-16 -1.5707963267948966 1.5707963267948966 -1.5707963267948966 -1.5707963267948966 0.0 0.0 0.0 0.0 0.0 0.0 0.0 0.0 0.0 0.0 0.0 0.0 0.0 -1.1512442590619146e-26 -0.5442396572688689 -0.7673661111166267 -0.229354796466502 -1.3146049461972196e-11 0.0 -1.511583712148294e-25 -7.14586669994025 -7.145866699940251 -1.0424175499402515 -5.974879480466362e-11 0.0 1.3877787807814457e-16 -1.570796314870016 1.5707963705062866 -1.570796314870016 -1.570796314870016 0.0 0.0 0.0 0.0 0.0 0.0 0.0 -1.151244268742903e-26 -0.5442396402359009 -0.7673661112785339 -0.22935479879379272 -1.3146049353263134e-11 0.0 -1.151244268742903e-26 -0.5442396402359009 -0.7673661112785339 -0.22935479879379272 -1.3146049353263134e-11 0.0 -0.29859999735544024 -0.11235000099231766 0.3136499823461779 2.2214412195942916 2.2214412191386654 6.515886891884209e-08 0.0 0.0 0.0 0.0 0.0 0.0 9.240738067961096e-07 3.476881827858294e-07 4.25314629322205e-08 -2.8475662131755526e-08 6.14740536579255e-08 -2.6501512071418584e-15 -0.29859999998320197 -0.11235000001566994 0.31364999997695675 2.2214414693069955 2.2214414688513706 4.556249894594308e-10 0.0 0.0 0.0 0.0 0.0 0.0
154770.47199999998 1.3877787807814457e-16 -1.5707963267948966 1.5707963267948966 -1.5707963267948966 -1.5707963267948966 0.0 0.0 0.0 0.0 0.0 0.0 0.0 0.0 0.0 0.0 0.0 0.0 0.0 -1.1512442590619146e-26 -0.5442396572688689 -0.7673661111166267 -0.229354796466502 -1.3146049461972196e-11 0.0 -1.511583712148294e-25 -7.14586669994025 -7.145866699940251 -1.0424175499402515 -5.974879480466362e-11 0.0 1.3877787807814457e-16 -1.570796314870016 1.5707963705062866 -1.570796314870016 -1.570796314870016 0.0 0.0 0.0 0.0 0.0 0.0 0.0 -1.151244268742903e-26 -0.5442396402359009 -0.7673661112785339 -0.22935479879379272 -1.3146049353263134e-11 0.0 -1.151244268742903e-26 -0.5442396402359009 -0.7673661112785339 -0.22935479879379272 -1.3146049353263134e-11 0.0 -0.29859999735544024 -0.11235000099231766 0.3136499823461779 2.2214412195942916 2.2214412191386654 6.515886891884209e-08 0.0 0.0 0.0 0.0 0.0 0.0 9.240738067961096e-07 3.476881827858294e-07 4.25314629322205e-08 -2.8475662131755526e-08 6.14740536579255e-08 -2.6501512071418584e-15 -0.29859999998320197 -0.11235000001566994 0.31364999997695675 2.2214414693069955 2.2214414688513706 4.556249894594308e-10 0.0 0.0 0.0 0.0 0.0 0.0
154770.47999999998 1.3877787807814457e-16 -1.5707963267948966 1.5707963267948966 -1.5707963267948966 -1.5707963267948966 0.0 0.0 0.0 0.0 0.0 0.0 0.0 0.0 0.0 0.0 0.0 0.0 0.0 -1.1512442590619146e-26 -0.5442396572688689 -0.7673661111166267 -0.229354796466502 -1.3146049461972196e-11 0.0 -1.511583712148294e-25 -7.14586669994025 -7.145866699940251 -1.0424175499402515 -5.974879480466362e-11 0.0 1.3877787807814457e-16 -1.570796314870016 1.5707963705062866 -1.570796314870016 -1.570796314870016 0.0 0.0 0.0 0.0 0.0 0.0 0.0 -1.151244268742903e-26 -0.5442396402359009 -0.7673661112785339 -0.22935479879379272 -1.3146049353263134e-11 0.0 -1.151244268742903e-26 -0.5442396402359009 -0.7673661112785339 -0.22935479879379272 -1.3146049353263134e-11 0.0 -0.29859999735544024 -0.11235000099231766 0.3136499823461779 2.2214412195942916 2.2214412191386654 6.515886891884209e-08 0.0 0.0 0.0 0.0 0.0 0.0 9.240738067961096e-07 3.476881827858294e-07 4.25314629322205e-08 -2.8475662131755526e-08 6.14740536579255e-08 -2.6501512071418584e-15 -0.29859999998320197 -0.11235000001566994 0.31364999997695675 2.2214414693069955 2.2214414688513706 4.556249894594308e-10 0.0 0.0 0.0 0.0 0.0 0.0
154770.48799999998 1.3877787807814457e-16 -1.5707963267948966 1.5707963267948966 -1.5707963267948966 -1.5707963267948966 0.0 0.0 0.0 0.0 0.0 0.0 0.0 0.0 0.0 0.0 0.0 0.0 0.0 -1.1512442590619146e-26 -0.5442396572688689 -0.7673661111166267 -0.229354796466502 -1.3146049461972196e-11 0.0 -1.511583712148294e-25 -7.14586669994025 -7.145866699940251 -1.0424175499402515 -5.974879480466362e-11 0.0 1.3877787807814457e-16 -1.570796314870016 1.5707963705062866 -1.570796314870016 -1.570796314870016 0.0 0.0 0.0 0.0 0.0 0.0 0.0 -1.151244268742903e-26 -0.5442396402359009 -0.7673661112785339 -0.22935479879379272 -1.3146049353263134e-11 0.0 -1.151244268742903e-26 -0.5442396402359009 -0.7673661112785339 -0.22935479879379272 -1.3146049353263134e-11 0.0 -0.29859999735544024 -0.11235000099231766 0.3136499823461779 2.2214412195942916 2.2214412191386654 6.515886891884209e-08 0.0 0.0 0.0 0.0 0.0 0.0 9.240738067961096e-07 3.476881827858294e-07 4.25314629322205e-08 -2.8475662131755526e-08 6.14740536579255e-08 -2.6501512071418584e-15 -0.29859999998320197 -0.11235000001566994 0.31364999997695675 2.2214414693069955 2.2214414688513706 4.556249894594308e-10 0.0 0.0 0.0 0.0 0.0 0.0
154770.49599999998 1.3877787807814457e-16 -1.5707963267948966 1.5707963267948966 -1.5707963267948966 -1.5707963267948966 0.0 0.0 0.0 0.0 0.0 0.0 0.0 0.0 0.0 0.0 0.0 0.0 0.0 -1.1512442590619146e-26 -0.5442396572688689 -0.7673661111166267 -0.229354796466502 -1.3146049461972196e-11 0.0 -1.511583712148294e-25 -7.14586669994025 -7.145866699940251 -1.0424175499402515 -5.974879480466362e-11 0.0 1.3877787807814457e-16 -1.570796314870016 1.5707963705062866 -1.570796314870016 -1.570796314870016 0.0 0.0 0.0 0.0 0.0 0.0 0.0 -1.151244268742903e-26 -0.5442396402359009 -0.7673661112785339 -0.22935479879379272 -1.3146049353263134e-11 0.0 -1.151244268742903e-26 -0.5442396402359009 -0.7673661112785339 -0.22935479879379272 -1.3146049353263134e-11 0.0 -0.29859999735544024 -0.11235000099231766 0.3136499823461779 2.2214412195942916 2.2214412191386654 6.515886891884209e-08 0.0 0.0 0.0 0.0 0.0 0.0 9.240738067961096e-07 3.476881827858294e-07 4.25314629322205e-08 -2.8475662131755526e-08 6.14740536579255e-08 -2.6501512071418584e-15 -0.29859999998320197 -0.11235000001566994 0.31364999997695675 2.2214414693069955 2.2214414688513706 4.556249894594308e-10 0.0 0.0 0.0 0.0 0.0 0.0
154770.504 1.3877787807814457e-16 -1.5707963267948966 1.5707963267948966 -1.5707963267948966 -1.5707963267948966 0.0 0.0 0.0 0.0 0.0 0.0 0.0 0.0 0.0 0.0 0.0 0.0 0.0 -1.1512442590619146e-26 -0.5442396572688689 -0.7673661111166267 -0.229354796466502 -1.3146049461972196e-11 0.0 -1.511583712148294e-25 -7.14586669994025 -7.145866699940251 -1.0424175499402515 -5.974879480466362e-11 0.0 1.3877787807814457e-16 -1.570796314870016 1.5707963705062866 -1.570796314870016 -1.570796314870016 0.0 0.0 0.0 0.0 0.0 0.0 0.0 -1.151244268742903e-26 -0.5442396402359009 -0.7673661112785339 -0.22935479879379272 -1.3146049353263134e-11 0.0 -1.151244268742903e-26 -0.5442396402359009 -0.7673661112785339 -0.22935479879379272 -1.3146049353263134e-11 0.0 -0.29859999735544024 -0.11235000099231766 0.3136499823461779 2.2214412195942916 2.2214412191386654 6.515886891884209e-08 0.0 0.0 0.0 0.0 0.0 0.0 9.240738067961096e-07 3.476881827858294e-07 4.25314629322205e-08 -2.8475662131755526e-08 6.14740536579255e-08 -2.6501512071418584e-15 -0.29859999998320197 -0.11235000001566994 0.31364999997695675 2.2214414693069955 2.2214414688513706 4.556249894594308e-10 0.0 0.0 0.0 0.0 0.0 0.0
154770.512 1.3877787807814457e-16 -1.5707963267948966 1.5707963267948966 -1.5707963267948966 -1.5707963267948966 0.0 0.0 0.0 0.0 0.0 0.0 0.0 0.0 0.0 0.0 0.0 0.0 0.0 -1.1512442590619146e-26 -0.5442396572688689 -0.7673661111166267 -0.229354796466502 -1.3146049461972196e-11 0.0 -1.511583712148294e-25 -7.14586669994025 -7.145866699940251 -1.0424175499402515 -5.974879480466362e-11 0.0 1.3877787807814457e-16 -1.570796314870016 1.5707963705062866 -1.570796314870016 -1.570796314870016 0.0 0.0 0.0 0.0 0.0 0.0 0.0 -1.151244268742903e-26 -0.5442396402359009 -0.7673661112785339 -0.22935479879379272 -1.3146049353263134e-11 0.0 -1.151244268742903e-26 -0.5442396402359009 -0.7673661112785339 -0.22935479879379272 -1.3146049353263134e-11 0.0 -0.29859999735544024 -0.11235000099231766 0.3136499823461779 2.2214412195942916 2.2214412191386654 6.515886891884209e-08 0.0 0.0 0.0 0.0 0.0 0.0 9.240738067961096e-07 3.476881827858294e-07 4.25314629322205e-08 -2.8475662131755526e-08 6.14740536579255e-08 -2.6501512071418584e-15 -0.29859999998320197 -0.11235000001566994 0.31364999997695675 2.2214414693069955 2.2214414688513706 4.556249894594308e-10 0.0 0.0 0.0 0.0 0.0 0.0
154770.52 1.3877787807814457e-16 -1.5707963267948966 1.5707963267948966 -1.5707963267948966 -1.5707963267948966 0.0 0.0 0.0 0.0 0.0 0.0 0.0 0.0 0.0 0.0 0.0 0.0 0.0 -1.1512442590619146e-26 -0.5442396572688689 -0.7673661111166267 -0.229354796466502 -1.3146049461972196e-11 0.0 -1.511583712148294e-25 -7.14586669994025 -7.145866699940251 -1.0424175499402515 -5.974879480466362e-11 0.0 1.3877787807814457e-16 -1.570796314870016 1.5707963705062866 -1.570796314870016 -1.570796314870016 0.0 0.0 0.0 0.0 0.0 0.0 0.0 -1.151244268742903e-26 -0.5442396402359009 -0.7673661112785339 -0.22935479879379272 -1.3146049353263134e-11 0.0 -1.151244268742903e-26 -0.5442396402359009 -0.7673661112785339 -0.22935479879379272 -1.3146049353263134e-11 0.0 -0.29859999735544024 -0.11235000099231766 0.3136499823461779 2.2214412195942916 2.2214412191386654 6.515886891884209e-08 0.0 0.0 0.0 0.0 0.0 0.0 9.240738067961096e-07 3.476881827858294e-07 4.25314629322205e-08 -2.8475662131755526e-08 6.14740536579255e-08 -2.6501512071418584e-15 -0.29859999998320197 -0.11235000001566994 0.31364999997695675 2.2214414693069955 2.2214414688513706 4.556249894594308e-10 0.0 0.0 0.0 0.0 0.0 0.0
154770.528 1.3877787807814457e-16 -1.5707963267948966 1.5707963267948966 -1.5707963267948966 -1.5707963267948966 0.0 0.0 0.0 0.0 0.0 0.0 0.0 0.0 0.0 0.0 0.0 0.0 0.0 -1.1512442590619146e-26 -0.5442396572688689 -0.7673661111166267 -0.229354796466502 -1.3146049461972196e-11 0.0 -1.511583712148294e-25 -7.14586669994025 -7.145866699940251 -1.0424175499402515 -5.974879480466362e-11 0.0 1.3877787807814457e-16 -1.570796314870016 1.5707963705062866 -1.570796314870016 -1.570796314870016 0.0 0.0 0.0 0.0 0.0 0.0 0.0 -1.151244268742903e-26 -0.5442396402359009 -0.7673661112785339 -0.22935479879379272 -1.3146049353263134e-11 0.0 -1.151244268742903e-26 -0.5442396402359009 -0.7673661112785339 -0.22935479879379272 -1.3146049353263134e-11 0.0 -0.29859999735544024 -0.11235000099231766 0.3136499823461779 2.2214412195942916 2.2214412191386654 6.515886891884209e-08 0.0 0.0 0.0 0.0 0.0 0.0 9.240738067961096e-07 3.476881827858294e-07 4.25314629322205e-08 -2.8475662131755526e-08 6.14740536579255e-08 -2.6501512071418584e-15 -0.29859999998320197 -0.11235000001566994 0.31364999997695675 2.2214414693069955 2.2214414688513706 4.556249894594308e-10 0.0 0.0 0.0 0.0 0.0 0.0
154770.536 1.3877787807814457e-16 -1.5707963267948966 1.5707963267948966 -1.5707963267948966 -1.5707963267948966 0.0 0.0 0.0 0.0 0.0 0.0 0.0 0.0 0.0 0.0 0.0 0.0 0.0 -1.1512442590619146e-26 -0.5442396572688689 -0.7673661111166267 -0.229354796466502 -1.3146049461972196e-11 0.0 -1.511583712148294e-25 -7.14586669994025 -7.145866699940251 -1.0424175499402515 -5.974879480466362e-11 0.0 1.3877787807814457e-16 -1.570796314870016 1.5707963705062866 -1.570796314870016 -1.570796314870016 0.0 0.0 0.0 0.0 0.0 0.0 0.0 -1.151244268742903e-26 -0.5442396402359009 -0.7673661112785339 -0.22935479879379272 -1.3146049353263134e-11 0.0 -1.151244268742903e-26 -0.5442396402359009 -0.7673661112785339 -0.22935479879379272 -1.3146049353263134e-11 0.0 -0.29859999735544024 -0.11235000099231766 0.3136499823461779 2.2214412195942916 2.2214412191386654 6.515886891884209e-08 0.0 0.0 0.0 0.0 0.0 0.0 9.240738067961096e-07 3.476881827858294e-07 4.25314629322205e-08 -2.8475662131755526e-08 6.14740536579255e-08 -2.6501512071418584e-15 -0.29859999998320197 -0.11235000001566994 0.31364999997695675 2.2214414693069955 2.2214414688513706 4.556249894594308e-10 0.0 0.0 0.0 0.0 0.0 0.0
154770.544 1.3877787807814457e-16 -1.5707963267948966 1.5707963267948966 -1.5707963267948966 -1.5707963267948966 0.0 0.0 0.0 0.0 0.0 0.0 0.0 0.0 0.0 0.0 0.0 0.0 0.0 -1.1512442590619146e-26 -0.5442396572688689 -0.7673661111166267 -0.229354796466502 -1.3146049461972196e-11 0.0 -1.511583712148294e-25 -7.14586669994025 -7.145866699940251 -1.0424175499402515 -5.974879480466362e-11 0.0 1.3877787807814457e-16 -1.570796314870016 1.5707963705062866 -1.570796314870016 -1.570796314870016 0.0 0.0 0.0 0.0 0.0 0.0 0.0 -1.151244268742903e-26 -0.5442396402359009 -0.7673661112785339 -0.22935479879379272 -1.3146049353263134e-11 0.0 -1.151244268742903e-26 -0.5442396402359009 -0.7673661112785339 -0.22935479879379272 -1.3146049353263134e-11 0.0 -0.29859999735544024 -0.11235000099231766 0.3136499823461779 2.2214412195942916 2.2214412191386654 6.515886891884209e-08 0.0 0.0 0.0 0.0 0.0 0.0 9.240738067961096e-07 3.476881827858294e-07 4.25314629322205e-08 -2.8475662131755526e-08 6.14740536579255e-08 -2.6501512071418584e-15 -0.29859999998320197 -0.11235000001566994 0.31364999997695675 2.2214414693069955 2.2214414688513706 4.556249894594308e-10 0.0 0.0 0.0 0.0 0.0 0.0
154770.552 1.3877787807814457e-16 -1.5707963267948966 1.5707963267948966 -1.5707963267948966 -1.5707963267948966 0.0 0.0 0.0 0.0 0.0 0.0 0.0 0.0 0.0 0.0 0.0 0.0 0.0 -1.1512442590619146e-26 -0.5442396572688689 -0.7673661111166267 -0.229354796466502 -1.3146049461972196e-11 0.0 -1.511583712148294e-25 -7.14586669994025 -7.145866699940251 -1.0424175499402515 -5.974879480466362e-11 0.0 1.3877787807814457e-16 -1.570796314870016 1.5707963705062866 -1.570796314870016 -1.570796314870016 0.0 0.0 0.0 0.0 0.0 0.0 0.0 -1.151244268742903e-26 -0.5442396402359009 -0.7673661112785339 -0.22935479879379272 -1.3146049353263134e-11 0.0 -1.151244268742903e-26 -0.5442396402359009 -0.7673661112785339 -0.22935479879379272 -1.3146049353263134e-11 0.0 -0.29859999735544024 -0.11235000099231766 0.3136499823461779 2.2214412195942916 2.2214412191386654 6.515886891884209e-08 0.0 0.0 0.0 0.0 0.0 0.0 9.240738067961096e-07 3.476881827858294e-07 4.25314629322205e-08 -2.8475662131755526e-08 6.14740536579255e-08 -2.6501512071418584e-15 -0.29859999998320197 -0.11235000001566994 0.31364999997695675 2.2214414693069955 2.2214414688513706 4.556249894594308e-10 0.0 0.0 0.0 0.0 0.0 0.0
154770.56 1.3877787807814457e-16 -1.5707963267948966 1.5707963267948966 -1.5707963267948966 -1.5707963267948966 0.0 0.0 0.0 0.0 0.0 0.0 0.0 0.0 0.0 0.0 0.0 0.0 0.0 -1.1512442590619146e-26 -0.5442396572688689 -0.7673661111166267 -0.229354796466502 -1.3146049461972196e-11 0.0 -1.511583712148294e-25 -7.14586669994025 -7.145866699940251 -1.0424175499402515 -5.974879480466362e-11 0.0 1.3877787807814457e-16 -1.570796314870016 1.5707963705062866 -1.570796314870016 -1.570796314870016 0.0 0.0 0.0 0.0 0.0 0.0 0.0 -1.151244268742903e-26 -0.5442396402359009 -0.7673661112785339 -0.22935479879379272 -1.3146049353263134e-11 0.0 -1.151244268742903e-26 -0.5442396402359009 -0.7673661112785339 -0.22935479879379272 -1.3146049353263134e-11 0.0 -0.29859999735544024 -0.11235000099231766 0.3136499823461779 2.2214412195942916 2.2214412191386654 6.515886891884209e-08 0.0 0.0 0.0 0.0 0.0 0.0 9.240738067961096e-07 3.476881827858294e-07 4.25314629322205e-08 -2.8475662131755526e-08 6.14740536579255e-08 -2.6501512071418584e-15 -0.29859999998320197 -0.11235000001566994 0.31364999997695675 2.2214414693069955 2.2214414688513706 4.556249894594308e-10 0.0 0.0 0.0 0.0 0.0 0.0
154770.568 1.3877787807814457e-16 -1.5707963267948966 1.5707963267948966 -1.5707963267948966 -1.5707963267948966 0.0 0.0 0.0 0.0 0.0 0.0 0.0 0.0 0.0 0.0 0.0 0.0 0.0 -1.1512442590619146e-26 -0.5442396572688689 -0.7673661111166267 -0.229354796466502 -1.3146049461972196e-11 0.0 -1.511583712148294e-25 -7.14586669994025 -7.145866699940251 -1.0424175499402515 -5.974879480466362e-11 0.0 1.3877787807814457e-16 -1.570796314870016 1.5707963705062866 -1.570796314870016 -1.570796314870016 0.0 0.0 0.0 0.0 0.0 0.0 0.0 -1.151244268742903e-26 -0.5442396402359009 -0.7673661112785339 -0.22935479879379272 -1.3146049353263134e-11 0.0 -1.151244268742903e-26 -0.5442396402359009 -0.7673661112785339 -0.22935479879379272 -1.3146049353263134e-11 0.0 -0.29859999735544024 -0.11235000099231766 0.3136499823461779 2.2214412195942916 2.2214412191386654 6.515886891884209e-08 0.0 0.0 0.0 0.0 0.0 0.0 9.240738067961096e-07 3.476881827858294e-07 4.25314629322205e-08 -2.8475662131755526e-08 6.14740536579255e-08 -2.6501512071418584e-15 -0.29859999998320197 -0.11235000001566994 0.31364999997695675 2.2214414693069955 2.2214414688513706 4.556249894594308e-10 0.0 0.0 0.0 0.0 0.0 0.0
154770.576 1.3877787807814457e-16 -1.5707963267948966 1.5707963267948966 -1.5707963267948966 -1.5707963267948966 0.0 0.0 0.0 0.0 0.0 0.0 0.0 0.0 0.0 0.0 0.0 0.0 0.0 -1.1512442590619146e-26 -0.5442396572688689 -0.7673661111166267 -0.229354796466502 -1.3146049461972196e-11 0.0 -1.511583712148294e-25 -7.14586669994025 -7.145866699940251 -1.0424175499402515 -5.974879480466362e-11 0.0 1.3877787807814457e-16 -1.570796314870016 1.5707963705062866 -1.570796314870016 -1.570796314870016 0.0 0.0 0.0 0.0 0.0 0.0 0.0 -1.151244268742903e-26 -0.5442396402359009 -0.7673661112785339 -0.22935479879379272 -1.3146049353263134e-11 0.0 -1.151244268742903e-26 -0.5442396402359009 -0.7673661112785339 -0.22935479879379272 -1.3146049353263134e-11 0.0 -0.29859999735544024 -0.11235000099231766 0.3136499823461779 2.2214412195942916 2.2214412191386654 6.515886891884209e-08 0.0 0.0 0.0 0.0 0.0 0.0 9.240738067961096e-07 3.476881827858294e-07 4.25314629322205e-08 -2.8475662131755526e-08 6.14740536579255e-08 -2.6501512071418584e-15 -0.29859999998320197 -0.11235000001566994 0.31364999997695675 2.2214414693069955 2.2214414688513706 4.556249894594308e-10 0.0 0.0 0.0 0.0 0.0 0.0
154770.584 1.3877787807814457e-16 -1.5707963267948966 1.5707963267948966 -1.5707963267948966 -1.5707963267948966 0.0 0.0 0.0 0.0 0.0 0.0 0.0 0.0 0.0 0.0 0.0 0.0 0.0 -1.1512442590619146e-26 -0.5442396572688689 -0.7673661111166267 -0.229354796466502 -1.3146049461972196e-11 0.0 -1.511583712148294e-25 -7.14586669994025 -7.145866699940251 -1.0424175499402515 -5.974879480466362e-11 0.0 1.3877787807814457e-16 -1.570796314870016 1.5707963705062866 -1.570796314870016 -1.570796314870016 0.0 0.0 0.0 0.0 0.0 0.0 0.0 -1.151244268742903e-26 -0.5442396402359009 -0.7673661112785339 -0.22935479879379272 -1.3146049353263134e-11 0.0 -1.151244268742903e-26 -0.5442396402359009 -0.7673661112785339 -0.22935479879379272 -1.3146049353263134e-11 0.0 -0.29859999735544024 -0.11235000099231766 0.3136499823461779 2.2214412195942916 2.2214412191386654 6.515886891884209e-08 0.0 0.0 0.0 0.0 0.0 0.0 9.240738067961096e-07 3.476881827858294e-07 4.25314629322205e-08 -2.8475662131755526e-08 6.14740536579255e-08 -2.6501512071418584e-15 -0.29859999998320197 -0.11235000001566994 0.31364999997695675 2.2214414693069955 2.2214414688513706 4.556249894594308e-10 0.0 0.0 0.0 0.0 0.0 0.0
154770.592 1.3877787807814457e-16 -1.5707963267948966 1.5707963267948966 -1.5707963267948966 -1.5707963267948966 0.0 0.0 0.0 0.0 0.0 0.0 0.0 0.0 0.0 0.0 0.0 0.0 0.0 -1.1512442590619146e-26 -0.5442396572688689 -0.7673661111166267 -0.229354796466502 -1.3146049461972196e-11 0.0 -1.511583712148294e-25 -7.14586669994025 -7.145866699940251 -1.0424175499402515 -5.974879480466362e-11 0.0 1.3877787807814457e-16 -1.570796314870016 1.5707963705062866 -1.570796314870016 -1.570796314870016 0.0 0.0 0.0 0.0 0.0 0.0 0.0 -1.151244268742903e-26 -0.5442396402359009 -0.7673661112785339 -0.22935479879379272 -1.3146049353263134e-11 0.0 -1.151244268742903e-26 -0.5442396402359009 -0.7673661112785339 -0.22935479879379272 -1.3146049353263134e-11 0.0 -0.29859999735544024 -0.11235000099231766 0.3136499823461779 2.2214412195942916 2.2214412191386654 6.515886891884209e-08 0.0 0.0 0.0 0.0 0.0 0.0 9.240738067961096e-07 3.476881827858294e-07 4.25314629322205e-08 -2.8475662131755526e-08 6.14740536579255e-08 -2.6501512071418584e-15 -0.29859999998320197 -0.11235000001566994 0.31364999997695675 2.2214414693069955 2.2214414688513706 4.556249894594308e-10 0.0 0.0 0.0 0.0 0.0 0.0
154770.6 1.3877787807814457e-16 -1.5707963267948966 1.5707963267948966 -1.5707963267948966 -1.5707963267948966 0.0 0.0 0.0 0.0 0.0 0.0 0.0 0.0 0.0 0.0 0.0 0.0 0.0 -1.1512442590619146e-26 -0.5442396572688689 -0.7673661111166267 -0.229354796466502 -1.3146049461972196e-11 0.0 -1.511583712148294e-25 -7.14586669994025 -7.145866699940251 -1.0424175499402515 -5.974879480466362e-11 0.0 1.3877787807814457e-16 -1.570796314870016 1.5707963705062866 -1.570796314870016 -1.570796314870016 0.0 0.0 0.0 0.0 0.0 0.0 0.0 -1.151244268742903e-26 -0.5442396402359009 -0.7673661112785339 -0.22935479879379272 -1.3146049353263134e-11 0.0 -1.151244268742903e-26 -0.5442396402359009 -0.7673661112785339 -0.22935479879379272 -1.3146049353263134e-11 0.0 -0.29859999735544024 -0.11235000099231766 0.3136499823461779 2.2214412195942916 2.2214412191386654 6.515886891884209e-08 0.0 0.0 0.0 0.0 0.0 0.0 9.240738067961096e-07 3.476881827858294e-07 4.25314629322205e-08 -2.8475662131755526e-08 6.14740536579255e-08 -2.6501512071418584e-15 -0.29859999998320197 -0.11235000001566994 0.31364999997695675 2.2214414693069955 2.2214414688513706 4.556249894594308e-10 0.0 0.0 0.0 0.0 0.0 0.0
154770.608 1.3877787807814457e-16 -1.5707963267948966 1.5707963267948966 -1.5707963267948966 -1.5707963267948966 0.0 0.0 0.0 0.0 0.0 0.0 0.0 0.0 0.0 0.0 0.0 0.0 0.0 -1.1512442590619146e-26 -0.5442396572688689 -0.7673661111166267 -0.229354796466502 -1.3146049461972196e-11 0.0 -1.511583712148294e-25 -7.14586669994025 -7.145866699940251 -1.0424175499402515 -5.974879480466362e-11 0.0 1.3877787807814457e-16 -1.570796314870016 1.5707963705062866 -1.570796314870016 -1.570796314870016 0.0 0.0 0.0 0.0 0.0 0.0 0.0 -1.151244268742903e-26 -0.5442396402359009 -0.7673661112785339 -0.22935479879379272 -1.3146049353263134e-11 0.0 -1.151244268742903e-26 -0.5442396402359009 -0.7673661112785339 -0.22935479879379272 -1.3146049353263134e-11 0.0 -0.29859999735544024 -0.11235000099231766 0.3136499823461779 2.2214412195942916 2.2214412191386654 6.515886891884209e-08 0.0 0.0 0.0 0.0 0.0 0.0 9.240738067961096e-07 3.476881827858294e-07 4.25314629322205e-08 -2.8475662131755526e-08 6.14740536579255e-08 -2.6501512071418584e-15 -0.29859999998320197 -0.11235000001566994 0.31364999997695675 2.2214414693069955 2.2214414688513706 4.556249894594308e-10 0.0 0.0 0.0 0.0 0.0 0.0
154770.61599999998 1.3877787807814457e-16 -1.5707963267948966 1.5707963267948966 -1.5707963267948966 -1.5707963267948966 0.0 0.0 0.0 0.0 0.0 0.0 0.0 0.0 0.0 0.0 0.0 0.0 0.0 -1.1512442590619146e-26 -0.5442396572688689 -0.7673661111166267 -0.229354796466502 -1.3146049461972196e-11 0.0 -1.511583712148294e-25 -7.14586669994025 -7.145866699940251 -1.0424175499402515 -5.974879480466362e-11 0.0 1.3877787807814457e-16 -1.570796314870016 1.5707963705062866 -1.570796314870016 -1.570796314870016 0.0 0.0 0.0 0.0 0.0 0.0 0.0 -1.151244268742903e-26 -0.5442396402359009 -0.7673661112785339 -0.22935479879379272 -1.3146049353263134e-11 0.0 -1.151244268742903e-26 -0.5442396402359009 -0.7673661112785339 -0.22935479879379272 -1.3146049353263134e-11 0.0 -0.29859999735544024 -0.11235000099231766 0.3136499823461779 2.2214412195942916 2.2214412191386654 6.515886891884209e-08 0.0 0.0 0.0 0.0 0.0 0.0 9.240738067961096e-07 3.476881827858294e-07 4.25314629322205e-08 -2.8475662131755526e-08 6.14740536579255e-08 -2.6501512071418584e-15 -0.29859999998320197 -0.11235000001566994 0.31364999997695675 2.2214414693069955 2.2214414688513706 4.556249894594308e-10 0.0 0.0 0.0 0.0 0.0 0.0
154770.62399999998 1.3877787807814457e-16 -1.5707963267948966 1.5707963267948966 -1.5707963267948966 -1.5707963267948966 0.0 0.0 0.0 0.0 0.0 0.0 0.0 0.0 0.0 0.0 0.0 0.0 0.0 -1.1512442590619146e-26 -0.5442396572688689 -0.7673661111166267 -0.229354796466502 -1.3146049461972196e-11 0.0 -1.511583712148294e-25 -7.14586669994025 -7.145866699940251 -1.0424175499402515 -5.974879480466362e-11 0.0 1.3877787807814457e-16 -1.570796314870016 1.5707963705062866 -1.570796314870016 -1.570796314870016 0.0 0.0 0.0 0.0 0.0 0.0 0.0 -1.151244268742903e-26 -0.5442396402359009 -0.7673661112785339 -0.22935479879379272 -1.3146049353263134e-11 0.0 -1.151244268742903e-26 -0.5442396402359009 -0.7673661112785339 -0.22935479879379272 -1.3146049353263134e-11 0.0 -0.29859999735544024 -0.11235000099231766 0.3136499823461779 2.2214412195942916 2.2214412191386654 6.515886891884209e-08 0.0 0.0 0.0 0.0 0.0 0.0 9.240738067961096e-07 3.476881827858294e-07 4.25314629322205e-08 -2.8475662131755526e-08 6.14740536579255e-08 -2.6501512071418584e-15 -0.29859999998320197 -0.11235000001566994 0.31364999997695675 2.2214414693069955 2.2214414688513706 4.556249894594308e-10 0.0 0.0 0.0 0.0 0.0 0.0
154770.63199999998 1.3877787807814457e-16 -1.5707963267948966 1.5707963267948966 -1.5707963267948966 -1.5707963267948966 0.0 0.0 0.0 0.0 0.0 0.0 0.0 0.0 0.0 0.0 0.0 0.0 0.0 -1.1512442590619146e-26 -0.5442396572688689 -0.7673661111166267 -0.229354796466502 -1.3146049461972196e-11 0.0 -1.511583712148294e-25 -7.14586669994025 -7.145866699940251 -1.0424175499402515 -5.974879480466362e-11 0.0 1.3877787807814457e-16 -1.570796314870016 1.5707963705062866 -1.570796314870016 -1.570796314870016 0.0 0.0 0.0 0.0 0.0 0.0 0.0 -1.151244268742903e-26 -0.5442396402359009 -0.7673661112785339 -0.22935479879379272 -1.3146049353263134e-11 0.0 -1.151244268742903e-26 -0.5442396402359009 -0.7673661112785339 -0.22935479879379272 -1.3146049353263134e-11 0.0 -0.29859999735544024 -0.11235000099231766 0.3136499823461779 2.2214412195942916 2.2214412191386654 6.515886891884209e-08 0.0 0.0 0.0 0.0 0.0 0.0 9.240738067961096e-07 3.476881827858294e-07 4.25314629322205e-08 -2.8475662131755526e-08 6.14740536579255e-08 -2.6501512071418584e-15 -0.29859999998320197 -0.11235000001566994 0.31364999997695675 2.2214414693069955 2.2214414688513706 4.556249894594308e-10 0.0 0.0 0.0 0.0 0.0 0.0
154770.63999999998 1.3877787807814457e-16 -1.5707963267948966 1.5707963267948966 -1.5707963267948966 -1.5707963267948966 0.0 0.0 0.0 0.0 0.0 0.0 0.0 0.0 0.0 0.0 0.0 0.0 0.0 -1.1512442590619146e-26 -0.5442396572688689 -0.7673661111166267 -0.229354796466502 -1.3146049461972196e-11 0.0 -1.511583712148294e-25 -7.14586669994025 -7.145866699940251 -1.0424175499402515 -5.974879480466362e-11 0.0 1.3877787807814457e-16 -1.570796314870016 1.5707963705062866 -1.570796314870016 -1.570796314870016 0.0 0.0 0.0 0.0 0.0 0.0 0.0 -1.151244268742903e-26 -0.5442396402359009 -0.7673661112785339 -0.22935479879379272 -1.3146049353263134e-11 0.0 -1.151244268742903e-26 -0.5442396402359009 -0.7673661112785339 -0.22935479879379272 -1.3146049353263134e-11 0.0 -0.29859999735544024 -0.11235000099231766 0.3136499823461779 2.2214412195942916 2.2214412191386654 6.515886891884209e-08 0.0 0.0 0.0 0.0 0.0 0.0 9.240738067961096e-07 3.476881827858294e-07 4.25314629322205e-08 -2.8475662131755526e-08 6.14740536579255e-08 -2.6501512071418584e-15 -0.29859999998320197 -0.11235000001566994 0.31364999997695675 2.2214414693069955 2.2214414688513706 4.556249894594308e-10 0.0 0.0 0.0 0.0 0.0 0.0
154770.648 1.3877787807814457e-16 -1.5707963267948966 1.5707963267948966 -1.5707963267948966 -1.5707963267948966 0.0 0.0 0.0 0.0 0.0 0.0 0.0 0.0 0.0 0.0 0.0 0.0 0.0 -1.1512442590619146e-26 -0.5442396572688689 -0.7673661111166267 -0.229354796466502 -1.3146049461972196e-11 0.0 -1.511583712148294e-25 -7.14586669994025 -7.145866699940251 -1.0424175499402515 -5.974879480466362e-11 0.0 1.3877787807814457e-16 -1.570796314870016 1.5707963705062866 -1.570796314870016 -1.570796314870016 0.0 0.0 0.0 0.0 0.0 0.0 0.0 -1.151244268742903e-26 -0.5442396402359009 -0.7673661112785339 -0.22935479879379272 -1.3146049353263134e-11 0.0 -1.151244268742903e-26 -0.5442396402359009 -0.7673661112785339 -0.22935479879379272 -1.3146049353263134e-11 0.0 -0.29859999735544024 -0.11235000099231766 0.3136499823461779 2.2214412195942916 2.2214412191386654 6.515886891884209e-08 0.0 0.0 0.0 0.0 0.0 0.0 9.240738067961096e-07 3.476881827858294e-07 4.25314629322205e-08 -2.8475662131755526e-08 6.14740536579255e-08 -2.6501512071418584e-15 -0.29859999998320197 -0.11235000001566994 0.31364999997695675 2.2214414693069955 2.2214414688513706 4.556249894594308e-10 0.0 0.0 0.0 0.0 0.0 0.0
154770.656 1.3877787807814457e-16 -1.5707963267948966 1.5707963267948966 -1.5707963267948966 -1.5707963267948966 0.0 0.0 0.0 0.0 0.0 0.0 0.0 0.0 0.0 0.0 0.0 0.0 0.0 -1.1512442590619146e-26 -0.5442396572688689 -0.7673661111166267 -0.229354796466502 -1.3146049461972196e-11 0.0 -1.511583712148294e-25 -7.14586669994025 -7.145866699940251 -1.0424175499402515 -5.974879480466362e-11 0.0 1.3877787807814457e-16 -1.570796314870016 1.5707963705062866 -1.570796314870016 -1.570796314870016 0.0 0.0 0.0 0.0 0.0 0.0 0.0 -1.151244268742903e-26 -0.5442396402359009 -0.7673661112785339 -0.22935479879379272 -1.3146049353263134e-11 0.0 -1.151244268742903e-26 -0.5442396402359009 -0.7673661112785339 -0.22935479879379272 -1.3146049353263134e-11 0.0 -0.29859999735544024 -0.11235000099231766 0.3136499823461779 2.2214412195942916 2.2214412191386654 6.515886891884209e-08 0.0 0.0 0.0 0.0 0.0 0.0 9.240738067961096e-07 3.476881827858294e-07 4.25314629322205e-08 -2.8475662131755526e-08 6.14740536579255e-08 -2.6501512071418584e-15 -0.29859999998320197 -0.11235000001566994 0.31364999997695675 2.2214414693069955 2.2214414688513706 4.556249894594308e-10 0.0 0.0 0.0 0.0 0.0 0.0
154770.664 1.3877787807814457e-16 -1.5707963267948966 1.5707963267948966 -1.5707963267948966 -1.5707963267948966 0.0 0.0 0.0 0.0 0.0 0.0 0.0 0.0 0.0 0.0 0.0 0.0 0.0 -1.1512442590619146e-26 -0.5442396572688689 -0.7673661111166267 -0.229354796466502 -1.3146049461972196e-11 0.0 -1.511583712148294e-25 -7.14586669994025 -7.145866699940251 -1.0424175499402515 -5.974879480466362e-11 0.0 1.3877787807814457e-16 -1.570796314870016 1.5707963705062866 -1.570796314870016 -1.570796314870016 0.0 0.0 0.0 0.0 0.0 0.0 0.0 -1.151244268742903e-26 -0.5442396402359009 -0.7673661112785339 -0.22935479879379272 -1.3146049353263134e-11 0.0 -1.151244268742903e-26 -0.5442396402359009 -0.7673661112785339 -0.22935479879379272 -1.3146049353263134e-11 0.0 -0.29859999735544024 -0.11235000099231766 0.3136499823461779 2.2214412195942916 2.2214412191386654 6.515886891884209e-08 0.0 0.0 0.0 0.0 0.0 0.0 9.240738067961096e-07 3.476881827858294e-07 4.25314629322205e-08 -2.8475662131755526e-08 6.14740536579255e-08 -2.6501512071418584e-15 -0.29859999998320197 -0.11235000001566994 0.31364999997695675 2.2214414693069955 2.2214414688513706 4.556249894594308e-10 0.0 0.0 0.0 0.0 0.0 0.0
154770.672 1.3877787807814457e-16 -1.5707963267948966 1.5707963267948966 -1.5707963267948966 -1.5707963267948966 0.0 0.0 0.0 0.0 0.0 0.0 0.0 0.0 0.0 0.0 0.0 0.0 0.0 -1.1512442590619146e-26 -0.5442396572688689 -0.7673661111166267 -0.229354796466502 -1.3146049461972196e-11 0.0 -1.511583712148294e-25 -7.14586669994025 -7.145866699940251 -1.0424175499402515 -5.974879480466362e-11 0.0 1.3877787807814457e-16 -1.570796314870016 1.5707963705062866 -1.570796314870016 -1.570796314870016 0.0 0.0 0.0 0.0 0.0 0.0 0.0 -1.151244268742903e-26 -0.5442396402359009 -0.7673661112785339 -0.22935479879379272 -1.3146049353263134e-11 0.0 -1.151244268742903e-26 -0.5442396402359009 -0.7673661112785339 -0.22935479879379272 -1.3146049353263134e-11 0.0 -0.29859999735544024 -0.11235000099231766 0.3136499823461779 2.2214412195942916 2.2214412191386654 6.515886891884209e-08 0.0 0.0 0.0 0.0 0.0 0.0 9.240738067961096e-07 3.476881827858294e-07 4.25314629322205e-08 -2.8475662131755526e-08 6.14740536579255e-08 -2.6501512071418584e-15 -0.29859999998320197 -0.11235000001566994 0.31364999997695675 2.2214414693069955 2.2214414688513706 4.556249894594308e-10 0.0 0.0 0.0 0.0 0.0 0.0
154770.68 1.3877787807814457e-16 -1.5707963267948966 1.5707963267948966 -1.5707963267948966 -1.5707963267948966 0.0 0.0 0.0 0.0 0.0 0.0 0.0 0.0 0.0 0.0 0.0 0.0 0.0 -1.1512442590619146e-26 -0.5442396572688689 -0.7673661111166267 -0.229354796466502 -1.3146049461972196e-11 0.0 -1.511583712148294e-25 -7.14586669994025 -7.145866699940251 -1.0424175499402515 -5.974879480466362e-11 0.0 1.3877787807814457e-16 -1.570796314870016 1.5707963705062866 -1.570796314870016 -1.570796314870016 0.0 0.0 0.0 0.0 0.0 0.0 0.0 -1.151244268742903e-26 -0.5442396402359009 -0.7673661112785339 -0.22935479879379272 -1.3146049353263134e-11 0.0 -1.151244268742903e-26 -0.5442396402359009 -0.7673661112785339 -0.22935479879379272 -1.3146049353263134e-11 0.0 -0.29859999735544024 -0.11235000099231766 0.3136499823461779 2.2214412195942916 2.2214412191386654 6.515886891884209e-08 0.0 0.0 0.0 0.0 0.0 0.0 9.240738067961096e-07 3.476881827858294e-07 4.25314629322205e-08 -2.8475662131755526e-08 6.14740536579255e-08 -2.6501512071418584e-15 -0.29859999998320197 -0.11235000001566994 0.31364999997695675 2.2214414693069955 2.2214414688513706 4.556249894594308e-10 0.0 0.0 0.0 0.0 0.0 0.0
154770.688 1.3877787807814457e-16 -1.5707963267948966 1.5707963267948966 -1.5707963267948966 -1.5707963267948966 0.0 0.0 0.0 0.0 0.0 0.0 0.0 0.0 0.0 0.0 0.0 0.0 0.0 -1.1512442590619146e-26 -0.5442396572688689 -0.7673661111166267 -0.229354796466502 -1.3146049461972196e-11 0.0 -1.511583712148294e-25 -7.14586669994025 -7.145866699940251 -1.0424175499402515 -5.974879480466362e-11 0.0 1.3877787807814457e-16 -1.570796314870016 1.5707963705062866 -1.570796314870016 -1.570796314870016 0.0 0.0 0.0 0.0 0.0 0.0 0.0 -1.151244268742903e-26 -0.5442396402359009 -0.7673661112785339 -0.22935479879379272 -1.3146049353263134e-11 0.0 -1.151244268742903e-26 -0.5442396402359009 -0.7673661112785339 -0.22935479879379272 -1.3146049353263134e-11 0.0 -0.29859999735544024 -0.11235000099231766 0.3136499823461779 2.2214412195942916 2.2214412191386654 6.515886891884209e-08 0.0 0.0 0.0 0.0 0.0 0.0 9.240738067961096e-07 3.476881827858294e-07 4.25314629322205e-08 -2.8475662131755526e-08 6.14740536579255e-08 -2.6501512071418584e-15 -0.29859999998320197 -0.11235000001566994 0.31364999997695675 2.2214414693069955 2.2214414688513706 4.556249894594308e-10 0.0 0.0 0.0 0.0 0.0 0.0
154770.696 1.3877787807814457e-16 -1.5707963267948966 1.5707963267948966 -1.5707963267948966 -1.5707963267948966 0.0 0.0 0.0 0.0 0.0 0.0 0.0 0.0 0.0 0.0 0.0 0.0 0.0 -1.1512442590619146e-26 -0.5442396572688689 -0.7673661111166267 -0.229354796466502 -1.3146049461972196e-11 0.0 -1.511583712148294e-25 -7.14586669994025 -7.145866699940251 -1.0424175499402515 -5.974879480466362e-11 0.0 1.3877787807814457e-16 -1.570796314870016 1.5707963705062866 -1.570796314870016 -1.570796314870016 0.0 0.0 0.0 0.0 0.0 0.0 0.0 -1.151244268742903e-26 -0.5442396402359009 -0.7673661112785339 -0.22935479879379272 -1.3146049353263134e-11 0.0 -1.151244268742903e-26 -0.5442396402359009 -0.7673661112785339 -0.22935479879379272 -1.3146049353263134e-11 0.0 -0.29859999735544024 -0.11235000099231766 0.3136499823461779 2.2214412195942916 2.2214412191386654 6.515886891884209e-08 0.0 0.0 0.0 0.0 0.0 0.0 9.240738067961096e-07 3.476881827858294e-07 4.25314629322205e-08 -2.8475662131755526e-08 6.14740536579255e-08 -2.6501512071418584e-15 -0.29859999998320197 -0.11235000001566994 0.31364999997695675 2.2214414693069955 2.2214414688513706 4.556249894594308e-10 0.0 0.0 0.0 0.0 0.0 0.0
