mkrssg/UniversalRobots/rtde_client_3.5/examples/falscheWerte da mit movel/q1_0-180.csv
timestamp target_q_0 target_q_1 target_q_2 target_q_3 target_q_4 target_q_5 target_qd_0 target_qd_1 target_qd_2 target_qd_3 target_qd_4 target_qd_5 target_qdd_0 target_qdd_1 target_qdd_2 target_qdd_3 target_qdd_4 target_qdd_5 target_current_0 target_current_1 target_current_2 target_current_3 target_current_4 target_current_5 target_moment_0 target_moment_1 target_moment_2 target_moment_3 target_moment_4 target_moment_5 actual_q_0 actual_q_1 actual_q_2 actual_q_3 actual_q_4 actual_q_5 actual_qd_0 actual_qd_1 actual_qd_2 actual_qd_3 actual_qd_4 actual_qd_5 actual_current_0 actual_current_1 actual_current_2 actual_current_3 actual_current_4 actual_current_5 joint_control_output_0 joint_control_output_1 joint_control_output_2 joint_control_output_3 joint_control_output_4 joint_control_output_5 actual_TCP_pose_0 actual_TCP_pose_1 actual_TCP_pose_2 actual_TCP_pose_3 actual_TCP_pose_4 actual_TCP_pose_5 actual_TCP_speed_0 actual_TCP_speed_1 actual_TCP_speed_2 actual_TCP_speed_3 actual_TCP_speed_4 actual_TCP_speed_5 actual_TCP_force_0 actual_TCP_force_1 actual_TCP_force_2 actual_TCP_force_3 actual_TCP_force_4 actual_TCP_force_5 target_TCP_pose_0 target_TCP_pose_1 target_TCP_pose_2 target_TCP_pose_3 target_TCP_pose_4 target_TCP_pose_5 target_TCP_speed_0 target_TCP_speed_1 target_TCP_speed_2 target_TCP_speed_3 target_TCP_speed_4 target_TCP_speed_5
153964.92799999999 0.0 -1.5707963267948966 1.5707963267948966 -1.5707963267948966 -1.5707963267948966 0.0 0.0 0.0 0.0 0.0 0.0 0.0 0.0 0.0 0.0 0.0 0.0 0.0 -1.1512442590619146e-26 -0.5442396572688689 -0.7673661111166267 -0.229354796466502 -1.3146049461972196e-11 0.0 -1.511583712148294e-25 -7.14586669994025 -7.145866699940251 -1.0424175499402515 -5.974879480466362e-11 0.0 0.0 -1.570796314870016 1.5707963705062866 -1.570796314870016 -1.570796314870016 0.0 0.0 0.0 0.0 0.0 0.0 0.0 -1.151244268742903e-26 -0.5442396402359009 -0.7673661112785339 -0.22935479879379272 -1.3146049353263134e-11 0.0 -1.151244268742903e-26 -0.5442396402359009 -0.7673661112785339 -0.22935479879379272 -1.3146049353263134e-11 0.0 -0.2985999973554403 -0.11235000099231761 0.3136499823461779 2.2214412195942916 2.2214412191386654 6.515886891884208e-08 0.0 0.0 0.0 0.0 0.0 0.0 9.240738067961096e-07 3.4768818278582924e-07 4.253146293222068e-08 -2.8475662131755493e-08 6.147405365792544e-08 -2.650151154611292e-15 -0.29859999998320197 -0.1123500000156699 0.31364999997695675 2.221441469306996 2.22144146885137 4.556249894594308e-10 0.0 0.0 0.0 0.0 0.0 0.0
153964.936 0.0 -1.5707963267948966 1.5707963267948966 -1.5707963267948966 -1.5707963267948966 0.0 0.0 0.0 0.0 0.0 0.0 0.0 0.0 0.0 0.0 0.0 0.0 0.0 -1.1512442590619146e-26 -0.5442396572688689 -0.7673661111166267 -0.229354796466502 -1.3146049461972196e-11 0.0 -1.511583712148294e-25 -7.14586669994025 -7.145866699940251 -1.0424175499402515 -5.974879480466362e-11 0.0 0.0 -1.570796314870016 1.5707963705062866 -1.570796314870016 -1.570796314870016 0.0 0.0 0.0 0.0 0.0 0.0 0.0 -1.151244268742903e-26 -0.5442396402359009 -0.7673661112785339 -0.22935479879379272 -1.3146049353263134e-11 0.0 -1.151244268742903e-26 -0.5442396402359009 -0.7673661112785339 -0.22935479879379272 -1.3146049353263134e-11 0.0 -0.2985999973554403 -0.11235000099231761 0.3136499823461779 2.2214412195942916 2.2214412191386654 6.515886891884208e-08 0.0 0.0 0.0 0.0 0.0 0.0 9.240738067961096e-07 3.4768818278582924e-07 4.253146293222068e-08 -2.8475662131755493e-08 6.147405365792544e-08 -2.650151154611292e-15 -0.29859999998320197 -0.1123500000156699 0.31364999997695675 2.221441469306996 2.22144146885137 4.556249894594308e-10 0.0 0.0 0.0 0.0 0.0 0.0
153964.944 0.0 -1.5707963267948966 1.5707963267948966 -1.5707963267948966 -1.5707963267948966 0.0 0.0 0.0 0.0 0.0 0.0 0.0 0.0 0.0 0.0 0.0 0.0 0.0 -1.1512442590619146e-26 -0.5442396572688689 -0.7673661111166267 -0.229354796466502 -1.3146049461972196e-11 0.0 -1.511583712148294e-25 -7.14586669994025 -7.145866699940251 -1.0424175499402515 -5.974879480466362e-11 0.0 0.0 -1.570796314870016 1.5707963705062866 -1.570796314870016 -1.570796314870016 0.0 0.0 0.0 0.0 0.0 0.0 0.0 -1.151244268742903e-26 -0.5442396402359009 -0.7673661112785339 -0.22935479879379272 -1.3146049353263134e-11 0.0 -1.151244268742903e-26 -0.5442396402359009 -0.7673661112785339 -0.22935479879379272 -1.3146049353263134e-11 0.0 -0.2985999973554403 -0.11235000099231761 0.3136499823461779 2.2214412195942916 2.2214412191386654 6.515886891884208e-08 0.0 0.0 0.0 0.0 0.0 0.0 9.240738067961096e-07 3.4768818278582924e-07 4.253146293222068e-08 -2.8475662131755493e-08 6.147405365792544e-08 -2.650151154611292e-15 -0.29859999998320197 -0.1123500000156699 0.31364999997695675 2.221441469306996 2.22144146885137 4.556249894594308e-10 0.0 0.0 0.0 0.0 0.0 0.0
153964.952 0.0 -1.5707963267948966 1.5707963267948966 -1.5707963267948966 -1.5707963267948966 0.0 0.0 0.0 0.0 0.0 0.0 0.0 0.0 0.0 0.0 0.0 0.0 0.0 -1.1512442590619146e-26 -0.5442396572688689 -0.7673661111166267 -0.229354796466502 -1.3146049461972196e-11 0.0 -1.511583712148294e-25 -7.14586669994025 -7.145866699940251 -1.0424175499402515 -5.974879480466362e-11 0.0 0.0 -1.570796314870016 1.5707963705062866 -1.570796314870016 -1.570796314870016 0.0 0.0 0.0 0.0 0.0 0.0 0.0 -1.151244268742903e-26 -0.5442396402359009 -0.7673661112785339 -0.22935479879379272 -1.3146049353263134e-11 0.0 -1.151244268742903e-26 -0.5442396402359009 -0.7673661112785339 -0.22935479879379272 -1.3146049353263134e-11 0.0 -0.2985999973554403 -0.11235000099231761 0.3136499823461779 2.2214412195942916 2.2214412191386654 6.515886891884208e-08 0.0 0.0 0.0 0.0 0.0 0.0 9.240738067961096e-07 3.4768818278582924e-07 4.253146293222068e-08 -2.8475662131755493e-08 6.147405365792544e-08 -2.650151154611292e-15 -0.29859999998320197 -0.1123500000156699 0.31364999997695675 2.221441469306996 2.22144146885137 4.556249894594308e-10 0.0 0.0 0.0 0.0 0.0 0.0
153964.96 0.0 -1.5707963267948966 1.5707963267948966 -1.5707963267948966 -1.5707963267948966 0.0 0.0 0.0 0.0 0.0 0.0 0.0 0.0 0.0 0.0 0.0 0.0 0.0 -1.1512442590619146e-26 -0.5442396572688689 -0.7673661111166267 -0.229354796466502 -1.3146049461972196e-11 0.0 -1.511583712148294e-25 -7.14586669994025 -7.145866699940251 -1.0424175499402515 -5.974879480466362e-11 0.0 0.0 -1.570796314870016 1.5707963705062866 -1.570796314870016 -1.570796314870016 0.0 0.0 0.0 0.0 0.0 0.0 0.0 -1.151244268742903e-26 -0.5442396402359009 -0.7673661112785339 -0.22935479879379272 -1.3146049353263134e-11 0.0 -1.151244268742903e-26 -0.5442396402359009 -0.7673661112785339 -0.22935479879379272 -1.3146049353263134e-11 0.0 -0.2985999973554403 -0.11235000099231761 0.3136499823461779 2.2214412195942916 2.2214412191386654 6.515886891884208e-08 0.0 0.0 0.0 0.0 0.0 0.0 9.240738067961096e-07 3.4768818278582924e-07 4.253146293222068e-08 -2.8475662131755493e-08 6.147405365792544e-08 -2.650151154611292e-15 -0.29859999998320197 -0.1123500000156699 0.31364999997695675 2.221441469306996 2.22144146885137 4.556249894594308e-10 0.0 0.0 0.0 0.0 0.0 0.0
153964.968 0.0 -1.5707963267948966 1.5707963267948966 -1.5707963267948966 -1.5707963267948966 0.0 0.0 0.0 0.0 0.0 0.0 0.0 0.0 0.0 0.0 0.0 0.0 0.0 -1.1512442590619146e-26 -0.5442396572688689 -0.7673661111166267 -0.229354796466502 -1.3146049461972196e-11 0.0 -1.511583712148294e-25 -7.14586669994025 -7.145866699940251 -1.0424175499402515 -5.974879480466362e-11 0.0 0.0 -1.570796314870016 1.5707963705062866 -1.570796314870016 -1.570796314870016 0.0 0.0 0.0 0.0 0.0 0.0 0.0 -1.151244268742903e-26 -0.5442396402359009 -0.7673661112785339 -0.22935479879379272 -1.3146049353263134e-11 0.0 -1.151244268742903e-26 -0.5442396402359009 -0.7673661112785339 -0.22935479879379272 -1.3146049353263134e-11 0.0 -0.2985999973554403 -0.11235000099231761 0.3136499823461779 2.2214412195942916 2.2214412191386654 6.515886891884208e-08 0.0 0.0 0.0 0.0 0.0 0.0 9.240738067961096e-07 3.4768818278582924e-07 4.253146293222068e-08 -2.8475662131755493e-08 6.147405365792544e-08 -2.650151154611292e-15 -0.29859999998320197 -0.1123500000156699 0.31364999997695675 2.221441469306996 2.22144146885137 4.556249894594308e-10 0.0 0.0 0.0 0.0 0.0 0.0
153964.976 0.0 -1.5707963267948966 1.5707963267948966 -1.5707963267948966 -1.5707963267948966 0.0 0.0 0.0 0.0 0.0 0.0 0.0 0.0 0.0 0.0 0.0 0.0 0.0 -1.1512442590619146e-26 -0.5442396572688689 -0.7673661111166267 -0.229354796466502 -1.3146049461972196e-11 0.0 -1.511583712148294e-25 -7.14586669994025 -7.145866699940251 -1.0424175499402515 -5.974879480466362e-11 0.0 0.0 -1.570796314870016 1.5707963705062866 -1.570796314870016 -1.570796314870016 0.0 0.0 0.0 0.0 0.0 0.0 0.0 -1.151244268742903e-26 -0.5442396402359009 -0.7673661112785339 -0.22935479879379272 -1.3146049353263134e-11 0.0 -1.151244268742903e-26 -0.5442396402359009 -0.7673661112785339 -0.22935479879379272 -1.3146049353263134e-11 0.0 -0.2985999973554403 -0.11235000099231761 0.3136499823461779 2.2214412195942916 2.2214412191386654 6.515886891884208e-08 0.0 0.0 0.0 0.0 0.0 0.0 9.240738067961096e-07 3.4768818278582924e-07 4.253146293222068e-08 -2.8475662131755493e-08 6.147405365792544e-08 -2.650151154611292e-15 -0.29859999998320197 -0.1123500000156699 0.31364999997695675 2.221441469306996 2.22144146885137 4.556249894594308e-10 0.0 0.0 0.0 0.0 0.0 0.0
153964.984 0.0 -1.5707963267948966 1.5707963267948966 -1.5707963267948966 -1.5707963267948966 0.0 0.0 0.0 0.0 0.0 0.0 0.0 0.0 0.0 0.0 0.0 0.0 0.0 -1.1512442590619146e-26 -0.5442396572688689 -0.7673661111166267 -0.229354796466502 -1.3146049461972196e-11 0.0 -1.511583712148294e-25 -7.14586669994025 -7.145866699940251 -1.0424175499402515 -5.974879480466362e-11 0.0 0.0 -1.570796314870016 1.5707963705062866 -1.570796314870016 -1.570796314870016 0.0 0.0 0.0 0.0 0.0 0.0 0.0 -1.151244268742903e-26 -0.5442396402359009 -0.7673661112785339 -0.22935479879379272 -1.3146049353263134e-11 0.0 -1.151244268742903e-26 -0.5442396402359009 -0.7673661112785339 -0.22935479879379272 -1.3146049353263134e-11 0.0 -0.2985999973554403 -0.11235000099231761 0.3136499823461779 2.2214412195942916 2.2214412191386654 6.515886891884208e-08 0.0 0.0 0.0 0.0 0.0 0.0 9.240738067961096e-07 3.4768818278582924e-07 4.253146293222068e-08 -2.8475662131755493e-08 6.147405365792544e-08 -2.650151154611292e-15 -0.29859999998320197 -0.1123500000156699 0.31364999997695675 2.221441469306996 2.22144146885137 4.556249894594308e-10 0.0 0.0 0.0 0.0 0.0 0.0
153964.992 0.0 -1.5707963267948966 1.5707963267948966 -1.5707963267948966 -1.5707963267948966 0.0 0.0 0.0 0.0 0.0 0.0 0.0 0.0 0.0 0.0 0.0 0.0 0.0 -1.1512442590619146e-26 -0.5442396572688689 -0.7673661111166267 -0.229354796466502 -1.3146049461972196e-11 0.0 -1.511583712148294e-25 -7.14586669994025 -7.145866699940251 -1.0424175499402515 -5.974879480466362e-11 0.0 0.0 -1.570796314870016 1.5707963705062866 -1.570796314870016 -1.570796314870016 0.0 0.0 0.0 0.0 0.0 0.0 0.0 -1.151244268742903e-26 -0.5442396402359009 -0.7673661112785339 -0.22935479879379272 -1.3146049353263134e-11 0.0 -1.151244268742903e-26 -0.5442396402359009 -0.7673661112785339 -0.22935479879379272 -1.3146049353263134e-11 0.0 -0.2985999973554403 -0.11235000099231761 0.3136499823461779 2.2214412195942916 2.2214412191386654 6.515886891884208e-08 0.0 0.0 0.0 0.0 0.0 0.0 9.240738067961096e-07 3.4768818278582924e-07 4.253146293222068e-08 -2.8475662131755493e-08 6.147405365792544e-08 -2.650151154611292e-15 -0.29859999998320197 -0.1123500000156699 0.31364999997695675 2.221441469306996 2.22144146885137 4.556249894594308e-10 0.0 0.0 0.0 0.0 0.0 0.0
153965.0 0.0 -1.5707963267948966 1.5707963267948966 -1.5707963267948966 -1.5707963267948966 0.0 0.0 0.0 0.0 0.0 0.0 0.0 0.0 0.0 0.0 0.0 0.0 0.0 -1.1512442590619146e-26 -0.5442396572688689 -0.7673661111166267 -0.229354796466502 -1.3146049461972196e-11 0.0 -1.511583712148294e-25 -7.14586669994025 -7.145866699940251 -1.0424175499402515 -5.974879480466362e-11 0.0 0.0 -1.570796314870016 1.5707963705062866 -1.570796314870016 -1.570796314870016 0.0 0.0 0.0 0.0 0.0 0.0 0.0 -1.151244268742903e-26 -0.5442396402359009 -0.7673661112785339 -0.22935479879379272 -1.3146049353263134e-11 0.0 -1.151244268742903e-26 -0.5442396402359009 -0.7673661112785339 -0.22935479879379272 -1.3146049353263134e-11 0.0 -0.2985999973554403 -0.11235000099231761 0.3136499823461779 2.2214412195942916 2.2214412191386654 6.515886891884208e-08 0.0 0.0 0.0 0.0 0.0 0.0 9.240738067961096e-07 3.4768818278582924e-07 4.253146293222068e-08 -2.8475662131755493e-08 6.147405365792544e-08 -2.650151154611292e-15 -0.29859999998320197 -0.1123500000156699 0.31364999997695675 2.221441469306996 2.22144146885137 4.556249894594308e-10 0.0 0.0 0.0 0.0 0.0 0.0
153965.008 0.0 -1.5707963267948966 1.5707963267948966 -1.5707963267948966 -1.5707963267948966 0.0 0.0 0.0 0.0 0.0 0.0 0.0 0.0 0.0 0.0 0.0 0.0 0.0 -1.1512442590619146e-26 -0.5442396572688689 -0.7673661111166267 -0.229354796466502 -1.3146049461972196e-11 0.0 -1.511583712148294e-25 -7.14586669994025 -7.145866699940251 -1.0424175499402515 -5.974879480466362e-11 0.0 0.0 -1.570796314870016 1.5707963705062866 -1.570796314870016 -1.570796314870016 0.0 0.0 0.0 0.0 0.0 0.0 0.0 -1.151244268742903e-26 -0.5442396402359009 -0.7673661112785339 -0.22935479879379272 -1.3146049353263134e-11 0.0 -1.151244268742903e-26 -0.5442396402359009 -0.7673661112785339 -0.22935479879379272 -1.3146049353263134e-11 0.0 -0.2985999973554403 -0.11235000099231761 0.3136499823461779 2.2214412195942916 2.2214412191386654 6.515886891884208e-08 0.0 0.0 0.0 0.0 0.0 0.0 9.240738067961096e-07 3.4768818278582924e-07 4.253146293222068e-08 -2.8475662131755493e-08 6.147405365792544e-08 -2.650151154611292e-15 -0.29859999998320197 -0.1123500000156699 0.31364999997695675 2.221441469306996 2.22144146885137 4.556249894594308e-10 0.0 0.0 0.0 0.0 0.0 0.0
153965.016 0.0 -1.5707963267948966 1.5707963267948966 -1.5707963267948966 -1.5707963267948966 0.0 0.0 0.0 0.0 0.0 0.0 0.0 0.0 0.0 0.0 0.0 0.0 0.0 -1.1512442590619146e-26 -0.5442396572688689 -0.7673661111166267 -0.229354796466502 -1.3146049461972196e-11 0.0 -1.511583712148294e-25 -7.14586669994025 -7.145866699940251 -1.0424175499402515 -5.974879480466362e-11 0.0 0.0 -1.570796314870016 1.5707963705062866 -1.570796314870016 -1.570796314870016 0.0 0.0 0.0 0.0 0.0 0.0 0.0 -1.151244268742903e-26 -0.5442396402359009 -0.7673661112785339 -0.22935479879379272 -1.3146049353263134e-11 0.0 -1.151244268742903e-26 -0.5442396402359009 -0.7673661112785339 -0.22935479879379272 -1.3146049353263134e-11 0.0 -0.2985999973554403 -0.11235000099231761 0.3136499823461779 2.2214412195942916 2.2214412191386654 6.515886891884208e-08 0.0 0.0 0.0 0.0 0.0 0.0 9.240738067961096e-07 3.4768818278582924e-07 4.253146293222068e-08 -2.8475662131755493e-08 6.147405365792544e-08 -2.650151154611292e-15 -0.29859999998320197 -0.1123500000156699 0.31364999997695675 2.221441469306996 2.22144146885137 4.556249894594308e-10 0.0 0.0 0.0 0.0 0.0 0.0
153965.024 0.0 -1.5707963267948966 1.5707963267948966 -1.5707963267948966 -1.5707963267948966 0.0 0.0 0.0 0.0 0.0 0.0 0.0 0.0 0.0 0.0 0.0 0.0 0.0 -1.1512442590619146e-26 -0.5442396572688689 -0.7673661111166267 -0.229354796466502 -1.3146049461972196e-11 0.0 -1.511583712148294e-25 -7.14586669994025 -7.145866699940251 -1.0424175499402515 -5.974879480466362e-11 0.0 0.0 -1.570796314870016 1.5707963705062866 -1.570796314870016 -1.570796314870016 0.0 0.0 0.0 0.0 0.0 0.0 0.0 -1.151244268742903e-26 -0.5442396402359009 -0.7673661112785339 -0.22935479879379272 -1.3146049353263134e-11 0.0 -1.151244268742903e-26 -0.5442396402359009 -0.7673661112785339 -0.22935479879379272 -1.3146049353263134e-11 0.0 -0.2985999973554403 -0.11235000099231761 0.3136499823461779 2.2214412195942916 2.2214412191386654 6.515886891884208e-08 0.0 0.0 0.0 0.0 0.0 0.0 9.240738067961096e-07 3.4768818278582924e-07 4.253146293222068e-08 -2.8475662131755493e-08 6.147405365792544e-08 -2.650151154611292e-15 -0.29859999998320197 -0.1123500000156699 0.31364999997695675 2.221441469306996 2.22144146885137 4.556249894594308e-10 0.0 0.0 0.0 0.0 0.0 0.0
153965.032 0.0 -1.5707963267948966 1.5707963267948966 -1.5707963267948966 -1.5707963267948966 0.0 0.0 0.0 0.0 0.0 0.0 0.0 0.0 0.0 0.0 0.0 0.0 0.0 -1.1512442590619146e-26 -0.5442396572688689 -0.7673661111166267 -0.229354796466502 -1.3146049461972196e-11 0.0 -1.511583712148294e-25 -7.14586669994025 -7.145866699940251 -1.0424175499402515 -5.974879480466362e-11 0.0 0.0 -1.570796314870016 1.5707963705062866 -1.570796314870016 -1.570796314870016 0.0 0.0 0.0 0.0 0.0 0.0 0.0 -1.151244268742903e-26 -0.5442396402359009 -0.7673661112785339 -0.22935479879379272 -1.3146049353263134e-11 0.0 -1.151244268742903e-26 -0.5442396402359009 -0.7673661112785339 -0.22935479879379272 -1.3146049353263134e-11 0.0 -0.2985999973554403 -0.11235000099231761 0.3136499823461779 2.2214412195942916 2.2214412191386654 6.515886891884208e-08 0.0 0.0 0.0 0.0 0.0 0.0 9.240738067961096e-07 3.4768818278582924e-07 4.253146293222068e-08 -2.8475662131755493e-08 6.147405365792544e-08 -2.650151154611292e-15 -0.29859999998320197 -0.1123500000156699 0.31364999997695675 2.221441469306996 2.22144146885137 4.556249894594308e-10 0.0 0.0 0.0 0.0 0.0 0.0
153965.03999999998 0.0 -1.5707963267948966 1.5707963267948966 -1.5707963267948966 -1.5707963267948966 0.0 0.0 0.0 0.0 0.0 0.0 0.0 0.0 0.0 0.0 0.0 0.0 0.0 -1.1512442590619146e-26 -0.5442396572688689 -0.7673661111166267 -0.229354796466502 -1.3146049461972196e-11 0.0 -1.511583712148294e-25 -7.14586669994025 -7.145866699940251 -1.0424175499402515 -5.974879480466362e-11 0.0 0.0 -1.570796314870016 1.5707963705062866 -1.570796314870016 -1.570796314870016 0.0 0.0 0.0 0.0 0.0 0.0 0.0 -1.151244268742903e-26 -0.5442396402359009 -0.7673661112785339 -0.22935479879379272 -1.3146049353263134e-11 0.0 -1.151244268742903e-26 -0.5442396402359009 -0.7673661112785339 -0.22935479879379272 -1.3146049353263134e-11 0.0 -0.2985999973554403 -0.11235000099231761 0.3136499823461779 2.2214412195942916 2.2214412191386654 6.515886891884208e-08 0.0 0.0 0.0 0.0 0.0 0.0 9.240738067961096e-07 3.4768818278582924e-07 4.253146293222068e-08 -2.8475662131755493e-08 6.147405365792544e-08 -2.650151154611292e-15 -0.29859999998320197 -0.1123500000156699 0.31364999997695675 2.221441469306996 2.22144146885137 4.556249894594308e-10 0.0 0.0 0.0 0.0 0.0 0.0
153965.04799999998 0.0 -1.5707963267948966 1.5707963267948966 -1.5707963267948966 -1.5707963267948966 0.0 0.0 0.0 0.0 0.0 0.0 0.0 0.0 0.0 0.0 0.0 0.0 0.0 -1.1512442590619146e-26 -0.5442396572688689 -0.7673661111166267 -0.229354796466502 -1.3146049461972196e-11 0.0 -1.511583712148294e-25 -7.14586669994025 -7.145866699940251 -1.0424175499402515 -5.974879480466362e-11 0.0 0.0 -1.570796314870016 1.5707963705062866 -1.570796314870016 -1.570796314870016 0.0 0.0 0.0 0.0 0.0 0.0 0.0 -1.151244268742903e-26 -0.5442396402359009 -0.7673661112785339 -0.22935479879379272 -1.3146049353263134e-11 0.0 -1.151244268742903e-26 -0.5442396402359009 -0.7673661112785339 -0.22935479879379272 -1.3146049353263134e-11 0.0 -0.2985999973554403 -0.11235000099231761 0.3136499823461779 2.2214412195942916 2.2214412191386654 6.515886891884208e-08 0.0 0.0 0.0 0.0 0.0 0.0 9.240738067961096e-07 3.4768818278582924e-07 4.253146293222068e-08 -2.8475662131755493e-08 6.147405365792544e-08 -2.650151154611292e-15 -0.29859999998320197 -0.1123500000156699 0.31364999997695675 2.221441469306996 2.22144146885137 4.556249894594308e-10 0.0 0.0 0.0 0.0 0.0 0.0
153965.05599999998 0.0 -1.5707963267948966 1.5707963267948966 -1.5707963267948966 -1.5707963267948966 0.0 0.0 0.0 0.0 0.0 0.0 0.0 0.0 0.0 0.0 0.0 0.0 0.0 -1.1512442590619146e-26 -0.5442396572688689 -0.7673661111166267 -0.229354796466502 -1.3146049461972196e-11 0.0 -1.511583712148294e-25 -7.14586669994025 -7.145866699940251 -1.0424175499402515 -5.974879480466362e-11 0.0 0.0 -1.570796314870016 1.5707963705062866 -1.570796314870016 -1.570796314870016 0.0 0.0 0.0 0.0 0.0 0.0 0.0 -1.151244268742903e-26 -0.5442396402359009 -0.7673661112785339 -0.22935479879379272 -1.3146049353263134e-11 0.0 -1.151244268742903e-26 -0.5442396402359009 -0.7673661112785339 -0.22935479879379272 -1.3146049353263134e-11 0.0 -0.2985999973554403 -0.11235000099231761 0.3136499823461779 2.2214412195942916 2.2214412191386654 6.515886891884208e-08 0.0 0.0 0.0 0.0 0.0 0.0 9.240738067961096e-07 3.4768818278582924e-07 4.253146293222068e-08 -2.8475662131755493e-08 6.147405365792544e-08 -2.650151154611292e-15 -0.29859999998320197 -0.1123500000156699 0.31364999997695675 2.221441469306996 2.22144146885137 4.556249894594308e-10 0.0 0.0 0.0 0.0 0.0 0.0
153965.06399999998 0.0 -1.5707963267948966 1.5707963267948966 -1.5707963267948966 -1.5707963267948966 0.0 0.0 0.0 0.0 0.0 0.0 0.0 0.0 0.0 0.0 0.0 0.0 0.0 -1.1512442590619146e-26 -0.5442396572688689 -0.7673661111166267 -0.229354796466502 -1.3146049461972196e-11 0.0 -1.511583712148294e-25 -7.14586669994025 -7.145866699940251 -1.0424175499402515 -5.974879480466362e-11 0.0 0.0 -1.570796314870016 1.5707963705062866 -1.570796314870016 -1.570796314870016 0.0 0.0 0.0 0.0 0.0 0.0 0.0 -1.151244268742903e-26 -0.5442396402359009 -0.7673661112785339 -0.22935479879379272 -1.3146049353263134e-11 0.0 -1.151244268742903e-26 -0.5442396402359009 -0.7673661112785339 -0.22935479879379272 -1.3146049353263134e-11 0.0 -0.2985999973554403 -0.11235000099231761 0.3136499823461779 2.2214412195942916 2.2214412191386654 6.515886891884208e-08 0.0 0.0 0.0 0.0 0.0 0.0 9.240738067961096e-07 3.4768818278582924e-07 4.253146293222068e-08 -2.8475662131755493e-08 6.147405365792544e-08 -2.650151154611292e-15 -0.29859999998320197 -0.1123500000156699 0.31364999997695675 2.221441469306996 2.22144146885137 4.556249894594308e-10 0.0 0.0 0.0 0.0 0.0 0.0
153965.072 0.0 -1.5707963267948966 1.5707963267948966 -1.5707963267948966 -1.5707963267948966 0.0 0.0 0.0 0.0 0.0 0.0 0.0 0.0 0.0 0.0 0.0 0.0 0.0 -1.1512442590619146e-26 -0.5442396572688689 -0.7673661111166267 -0.229354796466502 -1.3146049461972196e-11 0.0 -1.511583712148294e-25 -7.14586669994025 -7.145866699940251 -1.0424175499402515 -5.974879480466362e-11 0.0 0.0 -1.570796314870016 1.5707963705062866 -1.570796314870016 -1.570796314870016 0.0 0.0 0.0 0.0 0.0 0.0 0.0 -1.151244268742903e-26 -0.5442396402359009 -0.7673661112785339 -0.22935479879379272 -1.3146049353263134e-11 0.0 -1.151244268742903e-26 -0.5442396402359009 -0.7673661112785339 -0.22935479879379272 -1.3146049353263134e-11 0.0 -0.2985999973554403 -0.11235000099231761 0.3136499823461779 2.2214412195942916 2.2214412191386654 6.515886891884208e-08 0.0 0.0 0.0 0.0 0.0 0.0 9.240738067961096e-07 3.4768818278582924e-07 4.253146293222068e-08 -2.8475662131755493e-08 6.147405365792544e-08 -2.650151154611292e-15 -0.29859999998320197 -0.1123500000156699 0.31364999997695675 2.221441469306996 2.22144146885137 4.556249894594308e-10 0.0 0.0 0.0 0.0 0.0 0.0
153965.08 0.0 -1.5707963267948966 1.5707963267948966 -1.5707963267948966 -1.5707963267948966 0.0 0.0 0.0 0.0 0.0 0.0 0.0 0.0 0.0 0.0 0.0 0.0 0.0 -1.1512442590619146e-26 -0.5442396572688689 -0.7673661111166267 -0.229354796466502 -1.3146049461972196e-11 0.0 -1.511583712148294e-25 -7.14586669994025 -7.145866699940251 -1.0424175499402515 -5.974879480466362e-11 0.0 0.0 -1.570796314870016 1.5707963705062866 -1.570796314870016 -1.570796314870016 0.0 0.0 0.0 0.0 0.0 0.0 0.0 -1.151244268742903e-26 -0.5442396402359009 -0.7673661112785339 -0.22935479879379272 -1.3146049353263134e-11 0.0 -1.151244268742903e-26 -0.5442396402359009 -0.7673661112785339 -0.22935479879379272 -1.3146049353263134e-11 0.0 -0.2985999973554403 -0.11235000099231761 0.3136499823461779 2.2214412195942916 2.2214412191386654 6.515886891884208e-08 0.0 0.0 0.0 0.0 0.0 0.0 9.240738067961096e-07 3.4768818278582924e-07 4.253146293222068e-08 -2.8475662131755493e-08 6.147405365792544e-08 -2.650151154611292e-15 -0.29859999998320197 -0.1123500000156699 0.31364999997695675 2.221441469306996 2.22144146885137 4.556249894594308e-10 0.0 0.0 0.0 0.0 0.0 0.0
153965.088 0.0 -1.5707963267948966 1.5707963267948966 -1.5707963267948966 -1.5707963267948966 0.0 0.0 0.0 0.0 0.0 0.0 0.0 0.0 0.0 0.0 0.0 0.0 0.0 -1.1512442590619146e-26 -0.5442396572688689 -0.7673661111166267 -0.229354796466502 -1.3146049461972196e-11 0.0 -1.511583712148294e-25 -7.14586669994025 -7.145866699940251 -1.0424175499402515 -5.974879480466362e-11 0.0 0.0 -1.570796314870016 1.5707963705062866 -1.570796314870016 -1.570796314870016 0.0 0.0 0.0 0.0 0.0 0.0 0.0 -1.151244268742903e-26 -0.5442396402359009 -0.7673661112785339 -0.22935479879379272 -1.3146049353263134e-11 0.0 -1.151244268742903e-26 -0.5442396402359009 -0.7673661112785339 -0.22935479879379272 -1.3146049353263134e-11 0.0 -0.2985999973554403 -0.11235000099231761 0.3136499823461779 2.2214412195942916 2.2214412191386654 6.515886891884208e-08 0.0 0.0 0.0 0.0 0.0 0.0 9.240738067961096e-07 3.4768818278582924e-07 4.253146293222068e-08 -2.8475662131755493e-08 6.147405365792544e-08 -2.650151154611292e-15 -0.29859999998320197 -0.1123500000156699 0.31364999997695675 2.221441469306996 2.22144146885137 4.556249894594308e-10 0.0 0.0 0.0 0.0 0.0 0.0
153965.096 0.0 -1.5707963267948966 1.5707963267948966 -1.5707963267948966 -1.5707963267948966 0.0 0.0 0.0 0.0 0.0 0.0 0.0 0.0 0.0 0.0 0.0 0.0 0.0 -1.1512442590619146e-26 -0.5442396572688689 -0.7673661111166267 -0.229354796466502 -1.3146049461972196e-11 0.0 -1.511583712148294e-25 -7.14586669994025 -7.145866699940251 -1.0424175499402515 -5.974879480466362e-11 0.0 0.0 -1.570796314870016 1.5707963705062866 -1.570796314870016 -1.570796314870016 0.0 0.0 0.0 0.0 0.0 0.0 0.0 -1.151244268742903e-26 -0.5442396402359009 -0.7673661112785339 -0.22935479879379272 -1.3146049353263134e-11 0.0 -1.151244268742903e-26 -0.5442396402359009 -0.7673661112785339 -0.22935479879379272 -1.3146049353263134e-11 0.0 -0.2985999973554403 -0.11235000099231761 0.3136499823461779 2.2214412195942916 2.2214412191386654 6.515886891884208e-08 0.0 0.0 0.0 0.0 0.0 0.0 9.240738067961096e-07 3.4768818278582924e-07 4.253146293222068e-08 -2.8475662131755493e-08 6.147405365792544e-08 -2.650151154611292e-15 -0.29859999998320197 -0.1123500000156699 0.31364999997695675 2.221441469306996 2.22144146885137 4.556249894594308e-10 0.0 0.0 0.0 0.0 0.0 0.0
153965.104 0.0 -1.5707963267948966 1.5707963267948966 -1.5707963267948966 -1.5707963267948966 0.0 0.0 0.0 0.0 0.0 0.0 0.0 0.0 0.0 0.0 0.0 0.0 0.0 -1.1512442590619146e-26 -0.5442396572688689 -0.7673661111166267 -0.229354796466502 -1.3146049461972196e-11 0.0 -1.511583712148294e-25 -7.14586669994025 -7.145866699940251 -1.0424175499402515 -5.974879480466362e-11 0.0 0.0 -1.570796314870016 1.5707963705062866 -1.570796314870016 -1.570796314870016 0.0 0.0 0.0 0.0 0.0 0.0 0.0 -1.151244268742903e-26 -0.5442396402359009 -0.7673661112785339 -0.22935479879379272 -1.3146049353263134e-11 0.0 -1.151244268742903e-26 -0.5442396402359009 -0.7673661112785339 -0.22935479879379272 -1.3146049353263134e-11 0.0 -0.2985999973554403 -0.11235000099231761 0.3136499823461779 2.2214412195942916 2.2214412191386654 6.515886891884208e-08 0.0 0.0 0.0 0.0 0.0 0.0 9.240738067961096e-07 3.4768818278582924e-07 4.253146293222068e-08 -2.8475662131755493e-08 6.147405365792544e-08 -2.650151154611292e-15 -0.29859999998320197 -0.1123500000156699 0.31364999997695675 2.221441469306996 2.22144146885137 4.556249894594308e-10 0.0 0.0 0.0 0.0 0.0 0.0
153965.112 0.0 -1.5707963267948966 1.5707963267948966 -1.5707963267948966 -1.5707963267948966 0.0 0.0 0.0 0.0 0.0 0.0 0.0 0.0 0.0 0.0 0.0 0.0 0.0 -1.1512442590619146e-26 -0.5442396572688689 -0.7673661111166267 -0.229354796466502 -1.3146049461972196e-11 0.0 -1.511583712148294e-25 -7.14586669994025 -7.145866699940251 -1.0424175499402515 -5.974879480466362e-11 0.0 0.0 -1.570796314870016 1.5707963705062866 -1.570796314870016 -1.570796314870016 0.0 0.0 0.0 0.0 0.0 0.0 0.0 -1.151244268742903e-26 -0.5442396402359009 -0.7673661112785339 -0.22935479879379272 -1.3146049353263134e-11 0.0 -1.151244268742903e-26 -0.5442396402359009 -0.7673661112785339 -0.22935479879379272 -1.3146049353263134e-11 0.0 -0.2985999973554403 -0.11235000099231761 0.3136499823461779 2.2214412195942916 2.2214412191386654 6.515886891884208e-08 0.0 0.0 0.0 0.0 0.0 0.0 9.240738067961096e-07 3.4768818278582924e-07 4.253146293222068e-08 -2.8475662131755493e-08 6.147405365792544e-08 -2.650151154611292e-15 -0.29859999998320197 -0.1123500000156699 0.31364999997695675 2.221441469306996 2.22144146885137 4.556249894594308e-10 0.0 0.0 0.0 0.0 0.0 0.0
153965.12 0.0 -1.5707963267948966 1.5707963267948966 -1.5707963267948966 -1.5707963267948966 0.0 0.0 0.0 0.0 0.0 0.0 0.0 0.0 0.0 0.0 0.0 0.0 0.0 -1.1512442590619146e-26 -0.5442396572688689 -0.7673661111166267 -0.229354796466502 -1.3146049461972196e-11 0.0 -1.511583712148294e-25 -7.14586669994025 -7.145866699940251 -1.0424175499402515 -5.974879480466362e-11 0.0 0.0 -1.570796314870016 1.5707963705062866 -1.570796314870016 -1.570796314870016 0.0 0.0 0.0 0.0 0.0 0.0 0.0 -1.151244268742903e-26 -0.5442396402359009 -0.7673661112785339 -0.22935479879379272 -1.3146049353263134e-11 0.0 -1.151244268742903e-26 -0.5442396402359009 -0.7673661112785339 -0.22935479879379272 -1.3146049353263134e-11 0.0 -0.2985999973554403 -0.11235000099231761 0.3136499823461779 2.2214412195942916 2.2214412191386654 6.515886891884208e-08 0.0 0.0 0.0 0.0 0.0 0.0 9.240738067961096e-07 3.4768818278582924e-07 4.253146293222068e-08 -2.8475662131755493e-08 6.147405365792544e-08 -2.650151154611292e-15 -0.29859999998320197 -0.1123500000156699 0.31364999997695675 2.221441469306996 2.22144146885137 4.556249894594308e-10 0.0 0.0 0.0 0.0 0.0 0.0
153965.128 0.0 -1.5707963267948966 1.5707963267948966 -1.5707963267948966 -1.5707963267948966 0.0 0.0 0.0 0.0 0.0 0.0 0.0 0.0 0.0 0.0 0.0 0.0 0.0 -1.1512442590619146e-26 -0.5442396572688689 -0.7673661111166267 -0.229354796466502 -1.3146049461972196e-11 0.0 -1.511583712148294e-25 -7.14586669994025 -7.145866699940251 -1.0424175499402515 -5.974879480466362e-11 0.0 0.0 -1.570796314870016 1.5707963705062866 -1.570796314870016 -1.570796314870016 0.0 0.0 0.0 0.0 0.0 0.0 0.0 -1.151244268742903e-26 -0.5442396402359009 -0.7673661112785339 -0.22935479879379272 -1.3146049353263134e-11 0.0 -1.151244268742903e-26 -0.5442396402359009 -0.7673661112785339 -0.22935479879379272 -1.3146049353263134e-11 0.0 -0.2985999973554403 -0.11235000099231761 0.3136499823461779 2.2214412195942916 2.2214412191386654 6.515886891884208e-08 0.0 0.0 0.0 0.0 0.0 0.0 9.240738067961096e-07 3.4768818278582924e-07 4.253146293222068e-08 -2.8475662131755493e-08 6.147405365792544e-08 -2.650151154611292e-15 -0.29859999998320197 -0.1123500000156699 0.31364999997695675 2.221441469306996 2.22144146885137 4.556249894594308e-10 0.0 0.0 0.0 0.0 0.0 0.0
153965.136 0.0 -1.5707963267948966 1.5707963267948966 -1.5707963267948966 -1.5707963267948966 0.0 0.0 0.0 0.0 0.0 0.0 0.0 0.0 0.0 0.0 0.0 0.0 0.0 -1.1512442590619146e-26 -0.5442396572688689 -0.7673661111166267 -0.229354796466502 -1.3146049461972196e-11 0.0 -1.511583712148294e-25 -7.14586669994025 -7.145866699940251 -1.0424175499402515 -5.974879480466362e-11 0.0 0.0 -1.570796314870016 1.5707963705062866 -1.570796314870016 -1.570796314870016 0.0 0.0 0.0 0.0 0.0 0.0 0.0 -1.151244268742903e-26 -0.5442396402359009 -0.7673661112785339 -0.22935479879379272 -1.3146049353263134e-11 0.0 -1.151244268742903e-26 -0.5442396402359009 -0.7673661112785339 -0.22935479879379272 -1.3146049353263134e-11 0.0 -0.2985999973554403 -0.11235000099231761 0.3136499823461779 2.2214412195942916 2.2214412191386654 6.515886891884208e-08 0.0 0.0 0.0 0.0 0.0 0.0 9.240738067961096e-07 3.4768818278582924e-07 4.253146293222068e-08 -2.8475662131755493e-08 6.147405365792544e-08 -2.650151154611292e-15 -0.29859999998320197 -0.1123500000156699 0.31364999997695675 2.221441469306996 2.22144146885137 4.556249894594308e-10 0.0 0.0 0.0 0.0 0.0 0.0
153965.144 0.0 -1.5707963267948966 1.5707963267948966 -1.5707963267948966 -1.5707963267948966 0.0 0.0 0.0 0.0 0.0 0.0 0.0 0.0 0.0 0.0 0.0 0.0 0.0 -1.1512442590619146e-26 -0.5442396572688689 -0.7673661111166267 -0.229354796466502 -1.3146049461972196e-11 0.0 -1.511583712148294e-25 -7.14586669994025 -7.145866699940251 -1.0424175499402515 -5.974879480466362e-11 0.0 0.0 -1.570796314870016 1.5707963705062866 -1.570796314870016 -1.570796314870016 0.0 0.0 0.0 0.0 0.0 0.0 0.0 -1.151244268742903e-26 -0.5442396402359009 -0.7673661112785339 -0.22935479879379272 -1.3146049353263134e-11 0.0 -1.151244268742903e-26 -0.5442396402359009 -0.7673661112785339 -0.22935479879379272 -1.3146049353263134e-11 0.0 -0.2985999973554403 -0.11235000099231761 0.3136499823461779 2.2214412195942916 2.2214412191386654 6.515886891884208e-08 0.0 0.0 0.0 0.0 0.0 0.0 9.240738067961096e-07 3.4768818278582924e-07 4.253146293222068e-08 -2.8475662131755493e-08 6.147405365792544e-08 -2.650151154611292e-15 -0.29859999998320197 -0.1123500000156699 0.31364999997695675 2.221441469306996 2.22144146885137 4.556249894594308e-10 0.0 0.0 0.0 0.0 0.0 0.0
153965.152 0.0 -1.5707963267948966 1.5707963267948966 -1.5707963267948966 -1.5707963267948966 0.0 0.0 0.0 0.0 0.0 0.0 0.0 0.0 0.0 0.0 0.0 0.0 0.0 -1.1512442590619146e-26 -0.5442396572688689 -0.7673661111166267 -0.229354796466502 -1.3146049461972196e-11 0.0 -1.511583712148294e-25 -7.14586669994025 -7.145866699940251 -1.0424175499402515 -5.974879480466362e-11 0.0 0.0 -1.570796314870016 1.5707963705062866 -1.570796314870016 -1.570796314870016 0.0 0.0 0.0 0.0 0.0 0.0 0.0 -1.151244268742903e-26 -0.5442396402359009 -0.7673661112785339 -0.22935479879379272 -1.3146049353263134e-11 0.0 -1.151244268742903e-26 -0.5442396402359009 -0.7673661112785339 -0.22935479879379272 -1.3146049353263134e-11 0.0 -0.2985999973554403 -0.11235000099231761 0.3136499823461779 2.2214412195942916 2.2214412191386654 6.515886891884208e-08 0.0 0.0 0.0 0.0 0.0 0.0 9.240738067961096e-07 3.4768818278582924e-07 4.253146293222068e-08 -2.8475662131755493e-08 6.147405365792544e-08 -2.650151154611292e-15 -0.29859999998320197 -0.1123500000156699 0.31364999997695675 2.221441469306996 2.22144146885137 4.556249894594308e-10 0.0 0.0 0.0 0.0 0.0 0.0
153965.16 0.0 -1.5707963267948966 1.5707963267948966 -1.5707963267948966 -1.5707963267948966 0.0 0.0 0.0 0.0 0.0 0.0 0.0 0.0 0.0 0.0 0.0 0.0 0.0 -1.1512442590619146e-26 -0.5442396572688689 -0.7673661111166267 -0.229354796466502 -1.3146049461972196e-11 0.0 -1.511583712148294e-25 -7.14586669994025 -7.145866699940251 -1.0424175499402515 -5.974879480466362e-11 0.0 0.0 -1.570796314870016 1.5707963705062866 -1.570796314870016 -1.570796314870016 0.0 0.0 0.0 0.0 0.0 0.0 0.0 -1.151244268742903e-26 -0.5442396402359009 -0.7673661112785339 -0.22935479879379272 -1.3146049353263134e-11 0.0 -1.151244268742903e-26 -0.5442396402359009 -0.7673661112785339 -0.22935479879379272 -1.3146049353263134e-11 0.0 -0.2985999973554403 -0.11235000099231761 0.3136499823461779 2.2214412195942916 2.2214412191386654 6.515886891884208e-08 0.0 0.0 0.0 0.0 0.0 0.0 9.240738067961096e-07 3.4768818278582924e-07 4.253146293222068e-08 -2.8475662131755493e-08 6.147405365792544e-08 -2.650151154611292e-15 -0.29859999998320197 -0.1123500000156699 0.31364999997695675 2.221441469306996 2.22144146885137 4.556249894594308e-10 0.0 0.0 0.0 0.0 0.0 0.0
153965.168 0.0 -1.5707963267948966 1.5707963267948966 -1.5707963267948966 -1.5707963267948966 0.0 0.0 0.0 0.0 0.0 0.0 0.0 0.0 0.0 0.0 0.0 0.0 0.0 -1.1512442590619146e-26 -0.5442396572688689 -0.7673661111166267 -0.229354796466502 -1.3146049461972196e-11 0.0 -1.511583712148294e-25 -7.14586669994025 -7.145866699940251 -1.0424175499402515 -5.974879480466362e-11 0.0 0.0 -1.570796314870016 1.5707963705062866 -1.570796314870016 -1.570796314870016 0.0 0.0 0.0 0.0 0.0 0.0 0.0 -1.151244268742903e-26 -0.5442396402359009 -0.7673661112785339 -0.22935479879379272 -1.3146049353263134e-11 0.0 -1.151244268742903e-26 -0.5442396402359009 -0.7673661112785339 -0.22935479879379272 -1.3146049353263134e-11 0.0 -0.2985999973554403 -0.11235000099231761 0.3136499823461779 2.2214412195942916 2.2214412191386654 6.515886891884208e-08 0.0 0.0 0.0 0.0 0.0 0.0 9.240738067961096e-07 3.4768818278582924e-07 4.253146293222068e-08 -2.8475662131755493e-08 6.147405365792544e-08 -2.650151154611292e-15 -0.29859999998320197 -0.1123500000156699 0.31364999997695675 2.221441469306996 2.22144146885137 4.556249894594308e-10 0.0 0.0 0.0 0.0 0.0 0.0
153965.176 0.0 -1.5707963267948966 1.5707963267948966 -1.5707963267948966 -1.5707963267948966 0.0 0.0 0.0 0.0 0.0 0.0 0.0 0.0 0.0 0.0 0.0 0.0 0.0 -1.1512442590619146e-26 -0.5442396572688689 -0.7673661111166267 -0.229354796466502 -1.3146049461972196e-11 0.0 -1.511583712148294e-25 -7.14586669994025 -7.145866699940251 -1.0424175499402515 -5.974879480466362e-11 0.0 0.0 -1.570796314870016 1.5707963705062866 -1.570796314870016 -1.570796314870016 0.0 0.0 0.0 0.0 0.0 0.0 0.0 -1.151244268742903e-26 -0.5442396402359009 -0.7673661112785339 -0.22935479879379272 -1.3146049353263134e-11 0.0 -1.151244268742903e-26 -0.5442396402359009 -0.7673661112785339 -0.22935479879379272 -1.3146049353263134e-11 0.0 -0.2985999973554403 -0.11235000099231761 0.3136499823461779 2.2214412195942916 2.2214412191386654 6.515886891884208e-08 0.0 0.0 0.0 0.0 0.0 0.0 9.240738067961096e-07 3.4768818278582924e-07 4.253146293222068e-08 -2.8475662131755493e-08 6.147405365792544e-08 -2.650151154611292e-15 -0.29859999998320197 -0.1123500000156699 0.31364999997695675 2.221441469306996 2.22144146885137 4.556249894594308e-10 0.0 0.0 0.0 0.0 0.0 0.0
153965.18399999998 0.0 -1.5707963267948966 1.5707963267948966 -1.5707963267948966 -1.5707963267948966 0.0 0.0 0.0 0.0 0.0 0.0 0.0 0.0 0.0 0.0 0.0 0.0 0.0 -1.1512442590619146e-26 -0.5442396572688689 -0.7673661111166267 -0.229354796466502 -1.3146049461972196e-11 0.0 -1.511583712148294e-25 -7.14586669994025 -7.145866699940251 -1.0424175499402515 -5.974879480466362e-11 0.0 0.0 -1.570796314870016 1.5707963705062866 -1.570796314870016 -1.570796314870016 0.0 0.0 0.0 0.0 0.0 0.0 0.0 -1.151244268742903e-26 -0.5442396402359009 -0.7673661112785339 -0.22935479879379272 -1.3146049353263134e-11 0.0 -1.151244268742903e-26 -0.5442396402359009 -0.7673661112785339 -0.22935479879379272 -1.3146049353263134e-11 0.0 -0.2985999973554403 -0.11235000099231761 0.3136499823461779 2.2214412195942916 2.2214412191386654 6.515886891884208e-08 0.0 0.0 0.0 0.0 0.0 0.0 9.240738067961096e-07 3.4768818278582924e-07 4.253146293222068e-08 -2.8475662131755493e-08 6.147405365792544e-08 -2.650151154611292e-15 -0.29859999998320197 -0.1123500000156699 0.31364999997695675 2.221441469306996 2.22144146885137 4.556249894594308e-10 0.0 0.0 0.0 0.0 0.0 0.0
153965.19199999998 0.0 -1.5707963267948966 1.5707963267948966 -1.5707963267948966 -1.5707963267948966 0.0 0.0 0.0 0.0 0.0 0.0 0.0 0.0 0.0 0.0 0.0 0.0 0.0 -1.1512442590619146e-26 -0.5442396572688689 -0.7673661111166267 -0.229354796466502 -1.3146049461972196e-11 0.0 -1.511583712148294e-25 -7.14586669994025 -7.145866699940251 -1.0424175499402515 -5.974879480466362e-11 0.0 0.0 -1.570796314870016 1.5707963705062866 -1.570796314870016 -1.570796314870016 0.0 0.0 0.0 0.0 0.0 0.0 0.0 -1.151244268742903e-26 -0.5442396402359009 -0.7673661112785339 -0.22935479879379272 -1.3146049353263134e-11 0.0 -1.151244268742903e-26 -0.5442396402359009 -0.7673661112785339 -0.22935479879379272 -1.3146049353263134e-11 0.0 -0.2985999973554403 -0.11235000099231761 0.3136499823461779 2.2214412195942916 2.2214412191386654 6.515886891884208e-08 0.0 0.0 0.0 0.0 0.0 0.0 9.240738067961096e-07 3.4768818278582924e-07 4.253146293222068e-08 -2.8475662131755493e-08 6.147405365792544e-08 -2.650151154611292e-15 -0.29859999998320197 -0.1123500000156699 0.31364999997695675 2.221441469306996 2.22144146885137 4.556249894594308e-10 0.0 0.0 0.0 0.0 0.0 0.0
153965.19999999998 0.0 -1.5707963267948966 1.5707963267948966 -1.5707963267948966 -1.5707963267948966 0.0 0.0 0.0 0.0 0.0 0.0 0.0 0.0 0.0 0.0 0.0 0.0 0.0 -1.1512442590619146e-26 -0.5442396572688689 -0.7673661111166267 -0.229354796466502 -1.3146049461972196e-11 0.0 -1.511583712148294e-25 -7.14586669994025 -7.145866699940251 -1.0424175499402515 -5.974879480466362e-11 0.0 0.0 -1.570796314870016 1.5707963705062866 -1.570796314870016 -1.570796314870016 0.0 0.0 0.0 0.0 0.0 0.0 0.0 -1.151244268742903e-26 -0.5442396402359009 -0.7673661112785339 -0.22935479879379272 -1.3146049353263134e-11 0.0 -1.151244268742903e-26 -0.5442396402359009 -0.7673661112785339 -0.22935479879379272 -1.3146049353263134e-11 0.0 -0.2985999973554403 -0.11235000099231761 0.3136499823461779 2.2214412195942916 2.2214412191386654 6.515886891884208e-08 0.0 0.0 0.0 0.0 0.0 0.0 9.240738067961096e-07 3.4768818278582924e-07 4.253146293222068e-08 -2.8475662131755493e-08 6.147405365792544e-08 -2.650151154611292e-15 -0.29859999998320197 -0.1123500000156699 0.31364999997695675 2.221441469306996 2.22144146885137 4.556249894594308e-10 0.0 0.0 0.0 0.0 0.0 0.0
153965.20799999998 0.0 -1.5707963267948966 1.5707963267948966 -1.5707963267948966 -1.5707963267948966 0.0 0.0 0.0 0.0 0.0 0.0 0.0 0.0 0.0 0.0 0.0 0.0 0.0 -1.1512442590619146e-26 -0.5442396572688689 -0.7673661111166267 -0.229354796466502 -1.3146049461972196e-11 0.0 -1.511583712148294e-25 -7.14586669994025 -7.145866699940251 -1.0424175499402515 -5.974879480466362e-11 0.0 0.0 -1.570796314870016 1.5707963705062866 -1.570796314870016 -1.570796314870016 0.0 0.0 0.0 0.0 0.0 0.0 0.0 -1.151244268742903e-26 -0.5442396402359009 -0.7673661112785339 -0.22935479879379272 -1.3146049353263134e-11 0.0 -1.151244268742903e-26 -0.5442396402359009 -0.7673661112785339 -0.22935479879379272 -1.3146049353263134e-11 0.0 -0.2985999973554403 -0.11235000099231761 0.3136499823461779 2.2214412195942916 2.2214412191386654 6.515886891884208e-08 0.0 0.0 0.0 0.0 0.0 0.0 9.240738067961096e-07 3.4768818278582924e-07 4.253146293222068e-08 -2.8475662131755493e-08 6.147405365792544e-08 -2.650151154611292e-15 -0.29859999998320197 -0.1123500000156699 0.31364999997695675 2.221441469306996 2.22144146885137 4.556249894594308e-10 0.0 0.0 0.0 0.0 0.0 0.0
153965.216 0.0 -1.5707963267948966 1.5707963267948966 -1.5707963267948966 -1.5707963267948966 0.0 0.0 0.0 0.0 0.0 0.0 0.0 0.0 0.0 0.0 0.0 0.0 0.0 -1.1512442590619146e-26 -0.5442396572688689 -0.7673661111166267 -0.229354796466502 -1.3146049461972196e-11 0.0 -1.511583712148294e-25 -7.14586669994025 -7.145866699940251 -1.0424175499402515 -5.974879480466362e-11 0.0 0.0 -1.570796314870016 1.5707963705062866 -1.570796314870016 -1.570796314870016 0.0 0.0 0.0 0.0 0.0 0.0 0.0 -1.151244268742903e-26 -0.5442396402359009 -0.7673661112785339 -0.22935479879379272 -1.3146049353263134e-11 0.0 -1.151244268742903e-26 -0.5442396402359009 -0.7673661112785339 -0.22935479879379272 -1.3146049353263134e-11 0.0 -0.2985999973554403 -0.11235000099231761 0.3136499823461779 2.2214412195942916 2.2214412191386654 6.515886891884208e-08 0.0 0.0 0.0 0.0 0.0 0.0 9.240738067961096e-07 3.4768818278582924e-07 4.253146293222068e-08 -2.8475662131755493e-08 6.147405365792544e-08 -2.650151154611292e-15 -0.29859999998320197 -0.1123500000156699 0.31364999997695675 2.221441469306996 2.22144146885137 4.556249894594308e-10 0.0 0.0 0.0 0.0 0.0 0.0
153965.224 0.0 -1.5707963267948966 1.5707963267948966 -1.5707963267948966 -1.5707963267948966 0.0 0.0 0.0 0.0 0.0 0.0 0.0 0.0 0.0 0.0 0.0 0.0 0.0 -1.1512442590619146e-26 -0.5442396572688689 -0.7673661111166267 -0.229354796466502 -1.3146049461972196e-11 0.0 -1.511583712148294e-25 -7.14586669994025 -7.145866699940251 -1.0424175499402515 -5.974879480466362e-11 0.0 0.0 -1.570796314870016 1.5707963705062866 -1.570796314870016 -1.570796314870016 0.0 0.0 0.0 0.0 0.0 0.0 0.0 -1.151244268742903e-26 -0.5442396402359009 -0.7673661112785339 -0.22935479879379272 -1.3146049353263134e-11 0.0 -1.151244268742903e-26 -0.5442396402359009 -0.7673661112785339 -0.22935479879379272 -1.3146049353263134e-11 0.0 -0.2985999973554403 -0.11235000099231761 0.3136499823461779 2.2214412195942916 2.2214412191386654 6.515886891884208e-08 0.0 0.0 0.0 0.0 0.0 0.0 9.240738067961096e-07 3.4768818278582924e-07 4.253146293222068e-08 -2.8475662131755493e-08 6.147405365792544e-08 -2.650151154611292e-15 -0.29859999998320197 -0.1123500000156699 0.31364999997695675 2.221441469306996 2.22144146885137 4.556249894594308e-10 0.0 0.0 0.0 0.0 0.0 0.0
153965.232 0.0 -1.5707963267948966 1.5707963267948966 -1.5707963267948966 -1.5707963267948966 0.0 0.0 0.0 0.0 0.0 0.0 0.0 0.0 0.0 0.0 0.0 0.0 0.0 -1.1512442590619146e-26 -0.5442396572688689 -0.7673661111166267 -0.229354796466502 -1.3146049461972196e-11 0.0 -1.511583712148294e-25 -7.14586669994025 -7.145866699940251 -1.0424175499402515 -5.974879480466362e-11 0.0 0.0 -1.570796314870016 1.5707963705062866 -1.570796314870016 -1.570796314870016 0.0 0.0 0.0 0.0 0.0 0.0 0.0 -1.151244268742903e-26 -0.5442396402359009 -0.7673661112785339 -0.22935479879379272 -1.3146049353263134e-11 0.0 -1.151244268742903e-26 -0.5442396402359009 -0.7673661112785339 -0.22935479879379272 -1.3146049353263134e-11 0.0 -0.2985999973554403 -0.11235000099231761 0.3136499823461779 2.2214412195942916 2.2214412191386654 6.515886891884208e-08 0.0 0.0 0.0 0.0 0.0 0.0 9.240738067961096e-07 3.4768818278582924e-07 4.253146293222068e-08 -2.8475662131755493e-08 6.147405365792544e-08 -2.650151154611292e-15 -0.29859999998320197 -0.1123500000156699 0.31364999997695675 2.221441469306996 2.22144146885137 4.556249894594308e-10 0.0 0.0 0.0 0.0 0.0 0.0
153965.24 0.0 -1.5707963267948966 1.5707963267948966 -1.5707963267948966 -1.5707963267948966 0.0 0.0 0.0 0.0 0.0 0.0 0.0 0.0 0.0 0.0 0.0 0.0 0.0 -1.1512442590619146e-26 -0.5442396572688689 -0.7673661111166267 -0.229354796466502 -1.3146049461972196e-11 0.0 -1.511583712148294e-25 -7.14586669994025 -7.145866699940251 -1.0424175499402515 -5.974879480466362e-11 0.0 0.0 -1.570796314870016 1.5707963705062866 -1.570796314870016 -1.570796314870016 0.0 0.0 0.0 0.0 0.0 0.0 0.0 -1.151244268742903e-26 -0.5442396402359009 -0.7673661112785339 -0.22935479879379272 -1.3146049353263134e-11 0.0 -1.151244268742903e-26 -0.5442396402359009 -0.7673661112785339 -0.22935479879379272 -1.3146049353263134e-11 0.0 -0.2985999973554403 -0.11235000099231761 0.3136499823461779 2.2214412195942916 2.2214412191386654 6.515886891884208e-08 0.0 0.0 0.0 0.0 0.0 0.0 9.240738067961096e-07 3.4768818278582924e-07 4.253146293222068e-08 -2.8475662131755493e-08 6.147405365792544e-08 -2.650151154611292e-15 -0.29859999998320197 -0.1123500000156699 0.31364999997695675 2.221441469306996 2.22144146885137 4.556249894594308e-10 0.0 0.0 0.0 0.0 0.0 0.0
153965.248 0.0 -1.5707963267948966 1.5707963267948966 -1.5707963267948966 -1.5707963267948966 0.0 0.0 0.0 0.0 0.0 0.0 0.0 0.0 0.0 0.0 0.0 0.0 0.0 -1.1512442590619146e-26 -0.5442396572688689 -0.7673661111166267 -0.229354796466502 -1.3146049461972196e-11 0.0 -1.511583712148294e-25 -7.14586669994025 -7.145866699940251 -1.0424175499402515 -5.974879480466362e-11 0.0 0.0 -1.570796314870016 1.5707963705062866 -1.570796314870016 -1.570796314870016 0.0 0.0 0.0 0.0 0.0 0.0 0.0 -1.151244268742903e-26 -0.5442396402359009 -0.7673661112785339 -0.22935479879379272 -1.3146049353263134e-11 0.0 -1.151244268742903e-26 -0.5442396402359009 -0.7673661112785339 -0.22935479879379272 -1.3146049353263134e-11 0.0 -0.2985999973554403 -0.11235000099231761 0.3136499823461779 2.2214412195942916 2.2214412191386654 6.515886891884208e-08 0.0 0.0 0.0 0.0 0.0 0.0 9.240738067961096e-07 3.4768818278582924e-07 4.253146293222068e-08 -2.8475662131755493e-08 6.147405365792544e-08 -2.650151154611292e-15 -0.29859999998320197 -0.1123500000156699 0.31364999997695675 2.221441469306996 2.22144146885137 4.556249894594308e-10 0.0 0.0 0.0 0.0 0.0 0.0
153965.256 0.0 -1.5707963267948966 1.5707963267948966 -1.5707963267948966 -1.5707963267948966 0.0 0.0 0.0 0.0 0.0 0.0 0.0 0.0 0.0 0.0 0.0 0.0 0.0 -1.1512442590619146e-26 -0.5442396572688689 -0.7673661111166267 -0.229354796466502 -1.3146049461972196e-11 0.0 -1.511583712148294e-25 -7.14586669994025 -7.145866699940251 -1.0424175499402515 -5.974879480466362e-11 0.0 0.0 -1.570796314870016 1.5707963705062866 -1.570796314870016 -1.570796314870016 0.0 0.0 0.0 0.0 0.0 0.0 0.0 -1.151244268742903e-26 -0.5442396402359009 -0.7673661112785339 -0.22935479879379272 -1.3146049353263134e-11 0.0 -1.151244268742903e-26 -0.5442396402359009 -0.7673661112785339 -0.22935479879379272 -1.3146049353263134e-11 0.0 -0.2985999973554403 -0.11235000099231761 0.3136499823461779 2.2214412195942916 2.2214412191386654 6.515886891884208e-08 0.0 0.0 0.0 0.0 0.0 0.0 9.240738067961096e-07 3.4768818278582924e-07 4.253146293222068e-08 -2.8475662131755493e-08 6.147405365792544e-08 -2.650151154611292e-15 -0.29859999998320197 -0.1123500000156699 0.31364999997695675 2.221441469306996 2.22144146885137 4.556249894594308e-10 0.0 0.0 0.0 0.0 0.0 0.0
153965.264 0.0 -1.5707963267948966 1.5707963267948966 -1.5707963267948966 -1.5707963267948966 0.0 0.0 0.0 0.0 0.0 0.0 0.0 0.0 0.0 0.0 0.0 0.0 0.0 -1.1512442590619146e-26 -0.5442396572688689 -0.7673661111166267 -0.229354796466502 -1.3146049461972196e-11 0.0 -1.511583712148294e-25 -7.14586669994025 -7.145866699940251 -1.0424175499402515 -5.974879480466362e-11 0.0 0.0 -1.570796314870016 1.5707963705062866 -1.570796314870016 -1.570796314870016 0.0 0.0 0.0 0.0 0.0 0.0 0.0 -1.151244268742903e-26 -0.5442396402359009 -0.7673661112785339 -0.22935479879379272 -1.3146049353263134e-11 0.0 -1.151244268742903e-26 -0.5442396402359009 -0.7673661112785339 -0.22935479879379272 -1.3146049353263134e-11 0.0 -0.2985999973554403 -0.11235000099231761 0.3136499823461779 2.2214412195942916 2.2214412191386654 6.515886891884208e-08 0.0 0.0 0.0 0.0 0.0 0.0 9.240738067961096e-07 3.4768818278582924e-07 4.253146293222068e-08 -2.8475662131755493e-08 6.147405365792544e-08 -2.650151154611292e-15 -0.29859999998320197 -0.1123500000156699 0.31364999997695675 2.221441469306996 2.22144146885137 4.556249894594308e-10 0.0 0.0 0.0 0.0 0.0 0.0
153965.272 0.0 -1.5707963267948966 1.5707963267948966 -1.5707963267948966 -1.5707963267948966 0.0 0.0 0.0 0.0 0.0 0.0 0.0 0.0 0.0 0.0 0.0 0.0 0.0 -1.1512442590619146e-26 -0.5442396572688689 -0.7673661111166267 -0.229354796466502 -1.3146049461972196e-11 0.0 -1.511583712148294e-25 -7.14586669994025 -7.145866699940251 -1.0424175499402515 -5.974879480466362e-11 0.0 0.0 -1.570796314870016 1.5707963705062866 -1.570796314870016 -1.570796314870016 0.0 0.0 0.0 0.0 0.0 0.0 0.0 -1.151244268742903e-26 -0.5442396402359009 -0.7673661112785339 -0.22935479879379272 -1.3146049353263134e-11 0.0 -1.151244268742903e-26 -0.5442396402359009 -0.7673661112785339 -0.22935479879379272 -1.3146049353263134e-11 0.0 -0.2985999973554403 -0.11235000099231761 0.3136499823461779 2.2214412195942916 2.2214412191386654 6.515886891884208e-08 0.0 0.0 0.0 0.0 0.0 0.0 9.240738067961096e-07 3.4768818278582924e-07 4.253146293222068e-08 -2.8475662131755493e-08 6.147405365792544e-08 -2.650151154611292e-15 -0.29859999998320197 -0.1123500000156699 0.31364999997695675 2.221441469306996 2.22144146885137 4.556249894594308e-10 0.0 0.0 0.0 0.0 0.0 0.0
153965.28 0.0 -1.5707963267948966 1.5707963267948966 -1.5707963267948966 -1.5707963267948966 0.0 0.0 0.0 0.0 0.0 0.0 0.0 0.0 0.0 0.0 0.0 0.0 0.0 -1.1512442590619146e-26 -0.5442396572688689 -0.7673661111166267 -0.229354796466502 -1.3146049461972196e-11 0.0 -1.511583712148294e-25 -7.14586669994025 -7.145866699940251 -1.0424175499402515 -5.974879480466362e-11 0.0 0.0 -1.570796314870016 1.5707963705062866 -1.570796314870016 -1.570796314870016 0.0 0.0 0.0 0.0 0.0 0.0 0.0 -1.151244268742903e-26 -0.5442396402359009 -0.7673661112785339 -0.22935479879379272 -1.3146049353263134e-11 0.0 -1.151244268742903e-26 -0.5442396402359009 -0.7673661112785339 -0.22935479879379272 -1.3146049353263134e-11 0.0 -0.2985999973554403 -0.11235000099231761 0.3136499823461779 2.2214412195942916 2.2214412191386654 6.515886891884208e-08 0.0 0.0 0.0 0.0 0.0 0.0 9.240738067961096e-07 3.4768818278582924e-07 4.253146293222068e-08 -2.8475662131755493e-08 6.147405365792544e-08 -2.650151154611292e-15 -0.29859999998320197 -0.1123500000156699 0.31364999997695675 2.221441469306996 2.22144146885137 4.556249894594308e-10 0.0 0.0 0.0 0.0 0.0 0.0
153965.288 0.0 -1.5707963267948966 1.5707963267948966 -1.5707963267948966 -1.5707963267948966 0.0 0.0 0.0 0.0 0.0 0.0 0.0 0.0 0.0 0.0 0.0 0.0 0.0 -1.1512442590619146e-26 -0.5442396572688689 -0.7673661111166267 -0.229354796466502 -1.3146049461972196e-11 0.0 -1.511583712148294e-25 -7.14586669994025 -7.145866699940251 -1.0424175499402515 -5.974879480466362e-11 0.0 0.0 -1.570796314870016 1.5707963705062866 -1.570796314870016 -1.570796314870016 0.0 0.0 0.0 0.0 0.0 0.0 0.0 -1.151244268742903e-26 -0.5442396402359009 -0.7673661112785339 -0.22935479879379272 -1.3146049353263134e-11 0.0 -1.151244268742903e-26 -0.5442396402359009 -0.7673661112785339 -0.22935479879379272 -1.3146049353263134e-11 0.0 -0.2985999973554403 -0.11235000099231761 0.3136499823461779 2.2214412195942916 2.2214412191386654 6.515886891884208e-08 0.0 0.0 0.0 0.0 0.0 0.0 9.240738067961096e-07 3.4768818278582924e-07 4.253146293222068e-08 -2.8475662131755493e-08 6.147405365792544e-08 -2.650151154611292e-15 -0.29859999998320197 -0.1123500000156699 0.31364999997695675 2.221441469306996 2.22144146885137 4.556249894594308e-10 0.0 0.0 0.0 0.0 0.0 0.0
153965.296 0.0 -1.5707963267948966 1.5707963267948966 -1.5707963267948966 -1.5707963267948966 0.0 0.0 0.0 0.0 0.0 0.0 0.0 0.0 0.0 0.0 0.0 0.0 0.0 -1.1512442590619146e-26 -0.5442396572688689 -0.7673661111166267 -0.229354796466502 -1.3146049461972196e-11 0.0 -1.511583712148294e-25 -7.14586669994025 -7.145866699940251 -1.0424175499402515 -5.974879480466362e-11 0.0 0.0 -1.570796314870016 1.5707963705062866 -1.570796314870016 -1.570796314870016 0.0 0.0 0.0 0.0 0.0 0.0 0.0 -1.151244268742903e-26 -0.5442396402359009 -0.7673661112785339 -0.22935479879379272 -1.3146049353263134e-11 0.0 -1.151244268742903e-26 -0.5442396402359009 -0.7673661112785339 -0.22935479879379272 -1.3146049353263134e-11 0.0 -0.2985999973554403 -0.11235000099231761 0.3136499823461779 2.2214412195942916 2.2214412191386654 6.515886891884208e-08 0.0 0.0 0.0 0.0 0.0 0.0 9.240738067961096e-07 3.4768818278582924e-07 4.253146293222068e-08 -2.8475662131755493e-08 6.147405365792544e-08 -2.650151154611292e-15 -0.29859999998320197 -0.1123500000156699 0.31364999997695675 2.221441469306996 2.22144146885137 4.556249894594308e-10 0.0 0.0 0.0 0.0 0.0 0.0
153965.304 0.0 -1.5707963267948966 1.5707963267948966 -1.5707963267948966 -1.5707963267948966 0.0 0.0 0.0 0.0 0.0 0.0 0.0 0.0 0.0 0.0 0.0 0.0 0.0 -1.1512442590619146e-26 -0.5442396572688689 -0.7673661111166267 -0.229354796466502 -1.3146049461972196e-11 0.0 -1.511583712148294e-25 -7.14586669994025 -7.145866699940251 -1.0424175499402515 -5.974879480466362e-11 0.0 0.0 -1.570796314870016 1.5707963705062866 -1.570796314870016 -1.570796314870016 0.0 0.0 0.0 0.0 0.0 0.0 0.0 -1.151244268742903e-26 -0.5442396402359009 -0.7673661112785339 -0.22935479879379272 -1.3146049353263134e-11 0.0 -1.151244268742903e-26 -0.5442396402359009 -0.7673661112785339 -0.22935479879379272 -1.3146049353263134e-11 0.0 -0.2985999973554403 -0.11235000099231761 0.3136499823461779 2.2214412195942916 2.2214412191386654 6.515886891884208e-08 0.0 0.0 0.0 0.0 0.0 0.0 9.240738067961096e-07 3.4768818278582924e-07 4.253146293222068e-08 -2.8475662131755493e-08 6.147405365792544e-08 -2.650151154611292e-15 -0.29859999998320197 -0.1123500000156699 0.31364999997695675 2.221441469306996 2.22144146885137 4.556249894594308e-10 0.0 0.0 0.0 0.0 0.0 0.0
153965.312 0.0 -1.5707963267948966 1.5707963267948966 -1.5707963267948966 -1.5707963267948966 0.0 0.0 0.0 0.0 0.0 0.0 0.0 0.0 0.0 0.0 0.0 0.0 0.0 -1.1512442590619146e-26 -0.5442396572688689 -0.7673661111166267 -0.229354796466502 -1.3146049461972196e-11 0.0 -1.511583712148294e-25 -7.14586669994025 -7.145866699940251 -1.0424175499402515 -5.974879480466362e-11 0.0 0.0 -1.570796314870016 1.5707963705062866 -1.570796314870016 -1.570796314870016 0.0 0.0 0.0 0.0 0.0 0.0 0.0 -1.151244268742903e-26 -0.5442396402359009 -0.7673661112785339 -0.22935479879379272 -1.3146049353263134e-11 0.0 -1.151244268742903e-26 -0.5442396402359009 -0.7673661112785339 -0.22935479879379272 -1.3146049353263134e-11 0.0 -0.2985999973554403 -0.11235000099231761 0.3136499823461779 2.2214412195942916 2.2214412191386654 6.515886891884208e-08 0.0 0.0 0.0 0.0 0.0 0.0 9.240738067961096e-07 3.4768818278582924e-07 4.253146293222068e-08 -2.8475662131755493e-08 6.147405365792544e-08 -2.650151154611292e-15 -0.29859999998320197 -0.1123500000156699 0.31364999997695675 2.221441469306996 2.22144146885137 4.556249894594308e-10 0.0 0.0 0.0 0.0 0.0 0.0
153965.32 0.0 -1.5707963267948966 1.5707963267948966 -1.5707963267948966 -1.5707963267948966 0.0 0.0 0.0 0.0 0.0 0.0 0.0 0.0 0.0 0.0 0.0 0.0 0.0 -1.1512442590619146e-26 -0.5442396572688689 -0.7673661111166267 -0.229354796466502 -1.3146049461972196e-11 0.0 -1.511583712148294e-25 -7.14586669994025 -7.145866699940251 -1.0424175499402515 -5.974879480466362e-11 0.0 0.0 -1.570796314870016 1.5707963705062866 -1.570796314870016 -1.570796314870016 0.0 0.0 0.0 0.0 0.0 0.0 0.0 -1.151244268742903e-26 -0.5442396402359009 -0.7673661112785339 -0.22935479879379272 -1.3146049353263134e-11 0.0 -1.151244268742903e-26 -0.5442396402359009 -0.7673661112785339 -0.22935479879379272 -1.3146049353263134e-11 0.0 -0.2985999973554403 -0.11235000099231761 0.3136499823461779 2.2214412195942916 2.2214412191386654 6.515886891884208e-08 0.0 0.0 0.0 0.0 0.0 0.0 9.240738067961096e-07 3.4768818278582924e-07 4.253146293222068e-08 -2.8475662131755493e-08 6.147405365792544e-08 -2.650151154611292e-15 -0.29859999998320197 -0.1123500000156699 0.31364999997695675 2.221441469306996 2.22144146885137 4.556249894594308e-10 0.0 0.0 0.0 0.0 0.0 0.0
153965.32799999998 0.0 -1.5707963267948966 1.5707963267948966 -1.5707963267948966 -1.5707963267948966 0.0 0.0 0.0 0.0 0.0 0.0 0.0 0.0 0.0 0.0 0.0 0.0 0.0 -1.1512442590619146e-26 -0.5442396572688689 -0.7673661111166267 -0.229354796466502 -1.3146049461972196e-11 0.0 -1.511583712148294e-25 -7.14586669994025 -7.145866699940251 -1.0424175499402515 -5.974879480466362e-11 0.0 0.0 -1.570796314870016 1.5707963705062866 -1.570796314870016 -1.570796314870016 0.0 0.0 0.0 0.0 0.0 0.0 0.0 -1.151244268742903e-26 -0.5442396402359009 -0.7673661112785339 -0.22935479879379272 -1.3146049353263134e-11 0.0 -1.151244268742903e-26 -0.5442396402359009 -0.7673661112785339 -0.22935479879379272 -1.3146049353263134e-11 0.0 -0.2985999973554403 -0.11235000099231761 0.3136499823461779 2.2214412195942916 2.2214412191386654 6.515886891884208e-08 0.0 0.0 0.0 0.0 0.0 0.0 9.240738067961096e-07 3.4768818278582924e-07 4.253146293222068e-08 -2.8475662131755493e-08 6.147405365792544e-08 -2.650151154611292e-15 -0.29859999998320197 -0.1123500000156699 0.31364999997695675 2.221441469306996 2.22144146885137 4.556249894594308e-10 0.0 0.0 0.0 0.0 0.0 0.0
153965.33599999998 0.0 -1.5707963267948966 1.5707963267948966 -1.5707963267948966 -1.5707963267948966 0.0 0.0 0.0 0.0 0.0 0.0 0.0 0.0 0.0 0.0 0.0 0.0 0.0 -1.1512442590619146e-26 -0.5442396572688689 -0.7673661111166267 -0.229354796466502 -1.3146049461972196e-11 0.0 -1.511583712148294e-25 -7.14586669994025 -7.145866699940251 -1.0424175499402515 -5.974879480466362e-11 0.0 0.0 -1.570796314870016 1.5707963705062866 -1.570796314870016 -1.570796314870016 0.0 0.0 0.0 0.0 0.0 0.0 0.0 -1.151244268742903e-26 -0.5442396402359009 -0.7673661112785339 -0.22935479879379272 -1.3146049353263134e-11 0.0 -1.151244268742903e-26 -0.5442396402359009 -0.7673661112785339 -0.22935479879379272 -1.3146049353263134e-11 0.0 -0.2985999973554403 -0.11235000099231761 0.3136499823461779 2.2214412195942916 2.2214412191386654 6.515886891884208e-08 0.0 0.0 0.0 0.0 0.0 0.0 9.240738067961096e-07 3.4768818278582924e-07 4.253146293222068e-08 -2.8475662131755493e-08 6.147405365792544e-08 -2.650151154611292e-15 -0.29859999998320197 -0.1123500000156699 0.31364999997695675 2.221441469306996 2.22144146885137 4.556249894594308e-10 0.0 0.0 0.0 0.0 0.0 0.0
153965.34399999998 0.0 -1.5707963267948966 1.5707963267948966 -1.5707963267948966 -1.5707963267948966 0.0 0.0 0.0 0.0 0.0 0.0 0.0 0.0 0.0 0.0 0.0 0.0 0.0 -1.1512442590619146e-26 -0.5442396572688689 -0.7673661111166267 -0.229354796466502 -1.3146049461972196e-11 0.0 -1.511583712148294e-25 -7.14586669994025 -7.145866699940251 -1.0424175499402515 -5.974879480466362e-11 0.0 0.0 -1.570796314870016 1.5707963705062866 -1.570796314870016 -1.570796314870016 0.0 0.0 0.0 0.0 0.0 0.0 0.0 -1.151244268742903e-26 -0.5442396402359009 -0.7673661112785339 -0.22935479879379272 -1.3146049353263134e-11 0.0 -1.151244268742903e-26 -0.5442396402359009 -0.7673661112785339 -0.22935479879379272 -1.3146049353263134e-11 0.0 -0.2985999973554403 -0.11235000099231761 0.3136499823461779 2.2214412195942916 2.2214412191386654 6.515886891884208e-08 0.0 0.0 0.0 0.0 0.0 0.0 9.240738067961096e-07 3.4768818278582924e-07 4.253146293222068e-08 -2.8475662131755493e-08 6.147405365792544e-08 -2.650151154611292e-15 -0.29859999998320197 -0.1123500000156699 0.31364999997695675 2.221441469306996 2.22144146885137 4.556249894594308e-10 0.0 0.0 0.0 0.0 0.0 0.0
153965.35199999998 0.0 -1.5707963267948966 1.5707963267948966 -1.5707963267948966 -1.5707963267948966 0.0 0.0 0.0 0.0 0.0 0.0 0.0 0.0 0.0 0.0 0.0 0.0 0.0 -1.1512442590619146e-26 -0.5442396572688689 -0.7673661111166267 -0.229354796466502 -1.3146049461972196e-11 0.0 -1.511583712148294e-25 -7.14586669994025 -7.145866699940251 -1.0424175499402515 -5.974879480466362e-11 0.0 0.0 -1.570796314870016 1.5707963705062866 -1.570796314870016 -1.570796314870016 0.0 0.0 0.0 0.0 0.0 0.0 0.0 -1.151244268742903e-26 -0.5442396402359009 -0.7673661112785339 -0.22935479879379272 -1.3146049353263134e-11 0.0 -1.151244268742903e-26 -0.5442396402359009 -0.7673661112785339 -0.22935479879379272 -1.3146049353263134e-11 0.0 -0.2985999973554403 -0.11235000099231761 0.3136499823461779 2.2214412195942916 2.2214412191386654 6.515886891884208e-08 0.0 0.0 0.0 0.0 0.0 0.0 9.240738067961096e-07 3.4768818278582924e-07 4.253146293222068e-08 -2.8475662131755493e-08 6.147405365792544e-08 -2.650151154611292e-15 -0.29859999998320197 -0.1123500000156699 0.31364999997695675 2.221441469306996 2.22144146885137 4.556249894594308e-10 0.0 0.0 0.0 0.0 0.0 0.0
153965.36 0.0 -1.5707963267948966 1.5707963267948966 -1.5707963267948966 -1.5707963267948966 0.0 0.0 0.0 0.0 0.0 0.0 0.0 0.0 0.0 0.0 0.0 0.0 0.0 -1.1512442590619146e-26 -0.5442396572688689 -0.7673661111166267 -0.229354796466502 -1.3146049461972196e-11 0.0 -1.511583712148294e-25 -7.14586669994025 -7.145866699940251 -1.0424175499402515 -5.974879480466362e-11 0.0 0.0 -1.570796314870016 1.5707963705062866 -1.570796314870016 -1.570796314870016 0.0 0.0 0.0 0.0 0.0 0.0 0.0 -1.151244268742903e-26 -0.5442396402359009 -0.7673661112785339 -0.22935479879379272 -1.3146049353263134e-11 0.0 -1.151244268742903e-26 -0.5442396402359009 -0.7673661112785339 -0.22935479879379272 -1.3146049353263134e-11 0.0 -0.2985999973554403 -0.11235000099231761 0.3136499823461779 2.2214412195942916 2.2214412191386654 6.515886891884208e-08 0.0 0.0 0.0 0.0 0.0 0.0 9.240738067961096e-07 3.4768818278582924e-07 4.253146293222068e-08 -2.8475662131755493e-08 6.147405365792544e-08 -2.650151154611292e-15 -0.29859999998320197 -0.1123500000156699 0.31364999997695675 2.221441469306996 2.22144146885137 4.556249894594308e-10 0.0 0.0 0.0 0.0 0.0 0.0
153965.368 0.0 -1.5707963267948966 1.5707963267948966 -1.5707963267948966 -1.5707963267948966 0.0 0.0 0.0 0.0 0.0 0.0 0.0 0.0 0.0 0.0 0.0 0.0 0.0 -1.1512442590619146e-26 -0.5442396572688689 -0.7673661111166267 -0.229354796466502 -1.3146049461972196e-11 0.0 -1.511583712148294e-25 -7.14586669994025 -7.145866699940251 -1.0424175499402515 -5.974879480466362e-11 0.0 0.0 -1.570796314870016 1.5707963705062866 -1.570796314870016 -1.570796314870016 0.0 0.0 0.0 0.0 0.0 0.0 0.0 -1.151244268742903e-26 -0.5442396402359009 -0.7673661112785339 -0.22935479879379272 -1.3146049353263134e-11 0.0 -1.151244268742903e-26 -0.5442396402359009 -0.7673661112785339 -0.22935479879379272 -1.3146049353263134e-11 0.0 -0.2985999973554403 -0.11235000099231761 0.3136499823461779 2.2214412195942916 2.2214412191386654 6.515886891884208e-08 0.0 0.0 0.0 0.0 0.0 0.0 9.240738067961096e-07 3.4768818278582924e-07 4.253146293222068e-08 -2.8475662131755493e-08 6.147405365792544e-08 -2.650151154611292e-15 -0.29859999998320197 -0.1123500000156699 0.31364999997695675 2.221441469306996 2.22144146885137 4.556249894594308e-10 0.0 0.0 0.0 0.0 0.0 0.0
153965.376 0.0 -1.5707963267948966 1.5707963267948966 -1.5707963267948966 -1.5707963267948966 0.0 0.0 0.0 0.0 0.0 0.0 0.0 0.0 0.0 0.0 0.0 0.0 0.0 -1.1512442590619146e-26 -0.5442396572688689 -0.7673661111166267 -0.229354796466502 -1.3146049461972196e-11 0.0 -1.511583712148294e-25 -7.14586669994025 -7.145866699940251 -1.0424175499402515 -5.974879480466362e-11 0.0 0.0 -1.570796314870016 1.5707963705062866 -1.570796314870016 -1.570796314870016 0.0 0.0 0.0 0.0 0.0 0.0 0.0 -1.151244268742903e-26 -0.5442396402359009 -0.7673661112785339 -0.22935479879379272 -1.3146049353263134e-11 0.0 -1.151244268742903e-26 -0.5442396402359009 -0.7673661112785339 -0.22935479879379272 -1.3146049353263134e-11 0.0 -0.2985999973554403 -0.11235000099231761 0.3136499823461779 2.2214412195942916 2.2214412191386654 6.515886891884208e-08 0.0 0.0 0.0 0.0 0.0 0.0 9.240738067961096e-07 3.4768818278582924e-07 4.253146293222068e-08 -2.8475662131755493e-08 6.147405365792544e-08 -2.650151154611292e-15 -0.29859999998320197 -0.1123500000156699 0.31364999997695675 2.221441469306996 2.22144146885137 4.556249894594308e-10 0.0 0.0 0.0 0.0 0.0 0.0
153965.384 0.0 -1.5707963267948966 1.5707963267948966 -1.5707963267948966 -1.5707963267948966 0.0 0.0 0.0 0.0 0.0 0.0 0.0 0.0 0.0 0.0 0.0 0.0 0.0 -1.1512442590619146e-26 -0.5442396572688689 -0.7673661111166267 -0.229354796466502 -1.3146049461972196e-11 0.0 -1.511583712148294e-25 -7.14586669994025 -7.145866699940251 -1.0424175499402515 -5.974879480466362e-11 0.0 0.0 -1.570796314870016 1.5707963705062866 -1.570796314870016 -1.570796314870016 0.0 0.0 0.0 0.0 0.0 0.0 0.0 -1.151244268742903e-26 -0.5442396402359009 -0.7673661112785339 -0.22935479879379272 -1.3146049353263134e-11 0.0 -1.151244268742903e-26 -0.5442396402359009 -0.7673661112785339 -0.22935479879379272 -1.3146049353263134e-11 0.0 -0.2985999973554403 -0.11235000099231761 0.3136499823461779 2.2214412195942916 2.2214412191386654 6.515886891884208e-08 0.0 0.0 0.0 0.0 0.0 0.0 9.240738067961096e-07 3.4768818278582924e-07 4.253146293222068e-08 -2.8475662131755493e-08 6.147405365792544e-08 -2.650151154611292e-15 -0.29859999998320197 -0.1123500000156699 0.31364999997695675 2.221441469306996 2.22144146885137 4.556249894594308e-10 0.0 0.0 0.0 0.0 0.0 0.0
153965.392 0.0 -1.5707963267948966 1.5707963267948966 -1.5707963267948966 -1.5707963267948966 0.0 0.0 0.0 0.0 0.0 0.0 0.0 0.0 0.0 0.0 0.0 0.0 0.0 -1.1512442590619146e-26 -0.5442396572688689 -0.7673661111166267 -0.229354796466502 -1.3146049461972196e-11 0.0 -1.511583712148294e-25 -7.14586669994025 -7.145866699940251 -1.0424175499402515 -5.974879480466362e-11 0.0 0.0 -1.570796314870016 1.5707963705062866 -1.570796314870016 -1.570796314870016 0.0 0.0 0.0 0.0 0.0 0.0 0.0 -1.151244268742903e-26 -0.5442396402359009 -0.7673661112785339 -0.22935479879379272 -1.3146049353263134e-11 0.0 -1.151244268742903e-26 -0.5442396402359009 -0.7673661112785339 -0.22935479879379272 -1.3146049353263134e-11 0.0 -0.2985999973554403 -0.11235000099231761 0.3136499823461779 2.2214412195942916 2.2214412191386654 6.515886891884208e-08 0.0 0.0 0.0 0.0 0.0 0.0 9.240738067961096e-07 3.4768818278582924e-07 4.253146293222068e-08 -2.8475662131755493e-08 6.147405365792544e-08 -2.650151154611292e-15 -0.29859999998320197 -0.1123500000156699 0.31364999997695675 2.221441469306996 2.22144146885137 4.556249894594308e-10 0.0 0.0 0.0 0.0 0.0 0.0
153965.4 0.0 -1.5707963267948966 1.5707963267948966 -1.5707963267948966 -1.5707963267948966 0.0 0.0 0.0 0.0 0.0 0.0 0.0 0.0 0.0 0.0 0.0 0.0 0.0 -1.1512442590619146e-26 -0.5442396572688689 -0.7673661111166267 -0.229354796466502 -1.3146049461972196e-11 0.0 -1.511583712148294e-25 -7.14586669994025 -7.145866699940251 -1.0424175499402515 -5.974879480466362e-11 0.0 0.0 -1.570796314870016 1.5707963705062866 -1.570796314870016 -1.570796314870016 0.0 0.0 0.0 0.0 0.0 0.0 0.0 -1.151244268742903e-26 -0.5442396402359009 -0.7673661112785339 -0.22935479879379272 -1.3146049353263134e-11 0.0 -1.151244268742903e-26 -0.5442396402359009 -0.7673661112785339 -0.22935479879379272 -1.3146049353263134e-11 0.0 -0.2985999973554403 -0.11235000099231761 0.3136499823461779 2.2214412195942916 2.2214412191386654 6.515886891884208e-08 0.0 0.0 0.0 0.0 0.0 0.0 9.240738067961096e-07 3.4768818278582924e-07 4.253146293222068e-08 -2.8475662131755493e-08 6.147405365792544e-08 -2.650151154611292e-15 -0.29859999998320197 -0.1123500000156699 0.31364999997695675 2.221441469306996 2.22144146885137 4.556249894594308e-10 0.0 0.0 0.0 0.0 0.0 0.0
153965.408 0.0 -1.5707963267948966 1.5707963267948966 -1.5707963267948966 -1.5707963267948966 0.0 0.0 0.0 0.0 0.0 0.0 0.0 0.0 0.0 0.0 0.0 0.0 0.0 -1.1512442590619146e-26 -0.5442396572688689 -0.7673661111166267 -0.229354796466502 -1.3146049461972196e-11 0.0 -1.511583712148294e-25 -7.14586669994025 -7.145866699940251 -1.0424175499402515 -5.974879480466362e-11 0.0 0.0 -1.570796314870016 1.5707963705062866 -1.570796314870016 -1.570796314870016 0.0 0.0 0.0 0.0 0.0 0.0 0.0 -1.151244268742903e-26 -0.5442396402359009 -0.7673661112785339 -0.22935479879379272 -1.3146049353263134e-11 0.0 -1.151244268742903e-26 -0.5442396402359009 -0.7673661112785339 -0.22935479879379272 -1.3146049353263134e-11 0.0 -0.2985999973554403 -0.11235000099231761 0.3136499823461779 2.2214412195942916 2.2214412191386654 6.515886891884208e-08 0.0 0.0 0.0 0.0 0.0 0.0 9.240738067961096e-07 3.4768818278582924e-07 4.253146293222068e-08 -2.8475662131755493e-08 6.147405365792544e-08 -2.650151154611292e-15 -0.29859999998320197 -0.1123500000156699 0.31364999997695675 2.221441469306996 2.22144146885137 4.556249894594308e-10 0.0 0.0 0.0 0.0 0.0 0.0
153965.416 0.0 -1.5707963267948966 1.5707963267948966 -1.5707963267948966 -1.5707963267948966 0.0 0.0 0.0 0.0 0.0 0.0 0.0 0.0 0.0 0.0 0.0 0.0 0.0 -1.1512442590619146e-26 -0.5442396572688689 -0.7673661111166267 -0.229354796466502 -1.3146049461972196e-11 0.0 -1.511583712148294e-25 -7.14586669994025 -7.145866699940251 -1.0424175499402515 -5.974879480466362e-11 0.0 0.0 -1.570796314870016 1.5707963705062866 -1.570796314870016 -1.570796314870016 0.0 0.0 0.0 0.0 0.0 0.0 0.0 -1.151244268742903e-26 -0.5442396402359009 -0.7673661112785339 -0.22935479879379272 -1.3146049353263134e-11 0.0 -1.151244268742903e-26 -0.5442396402359009 -0.7673661112785339 -0.22935479879379272 -1.3146049353263134e-11 0.0 -0.2985999973554403 -0.11235000099231761 0.3136499823461779 2.2214412195942916 2.2214412191386654 6.515886891884208e-08 0.0 0.0 0.0 0.0 0.0 0.0 9.240738067961096e-07 3.4768818278582924e-07 4.253146293222068e-08 -2.8475662131755493e-08 6.147405365792544e-08 -2.650151154611292e-15 -0.29859999998320197 -0.1123500000156699 0.31364999997695675 2.221441469306996 2.22144146885137 4.556249894594308e-10 0.0 0.0 0.0 0.0 0.0 0.0
153965.424 0.0 -1.5707963267948966 1.5707963267948966 -1.5707963267948966 -1.5707963267948966 0.0 0.0 0.0 0.0 0.0 0.0 0.0 0.0 0.0 0.0 0.0 0.0 0.0 -1.1512442590619146e-26 -0.5442396572688689 -0.7673661111166267 -0.229354796466502 -1.3146049461972196e-11 0.0 -1.511583712148294e-25 -7.14586669994025 -7.145866699940251 -1.0424175499402515 -5.974879480466362e-11 0.0 0.0 -1.570796314870016 1.5707963705062866 -1.570796314870016 -1.570796314870016 0.0 0.0 0.0 0.0 0.0 0.0 0.0 -1.151244268742903e-26 -0.5442396402359009 -0.7673661112785339 -0.22935479879379272 -1.3146049353263134e-11 0.0 -1.151244268742903e-26 -0.5442396402359009 -0.7673661112785339 -0.22935479879379272 -1.3146049353263134e-11 0.0 -0.2985999973554403 -0.11235000099231761 0.3136499823461779 2.2214412195942916 2.2214412191386654 6.515886891884208e-08 0.0 0.0 0.0 0.0 0.0 0.0 9.240738067961096e-07 3.4768818278582924e-07 4.253146293222068e-08 -2.8475662131755493e-08 6.147405365792544e-08 -2.650151154611292e-15 -0.29859999998320197 -0.1123500000156699 0.31364999997695675 2.221441469306996 2.22144146885137 4.556249894594308e-10 0.0 0.0 0.0 0.0 0.0 0.0
153965.432 0.0 -1.5707963267948966 1.5707963267948966 -1.5707963267948966 -1.5707963267948966 0.0 0.0 0.0 0.0 0.0 0.0 0.0 0.0 0.0 0.0 0.0 0.0 0.0 -1.1512442590619146e-26 -0.5442396572688689 -0.7673661111166267 -0.229354796466502 -1.3146049461972196e-11 0.0 -1.511583712148294e-25 -7.14586669994025 -7.145866699940251 -1.0424175499402515 -5.974879480466362e-11 0.0 0.0 -1.570796314870016 1.5707963705062866 -1.570796314870016 -1.570796314870016 0.0 0.0 0.0 0.0 0.0 0.0 0.0 -1.151244268742903e-26 -0.5442396402359009 -0.7673661112785339 -0.22935479879379272 -1.3146049353263134e-11 0.0 -1.151244268742903e-26 -0.5442396402359009 -0.7673661112785339 -0.22935479879379272 -1.3146049353263134e-11 0.0 -0.2985999973554403 -0.11235000099231761 0.3136499823461779 2.2214412195942916 2.2214412191386654 6.515886891884208e-08 0.0 0.0 0.0 0.0 0.0 0.0 9.240738067961096e-07 3.4768818278582924e-07 4.253146293222068e-08 -2.8475662131755493e-08 6.147405365792544e-08 -2.650151154611292e-15 -0.29859999998320197 -0.1123500000156699 0.31364999997695675 2.221441469306996 2.22144146885137 4.556249894594308e-10 0.0 0.0 0.0 0.0 0.0 0.0
153965.44 0.0 -1.5707963267948966 1.5707963267948966 -1.5707963267948966 -1.5707963267948966 0.0 0.0 0.0 0.0 0.0 0.0 0.0 0.0 0.0 0.0 0.0 0.0 0.0 -1.1512442590619146e-26 -0.5442396572688689 -0.7673661111166267 -0.229354796466502 -1.3146049461972196e-11 0.0 -1.511583712148294e-25 -7.14586669994025 -7.145866699940251 -1.0424175499402515 -5.974879480466362e-11 0.0 0.0 -1.570796314870016 1.5707963705062866 -1.570796314870016 -1.570796314870016 0.0 0.0 0.0 0.0 0.0 0.0 0.0 -1.151244268742903e-26 -0.5442396402359009 -0.7673661112785339 -0.22935479879379272 -1.3146049353263134e-11 0.0 -1.151244268742903e-26 -0.5442396402359009 -0.7673661112785339 -0.22935479879379272 -1.3146049353263134e-11 0.0 -0.2985999973554403 -0.11235000099231761 0.3136499823461779 2.2214412195942916 2.2214412191386654 6.515886891884208e-08 0.0 0.0 0.0 0.0 0.0 0.0 9.240738067961096e-07 3.4768818278582924e-07 4.253146293222068e-08 -2.8475662131755493e-08 6.147405365792544e-08 -2.650151154611292e-15 -0.29859999998320197 -0.1123500000156699 0.31364999997695675 2.221441469306996 2.22144146885137 4.556249894594308e-10 0.0 0.0 0.0 0.0 0.0 0.0
153965.448 0.0 -1.5707963267948966 1.5707963267948966 -1.5707963267948966 -1.5707963267948966 0.0 0.0 0.0 0.0 0.0 0.0 0.0 0.0 0.0 0.0 0.0 0.0 0.0 -1.1512442590619146e-26 -0.5442396572688689 -0.7673661111166267 -0.229354796466502 -1.3146049461972196e-11 0.0 -1.511583712148294e-25 -7.14586669994025 -7.145866699940251 -1.0424175499402515 -5.974879480466362e-11 0.0 0.0 -1.570796314870016 1.5707963705062866 -1.570796314870016 -1.570796314870016 0.0 0.0 0.0 0.0 0.0 0.0 0.0 -1.151244268742903e-26 -0.5442396402359009 -0.7673661112785339 -0.22935479879379272 -1.3146049353263134e-11 0.0 -1.151244268742903e-26 -0.5442396402359009 -0.7673661112785339 -0.22935479879379272 -1.3146049353263134e-11 0.0 -0.2985999973554403 -0.11235000099231761 0.3136499823461779 2.2214412195942916 2.2214412191386654 6.515886891884208e-08 0.0 0.0 0.0 0.0 0.0 0.0 9.240738067961096e-07 3.4768818278582924e-07 4.253146293222068e-08 -2.8475662131755493e-08 6.147405365792544e-08 -2.650151154611292e-15 -0.29859999998320197 -0.1123500000156699 0.31364999997695675 2.221441469306996 2.22144146885137 4.556249894594308e-10 0.0 0.0 0.0 0.0 0.0 0.0
153965.456 0.0 -1.5707963267948966 1.5707963267948966 -1.5707963267948966 -1.5707963267948966 0.0 0.0 0.0 0.0 0.0 0.0 0.0 0.0 0.0 0.0 0.0 0.0 0.0 -1.1512442590619146e-26 -0.5442396572688689 -0.7673661111166267 -0.229354796466502 -1.3146049461972196e-11 0.0 -1.511583712148294e-25 -7.14586669994025 -7.145866699940251 -1.0424175499402515 -5.974879480466362e-11 0.0 0.0 -1.570796314870016 1.5707963705062866 -1.570796314870016 -1.570796314870016 0.0 0.0 0.0 0.0 0.0 0.0 0.0 -1.151244268742903e-26 -0.5442396402359009 -0.7673661112785339 -0.22935479879379272 -1.3146049353263134e-11 0.0 -1.151244268742903e-26 -0.5442396402359009 -0.7673661112785339 -0.22935479879379272 -1.3146049353263134e-11 0.0 -0.2985999973554403 -0.11235000099231761 0.3136499823461779 2.2214412195942916 2.2214412191386654 6.515886891884208e-08 0.0 0.0 0.0 0.0 0.0 0.0 9.240738067961096e-07 3.4768818278582924e-07 4.253146293222068e-08 -2.8475662131755493e-08 6.147405365792544e-08 -2.650151154611292e-15 -0.29859999998320197 -0.1123500000156699 0.31364999997695675 2.221441469306996 2.22144146885137 4.556249894594308e-10 0.0 0.0 0.0 0.0 0.0 0.0
153965.464 0.0 -1.5707963267948966 1.5707963267948966 -1.5707963267948966 -1.5707963267948966 0.0 0.0 0.0 0.0 0.0 0.0 0.0 0.0 0.0 0.0 0.0 0.0 0.0 -1.1512442590619146e-26 -0.5442396572688689 -0.7673661111166267 -0.229354796466502 -1.3146049461972196e-11 0.0 -1.511583712148294e-25 -7.14586669994025 -7.145866699940251 -1.0424175499402515 -5.974879480466362e-11 0.0 0.0 -1.570796314870016 1.5707963705062866 -1.570796314870016 -1.570796314870016 0.0 0.0 0.0 0.0 0.0 0.0 0.0 -1.151244268742903e-26 -0.5442396402359009 -0.7673661112785339 -0.22935479879379272 -1.3146049353263134e-11 0.0 -1.151244268742903e-26 -0.5442396402359009 -0.7673661112785339 -0.22935479879379272 -1.3146049353263134e-11 0.0 -0.2985999973554403 -0.11235000099231761 0.3136499823461779 2.2214412195942916 2.2214412191386654 6.515886891884208e-08 0.0 0.0 0.0 0.0 0.0 0.0 9.240738067961096e-07 3.4768818278582924e-07 4.253146293222068e-08 -2.8475662131755493e-08 6.147405365792544e-08 -2.650151154611292e-15 -0.29859999998320197 -0.1123500000156699 0.31364999997695675 2.221441469306996 2.22144146885137 4.556249894594308e-10 0.0 0.0 0.0 0.0 0.0 0.0
153965.47199999998 0.0 -1.5707963267948966 1.5707963267948966 -1.5707963267948966 -1.5707963267948966 0.0 0.0 0.0 0.0 0.0 0.0 0.0 0.0 0.0 0.0 0.0 0.0 0.0 -1.1512442590619146e-26 -0.5442396572688689 -0.7673661111166267 -0.229354796466502 -1.3146049461972196e-11 0.0 -1.511583712148294e-25 -7.14586669994025 -7.145866699940251 -1.0424175499402515 -5.974879480466362e-11 0.0 0.0 -1.570796314870016 1.5707963705062866 -1.570796314870016 -1.570796314870016 0.0 0.0 0.0 0.0 0.0 0.0 0.0 -1.151244268742903e-26 -0.5442396402359009 -0.7673661112785339 -0.22935479879379272 -1.3146049353263134e-11 0.0 -1.151244268742903e-26 -0.5442396402359009 -0.7673661112785339 -0.22935479879379272 -1.3146049353263134e-11 0.0 -0.2985999973554403 -0.11235000099231761 0.3136499823461779 2.2214412195942916 2.2214412191386654 6.515886891884208e-08 0.0 0.0 0.0 0.0 0.0 0.0 9.240738067961096e-07 3.4768818278582924e-07 4.253146293222068e-08 -2.8475662131755493e-08 6.147405365792544e-08 -2.650151154611292e-15 -0.29859999998320197 -0.1123500000156699 0.31364999997695675 2.221441469306996 2.22144146885137 4.556249894594308e-10 0.0 0.0 0.0 0.0 0.0 0.0
153965.47999999998 0.0 -1.5707963267948966 1.5707963267948966 -1.5707963267948966 -1.5707963267948966 0.0 0.0 0.0 0.0 0.0 0.0 0.0 0.0 0.0 0.0 0.0 0.0 0.0 -1.1512442590619146e-26 -0.5442396572688689 -0.7673661111166267 -0.229354796466502 -1.3146049461972196e-11 0.0 -1.511583712148294e-25 -7.14586669994025 -7.145866699940251 -1.0424175499402515 -5.974879480466362e-11 0.0 0.0 -1.570796314870016 1.5707963705062866 -1.570796314870016 -1.570796314870016 0.0 0.0 0.0 0.0 0.0 0.0 0.0 -1.151244268742903e-26 -0.5442396402359009 -0.7673661112785339 -0.22935479879379272 -1.3146049353263134e-11 0.0 -1.151244268742903e-26 -0.5442396402359009 -0.7673661112785339 -0.22935479879379272 -1.3146049353263134e-11 0.0 -0.2985999973554403 -0.11235000099231761 0.3136499823461779 2.2214412195942916 2.2214412191386654 6.515886891884208e-08 0.0 0.0 0.0 0.0 0.0 0.0 9.240738067961096e-07 3.4768818278582924e-07 4.253146293222068e-08 -2.8475662131755493e-08 6.147405365792544e-08 -2.650151154611292e-15 -0.29859999998320197 -0.1123500000156699 0.31364999997695675 2.221441469306996 2.22144146885137 4.556249894594308e-10 0.0 0.0 0.0 0.0 0.0 0.0
153965.48799999998 0.0 -1.5707963267948966 1.5707963267948966 -1.5707963267948966 -1.5707963267948966 0.0 0.0 0.0 0.0 0.0 0.0 0.0 0.0 0.0 0.0 0.0 0.0 0.0 -1.1512442590619146e-26 -0.5442396572688689 -0.7673661111166267 -0.229354796466502 -1.3146049461972196e-11 0.0 -1.511583712148294e-25 -7.14586669994025 -7.145866699940251 -1.0424175499402515 -5.974879480466362e-11 0.0 0.0 -1.570796314870016 1.5707963705062866 -1.570796314870016 -1.570796314870016 0.0 0.0 0.0 0.0 0.0 0.0 0.0 -1.151244268742903e-26 -0.5442396402359009 -0.7673661112785339 -0.22935479879379272 -1.3146049353263134e-11 0.0 -1.151244268742903e-26 -0.5442396402359009 -0.7673661112785339 -0.22935479879379272 -1.3146049353263134e-11 0.0 -0.2985999973554403 -0.11235000099231761 0.3136499823461779 2.2214412195942916 2.2214412191386654 6.515886891884208e-08 0.0 0.0 0.0 0.0 0.0 0.0 9.240738067961096e-07 3.4768818278582924e-07 4.253146293222068e-08 -2.8475662131755493e-08 6.147405365792544e-08 -2.650151154611292e-15 -0.29859999998320197 -0.1123500000156699 0.31364999997695675 2.221441469306996 2.22144146885137 4.556249894594308e-10 0.0 0.0 0.0 0.0 0.0 0.0
153965.49599999998 0.0 -1.5707963267948966 1.5707963267948966 -1.5707963267948966 -1.5707963267948966 0.0 0.0 0.0 0.0 0.0 0.0 0.0 0.0 0.0 0.0 0.0 0.0 0.0 -1.1512442590619146e-26 -0.5442396572688689 -0.7673661111166267 -0.229354796466502 -1.3146049461972196e-11 0.0 -1.511583712148294e-25 -7.14586669994025 -7.145866699940251 -1.0424175499402515 -5.974879480466362e-11 0.0 0.0 -1.570796314870016 1.5707963705062866 -1.570796314870016 -1.570796314870016 0.0 0.0 0.0 0.0 0.0 0.0 0.0 -1.151244268742903e-26 -0.5442396402359009 -0.7673661112785339 -0.22935479879379272 -1.3146049353263134e-11 0.0 -1.151244268742903e-26 -0.5442396402359009 -0.7673661112785339 -0.22935479879379272 -1.3146049353263134e-11 0.0 -0.2985999973554403 -0.11235000099231761 0.3136499823461779 2.2214412195942916 2.2214412191386654 6.515886891884208e-08 0.0 0.0 0.0 0.0 0.0 0.0 9.240738067961096e-07 3.4768818278582924e-07 4.253146293222068e-08 -2.8475662131755493e-08 6.147405365792544e-08 -2.650151154611292e-15 -0.29859999998320197 -0.1123500000156699 0.31364999997695675 2.221441469306996 2.22144146885137 4.556249894594308e-10 0.0 0.0 0.0 0.0 0.0 0.0
153965.504 0.0 -1.5707963267948966 1.5707963267948966 -1.5707963267948966 -1.5707963267948966 0.0 0.0 0.0 0.0 0.0 0.0 0.0 0.0 0.0 0.0 0.0 0.0 0.0 -1.1512442590619146e-26 -0.5442396572688689 -0.7673661111166267 -0.229354796466502 -1.3146049461972196e-11 0.0 -1.511583712148294e-25 -7.14586669994025 -7.145866699940251 -1.0424175499402515 -5.974879480466362e-11 0.0 0.0 -1.570796314870016 1.5707963705062866 -1.570796314870016 -1.570796314870016 0.0 0.0 0.0 0.0 0.0 0.0 0.0 -1.151244268742903e-26 -0.5442396402359009 -0.7673661112785339 -0.22935479879379272 -1.3146049353263134e-11 0.0 -1.151244268742903e-26 -0.5442396402359009 -0.7673661112785339 -0.22935479879379272 -1.3146049353263134e-11 0.0 -0.2985999973554403 -0.11235000099231761 0.3136499823461779 2.2214412195942916 2.2214412191386654 6.515886891884208e-08 0.0 0.0 0.0 0.0 0.0 0.0 9.240738067961096e-07 3.4768818278582924e-07 4.253146293222068e-08 -2.8475662131755493e-08 6.147405365792544e-08 -2.650151154611292e-15 -0.29859999998320197 -0.1123500000156699 0.31364999997695675 2.221441469306996 2.22144146885137 4.556249894594308e-10 0.0 0.0 0.0 0.0 0.0 0.0
153965.512 0.0 -1.5707963267948966 1.5707963267948966 -1.5707963267948966 -1.5707963267948966 0.0 0.0 0.0 0.0 0.0 0.0 0.0 0.0 0.0 0.0 0.0 0.0 0.0 -1.1512442590619146e-26 -0.5442396572688689 -0.7673661111166267 -0.229354796466502 -1.3146049461972196e-11 0.0 -1.511583712148294e-25 -7.14586669994025 -7.145866699940251 -1.0424175499402515 -5.974879480466362e-11 0.0 0.0 -1.570796314870016 1.5707963705062866 -1.570796314870016 -1.570796314870016 0.0 0.0 0.0 0.0 0.0 0.0 0.0 -1.151244268742903e-26 -0.5442396402359009 -0.7673661112785339 -0.22935479879379272 -1.3146049353263134e-11 0.0 -1.151244268742903e-26 -0.5442396402359009 -0.7673661112785339 -0.22935479879379272 -1.3146049353263134e-11 0.0 -0.2985999973554403 -0.11235000099231761 0.3136499823461779 2.2214412195942916 2.2214412191386654 6.515886891884208e-08 0.0 0.0 0.0 0.0 0.0 0.0 9.240738067961096e-07 3.4768818278582924e-07 4.253146293222068e-08 -2.8475662131755493e-08 6.147405365792544e-08 -2.650151154611292e-15 -0.29859999998320197 -0.1123500000156699 0.31364999997695675 2.221441469306996 2.22144146885137 4.556249894594308e-10 0.0 0.0 0.0 0.0 0.0 0.0
153965.52 0.0 -1.5707963267948966 1.5707963267948966 -1.5707963267948966 -1.5707963267948966 0.0 0.0 0.0 0.0 0.0 0.0 0.0 0.0 0.0 0.0 0.0 0.0 0.0 -1.1512442590619146e-26 -0.5442396572688689 -0.7673661111166267 -0.229354796466502 -1.3146049461972196e-11 0.0 -1.511583712148294e-25 -7.14586669994025 -7.145866699940251 -1.0424175499402515 -5.974879480466362e-11 0.0 0.0 -1.570796314870016 1.5707963705062866 -1.570796314870016 -1.570796314870016 0.0 0.0 0.0 0.0 0.0 0.0 0.0 -1.151244268742903e-26 -0.5442396402359009 -0.7673661112785339 -0.22935479879379272 -1.3146049353263134e-11 0.0 -1.151244268742903e-26 -0.5442396402359009 -0.7673661112785339 -0.22935479879379272 -1.3146049353263134e-11 0.0 -0.2985999973554403 -0.11235000099231761 0.3136499823461779 2.2214412195942916 2.2214412191386654 6.515886891884208e-08 0.0 0.0 0.0 0.0 0.0 0.0 9.240738067961096e-07 3.4768818278582924e-07 4.253146293222068e-08 -2.8475662131755493e-08 6.147405365792544e-08 -2.650151154611292e-15 -0.29859999998320197 -0.1123500000156699 0.31364999997695675 2.221441469306996 2.22144146885137 4.556249894594308e-10 0.0 0.0 0.0 0.0 0.0 0.0
153965.528 0.0 -1.5707963267948966 1.5707963267948966 -1.5707963267948966 -1.5707963267948966 0.0 0.0 0.0 0.0 0.0 0.0 0.0 0.0 0.0 0.0 0.0 0.0 0.0 -1.1512442590619146e-26 -0.5442396572688689 -0.7673661111166267 -0.229354796466502 -1.3146049461972196e-11 0.0 -1.511583712148294e-25 -7.14586669994025 -7.145866699940251 -1.0424175499402515 -5.974879480466362e-11 0.0 0.0 -1.570796314870016 1.5707963705062866 -1.570796314870016 -1.570796314870016 0.0 0.0 0.0 0.0 0.0 0.0 0.0 -1.151244268742903e-26 -0.5442396402359009 -0.7673661112785339 -0.22935479879379272 -1.3146049353263134e-11 0.0 -1.151244268742903e-26 -0.5442396402359009 -0.7673661112785339 -0.22935479879379272 -1.3146049353263134e-11 0.0 -0.2985999973554403 -0.11235000099231761 0.3136499823461779 2.2214412195942916 2.2214412191386654 6.515886891884208e-08 0.0 0.0 0.0 0.0 0.0 0.0 9.240738067961096e-07 3.4768818278582924e-07 4.253146293222068e-08 -2.8475662131755493e-08 6.147405365792544e-08 -2.650151154611292e-15 -0.29859999998320197 -0.1123500000156699 0.31364999997695675 2.221441469306996 2.22144146885137 4.556249894594308e-10 0.0 0.0 0.0 0.0 0.0 0.0
153965.536 0.0 -1.5707963267948966 1.5707963267948966 -1.5707963267948966 -1.5707963267948966 0.0 0.0 0.0 0.0 0.0 0.0 0.0 0.0 0.0 0.0 0.0 0.0 0.0 -1.1512442590619146e-26 -0.5442396572688689 -0.7673661111166267 -0.229354796466502 -1.3146049461972196e-11 0.0 -1.511583712148294e-25 -7.14586669994025 -7.145866699940251 -1.0424175499402515 -5.974879480466362e-11 0.0 0.0 -1.570796314870016 1.5707963705062866 -1.570796314870016 -1.570796314870016 0.0 0.0 0.0 0.0 0.0 0.0 0.0 -1.151244268742903e-26 -0.5442396402359009 -0.7673661112785339 -0.22935479879379272 -1.3146049353263134e-11 0.0 -1.151244268742903e-26 -0.5442396402359009 -0.7673661112785339 -0.22935479879379272 -1.3146049353263134e-11 0.0 -0.2985999973554403 -0.11235000099231761 0.3136499823461779 2.2214412195942916 2.2214412191386654 6.515886891884208e-08 0.0 0.0 0.0 0.0 0.0 0.0 9.240738067961096e-07 3.4768818278582924e-07 4.253146293222068e-08 -2.8475662131755493e-08 6.147405365792544e-08 -2.650151154611292e-15 -0.29859999998320197 -0.1123500000156699 0.31364999997695675 2.221441469306996 2.22144146885137 4.556249894594308e-10 0.0 0.0 0.0 0.0 0.0 0.0
153965.544 0.0 -1.5707963267948966 1.5707963267948966 -1.5707963267948966 -1.5707963267948966 0.0 0.0 0.0 0.0 0.0 0.0 0.0 0.0 0.0 0.0 0.0 0.0 0.0 -1.1512442590619146e-26 -0.5442396572688689 -0.7673661111166267 -0.229354796466502 -1.3146049461972196e-11 0.0 -1.511583712148294e-25 -7.14586669994025 -7.145866699940251 -1.0424175499402515 -5.974879480466362e-11 0.0 0.0 -1.570796314870016 1.5707963705062866 -1.570796314870016 -1.570796314870016 0.0 0.0 0.0 0.0 0.0 0.0 0.0 -1.151244268742903e-26 -0.5442396402359009 -0.7673661112785339 -0.22935479879379272 -1.3146049353263134e-11 0.0 -1.151244268742903e-26 -0.5442396402359009 -0.7673661112785339 -0.22935479879379272 -1.3146049353263134e-11 0.0 -0.2985999973554403 -0.11235000099231761 0.3136499823461779 2.2214412195942916 2.2214412191386654 6.515886891884208e-08 0.0 0.0 0.0 0.0 0.0 0.0 9.240738067961096e-07 3.4768818278582924e-07 4.253146293222068e-08 -2.8475662131755493e-08 6.147405365792544e-08 -2.650151154611292e-15 -0.29859999998320197 -0.1123500000156699 0.31364999997695675 2.221441469306996 2.22144146885137 4.556249894594308e-10 0.0 0.0 0.0 0.0 0.0 0.0
153965.552 0.0 -1.5707963267948966 1.5707963267948966 -1.5707963267948966 -1.5707963267948966 0.0 0.0 0.0 0.0 0.0 0.0 0.0 0.0 0.0 0.0 0.0 0.0 0.0 -1.1512442590619146e-26 -0.5442396572688689 -0.7673661111166267 -0.229354796466502 -1.3146049461972196e-11 0.0 -1.511583712148294e-25 -7.14586669994025 -7.145866699940251 -1.0424175499402515 -5.974879480466362e-11 0.0 0.0 -1.570796314870016 1.5707963705062866 -1.570796314870016 -1.570796314870016 0.0 0.0 0.0 0.0 0.0 0.0 0.0 -1.151244268742903e-26 -0.5442396402359009 -0.7673661112785339 -0.22935479879379272 -1.3146049353263134e-11 0.0 -1.151244268742903e-26 -0.5442396402359009 -0.7673661112785339 -0.22935479879379272 -1.3146049353263134e-11 0.0 -0.2985999973554403 -0.11235000099231761 0.3136499823461779 2.2214412195942916 2.2214412191386654 6.515886891884208e-08 0.0 0.0 0.0 0.0 0.0 0.0 9.240738067961096e-07 3.4768818278582924e-07 4.253146293222068e-08 -2.8475662131755493e-08 6.147405365792544e-08 -2.650151154611292e-15 -0.29859999998320197 -0.1123500000156699 0.31364999997695675 2.221441469306996 2.22144146885137 4.556249894594308e-10 0.0 0.0 0.0 0.0 0.0 0.0
153965.56 0.0 -1.5707963267948966 1.5707963267948966 -1.5707963267948966 -1.5707963267948966 0.0 0.0 0.0 0.0 0.0 0.0 0.0 0.0 0.0 0.0 0.0 0.0 0.0 -1.1512442590619146e-26 -0.5442396572688689 -0.7673661111166267 -0.229354796466502 -1.3146049461972196e-11 0.0 -1.511583712148294e-25 -7.14586669994025 -7.145866699940251 -1.0424175499402515 -5.974879480466362e-11 0.0 0.0 -1.570796314870016 1.5707963705062866 -1.570796314870016 -1.570796314870016 0.0 0.0 0.0 0.0 0.0 0.0 0.0 -1.151244268742903e-26 -0.5442396402359009 -0.7673661112785339 -0.22935479879379272 -1.3146049353263134e-11 0.0 -1.151244268742903e-26 -0.5442396402359009 -0.7673661112785339 -0.22935479879379272 -1.3146049353263134e-11 0.0 -0.2985999973554403 -0.11235000099231761 0.3136499823461779 2.2214412195942916 2.2214412191386654 6.515886891884208e-08 0.0 0.0 0.0 0.0 0.0 0.0 9.240738067961096e-07 3.4768818278582924e-07 4.253146293222068e-08 -2.8475662131755493e-08 6.147405365792544e-08 -2.650151154611292e-15 -0.29859999998320197 -0.1123500000156699 0.31364999997695675 2.221441469306996 2.22144146885137 4.556249894594308e-10 0.0 0.0 0.0 0.0 0.0 0.0
153965.568 0.0 -1.5707963267948966 1.5707963267948966 -1.5707963267948966 -1.5707963267948966 0.0 0.0 0.0 0.0 0.0 0.0 0.0 0.0 0.0 0.0 0.0 0.0 0.0 -1.1512442590619146e-26 -0.5442396572688689 -0.7673661111166267 -0.229354796466502 -1.3146049461972196e-11 0.0 -1.511583712148294e-25 -7.14586669994025 -7.145866699940251 -1.0424175499402515 -5.974879480466362e-11 0.0 0.0 -1.570796314870016 1.5707963705062866 -1.570796314870016 -1.570796314870016 0.0 0.0 0.0 0.0 0.0 0.0 0.0 -1.151244268742903e-26 -0.5442396402359009 -0.7673661112785339 -0.22935479879379272 -1.3146049353263134e-11 0.0 -1.151244268742903e-26 -0.5442396402359009 -0.7673661112785339 -0.22935479879379272 -1.3146049353263134e-11 0.0 -0.2985999973554403 -0.11235000099231761 0.3136499823461779 2.2214412195942916 2.2214412191386654 6.515886891884208e-08 0.0 0.0 0.0 0.0 0.0 0.0 9.240738067961096e-07 3.4768818278582924e-07 4.253146293222068e-08 -2.8475662131755493e-08 6.147405365792544e-08 -2.650151154611292e-15 -0.29859999998320197 -0.1123500000156699 0.31364999997695675 2.221441469306996 2.22144146885137 4.556249894594308e-10 0.0 0.0 0.0 0.0 0.0 0.0
153965.576 0.0 -1.5707963267948966 1.5707963267948966 -1.5707963267948966 -1.5707963267948966 0.0 0.0 0.0 0.0 0.0 0.0 0.0 0.0 0.0 0.0 0.0 0.0 0.0 -1.1512442590619146e-26 -0.5442396572688689 -0.7673661111166267 -0.229354796466502 -1.3146049461972196e-11 0.0 -1.511583712148294e-25 -7.14586669994025 -7.145866699940251 -1.0424175499402515 -5.974879480466362e-11 0.0 0.0 -1.570796314870016 1.5707963705062866 -1.570796314870016 -1.570796314870016 0.0 0.0 0.0 0.0 0.0 0.0 0.0 -1.151244268742903e-26 -0.5442396402359009 -0.7673661112785339 -0.22935479879379272 -1.3146049353263134e-11 0.0 -1.151244268742903e-26 -0.5442396402359009 -0.7673661112785339 -0.22935479879379272 -1.3146049353263134e-11 0.0 -0.2985999973554403 -0.11235000099231761 0.3136499823461779 2.2214412195942916 2.2214412191386654 6.515886891884208e-08 0.0 0.0 0.0 0.0 0.0 0.0 9.240738067961096e-07 3.4768818278582924e-07 4.253146293222068e-08 -2.8475662131755493e-08 6.147405365792544e-08 -2.650151154611292e-15 -0.29859999998320197 -0.1123500000156699 0.31364999997695675 2.221441469306996 2.22144146885137 4.556249894594308e-10 0.0 0.0 0.0 0.0 0.0 0.0
153965.584 0.0 -1.5707963267948966 1.5707963267948966 -1.5707963267948966 -1.5707963267948966 0.0 0.0 0.0 0.0 0.0 0.0 0.0 0.0 0.0 0.0 0.0 0.0 0.0 -1.1512442590619146e-26 -0.5442396572688689 -0.7673661111166267 -0.229354796466502 -1.3146049461972196e-11 0.0 -1.511583712148294e-25 -7.14586669994025 -7.145866699940251 -1.0424175499402515 -5.974879480466362e-11 0.0 0.0 -1.570796314870016 1.5707963705062866 -1.570796314870016 -1.570796314870016 0.0 0.0 0.0 0.0 0.0 0.0 0.0 -1.151244268742903e-26 -0.5442396402359009 -0.7673661112785339 -0.22935479879379272 -1.3146049353263134e-11 0.0 -1.151244268742903e-26 -0.5442396402359009 -0.7673661112785339 -0.22935479879379272 -1.3146049353263134e-11 0.0 -0.2985999973554403 -0.11235000099231761 0.3136499823461779 2.2214412195942916 2.2214412191386654 6.515886891884208e-08 0.0 0.0 0.0 0.0 0.0 0.0 9.240738067961096e-07 3.4768818278582924e-07 4.253146293222068e-08 -2.8475662131755493e-08 6.147405365792544e-08 -2.650151154611292e-15 -0.29859999998320197 -0.1123500000156699 0.31364999997695675 2.221441469306996 2.22144146885137 4.556249894594308e-10 0.0 0.0 0.0 0.0 0.0 0.0
153965.592 0.0 -1.5707963267948966 1.5707963267948966 -1.5707963267948966 -1.5707963267948966 0.0 0.0 0.0 0.0 0.0 0.0 0.0 0.0 0.0 0.0 0.0 0.0 0.0 -1.1512442590619146e-26 -0.5442396572688689 -0.7673661111166267 -0.229354796466502 -1.3146049461972196e-11 0.0 -1.511583712148294e-25 -7.14586669994025 -7.145866699940251 -1.0424175499402515 -5.974879480466362e-11 0.0 0.0 -1.570796314870016 1.5707963705062866 -1.570796314870016 -1.570796314870016 0.0 0.0 0.0 0.0 0.0 0.0 0.0 -1.151244268742903e-26 -0.5442396402359009 -0.7673661112785339 -0.22935479879379272 -1.3146049353263134e-11 0.0 -1.151244268742903e-26 -0.5442396402359009 -0.7673661112785339 -0.22935479879379272 -1.3146049353263134e-11 0.0 -0.2985999973554403 -0.11235000099231761 0.3136499823461779 2.2214412195942916 2.2214412191386654 6.515886891884208e-08 0.0 0.0 0.0 0.0 0.0 0.0 9.240738067961096e-07 3.4768818278582924e-07 4.253146293222068e-08 -2.8475662131755493e-08 6.147405365792544e-08 -2.650151154611292e-15 -0.29859999998320197 -0.1123500000156699 0.31364999997695675 2.221441469306996 2.22144146885137 4.556249894594308e-10 0.0 0.0 0.0 0.0 0.0 0.0
153965.6 0.0 -1.5707963267948966 1.5707963267948966 -1.5707963267948966 -1.5707963267948966 0.0 0.0 0.0 0.0 0.0 0.0 0.0 0.0 0.0 0.0 0.0 0.0 0.0 -1.1512442590619146e-26 -0.5442396572688689 -0.7673661111166267 -0.229354796466502 -1.3146049461972196e-11 0.0 -1.511583712148294e-25 -7.14586669994025 -7.145866699940251 -1.0424175499402515 -5.974879480466362e-11 0.0 0.0 -1.570796314870016 1.5707963705062866 -1.570796314870016 -1.570796314870016 0.0 0.0 0.0 0.0 0.0 0.0 0.0 -1.151244268742903e-26 -0.5442396402359009 -0.7673661112785339 -0.22935479879379272 -1.3146049353263134e-11 0.0 -1.151244268742903e-26 -0.5442396402359009 -0.7673661112785339 -0.22935479879379272 -1.3146049353263134e-11 0.0 -0.2985999973554403 -0.11235000099231761 0.3136499823461779 2.2214412195942916 2.2214412191386654 6.515886891884208e-08 0.0 0.0 0.0 0.0 0.0 0.0 9.240738067961096e-07 3.4768818278582924e-07 4.253146293222068e-08 -2.8475662131755493e-08 6.147405365792544e-08 -2.650151154611292e-15 -0.29859999998320197 -0.1123500000156699 0.31364999997695675 2.221441469306996 2.22144146885137 4.556249894594308e-10 0.0 0.0 0.0 0.0 0.0 0.0
153965.608 0.0 -1.5707963267948966 1.5707963267948966 -1.5707963267948966 -1.5707963267948966 0.0 0.0 0.0 0.0 0.0 0.0 0.0 0.0 0.0 0.0 0.0 0.0 0.0 -1.1512442590619146e-26 -0.5442396572688689 -0.7673661111166267 -0.229354796466502 -1.3146049461972196e-11 0.0 -1.511583712148294e-25 -7.14586669994025 -7.145866699940251 -1.0424175499402515 -5.974879480466362e-11 0.0 0.0 -1.570796314870016 1.5707963705062866 -1.570796314870016 -1.570796314870016 0.0 0.0 0.0 0.0 0.0 0.0 0.0 -1.151244268742903e-26 -0.5442396402359009 -0.7673661112785339 -0.22935479879379272 -1.3146049353263134e-11 0.0 -1.151244268742903e-26 -0.5442396402359009 -0.7673661112785339 -0.22935479879379272 -1.3146049353263134e-11 0.0 -0.2985999973554403 -0.11235000099231761 0.3136499823461779 2.2214412195942916 2.2214412191386654 6.515886891884208e-08 0.0 0.0 0.0 0.0 0.0 0.0 9.240738067961096e-07 3.4768818278582924e-07 4.253146293222068e-08 -2.8475662131755493e-08 6.147405365792544e-08 -2.650151154611292e-15 -0.29859999998320197 -0.1123500000156699 0.31364999997695675 2.221441469306996 2.22144146885137 4.556249894594308e-10 0.0 0.0 0.0 0.0 0.0 0.0
153965.61599999998 0.0 -1.5707963267948966 1.5707963267948966 -1.5707963267948966 -1.5707963267948966 0.0 0.0 0.0 0.0 0.0 0.0 0.0 0.0 0.0 0.0 0.0 0.0 0.0 -1.1512442590619146e-26 -0.5442396572688689 -0.7673661111166267 -0.229354796466502 -1.3146049461972196e-11 0.0 -1.511583712148294e-25 -7.14586669994025 -7.145866699940251 -1.0424175499402515 -5.974879480466362e-11 0.0 0.0 -1.570796314870016 1.5707963705062866 -1.570796314870016 -1.570796314870016 0.0 0.0 0.0 0.0 0.0 0.0 0.0 -1.151244268742903e-26 -0.5442396402359009 -0.7673661112785339 -0.22935479879379272 -1.3146049353263134e-11 0.0 -1.151244268742903e-26 -0.5442396402359009 -0.7673661112785339 -0.22935479879379272 -1.3146049353263134e-11 0.0 -0.2985999973554403 -0.11235000099231761 0.3136499823461779 2.2214412195942916 2.2214412191386654 6.515886891884208e-08 0.0 0.0 0.0 0.0 0.0 0.0 9.240738067961096e-07 3.4768818278582924e-07 4.253146293222068e-08 -2.8475662131755493e-08 6.147405365792544e-08 -2.650151154611292e-15 -0.29859999998320197 -0.1123500000156699 0.31364999997695675 2.221441469306996 2.22144146885137 4.556249894594308e-10 0.0 0.0 0.0 0.0 0.0 0.0
