mkrssg/UniversalRobots/rtde_client_3.5/examples/falscheWerte da mit movel/q1_90-100.csv
timestamp target_q_0 target_q_1 target_q_2 target_q_3 target_q_4 target_q_5 target_qd_0 target_qd_1 target_qd_2 target_qd_3 target_qd_4 target_qd_5 target_qdd_0 target_qdd_1 target_qdd_2 target_qdd_3 target_qdd_4 target_qdd_5 target_current_0 target_current_1 target_current_2 target_current_3 target_current_4 target_current_5 target_moment_0 target_moment_1 target_moment_2 target_moment_3 target_moment_4 target_moment_5 actual_q_0 actual_q_1 actual_q_2 actual_q_3 actual_q_4 actual_q_5 actual_qd_0 actual_qd_1 actual_qd_2 actual_qd_3 actual_qd_4 actual_qd_5 actual_current_0 actual_current_1 actual_current_2 actual_current_3 actual_current_4 actual_current_5 joint_control_output_0 joint_control_output_1 joint_control_output_2 joint_control_output_3 joint_control_output_4 joint_control_output_5 actual_TCP_pose_0 actual_TCP_pose_1 actual_TCP_pose_2 actual_TCP_pose_3 actual_TCP_pose_4 actual_TCP_pose_5 actual_TCP_speed_0 actual_TCP_speed_1 actual_TCP_speed_2 actual_TCP_speed_3 actual_TCP_speed_4 actual_TCP_speed_5 actual_TCP_force_0 actual_TCP_force_1 actual_TCP_force_2 actual_TCP_force_3 actual_TCP_force_4 actual_TCP_force_5 target_TCP_pose_0 target_TCP_pose_1 target_TCP_pose_2 target_TCP_pose_3 target_TCP_pose_4 target_TCP_pose_5 target_TCP_speed_0 target_TCP_speed_1 target_TCP_speed_2 target_TCP_speed_3 target_TCP_speed_4 target_TCP_speed_5
153223.024 1.5707963267948961 -1.5707963267948966 1.5707963267948966 -1.5707963267948966 -1.5707963267948966 0.0 0.0 0.0 0.0 0.0 0.0 0.0 0.0 0.0 0.0 0.0 0.0 0.0 -1.1512442590619146e-26 -0.5442396572688689 -0.7673661111166267 -0.229354796466502 -1.3146049461972196e-11 0.0 -1.511583712148294e-25 -7.14586669994025 -7.145866699940251 -1.0424175499402515 -5.974879480466362e-11 0.0 1.5707963705062866 -1.570796314870016 1.5707963705062866 -1.570796314870016 -1.570796314870016 0.0 0.0 0.0 0.0 0.0 0.0 0.0 -1.151244268742903e-26 -0.5442396402359009 -0.7673661112785339 -0.22935479879379272 -1.3146049353263134e-11 0.0 -1.151244268742903e-26 -0.5442396402359009 -0.7673661112785339 -0.22935479879379272 -1.3146049353263134e-11 0.0 0.11235001404453844 -0.29859999244446533 0.3136499823461779 -6.833951314017032e-08 3.141592579952271 1.0644698078325815e-07 0.0 0.0 0.0 0.0 0.0 0.0 -3.4768822317838045e-07 9.240737915981754e-07 4.2531462932220256e-08 -6.147405241321462e-08 -2.8475664818871896e-08 -2.650151119779478e-15 0.11235000001566975 -0.298599999983202 0.31364999997695675 3.2217650591519574e-10 3.141592653589793 3.2217503880713943e-10 0.0 0.0 -0.0 0.0 0.0 0.0
153223.032 1.5707963267948961 -1.5707963267948966 1.5707963267948966 -1.5707963267948966 -1.5707963267948966 0.0 0.0 0.0 0.0 0.0 0.0 0.0 0.0 0.0 0.0 0.0 0.0 0.0 -1.1512442590619146e-26 -0.5442396572688689 -0.7673661111166267 -0.229354796466502 -1.3146049461972196e-11 0.0 -1.511583712148294e-25 -7.14586669994025 -7.145866699940251 -1.0424175499402515 -5.974879480466362e-11 0.0 1.5707963705062866 -1.570796314870016 1.5707963705062866 -1.570796314870016 -1.570796314870016 0.0 0.0 0.0 0.0 0.0 0.0 0.0 -1.151244268742903e-26 -0.5442396402359009 -0.7673661112785339 -0.22935479879379272 -1.3146049353263134e-11 0.0 -1.151244268742903e-26 -0.5442396402359009 -0.7673661112785339 -0.22935479879379272 -1.3146049353263134e-11 0.0 0.11235001404453844 -0.29859999244446533 0.3136499823461779 -6.833951314017032e-08 3.141592579952271 1.0644698078325815e-07 0.0 0.0 0.0 0.0 0.0 0.0 -3.4768822317838045e-07 9.240737915981754e-07 4.2531462932220256e-08 -6.147405241321462e-08 -2.8475664818871896e-08 -2.650151119779478e-15 0.11235000001566975 -0.298599999983202 0.31364999997695675 3.2217650591519574e-10 3.141592653589793 3.2217503880713943e-10 0.0 0.0 -0.0 0.0 0.0 0.0
153223.03999999998 1.5707963267948961 -1.5707963267948966 1.5707963267948966 -1.5707963267948966 -1.5707963267948966 0.0 0.0 0.0 0.0 0.0 0.0 0.0 0.0 0.0 0.0 0.0 0.0 0.0 -1.1512442590619146e-26 -0.5442396572688689 -0.7673661111166267 -0.229354796466502 -1.3146049461972196e-11 0.0 -1.511583712148294e-25 -7.14586669994025 -7.145866699940251 -1.0424175499402515 -5.974879480466362e-11 0.0 1.5707963705062866 -1.570796314870016 1.5707963705062866 -1.570796314870016 -1.570796314870016 0.0 0.0 0.0 0.0 0.0 0.0 0.0 -1.151244268742903e-26 -0.5442396402359009 -0.7673661112785339 -0.22935479879379272 -1.3146049353263134e-11 0.0 -1.151244268742903e-26 -0.5442396402359009 -0.7673661112785339 -0.22935479879379272 -1.3146049353263134e-11 0.0 0.11235001404453844 -0.29859999244446533 0.3136499823461779 -6.833951314017032e-08 3.141592579952271 1.0644698078325815e-07 0.0 0.0 0.0 0.0 0.0 0.0 -3.4768822317838045e-07 9.240737915981754e-07 4.2531462932220256e-08 -6.147405241321462e-08 -2.8475664818871896e-08 -2.650151119779478e-15 0.11235000001566975 -0.298599999983202 0.31364999997695675 3.2217650591519574e-10 3.141592653589793 3.2217503880713943e-10 0.0 0.0 -0.0 0.0 0.0 0.0
153223.04799999998 1.5707963267948961 -1.5707963267948966 1.5707963267948966 -1.5707963267948966 -1.5707963267948966 0.0 0.0 0.0 0.0 0.0 0.0 0.0 0.0 0.0 0.0 0.0 0.0 0.0 -1.1512442590619146e-26 -0.5442396572688689 -0.7673661111166267 -0.229354796466502 -1.3146049461972196e-11 0.0 -1.511583712148294e-25 -7.14586669994025 -7.145866699940251 -1.0424175499402515 -5.974879480466362e-11 0.0 1.5707963705062866 -1.570796314870016 1.5707963705062866 -1.570796314870016 -1.570796314870016 0.0 0.0 0.0 0.0 0.0 0.0 0.0 -1.151244268742903e-26 -0.5442396402359009 -0.7673661112785339 -0.22935479879379272 -1.3146049353263134e-11 0.0 -1.151244268742903e-26 -0.5442396402359009 -0.7673661112785339 -0.22935479879379272 -1.3146049353263134e-11 0.0 0.11235001404453844 -0.29859999244446533 0.3136499823461779 -6.833951314017032e-08 3.141592579952271 1.0644698078325815e-07 0.0 0.0 0.0 0.0 0.0 0.0 -3.4768822317838045e-07 9.240737915981754e-07 4.2531462932220256e-08 -6.147405241321462e-08 -2.8475664818871896e-08 -2.650151119779478e-15 0.11235000001566975 -0.298599999983202 0.31364999997695675 3.2217650591519574e-10 3.141592653589793 3.2217503880713943e-10 0.0 0.0 -0.0 0.0 0.0 0.0
153223.05599999998 1.5707963267948961 -1.5707963267948966 1.5707963267948966 -1.5707963267948966 -1.5707963267948966 0.0 0.0 0.0 0.0 0.0 0.0 0.0 0.0 0.0 0.0 0.0 0.0 0.0 -1.1512442590619146e-26 -0.5442396572688689 -0.7673661111166267 -0.229354796466502 -1.3146049461972196e-11 0.0 -1.511583712148294e-25 -7.14586669994025 -7.145866699940251 -1.0424175499402515 -5.974879480466362e-11 0.0 1.5707963705062866 -1.570796314870016 1.5707963705062866 -1.570796314870016 -1.570796314870016 0.0 0.0 0.0 0.0 0.0 0.0 0.0 -1.151244268742903e-26 -0.5442396402359009 -0.7673661112785339 -0.22935479879379272 -1.3146049353263134e-11 0.0 -1.151244268742903e-26 -0.5442396402359009 -0.7673661112785339 -0.22935479879379272 -1.3146049353263134e-11 0.0 0.11235001404453844 -0.29859999244446533 0.3136499823461779 -6.833951314017032e-08 3.141592579952271 1.0644698078325815e-07 0.0 0.0 0.0 0.0 0.0 0.0 -3.4768822317838045e-07 9.240737915981754e-07 4.2531462932220256e-08 -6.147405241321462e-08 -2.8475664818871896e-08 -2.650151119779478e-15 0.11235000001566975 -0.298599999983202 0.31364999997695675 3.2217650591519574e-10 3.141592653589793 3.2217503880713943e-10 0.0 0.0 -0.0 0.0 0.0 0.0
153223.06399999998 1.5707963267948961 -1.5707963267948966 1.5707963267948966 -1.5707963267948966 -1.5707963267948966 0.0 0.0 0.0 0.0 0.0 0.0 0.0 0.0 0.0 0.0 0.0 0.0 0.0 -1.1512442590619146e-26 -0.5442396572688689 -0.7673661111166267 -0.229354796466502 -1.3146049461972196e-11 0.0 -1.511583712148294e-25 -7.14586669994025 -7.145866699940251 -1.0424175499402515 -5.974879480466362e-11 0.0 1.5707963705062866 -1.570796314870016 1.5707963705062866 -1.570796314870016 -1.570796314870016 0.0 0.0 0.0 0.0 0.0 0.0 0.0 -1.151244268742903e-26 -0.5442396402359009 -0.7673661112785339 -0.22935479879379272 -1.3146049353263134e-11 0.0 -1.151244268742903e-26 -0.5442396402359009 -0.7673661112785339 -0.22935479879379272 -1.3146049353263134e-11 0.0 0.11235001404453844 -0.29859999244446533 0.3136499823461779 -6.833951314017032e-08 3.141592579952271 1.0644698078325815e-07 0.0 0.0 0.0 0.0 0.0 0.0 -3.4768822317838045e-07 9.240737915981754e-07 4.2531462932220256e-08 -6.147405241321462e-08 -2.8475664818871896e-08 -2.650151119779478e-15 0.11235000001566975 -0.298599999983202 0.31364999997695675 3.2217650591519574e-10 3.141592653589793 3.2217503880713943e-10 0.0 0.0 -0.0 0.0 0.0 0.0
153223.072 1.5707963267948961 -1.5707963267948966 1.5707963267948966 -1.5707963267948966 -1.5707963267948966 0.0 0.0 0.0 0.0 0.0 0.0 0.0 0.0 0.0 0.0 0.0 0.0 0.0 -1.1512442590619146e-26 -0.5442396572688689 -0.7673661111166267 -0.229354796466502 -1.3146049461972196e-11 0.0 -1.511583712148294e-25 -7.14586669994025 -7.145866699940251 -1.0424175499402515 -5.974879480466362e-11 0.0 1.5707963705062866 -1.570796314870016 1.5707963705062866 -1.570796314870016 -1.570796314870016 0.0 0.0 0.0 0.0 0.0 0.0 0.0 -1.151244268742903e-26 -0.5442396402359009 -0.7673661112785339 -0.22935479879379272 -1.3146049353263134e-11 0.0 -1.151244268742903e-26 -0.5442396402359009 -0.7673661112785339 -0.22935479879379272 -1.3146049353263134e-11 0.0 0.11235001404453844 -0.29859999244446533 0.3136499823461779 -6.833951314017032e-08 3.141592579952271 1.0644698078325815e-07 0.0 0.0 0.0 0.0 0.0 0.0 -3.4768822317838045e-07 9.240737915981754e-07 4.2531462932220256e-08 -6.147405241321462e-08 -2.8475664818871896e-08 -2.650151119779478e-15 0.11235000001566975 -0.298599999983202 0.31364999997695675 3.2217650591519574e-10 3.141592653589793 3.2217503880713943e-10 0.0 0.0 -0.0 0.0 0.0 0.0
153223.08 1.5707963267948961 -1.5707963267948966 1.5707963267948966 -1.5707963267948966 -1.5707963267948966 0.0 0.0 0.0 0.0 0.0 0.0 0.0 0.0 0.0 0.0 0.0 0.0 0.0 -1.1512442590619146e-26 -0.5442396572688689 -0.7673661111166267 -0.229354796466502 -1.3146049461972196e-11 0.0 -1.511583712148294e-25 -7.14586669994025 -7.145866699940251 -1.0424175499402515 -5.974879480466362e-11 0.0 1.5707963705062866 -1.570796314870016 1.5707963705062866 -1.570796314870016 -1.570796314870016 0.0 0.0 0.0 0.0 0.0 0.0 0.0 -1.151244268742903e-26 -0.5442396402359009 -0.7673661112785339 -0.22935479879379272 -1.3146049353263134e-11 0.0 -1.151244268742903e-26 -0.5442396402359009 -0.7673661112785339 -0.22935479879379272 -1.3146049353263134e-11 0.0 0.11235001404453844 -0.29859999244446533 0.3136499823461779 -6.833951314017032e-08 3.141592579952271 1.0644698078325815e-07 0.0 0.0 0.0 0.0 0.0 0.0 -3.4768822317838045e-07 9.240737915981754e-07 4.2531462932220256e-08 -6.147405241321462e-08 -2.8475664818871896e-08 -2.650151119779478e-15 0.11235000001566975 -0.298599999983202 0.31364999997695675 3.2217650591519574e-10 3.141592653589793 3.2217503880713943e-10 0.0 0.0 -0.0 0.0 0.0 0.0
153223.088 1.5707963267948961 -1.5707963267948966 1.5707963267948966 -1.5707963267948966 -1.5707963267948966 0.0 0.0 0.0 0.0 0.0 0.0 0.0 0.0 0.0 0.0 0.0 0.0 0.0 -1.1512442590619146e-26 -0.5442396572688689 -0.7673661111166267 -0.229354796466502 -1.3146049461972196e-11 0.0 -1.511583712148294e-25 -7.14586669994025 -7.145866699940251 -1.0424175499402515 -5.974879480466362e-11 0.0 1.5707963705062866 -1.570796314870016 1.5707963705062866 -1.570796314870016 -1.570796314870016 0.0 0.0 0.0 0.0 0.0 0.0 0.0 -1.151244268742903e-26 -0.5442396402359009 -0.7673661112785339 -0.22935479879379272 -1.3146049353263134e-11 0.0 -1.151244268742903e-26 -0.5442396402359009 -0.7673661112785339 -0.22935479879379272 -1.3146049353263134e-11 0.0 0.11235001404453844 -0.29859999244446533 0.3136499823461779 -6.833951314017032e-08 3.141592579952271 1.0644698078325815e-07 0.0 0.0 0.0 0.0 0.0 0.0 -3.4768822317838045e-07 9.240737915981754e-07 4.2531462932220256e-08 -6.147405241321462e-08 -2.8475664818871896e-08 -2.650151119779478e-15 0.11235000001566975 -0.298599999983202 0.31364999997695675 3.2217650591519574e-10 3.141592653589793 3.2217503880713943e-10 0.0 0.0 -0.0 0.0 0.0 0.0
153223.096 1.5707963267948961 -1.5707963267948966 1.5707963267948966 -1.5707963267948966 -1.5707963267948966 0.0 0.0 0.0 0.0 0.0 0.0 0.0 0.0 0.0 0.0 0.0 0.0 0.0 -1.1512442590619146e-26 -0.5442396572688689 -0.7673661111166267 -0.229354796466502 -1.3146049461972196e-11 0.0 -1.511583712148294e-25 -7.14586669994025 -7.145866699940251 -1.0424175499402515 -5.974879480466362e-11 0.0 1.5707963705062866 -1.570796314870016 1.5707963705062866 -1.570796314870016 -1.570796314870016 0.0 0.0 0.0 0.0 0.0 0.0 0.0 -1.151244268742903e-26 -0.5442396402359009 -0.7673661112785339 -0.22935479879379272 -1.3146049353263134e-11 0.0 -1.151244268742903e-26 -0.5442396402359009 -0.7673661112785339 -0.22935479879379272 -1.3146049353263134e-11 0.0 0.11235001404453844 -0.29859999244446533 0.3136499823461779 -6.833951314017032e-08 3.141592579952271 1.0644698078325815e-07 0.0 0.0 0.0 0.0 0.0 0.0 -3.4768822317838045e-07 9.240737915981754e-07 4.2531462932220256e-08 -6.147405241321462e-08 -2.8475664818871896e-08 -2.650151119779478e-15 0.11235000001566975 -0.298599999983202 0.31364999997695675 3.2217650591519574e-10 3.141592653589793 3.2217503880713943e-10 0.0 0.0 -0.0 0.0 0.0 0.0
153223.104 1.5707963267948961 -1.5707963267948966 1.5707963267948966 -1.5707963267948966 -1.5707963267948966 0.0 0.0 0.0 0.0 0.0 0.0 0.0 0.0 0.0 0.0 0.0 0.0 0.0 -1.1512442590619146e-26 -0.5442396572688689 -0.7673661111166267 -0.229354796466502 -1.3146049461972196e-11 0.0 -1.511583712148294e-25 -7.14586669994025 -7.145866699940251 -1.0424175499402515 -5.974879480466362e-11 0.0 1.5707963705062866 -1.570796314870016 1.5707963705062866 -1.570796314870016 -1.570796314870016 0.0 0.0 0.0 0.0 0.0 0.0 0.0 -1.151244268742903e-26 -0.5442396402359009 -0.7673661112785339 -0.22935479879379272 -1.3146049353263134e-11 0.0 -1.151244268742903e-26 -0.5442396402359009 -0.7673661112785339 -0.22935479879379272 -1.3146049353263134e-11 0.0 0.11235001404453844 -0.29859999244446533 0.3136499823461779 -6.833951314017032e-08 3.141592579952271 1.0644698078325815e-07 0.0 0.0 0.0 0.0 0.0 0.0 -3.4768822317838045e-07 9.240737915981754e-07 4.2531462932220256e-08 -6.147405241321462e-08 -2.8475664818871896e-08 -2.650151119779478e-15 0.11235000001566975 -0.298599999983202 0.31364999997695675 3.2217650591519574e-10 3.141592653589793 3.2217503880713943e-10 0.0 0.0 -0.0 0.0 0.0 0.0
153223.112 1.5707963267948961 -1.5707963267948966 1.5707963267948966 -1.5707963267948966 -1.5707963267948966 0.0 0.0 0.0 0.0 0.0 0.0 0.0 0.0 0.0 0.0 0.0 0.0 0.0 -1.1512442590619146e-26 -0.5442396572688689 -0.7673661111166267 -0.229354796466502 -1.3146049461972196e-11 0.0 -1.511583712148294e-25 -7.14586669994025 -7.145866699940251 -1.0424175499402515 -5.974879480466362e-11 0.0 1.5707963705062866 -1.570796314870016 1.5707963705062866 -1.570796314870016 -1.570796314870016 0.0 0.0 0.0 0.0 0.0 0.0 0.0 -1.151244268742903e-26 -0.5442396402359009 -0.7673661112785339 -0.22935479879379272 -1.3146049353263134e-11 0.0 -1.151244268742903e-26 -0.5442396402359009 -0.7673661112785339 -0.22935479879379272 -1.3146049353263134e-11 0.0 0.11235001404453844 -0.29859999244446533 0.3136499823461779 -6.833951314017032e-08 3.141592579952271 1.0644698078325815e-07 0.0 0.0 0.0 0.0 0.0 0.0 -3.4768822317838045e-07 9.240737915981754e-07 4.2531462932220256e-08 -6.147405241321462e-08 -2.8475664818871896e-08 -2.650151119779478e-15 0.11235000001566975 -0.298599999983202 0.31364999997695675 3.2217650591519574e-10 3.141592653589793 3.2217503880713943e-10 0.0 0.0 -0.0 0.0 0.0 0.0
153223.12 1.5707963267948961 -1.5707963267948966 1.5707963267948966 -1.5707963267948966 -1.5707963267948966 0.0 0.0 0.0 0.0 0.0 0.0 0.0 0.0 0.0 0.0 0.0 0.0 0.0 -1.1512442590619146e-26 -0.5442396572688689 -0.7673661111166267 -0.229354796466502 -1.3146049461972196e-11 0.0 -1.511583712148294e-25 -7.14586669994025 -7.145866699940251 -1.0424175499402515 -5.974879480466362e-11 0.0 1.5707963705062866 -1.570796314870016 1.5707963705062866 -1.570796314870016 -1.570796314870016 0.0 0.0 0.0 0.0 0.0 0.0 0.0 -1.151244268742903e-26 -0.5442396402359009 -0.7673661112785339 -0.22935479879379272 -1.3146049353263134e-11 0.0 -1.151244268742903e-26 -0.5442396402359009 -0.7673661112785339 -0.22935479879379272 -1.3146049353263134e-11 0.0 0.11235001404453844 -0.29859999244446533 0.3136499823461779 -6.833951314017032e-08 3.141592579952271 1.0644698078325815e-07 0.0 0.0 0.0 0.0 0.0 0.0 -3.4768822317838045e-07 9.240737915981754e-07 4.2531462932220256e-08 -6.147405241321462e-08 -2.8475664818871896e-08 -2.650151119779478e-15 0.11235000001566975 -0.298599999983202 0.31364999997695675 3.2217650591519574e-10 3.141592653589793 3.2217503880713943e-10 0.0 0.0 -0.0 0.0 0.0 0.0
153223.128 1.5707963267948961 -1.5707963267948966 1.5707963267948966 -1.5707963267948966 -1.5707963267948966 0.0 0.0 0.0 0.0 0.0 0.0 0.0 0.0 0.0 0.0 0.0 0.0 0.0 -1.1512442590619146e-26 -0.5442396572688689 -0.7673661111166267 -0.229354796466502 -1.3146049461972196e-11 0.0 -1.511583712148294e-25 -7.14586669994025 -7.145866699940251 -1.0424175499402515 -5.974879480466362e-11 0.0 1.5707963705062866 -1.570796314870016 1.5707963705062866 -1.570796314870016 -1.570796314870016 0.0 0.0 0.0 0.0 0.0 0.0 0.0 -1.151244268742903e-26 -0.5442396402359009 -0.7673661112785339 -0.22935479879379272 -1.3146049353263134e-11 0.0 -1.151244268742903e-26 -0.5442396402359009 -0.7673661112785339 -0.22935479879379272 -1.3146049353263134e-11 0.0 0.11235001404453844 -0.29859999244446533 0.3136499823461779 -6.833951314017032e-08 3.141592579952271 1.0644698078325815e-07 0.0 0.0 0.0 0.0 0.0 0.0 -3.4768822317838045e-07 9.240737915981754e-07 4.2531462932220256e-08 -6.147405241321462e-08 -2.8475664818871896e-08 -2.650151119779478e-15 0.11235000001566975 -0.298599999983202 0.31364999997695675 3.2217650591519574e-10 3.141592653589793 3.2217503880713943e-10 0.0 0.0 -0.0 0.0 0.0 0.0
153223.136 1.5707963267948961 -1.5707963267948966 1.5707963267948966 -1.5707963267948966 -1.5707963267948966 0.0 0.0 0.0 0.0 0.0 0.0 0.0 0.0 0.0 0.0 0.0 0.0 0.0 -1.1512442590619146e-26 -0.5442396572688689 -0.7673661111166267 -0.229354796466502 -1.3146049461972196e-11 0.0 -1.511583712148294e-25 -7.14586669994025 -7.145866699940251 -1.0424175499402515 -5.974879480466362e-11 0.0 1.5707963705062866 -1.570796314870016 1.5707963705062866 -1.570796314870016 -1.570796314870016 0.0 0.0 0.0 0.0 0.0 0.0 0.0 -1.151244268742903e-26 -0.5442396402359009 -0.7673661112785339 -0.22935479879379272 -1.3146049353263134e-11 0.0 -1.151244268742903e-26 -0.5442396402359009 -0.7673661112785339 -0.22935479879379272 -1.3146049353263134e-11 0.0 0.11235001404453844 -0.29859999244446533 0.3136499823461779 -6.833951314017032e-08 3.141592579952271 1.0644698078325815e-07 0.0 0.0 0.0 0.0 0.0 0.0 -3.4768822317838045e-07 9.240737915981754e-07 4.2531462932220256e-08 -6.147405241321462e-08 -2.8475664818871896e-08 -2.650151119779478e-15 0.11235000001566975 -0.298599999983202 0.31364999997695675 3.2217650591519574e-10 3.141592653589793 3.2217503880713943e-10 0.0 0.0 -0.0 0.0 0.0 0.0
153223.144 1.5707963267948961 -1.5707963267948966 1.5707963267948966 -1.5707963267948966 -1.5707963267948966 0.0 0.0 0.0 0.0 0.0 0.0 0.0 0.0 0.0 0.0 0.0 0.0 0.0 -1.1512442590619146e-26 -0.5442396572688689 -0.7673661111166267 -0.229354796466502 -1.3146049461972196e-11 0.0 -1.511583712148294e-25 -7.14586669994025 -7.145866699940251 -1.0424175499402515 -5.974879480466362e-11 0.0 1.5707963705062866 -1.570796314870016 1.5707963705062866 -1.570796314870016 -1.570796314870016 0.0 0.0 0.0 0.0 0.0 0.0 0.0 -1.151244268742903e-26 -0.5442396402359009 -0.7673661112785339 -0.22935479879379272 -1.3146049353263134e-11 0.0 -1.151244268742903e-26 -0.5442396402359009 -0.7673661112785339 -0.22935479879379272 -1.3146049353263134e-11 0.0 0.11235001404453844 -0.29859999244446533 0.3136499823461779 -6.833951314017032e-08 3.141592579952271 1.0644698078325815e-07 0.0 0.0 0.0 0.0 0.0 0.0 -3.4768822317838045e-07 9.240737915981754e-07 4.2531462932220256e-08 -6.147405241321462e-08 -2.8475664818871896e-08 -2.650151119779478e-15 0.11235000001566975 -0.298599999983202 0.31364999997695675 3.2217650591519574e-10 3.141592653589793 3.2217503880713943e-10 0.0 0.0 -0.0 0.0 0.0 0.0
153223.152 1.5707963267948961 -1.5707963267948966 1.5707963267948966 -1.5707963267948966 -1.5707963267948966 0.0 0.0 0.0 0.0 0.0 0.0 0.0 0.0 0.0 0.0 0.0 0.0 0.0 -1.1512442590619146e-26 -0.5442396572688689 -0.7673661111166267 -0.229354796466502 -1.3146049461972196e-11 0.0 -1.511583712148294e-25 -7.14586669994025 -7.145866699940251 -1.0424175499402515 -5.974879480466362e-11 0.0 1.5707963705062866 -1.570796314870016 1.5707963705062866 -1.570796314870016 -1.570796314870016 0.0 0.0 0.0 0.0 0.0 0.0 0.0 -1.151244268742903e-26 -0.5442396402359009 -0.7673661112785339 -0.22935479879379272 -1.3146049353263134e-11 0.0 -1.151244268742903e-26 -0.5442396402359009 -0.7673661112785339 -0.22935479879379272 -1.3146049353263134e-11 0.0 0.11235001404453844 -0.29859999244446533 0.3136499823461779 -6.833951314017032e-08 3.141592579952271 1.0644698078325815e-07 0.0 0.0 0.0 0.0 0.0 0.0 -3.4768822317838045e-07 9.240737915981754e-07 4.2531462932220256e-08 -6.147405241321462e-08 -2.8475664818871896e-08 -2.650151119779478e-15 0.11235000001566975 -0.298599999983202 0.31364999997695675 3.2217650591519574e-10 3.141592653589793 3.2217503880713943e-10 0.0 0.0 -0.0 0.0 0.0 0.0
153223.16 1.5707963267948961 -1.5707963267948966 1.5707963267948966 -1.5707963267948966 -1.5707963267948966 0.0 0.0 0.0 0.0 0.0 0.0 0.0 0.0 0.0 0.0 0.0 0.0 0.0 -1.1512442590619146e-26 -0.5442396572688689 -0.7673661111166267 -0.229354796466502 -1.3146049461972196e-11 0.0 -1.511583712148294e-25 -7.14586669994025 -7.145866699940251 -1.0424175499402515 -5.974879480466362e-11 0.0 1.5707963705062866 -1.570796314870016 1.5707963705062866 -1.570796314870016 -1.570796314870016 0.0 0.0 0.0 0.0 0.0 0.0 0.0 -1.151244268742903e-26 -0.5442396402359009 -0.7673661112785339 -0.22935479879379272 -1.3146049353263134e-11 0.0 -1.151244268742903e-26 -0.5442396402359009 -0.7673661112785339 -0.22935479879379272 -1.3146049353263134e-11 0.0 0.11235001404453844 -0.29859999244446533 0.3136499823461779 -6.833951314017032e-08 3.141592579952271 1.0644698078325815e-07 0.0 0.0 0.0 0.0 0.0 0.0 -3.4768822317838045e-07 9.240737915981754e-07 4.2531462932220256e-08 -6.147405241321462e-08 -2.8475664818871896e-08 -2.650151119779478e-15 0.11235000001566975 -0.298599999983202 0.31364999997695675 3.2217650591519574e-10 3.141592653589793 3.2217503880713943e-10 0.0 0.0 -0.0 0.0 0.0 0.0
153223.168 1.5707963267948961 -1.5707963267948966 1.5707963267948966 -1.5707963267948966 -1.5707963267948966 0.0 0.0 0.0 0.0 0.0 0.0 0.0 0.0 0.0 0.0 0.0 0.0 0.0 -1.1512442590619146e-26 -0.5442396572688689 -0.7673661111166267 -0.229354796466502 -1.3146049461972196e-11 0.0 -1.511583712148294e-25 -7.14586669994025 -7.145866699940251 -1.0424175499402515 -5.974879480466362e-11 0.0 1.5707963705062866 -1.570796314870016 1.5707963705062866 -1.570796314870016 -1.570796314870016 0.0 0.0 0.0 0.0 0.0 0.0 0.0 -1.151244268742903e-26 -0.5442396402359009 -0.7673661112785339 -0.22935479879379272 -1.3146049353263134e-11 0.0 -1.151244268742903e-26 -0.5442396402359009 -0.7673661112785339 -0.22935479879379272 -1.3146049353263134e-11 0.0 0.11235001404453844 -0.29859999244446533 0.3136499823461779 -6.833951314017032e-08 3.141592579952271 1.0644698078325815e-07 0.0 0.0 0.0 0.0 0.0 0.0 -3.4768822317838045e-07 9.240737915981754e-07 4.2531462932220256e-08 -6.147405241321462e-08 -2.8475664818871896e-08 -2.650151119779478e-15 0.11235000001566975 -0.298599999983202 0.31364999997695675 3.2217650591519574e-10 3.141592653589793 3.2217503880713943e-10 0.0 0.0 -0.0 0.0 0.0 0.0
153223.176 1.5707963267948961 -1.5707963267948966 1.5707963267948966 -1.5707963267948966 -1.5707963267948966 0.0 0.0 0.0 0.0 0.0 0.0 0.0 0.0 0.0 0.0 0.0 0.0 0.0 -1.1512442590619146e-26 -0.5442396572688689 -0.7673661111166267 -0.229354796466502 -1.3146049461972196e-11 0.0 -1.511583712148294e-25 -7.14586669994025 -7.145866699940251 -1.0424175499402515 -5.974879480466362e-11 0.0 1.5707963705062866 -1.570796314870016 1.5707963705062866 -1.570796314870016 -1.570796314870016 0.0 0.0 0.0 0.0 0.0 0.0 0.0 -1.151244268742903e-26 -0.5442396402359009 -0.7673661112785339 -0.22935479879379272 -1.3146049353263134e-11 0.0 -1.151244268742903e-26 -0.5442396402359009 -0.7673661112785339 -0.22935479879379272 -1.3146049353263134e-11 0.0 0.11235001404453844 -0.29859999244446533 0.3136499823461779 -6.833951314017032e-08 3.141592579952271 1.0644698078325815e-07 0.0 0.0 0.0 0.0 0.0 0.0 -3.4768822317838045e-07 9.240737915981754e-07 4.2531462932220256e-08 -6.147405241321462e-08 -2.8475664818871896e-08 -2.650151119779478e-15 0.11235000001566975 -0.298599999983202 0.31364999997695675 3.2217650591519574e-10 3.141592653589793 3.2217503880713943e-10 0.0 0.0 -0.0 0.0 0.0 0.0
153223.18399999998 1.5707963267948961 -1.5707963267948966 1.5707963267948966 -1.5707963267948966 -1.5707963267948966 0.0 0.0 0.0 0.0 0.0 0.0 0.0 0.0 0.0 0.0 0.0 0.0 0.0 -1.1512442590619146e-26 -0.5442396572688689 -0.7673661111166267 -0.229354796466502 -1.3146049461972196e-11 0.0 -1.511583712148294e-25 -7.14586669994025 -7.145866699940251 -1.0424175499402515 -5.974879480466362e-11 0.0 1.5707963705062866 -1.570796314870016 1.5707963705062866 -1.570796314870016 -1.570796314870016 0.0 0.0 0.0 0.0 0.0 0.0 0.0 -1.151244268742903e-26 -0.5442396402359009 -0.7673661112785339 -0.22935479879379272 -1.3146049353263134e-11 0.0 -1.151244268742903e-26 -0.5442396402359009 -0.7673661112785339 -0.22935479879379272 -1.3146049353263134e-11 0.0 0.11235001404453844 -0.29859999244446533 0.3136499823461779 -6.833951314017032e-08 3.141592579952271 1.0644698078325815e-07 0.0 0.0 0.0 0.0 0.0 0.0 -3.4768822317838045e-07 9.240737915981754e-07 4.2531462932220256e-08 -6.147405241321462e-08 -2.8475664818871896e-08 -2.650151119779478e-15 0.11235000001566975 -0.298599999983202 0.31364999997695675 3.2217650591519574e-10 3.141592653589793 3.2217503880713943e-10 0.0 0.0 -0.0 0.0 0.0 0.0
153223.19199999998 1.5707963267948961 -1.5707963267948966 1.5707963267948966 -1.5707963267948966 -1.5707963267948966 0.0 0.0 0.0 0.0 0.0 0.0 0.0 0.0 0.0 0.0 0.0 0.0 0.0 -1.1512442590619146e-26 -0.5442396572688689 -0.7673661111166267 -0.229354796466502 -1.3146049461972196e-11 0.0 -1.511583712148294e-25 -7.14586669994025 -7.145866699940251 -1.0424175499402515 -5.974879480466362e-11 0.0 1.5707963705062866 -1.570796314870016 1.5707963705062866 -1.570796314870016 -1.570796314870016 0.0 0.0 0.0 0.0 0.0 0.0 0.0 -1.151244268742903e-26 -0.5442396402359009 -0.7673661112785339 -0.22935479879379272 -1.3146049353263134e-11 0.0 -1.151244268742903e-26 -0.5442396402359009 -0.7673661112785339 -0.22935479879379272 -1.3146049353263134e-11 0.0 0.11235001404453844 -0.29859999244446533 0.3136499823461779 -6.833951314017032e-08 3.141592579952271 1.0644698078325815e-07 0.0 0.0 0.0 0.0 0.0 0.0 -3.4768822317838045e-07 9.240737915981754e-07 4.2531462932220256e-08 -6.147405241321462e-08 -2.8475664818871896e-08 -2.650151119779478e-15 0.11235000001566975 -0.298599999983202 0.31364999997695675 3.2217650591519574e-10 3.141592653589793 3.2217503880713943e-10 0.0 0.0 -0.0 0.0 0.0 0.0
153223.19999999998 1.5707963267948961 -1.5707963267948966 1.5707963267948966 -1.5707963267948966 -1.5707963267948966 0.0 0.0 0.0 0.0 0.0 0.0 0.0 0.0 0.0 0.0 0.0 0.0 0.0 -1.1512442590619146e-26 -0.5442396572688689 -0.7673661111166267 -0.229354796466502 -1.3146049461972196e-11 0.0 -1.511583712148294e-25 -7.14586669994025 -7.145866699940251 -1.0424175499402515 -5.974879480466362e-11 0.0 1.5707963705062866 -1.570796314870016 1.5707963705062866 -1.570796314870016 -1.570796314870016 0.0 0.0 0.0 0.0 0.0 0.0 0.0 -1.151244268742903e-26 -0.5442396402359009 -0.7673661112785339 -0.22935479879379272 -1.3146049353263134e-11 0.0 -1.151244268742903e-26 -0.5442396402359009 -0.7673661112785339 -0.22935479879379272 -1.3146049353263134e-11 0.0 0.11235001404453844 -0.29859999244446533 0.3136499823461779 -6.833951314017032e-08 3.141592579952271 1.0644698078325815e-07 0.0 0.0 0.0 0.0 0.0 0.0 -3.4768822317838045e-07 9.240737915981754e-07 4.2531462932220256e-08 -6.147405241321462e-08 -2.8475664818871896e-08 -2.650151119779478e-15 0.11235000001566975 -0.298599999983202 0.31364999997695675 3.2217650591519574e-10 3.141592653589793 3.2217503880713943e-10 0.0 0.0 -0.0 0.0 0.0 0.0
153223.20799999998 1.5707963267948961 -1.5707963267948966 1.5707963267948966 -1.5707963267948966 -1.5707963267948966 0.0 0.0 0.0 0.0 0.0 0.0 0.0 0.0 0.0 0.0 0.0 0.0 0.0 -1.1512442590619146e-26 -0.5442396572688689 -0.7673661111166267 -0.229354796466502 -1.3146049461972196e-11 0.0 -1.511583712148294e-25 -7.14586669994025 -7.145866699940251 -1.0424175499402515 -5.974879480466362e-11 0.0 1.5707963705062866 -1.570796314870016 1.5707963705062866 -1.570796314870016 -1.570796314870016 0.0 0.0 0.0 0.0 0.0 0.0 0.0 -1.151244268742903e-26 -0.5442396402359009 -0.7673661112785339 -0.22935479879379272 -1.3146049353263134e-11 0.0 -1.151244268742903e-26 -0.5442396402359009 -0.7673661112785339 -0.22935479879379272 -1.3146049353263134e-11 0.0 0.11235001404453844 -0.29859999244446533 0.3136499823461779 -6.833951314017032e-08 3.141592579952271 1.0644698078325815e-07 0.0 0.0 0.0 0.0 0.0 0.0 -3.4768822317838045e-07 9.240737915981754e-07 4.2531462932220256e-08 -6.147405241321462e-08 -2.8475664818871896e-08 -2.650151119779478e-15 0.11235000001566975 -0.298599999983202 0.31364999997695675 3.2217650591519574e-10 3.141592653589793 3.2217503880713943e-10 0.0 0.0 -0.0 0.0 0.0 0.0
153223.216 1.5707963267948961 -1.5707963267948966 1.5707963267948966 -1.5707963267948966 -1.5707963267948966 0.0 0.0 0.0 0.0 0.0 0.0 0.0 0.0 0.0 0.0 0.0 0.0 0.0 -1.1512442590619146e-26 -0.5442396572688689 -0.7673661111166267 -0.229354796466502 -1.3146049461972196e-11 0.0 -1.511583712148294e-25 -7.14586669994025 -7.145866699940251 -1.0424175499402515 -5.974879480466362e-11 0.0 1.5707963705062866 -1.570796314870016 1.5707963705062866 -1.570796314870016 -1.570796314870016 0.0 0.0 0.0 0.0 0.0 0.0 0.0 -1.151244268742903e-26 -0.5442396402359009 -0.7673661112785339 -0.22935479879379272 -1.3146049353263134e-11 0.0 -1.151244268742903e-26 -0.5442396402359009 -0.7673661112785339 -0.22935479879379272 -1.3146049353263134e-11 0.0 0.11235001404453844 -0.29859999244446533 0.3136499823461779 -6.833951314017032e-08 3.141592579952271 1.0644698078325815e-07 0.0 0.0 0.0 0.0 0.0 0.0 -3.4768822317838045e-07 9.240737915981754e-07 4.2531462932220256e-08 -6.147405241321462e-08 -2.8475664818871896e-08 -2.650151119779478e-15 0.11235000001566975 -0.298599999983202 0.31364999997695675 3.2217650591519574e-10 3.141592653589793 3.2217503880713943e-10 0.0 0.0 -0.0 0.0 0.0 0.0
153223.224 1.5707963267948961 -1.5707963267948966 1.5707963267948966 -1.5707963267948966 -1.5707963267948966 0.0 0.0 0.0 0.0 0.0 0.0 0.0 0.0 0.0 0.0 0.0 0.0 0.0 -1.1512442590619146e-26 -0.5442396572688689 -0.7673661111166267 -0.229354796466502 -1.3146049461972196e-11 0.0 -1.511583712148294e-25 -7.14586669994025 -7.145866699940251 -1.0424175499402515 -5.974879480466362e-11 0.0 1.5707963705062866 -1.570796314870016 1.5707963705062866 -1.570796314870016 -1.570796314870016 0.0 0.0 0.0 0.0 0.0 0.0 0.0 -1.151244268742903e-26 -0.5442396402359009 -0.7673661112785339 -0.22935479879379272 -1.3146049353263134e-11 0.0 -1.151244268742903e-26 -0.5442396402359009 -0.7673661112785339 -0.22935479879379272 -1.3146049353263134e-11 0.0 0.11235001404453844 -0.29859999244446533 0.3136499823461779 -6.833951314017032e-08 3.141592579952271 1.0644698078325815e-07 0.0 0.0 0.0 0.0 0.0 0.0 -3.4768822317838045e-07 9.240737915981754e-07 4.2531462932220256e-08 -6.147405241321462e-08 -2.8475664818871896e-08 -2.650151119779478e-15 0.11235000001566975 -0.298599999983202 0.31364999997695675 3.2217650591519574e-10 3.141592653589793 3.2217503880713943e-10 0.0 0.0 -0.0 0.0 0.0 0.0
153223.232 1.5707963267948961 -1.5707963267948966 1.5707963267948966 -1.5707963267948966 -1.5707963267948966 0.0 0.0 0.0 0.0 0.0 0.0 0.0 0.0 0.0 0.0 0.0 0.0 0.0 -1.1512442590619146e-26 -0.5442396572688689 -0.7673661111166267 -0.229354796466502 -1.3146049461972196e-11 0.0 -1.511583712148294e-25 -7.14586669994025 -7.145866699940251 -1.0424175499402515 -5.974879480466362e-11 0.0 1.5707963705062866 -1.570796314870016 1.5707963705062866 -1.570796314870016 -1.570796314870016 0.0 0.0 0.0 0.0 0.0 0.0 0.0 -1.151244268742903e-26 -0.5442396402359009 -0.7673661112785339 -0.22935479879379272 -1.3146049353263134e-11 0.0 -1.151244268742903e-26 -0.5442396402359009 -0.7673661112785339 -0.22935479879379272 -1.3146049353263134e-11 0.0 0.11235001404453844 -0.29859999244446533 0.3136499823461779 -6.833951314017032e-08 3.141592579952271 1.0644698078325815e-07 0.0 0.0 0.0 0.0 0.0 0.0 -3.4768822317838045e-07 9.240737915981754e-07 4.2531462932220256e-08 -6.147405241321462e-08 -2.8475664818871896e-08 -2.650151119779478e-15 0.11235000001566975 -0.298599999983202 0.31364999997695675 3.2217650591519574e-10 3.141592653589793 3.2217503880713943e-10 0.0 0.0 -0.0 0.0 0.0 0.0
153223.24 1.5707963267948961 -1.5707963267948966 1.5707963267948966 -1.5707963267948966 -1.5707963267948966 0.0 0.0 0.0 0.0 0.0 0.0 0.0 0.0 0.0 0.0 0.0 0.0 0.0 -1.1512442590619146e-26 -0.5442396572688689 -0.7673661111166267 -0.229354796466502 -1.3146049461972196e-11 0.0 -1.511583712148294e-25 -7.14586669994025 -7.145866699940251 -1.0424175499402515 -5.974879480466362e-11 0.0 1.5707963705062866 -1.570796314870016 1.5707963705062866 -1.570796314870016 -1.570796314870016 0.0 0.0 0.0 0.0 0.0 0.0 0.0 -1.151244268742903e-26 -0.5442396402359009 -0.7673661112785339 -0.22935479879379272 -1.3146049353263134e-11 0.0 -1.151244268742903e-26 -0.5442396402359009 -0.7673661112785339 -0.22935479879379272 -1.3146049353263134e-11 0.0 0.11235001404453844 -0.29859999244446533 0.3136499823461779 -6.833951314017032e-08 3.141592579952271 1.0644698078325815e-07 0.0 0.0 0.0 0.0 0.0 0.0 -3.4768822317838045e-07 9.240737915981754e-07 4.2531462932220256e-08 -6.147405241321462e-08 -2.8475664818871896e-08 -2.650151119779478e-15 0.11235000001566975 -0.298599999983202 0.31364999997695675 3.2217650591519574e-10 3.141592653589793 3.2217503880713943e-10 0.0 0.0 -0.0 0.0 0.0 0.0
153223.248 1.5707963267948961 -1.5707963267948966 1.5707963267948966 -1.5707963267948966 -1.5707963267948966 0.0 0.0 0.0 0.0 0.0 0.0 0.0 0.0 0.0 0.0 0.0 0.0 0.0 -1.1512442590619146e-26 -0.5442396572688689 -0.7673661111166267 -0.229354796466502 -1.3146049461972196e-11 0.0 -1.511583712148294e-25 -7.14586669994025 -7.145866699940251 -1.0424175499402515 -5.974879480466362e-11 0.0 1.5707963705062866 -1.570796314870016 1.5707963705062866 -1.570796314870016 -1.570796314870016 0.0 0.0 0.0 0.0 0.0 0.0 0.0 -1.151244268742903e-26 -0.5442396402359009 -0.7673661112785339 -0.22935479879379272 -1.3146049353263134e-11 0.0 -1.151244268742903e-26 -0.5442396402359009 -0.7673661112785339 -0.22935479879379272 -1.3146049353263134e-11 0.0 0.11235001404453844 -0.29859999244446533 0.3136499823461779 -6.833951314017032e-08 3.141592579952271 1.0644698078325815e-07 0.0 0.0 0.0 0.0 0.0 0.0 -3.4768822317838045e-07 9.240737915981754e-07 4.2531462932220256e-08 -6.147405241321462e-08 -2.8475664818871896e-08 -2.650151119779478e-15 0.11235000001566975 -0.298599999983202 0.31364999997695675 3.2217650591519574e-10 3.141592653589793 3.2217503880713943e-10 0.0 0.0 -0.0 0.0 0.0 0.0
153223.256 1.5707963267948961 -1.5707963267948966 1.5707963267948966 -1.5707963267948966 -1.5707963267948966 0.0 0.0 0.0 0.0 0.0 0.0 0.0 0.0 0.0 0.0 0.0 0.0 0.0 -1.1512442590619146e-26 -0.5442396572688689 -0.7673661111166267 -0.229354796466502 -1.3146049461972196e-11 0.0 -1.511583712148294e-25 -7.14586669994025 -7.145866699940251 -1.0424175499402515 -5.974879480466362e-11 0.0 1.5707963705062866 -1.570796314870016 1.5707963705062866 -1.570796314870016 -1.570796314870016 0.0 0.0 0.0 0.0 0.0 0.0 0.0 -1.151244268742903e-26 -0.5442396402359009 -0.7673661112785339 -0.22935479879379272 -1.3146049353263134e-11 0.0 -1.151244268742903e-26 -0.5442396402359009 -0.7673661112785339 -0.22935479879379272 -1.3146049353263134e-11 0.0 0.11235001404453844 -0.29859999244446533 0.3136499823461779 -6.833951314017032e-08 3.141592579952271 1.0644698078325815e-07 0.0 0.0 0.0 0.0 0.0 0.0 -3.4768822317838045e-07 9.240737915981754e-07 4.2531462932220256e-08 -6.147405241321462e-08 -2.8475664818871896e-08 -2.650151119779478e-15 0.11235000001566975 -0.298599999983202 0.31364999997695675 3.2217650591519574e-10 3.141592653589793 3.2217503880713943e-10 0.0 0.0 -0.0 0.0 0.0 0.0
153223.264 1.5707963267948961 -1.5707963267948966 1.5707963267948966 -1.5707963267948966 -1.5707963267948966 0.0 0.0 0.0 0.0 0.0 0.0 0.0 0.0 0.0 0.0 0.0 0.0 0.0 -1.1512442590619146e-26 -0.5442396572688689 -0.7673661111166267 -0.229354796466502 -1.3146049461972196e-11 0.0 -1.511583712148294e-25 -7.14586669994025 -7.145866699940251 -1.0424175499402515 -5.974879480466362e-11 0.0 1.5707963705062866 -1.570796314870016 1.5707963705062866 -1.570796314870016 -1.570796314870016 0.0 0.0 0.0 0.0 0.0 0.0 0.0 -1.151244268742903e-26 -0.5442396402359009 -0.7673661112785339 -0.22935479879379272 -1.3146049353263134e-11 0.0 -1.151244268742903e-26 -0.5442396402359009 -0.7673661112785339 -0.22935479879379272 -1.3146049353263134e-11 0.0 0.11235001404453844 -0.29859999244446533 0.3136499823461779 -6.833951314017032e-08 3.141592579952271 1.0644698078325815e-07 0.0 0.0 0.0 0.0 0.0 0.0 -3.4768822317838045e-07 9.240737915981754e-07 4.2531462932220256e-08 -6.147405241321462e-08 -2.8475664818871896e-08 -2.650151119779478e-15 0.11235000001566975 -0.298599999983202 0.31364999997695675 3.2217650591519574e-10 3.141592653589793 3.2217503880713943e-10 0.0 0.0 -0.0 0.0 0.0 0.0
153223.272 1.5707963267948961 -1.5707963267948966 1.5707963267948966 -1.5707963267948966 -1.5707963267948966 0.0 0.0 0.0 0.0 0.0 0.0 0.0 0.0 0.0 0.0 0.0 0.0 0.0 -1.1512442590619146e-26 -0.5442396572688689 -0.7673661111166267 -0.229354796466502 -1.3146049461972196e-11 0.0 -1.511583712148294e-25 -7.14586669994025 -7.145866699940251 -1.0424175499402515 -5.974879480466362e-11 0.0 1.5707963705062866 -1.570796314870016 1.5707963705062866 -1.570796314870016 -1.570796314870016 0.0 0.0 0.0 0.0 0.0 0.0 0.0 -1.151244268742903e-26 -0.5442396402359009 -0.7673661112785339 -0.22935479879379272 -1.3146049353263134e-11 0.0 -1.151244268742903e-26 -0.5442396402359009 -0.7673661112785339 -0.22935479879379272 -1.3146049353263134e-11 0.0 0.11235001404453844 -0.29859999244446533 0.3136499823461779 -6.833951314017032e-08 3.141592579952271 1.0644698078325815e-07 0.0 0.0 0.0 0.0 0.0 0.0 -3.4768822317838045e-07 9.240737915981754e-07 4.2531462932220256e-08 -6.147405241321462e-08 -2.8475664818871896e-08 -2.650151119779478e-15 0.11235000001566975 -0.298599999983202 0.31364999997695675 3.2217650591519574e-10 3.141592653589793 3.2217503880713943e-10 0.0 0.0 -0.0 0.0 0.0 0.0
153223.28 1.5707963267948961 -1.5707963267948966 1.5707963267948966 -1.5707963267948966 -1.5707963267948966 0.0 0.0 0.0 0.0 0.0 0.0 0.0 0.0 0.0 0.0 0.0 0.0 0.0 -1.1512442590619146e-26 -0.5442396572688689 -0.7673661111166267 -0.229354796466502 -1.3146049461972196e-11 0.0 -1.511583712148294e-25 -7.14586669994025 -7.145866699940251 -1.0424175499402515 -5.974879480466362e-11 0.0 1.5707963705062866 -1.570796314870016 1.5707963705062866 -1.570796314870016 -1.570796314870016 0.0 0.0 0.0 0.0 0.0 0.0 0.0 -1.151244268742903e-26 -0.5442396402359009 -0.7673661112785339 -0.22935479879379272 -1.3146049353263134e-11 0.0 -1.151244268742903e-26 -0.5442396402359009 -0.7673661112785339 -0.22935479879379272 -1.3146049353263134e-11 0.0 0.11235001404453844 -0.29859999244446533 0.3136499823461779 -6.833951314017032e-08 3.141592579952271 1.0644698078325815e-07 0.0 0.0 0.0 0.0 0.0 0.0 -3.4768822317838045e-07 9.240737915981754e-07 4.2531462932220256e-08 -6.147405241321462e-08 -2.8475664818871896e-08 -2.650151119779478e-15 0.11235000001566975 -0.298599999983202 0.31364999997695675 3.2217650591519574e-10 3.141592653589793 3.2217503880713943e-10 0.0 0.0 -0.0 0.0 0.0 0.0
153223.288 1.5707963267948961 -1.5707963267948966 1.5707963267948966 -1.5707963267948966 -1.5707963267948966 0.0 0.0 0.0 0.0 0.0 0.0 0.0 0.0 0.0 0.0 0.0 0.0 0.0 -1.1512442590619146e-26 -0.5442396572688689 -0.7673661111166267 -0.229354796466502 -1.3146049461972196e-11 0.0 -1.511583712148294e-25 -7.14586669994025 -7.145866699940251 -1.0424175499402515 -5.974879480466362e-11 0.0 1.5707963705062866 -1.570796314870016 1.5707963705062866 -1.570796314870016 -1.570796314870016 0.0 0.0 0.0 0.0 0.0 0.0 0.0 -1.151244268742903e-26 -0.5442396402359009 -0.7673661112785339 -0.22935479879379272 -1.3146049353263134e-11 0.0 -1.151244268742903e-26 -0.5442396402359009 -0.7673661112785339 -0.22935479879379272 -1.3146049353263134e-11 0.0 0.11235001404453844 -0.29859999244446533 0.3136499823461779 -6.833951314017032e-08 3.141592579952271 1.0644698078325815e-07 0.0 0.0 0.0 0.0 0.0 0.0 -3.4768822317838045e-07 9.240737915981754e-07 4.2531462932220256e-08 -6.147405241321462e-08 -2.8475664818871896e-08 -2.650151119779478e-15 0.11235000001566975 -0.298599999983202 0.31364999997695675 3.2217650591519574e-10 3.141592653589793 3.2217503880713943e-10 0.0 0.0 -0.0 0.0 0.0 0.0
153223.296 1.5707963267948961 -1.5707963267948966 1.5707963267948966 -1.5707963267948966 -1.5707963267948966 0.0 0.0 0.0 0.0 0.0 0.0 0.0 0.0 0.0 0.0 0.0 0.0 0.0 -1.1512442590619146e-26 -0.5442396572688689 -0.7673661111166267 -0.229354796466502 -1.3146049461972196e-11 0.0 -1.511583712148294e-25 -7.14586669994025 -7.145866699940251 -1.0424175499402515 -5.974879480466362e-11 0.0 1.5707963705062866 -1.570796314870016 1.5707963705062866 -1.570796314870016 -1.570796314870016 0.0 0.0 0.0 0.0 0.0 0.0 0.0 -1.151244268742903e-26 -0.5442396402359009 -0.7673661112785339 -0.22935479879379272 -1.3146049353263134e-11 0.0 -1.151244268742903e-26 -0.5442396402359009 -0.7673661112785339 -0.22935479879379272 -1.3146049353263134e-11 0.0 0.11235001404453844 -0.29859999244446533 0.3136499823461779 -6.833951314017032e-08 3.141592579952271 1.0644698078325815e-07 0.0 0.0 0.0 0.0 0.0 0.0 -3.4768822317838045e-07 9.240737915981754e-07 4.2531462932220256e-08 -6.147405241321462e-08 -2.8475664818871896e-08 -2.650151119779478e-15 0.11235000001566975 -0.298599999983202 0.31364999997695675 3.2217650591519574e-10 3.141592653589793 3.2217503880713943e-10 0.0 0.0 -0.0 0.0 0.0 0.0
153223.304 1.5707963267948961 -1.5707963267948966 1.5707963267948966 -1.5707963267948966 -1.5707963267948966 0.0 0.0 0.0 0.0 0.0 0.0 0.0 0.0 0.0 0.0 0.0 0.0 0.0 -1.1512442590619146e-26 -0.5442396572688689 -0.7673661111166267 -0.229354796466502 -1.3146049461972196e-11 0.0 -1.511583712148294e-25 -7.14586669994025 -7.145866699940251 -1.0424175499402515 -5.974879480466362e-11 0.0 1.5707963705062866 -1.570796314870016 1.5707963705062866 -1.570796314870016 -1.570796314870016 0.0 0.0 0.0 0.0 0.0 0.0 0.0 -1.151244268742903e-26 -0.5442396402359009 -0.7673661112785339 -0.22935479879379272 -1.3146049353263134e-11 0.0 -1.151244268742903e-26 -0.5442396402359009 -0.7673661112785339 -0.22935479879379272 -1.3146049353263134e-11 0.0 0.11235001404453844 -0.29859999244446533 0.3136499823461779 -6.833951314017032e-08 3.141592579952271 1.0644698078325815e-07 0.0 0.0 0.0 0.0 0.0 0.0 -3.4768822317838045e-07 9.240737915981754e-07 4.2531462932220256e-08 -6.147405241321462e-08 -2.8475664818871896e-08 -2.650151119779478e-15 0.11235000001566975 -0.298599999983202 0.31364999997695675 3.2217650591519574e-10 3.141592653589793 3.2217503880713943e-10 0.0 0.0 -0.0 0.0 0.0 0.0
153223.312 1.5707963267948961 -1.5707963267948966 1.5707963267948966 -1.5707963267948966 -1.5707963267948966 0.0 0.0 0.0 0.0 0.0 0.0 0.0 0.0 0.0 0.0 0.0 0.0 0.0 -1.1512442590619146e-26 -0.5442396572688689 -0.7673661111166267 -0.229354796466502 -1.3146049461972196e-11 0.0 -1.511583712148294e-25 -7.14586669994025 -7.145866699940251 -1.0424175499402515 -5.974879480466362e-11 0.0 1.5707963705062866 -1.570796314870016 1.5707963705062866 -1.570796314870016 -1.570796314870016 0.0 0.0 0.0 0.0 0.0 0.0 0.0 -1.151244268742903e-26 -0.5442396402359009 -0.7673661112785339 -0.22935479879379272 -1.3146049353263134e-11 0.0 -1.151244268742903e-26 -0.5442396402359009 -0.7673661112785339 -0.22935479879379272 -1.3146049353263134e-11 0.0 0.11235001404453844 -0.29859999244446533 0.3136499823461779 -6.833951314017032e-08 3.141592579952271 1.0644698078325815e-07 0.0 0.0 0.0 0.0 0.0 0.0 -3.4768822317838045e-07 9.240737915981754e-07 4.2531462932220256e-08 -6.147405241321462e-08 -2.8475664818871896e-08 -2.650151119779478e-15 0.11235000001566975 -0.298599999983202 0.31364999997695675 3.2217650591519574e-10 3.141592653589793 3.2217503880713943e-10 0.0 0.0 -0.0 0.0 0.0 0.0
153223.32 1.5707963267948961 -1.5707963267948966 1.5707963267948966 -1.5707963267948966 -1.5707963267948966 0.0 0.0 0.0 0.0 0.0 0.0 0.0 0.0 0.0 0.0 0.0 0.0 0.0 -1.1512442590619146e-26 -0.5442396572688689 -0.7673661111166267 -0.229354796466502 -1.3146049461972196e-11 0.0 -1.511583712148294e-25 -7.14586669994025 -7.145866699940251 -1.0424175499402515 -5.974879480466362e-11 0.0 1.5707963705062866 -1.570796314870016 1.5707963705062866 -1.570796314870016 -1.570796314870016 0.0 0.0 0.0 0.0 0.0 0.0 0.0 -1.151244268742903e-26 -0.5442396402359009 -0.7673661112785339 -0.22935479879379272 -1.3146049353263134e-11 0.0 -1.151244268742903e-26 -0.5442396402359009 -0.7673661112785339 -0.22935479879379272 -1.3146049353263134e-11 0.0 0.11235001404453844 -0.29859999244446533 0.3136499823461779 -6.833951314017032e-08 3.141592579952271 1.0644698078325815e-07 0.0 0.0 0.0 0.0 0.0 0.0 -3.4768822317838045e-07 9.240737915981754e-07 4.2531462932220256e-08 -6.147405241321462e-08 -2.8475664818871896e-08 -2.650151119779478e-15 0.11235000001566975 -0.298599999983202 0.31364999997695675 3.2217650591519574e-10 3.141592653589793 3.2217503880713943e-10 0.0 0.0 -0.0 0.0 0.0 0.0
153223.32799999998 1.5707963267948961 -1.5707963267948966 1.5707963267948966 -1.5707963267948966 -1.5707963267948966 0.0 0.0 0.0 0.0 0.0 0.0 0.0 0.0 0.0 0.0 0.0 0.0 0.0 -1.1512442590619146e-26 -0.5442396572688689 -0.7673661111166267 -0.229354796466502 -1.3146049461972196e-11 0.0 -1.511583712148294e-25 -7.14586669994025 -7.145866699940251 -1.0424175499402515 -5.974879480466362e-11 0.0 1.5707963705062866 -1.570796314870016 1.5707963705062866 -1.570796314870016 -1.570796314870016 0.0 0.0 0.0 0.0 0.0 0.0 0.0 -1.151244268742903e-26 -0.5442396402359009 -0.7673661112785339 -0.22935479879379272 -1.3146049353263134e-11 0.0 -1.151244268742903e-26 -0.5442396402359009 -0.7673661112785339 -0.22935479879379272 -1.3146049353263134e-11 0.0 0.11235001404453844 -0.29859999244446533 0.3136499823461779 -6.833951314017032e-08 3.141592579952271 1.0644698078325815e-07 0.0 0.0 0.0 0.0 0.0 0.0 -3.4768822317838045e-07 9.240737915981754e-07 4.2531462932220256e-08 -6.147405241321462e-08 -2.8475664818871896e-08 -2.650151119779478e-15 0.11235000001566975 -0.298599999983202 0.31364999997695675 3.2217650591519574e-10 3.141592653589793 3.2217503880713943e-10 0.0 0.0 -0.0 0.0 0.0 0.0
153223.33599999998 1.5707963267948961 -1.5707963267948966 1.5707963267948966 -1.5707963267948966 -1.5707963267948966 0.0 0.0 0.0 0.0 0.0 0.0 0.0 0.0 0.0 0.0 0.0 0.0 0.0 -1.1512442590619146e-26 -0.5442396572688689 -0.7673661111166267 -0.229354796466502 -1.3146049461972196e-11 0.0 -1.511583712148294e-25 -7.14586669994025 -7.145866699940251 -1.0424175499402515 -5.974879480466362e-11 0.0 1.5707963705062866 -1.570796314870016 1.5707963705062866 -1.570796314870016 -1.570796314870016 0.0 0.0 0.0 0.0 0.0 0.0 0.0 -1.151244268742903e-26 -0.5442396402359009 -0.7673661112785339 -0.22935479879379272 -1.3146049353263134e-11 0.0 -1.151244268742903e-26 -0.5442396402359009 -0.7673661112785339 -0.22935479879379272 -1.3146049353263134e-11 0.0 0.11235001404453844 -0.29859999244446533 0.3136499823461779 -6.833951314017032e-08 3.141592579952271 1.0644698078325815e-07 0.0 0.0 0.0 0.0 0.0 0.0 -3.4768822317838045e-07 9.240737915981754e-07 4.2531462932220256e-08 -6.147405241321462e-08 -2.8475664818871896e-08 -2.650151119779478e-15 0.11235000001566975 -0.298599999983202 0.31364999997695675 3.2217650591519574e-10 3.141592653589793 3.2217503880713943e-10 0.0 0.0 -0.0 0.0 0.0 0.0
153223.34399999998 1.5707963267948961 -1.5707963267948966 1.5707963267948966 -1.5707963267948966 -1.5707963267948966 0.0 0.0 0.0 0.0 0.0 0.0 0.0 0.0 0.0 0.0 0.0 0.0 0.0 -1.1512442590619146e-26 -0.5442396572688689 -0.7673661111166267 -0.229354796466502 -1.3146049461972196e-11 0.0 -1.511583712148294e-25 -7.14586669994025 -7.145866699940251 -1.0424175499402515 -5.974879480466362e-11 0.0 1.5707963705062866 -1.570796314870016 1.5707963705062866 -1.570796314870016 -1.570796314870016 0.0 0.0 0.0 0.0 0.0 0.0 0.0 -1.151244268742903e-26 -0.5442396402359009 -0.7673661112785339 -0.22935479879379272 -1.3146049353263134e-11 0.0 -1.151244268742903e-26 -0.5442396402359009 -0.7673661112785339 -0.22935479879379272 -1.3146049353263134e-11 0.0 0.11235001404453844 -0.29859999244446533 0.3136499823461779 -6.833951314017032e-08 3.141592579952271 1.0644698078325815e-07 0.0 0.0 0.0 0.0 0.0 0.0 -3.4768822317838045e-07 9.240737915981754e-07 4.2531462932220256e-08 -6.147405241321462e-08 -2.8475664818871896e-08 -2.650151119779478e-15 0.11235000001566975 -0.298599999983202 0.31364999997695675 3.2217650591519574e-10 3.141592653589793 3.2217503880713943e-10 0.0 0.0 -0.0 0.0 0.0 0.0
153223.35199999998 1.5707963267948961 -1.5707963267948966 1.5707963267948966 -1.5707963267948966 -1.5707963267948966 0.0 0.0 0.0 0.0 0.0 0.0 0.0 0.0 0.0 0.0 0.0 0.0 0.0 -1.1512442590619146e-26 -0.5442396572688689 -0.7673661111166267 -0.229354796466502 -1.3146049461972196e-11 0.0 -1.511583712148294e-25 -7.14586669994025 -7.145866699940251 -1.0424175499402515 -5.974879480466362e-11 0.0 1.5707963705062866 -1.570796314870016 1.5707963705062866 -1.570796314870016 -1.570796314870016 0.0 0.0 0.0 0.0 0.0 0.0 0.0 -1.151244268742903e-26 -0.5442396402359009 -0.7673661112785339 -0.22935479879379272 -1.3146049353263134e-11 0.0 -1.151244268742903e-26 -0.5442396402359009 -0.7673661112785339 -0.22935479879379272 -1.3146049353263134e-11 0.0 0.11235001404453844 -0.29859999244446533 0.3136499823461779 -6.833951314017032e-08 3.141592579952271 1.0644698078325815e-07 0.0 0.0 0.0 0.0 0.0 0.0 -3.4768822317838045e-07 9.240737915981754e-07 4.2531462932220256e-08 -6.147405241321462e-08 -2.8475664818871896e-08 -2.650151119779478e-15 0.11235000001566975 -0.298599999983202 0.31364999997695675 3.2217650591519574e-10 3.141592653589793 3.2217503880713943e-10 0.0 0.0 -0.0 0.0 0.0 0.0
153223.36 1.5707963267948961 -1.5707963267948966 1.5707963267948966 -1.5707963267948966 -1.5707963267948966 0.0 0.0 0.0 0.0 0.0 0.0 0.0 0.0 0.0 0.0 0.0 0.0 0.0 -1.1512442590619146e-26 -0.5442396572688689 -0.7673661111166267 -0.229354796466502 -1.3146049461972196e-11 0.0 -1.511583712148294e-25 -7.14586669994025 -7.145866699940251 -1.0424175499402515 -5.974879480466362e-11 0.0 1.5707963705062866 -1.570796314870016 1.5707963705062866 -1.570796314870016 -1.570796314870016 0.0 0.0 0.0 0.0 0.0 0.0 0.0 -1.151244268742903e-26 -0.5442396402359009 -0.7673661112785339 -0.22935479879379272 -1.3146049353263134e-11 0.0 -1.151244268742903e-26 -0.5442396402359009 -0.7673661112785339 -0.22935479879379272 -1.3146049353263134e-11 0.0 0.11235001404453844 -0.29859999244446533 0.3136499823461779 -6.833951314017032e-08 3.141592579952271 1.0644698078325815e-07 0.0 0.0 0.0 0.0 0.0 0.0 -3.4768822317838045e-07 9.240737915981754e-07 4.2531462932220256e-08 -6.147405241321462e-08 -2.8475664818871896e-08 -2.650151119779478e-15 0.11235000001566975 -0.298599999983202 0.31364999997695675 3.2217650591519574e-10 3.141592653589793 3.2217503880713943e-10 0.0 0.0 -0.0 0.0 0.0 0.0
153223.368 1.5707963267948961 -1.5707963267948966 1.5707963267948966 -1.5707963267948966 -1.5707963267948966 0.0 0.0 0.0 0.0 0.0 0.0 0.0 0.0 0.0 0.0 0.0 0.0 0.0 -1.1512442590619146e-26 -0.5442396572688689 -0.7673661111166267 -0.229354796466502 -1.3146049461972196e-11 0.0 -1.511583712148294e-25 -7.14586669994025 -7.145866699940251 -1.0424175499402515 -5.974879480466362e-11 0.0 1.5707963705062866 -1.570796314870016 1.5707963705062866 -1.570796314870016 -1.570796314870016 0.0 0.0 0.0 0.0 0.0 0.0 0.0 -1.151244268742903e-26 -0.5442396402359009 -0.7673661112785339 -0.22935479879379272 -1.3146049353263134e-11 0.0 -1.151244268742903e-26 -0.5442396402359009 -0.7673661112785339 -0.22935479879379272 -1.3146049353263134e-11 0.0 0.11235001404453844 -0.29859999244446533 0.3136499823461779 -6.833951314017032e-08 3.141592579952271 1.0644698078325815e-07 0.0 0.0 0.0 0.0 0.0 0.0 -3.4768822317838045e-07 9.240737915981754e-07 4.2531462932220256e-08 -6.147405241321462e-08 -2.8475664818871896e-08 -2.650151119779478e-15 0.11235000001566975 -0.298599999983202 0.31364999997695675 3.2217650591519574e-10 3.141592653589793 3.2217503880713943e-10 0.0 0.0 -0.0 0.0 0.0 0.0
153223.376 1.5707963267948961 -1.5707963267948966 1.5707963267948966 -1.5707963267948966 -1.5707963267948966 0.0 0.0 0.0 0.0 0.0 0.0 0.0 0.0 0.0 0.0 0.0 0.0 0.0 -1.1512442590619146e-26 -0.5442396572688689 -0.7673661111166267 -0.229354796466502 -1.3146049461972196e-11 0.0 -1.511583712148294e-25 -7.14586669994025 -7.145866699940251 -1.0424175499402515 -5.974879480466362e-11 0.0 1.5707963705062866 -1.570796314870016 1.5707963705062866 -1.570796314870016 -1.570796314870016 0.0 0.0 0.0 0.0 0.0 0.0 0.0 -1.151244268742903e-26 -0.5442396402359009 -0.7673661112785339 -0.22935479879379272 -1.3146049353263134e-11 0.0 -1.151244268742903e-26 -0.5442396402359009 -0.7673661112785339 -0.22935479879379272 -1.3146049353263134e-11 0.0 0.11235001404453844 -0.29859999244446533 0.3136499823461779 -6.833951314017032e-08 3.141592579952271 1.0644698078325815e-07 0.0 0.0 0.0 0.0 0.0 0.0 -3.4768822317838045e-07 9.240737915981754e-07 4.2531462932220256e-08 -6.147405241321462e-08 -2.8475664818871896e-08 -2.650151119779478e-15 0.11235000001566975 -0.298599999983202 0.31364999997695675 3.2217650591519574e-10 3.141592653589793 3.2217503880713943e-10 0.0 0.0 -0.0 0.0 0.0 0.0
153223.384 1.5707963267948961 -1.5707963267948966 1.5707963267948966 -1.5707963267948966 -1.5707963267948966 0.0 0.0 0.0 0.0 0.0 0.0 0.0 0.0 0.0 0.0 0.0 0.0 0.0 -1.1512442590619146e-26 -0.5442396572688689 -0.7673661111166267 -0.229354796466502 -1.3146049461972196e-11 0.0 -1.511583712148294e-25 -7.14586669994025 -7.145866699940251 -1.0424175499402515 -5.974879480466362e-11 0.0 1.5707963705062866 -1.570796314870016 1.5707963705062866 -1.570796314870016 -1.570796314870016 0.0 0.0 0.0 0.0 0.0 0.0 0.0 -1.151244268742903e-26 -0.5442396402359009 -0.7673661112785339 -0.22935479879379272 -1.3146049353263134e-11 0.0 -1.151244268742903e-26 -0.5442396402359009 -0.7673661112785339 -0.22935479879379272 -1.3146049353263134e-11 0.0 0.11235001404453844 -0.29859999244446533 0.3136499823461779 -6.833951314017032e-08 3.141592579952271 1.0644698078325815e-07 0.0 0.0 0.0 0.0 0.0 0.0 -3.4768822317838045e-07 9.240737915981754e-07 4.2531462932220256e-08 -6.147405241321462e-08 -2.8475664818871896e-08 -2.650151119779478e-15 0.11235000001566975 -0.298599999983202 0.31364999997695675 3.2217650591519574e-10 3.141592653589793 3.2217503880713943e-10 0.0 0.0 -0.0 0.0 0.0 0.0
153223.392 1.5707963267948961 -1.5707963267948966 1.5707963267948966 -1.5707963267948966 -1.5707963267948966 0.0 0.0 0.0 0.0 0.0 0.0 0.0 0.0 0.0 0.0 0.0 0.0 0.0 -1.1512442590619146e-26 -0.5442396572688689 -0.7673661111166267 -0.229354796466502 -1.3146049461972196e-11 0.0 -1.511583712148294e-25 -7.14586669994025 -7.145866699940251 -1.0424175499402515 -5.974879480466362e-11 0.0 1.5707963705062866 -1.570796314870016 1.5707963705062866 -1.570796314870016 -1.570796314870016 0.0 0.0 0.0 0.0 0.0 0.0 0.0 -1.151244268742903e-26 -0.5442396402359009 -0.7673661112785339 -0.22935479879379272 -1.3146049353263134e-11 0.0 -1.151244268742903e-26 -0.5442396402359009 -0.7673661112785339 -0.22935479879379272 -1.3146049353263134e-11 0.0 0.11235001404453844 -0.29859999244446533 0.3136499823461779 -6.833951314017032e-08 3.141592579952271 1.0644698078325815e-07 0.0 0.0 0.0 0.0 0.0 0.0 -3.4768822317838045e-07 9.240737915981754e-07 4.2531462932220256e-08 -6.147405241321462e-08 -2.8475664818871896e-08 -2.650151119779478e-15 0.11235000001566975 -0.298599999983202 0.31364999997695675 3.2217650591519574e-10 3.141592653589793 3.2217503880713943e-10 0.0 0.0 -0.0 0.0 0.0 0.0
153223.4 1.5707963267948961 -1.5707963267948966 1.5707963267948966 -1.5707963267948966 -1.5707963267948966 0.0 0.0 0.0 0.0 0.0 0.0 0.0 0.0 0.0 0.0 0.0 0.0 0.0 -1.1512442590619146e-26 -0.5442396572688689 -0.7673661111166267 -0.229354796466502 -1.3146049461972196e-11 0.0 -1.511583712148294e-25 -7.14586669994025 -7.145866699940251 -1.0424175499402515 -5.974879480466362e-11 0.0 1.5707963705062866 -1.570796314870016 1.5707963705062866 -1.570796314870016 -1.570796314870016 0.0 0.0 0.0 0.0 0.0 0.0 0.0 -1.151244268742903e-26 -0.5442396402359009 -0.7673661112785339 -0.22935479879379272 -1.3146049353263134e-11 0.0 -1.151244268742903e-26 -0.5442396402359009 -0.7673661112785339 -0.22935479879379272 -1.3146049353263134e-11 0.0 0.11235001404453844 -0.29859999244446533 0.3136499823461779 -6.833951314017032e-08 3.141592579952271 1.0644698078325815e-07 0.0 0.0 0.0 0.0 0.0 0.0 -3.4768822317838045e-07 9.240737915981754e-07 4.2531462932220256e-08 -6.147405241321462e-08 -2.8475664818871896e-08 -2.650151119779478e-15 0.11235000001566975 -0.298599999983202 0.31364999997695675 3.2217650591519574e-10 3.141592653589793 3.2217503880713943e-10 0.0 0.0 -0.0 0.0 0.0 0.0
153223.408 1.5707963267948961 -1.5707963267948966 1.5707963267948966 -1.5707963267948966 -1.5707963267948966 0.0 0.0 0.0 0.0 0.0 0.0 0.0 0.0 0.0 0.0 0.0 0.0 0.0 -1.1512442590619146e-26 -0.5442396572688689 -0.7673661111166267 -0.229354796466502 -1.3146049461972196e-11 0.0 -1.511583712148294e-25 -7.14586669994025 -7.145866699940251 -1.0424175499402515 -5.974879480466362e-11 0.0 1.5707963705062866 -1.570796314870016 1.5707963705062866 -1.570796314870016 -1.570796314870016 0.0 0.0 0.0 0.0 0.0 0.0 0.0 -1.151244268742903e-26 -0.5442396402359009 -0.7673661112785339 -0.22935479879379272 -1.3146049353263134e-11 0.0 -1.151244268742903e-26 -0.5442396402359009 -0.7673661112785339 -0.22935479879379272 -1.3146049353263134e-11 0.0 0.11235001404453844 -0.29859999244446533 0.3136499823461779 -6.833951314017032e-08 3.141592579952271 1.0644698078325815e-07 0.0 0.0 0.0 0.0 0.0 0.0 -3.4768822317838045e-07 9.240737915981754e-07 4.2531462932220256e-08 -6.147405241321462e-08 -2.8475664818871896e-08 -2.650151119779478e-15 0.11235000001566975 -0.298599999983202 0.31364999997695675 3.2217650591519574e-10 3.141592653589793 3.2217503880713943e-10 0.0 0.0 -0.0 0.0 0.0 0.0
153223.416 1.5707963267948961 -1.5707963267948966 1.5707963267948966 -1.5707963267948966 -1.5707963267948966 0.0 0.0 0.0 0.0 0.0 0.0 0.0 0.0 0.0 0.0 0.0 0.0 0.0 -1.1512442590619146e-26 -0.5442396572688689 -0.7673661111166267 -0.229354796466502 -1.3146049461972196e-11 0.0 -1.511583712148294e-25 -7.14586669994025 -7.145866699940251 -1.0424175499402515 -5.974879480466362e-11 0.0 1.5707963705062866 -1.570796314870016 1.5707963705062866 -1.570796314870016 -1.570796314870016 0.0 0.0 0.0 0.0 0.0 0.0 0.0 -1.151244268742903e-26 -0.5442396402359009 -0.7673661112785339 -0.22935479879379272 -1.3146049353263134e-11 0.0 -1.151244268742903e-26 -0.5442396402359009 -0.7673661112785339 -0.22935479879379272 -1.3146049353263134e-11 0.0 0.11235001404453844 -0.29859999244446533 0.3136499823461779 -6.833951314017032e-08 3.141592579952271 1.0644698078325815e-07 0.0 0.0 0.0 0.0 0.0 0.0 -3.4768822317838045e-07 9.240737915981754e-07 4.2531462932220256e-08 -6.147405241321462e-08 -2.8475664818871896e-08 -2.650151119779478e-15 0.11235000001566975 -0.298599999983202 0.31364999997695675 3.2217650591519574e-10 3.141592653589793 3.2217503880713943e-10 0.0 0.0 -0.0 0.0 0.0 0.0
153223.424 1.5707963267948961 -1.5707963267948966 1.5707963267948966 -1.5707963267948966 -1.5707963267948966 0.0 0.0 0.0 0.0 0.0 0.0 0.0 0.0 0.0 0.0 0.0 0.0 0.0 -1.1512442590619146e-26 -0.5442396572688689 -0.7673661111166267 -0.229354796466502 -1.3146049461972196e-11 0.0 -1.511583712148294e-25 -7.14586669994025 -7.145866699940251 -1.0424175499402515 -5.974879480466362e-11 0.0 1.5707963705062866 -1.570796314870016 1.5707963705062866 -1.570796314870016 -1.570796314870016 0.0 0.0 0.0 0.0 0.0 0.0 0.0 -1.151244268742903e-26 -0.5442396402359009 -0.7673661112785339 -0.22935479879379272 -1.3146049353263134e-11 0.0 -1.151244268742903e-26 -0.5442396402359009 -0.7673661112785339 -0.22935479879379272 -1.3146049353263134e-11 0.0 0.11235001404453844 -0.29859999244446533 0.3136499823461779 -6.833951314017032e-08 3.141592579952271 1.0644698078325815e-07 0.0 0.0 0.0 0.0 0.0 0.0 -3.4768822317838045e-07 9.240737915981754e-07 4.2531462932220256e-08 -6.147405241321462e-08 -2.8475664818871896e-08 -2.650151119779478e-15 0.11235000001566975 -0.298599999983202 0.31364999997695675 3.2217650591519574e-10 3.141592653589793 3.2217503880713943e-10 0.0 0.0 -0.0 0.0 0.0 0.0
153223.432 1.5707963267948961 -1.5707963267948966 1.5707963267948966 -1.5707963267948966 -1.5707963267948966 0.0 0.0 0.0 0.0 0.0 0.0 0.0 0.0 0.0 0.0 0.0 0.0 0.0 -1.1512442590619146e-26 -0.5442396572688689 -0.7673661111166267 -0.229354796466502 -1.3146049461972196e-11 0.0 -1.511583712148294e-25 -7.14586669994025 -7.145866699940251 -1.0424175499402515 -5.974879480466362e-11 0.0 1.5707963705062866 -1.570796314870016 1.5707963705062866 -1.570796314870016 -1.570796314870016 0.0 0.0 0.0 0.0 0.0 0.0 0.0 -1.151244268742903e-26 -0.5442396402359009 -0.7673661112785339 -0.22935479879379272 -1.3146049353263134e-11 0.0 -1.151244268742903e-26 -0.5442396402359009 -0.7673661112785339 -0.22935479879379272 -1.3146049353263134e-11 0.0 0.11235001404453844 -0.29859999244446533 0.3136499823461779 -6.833951314017032e-08 3.141592579952271 1.0644698078325815e-07 0.0 0.0 0.0 0.0 0.0 0.0 -3.4768822317838045e-07 9.240737915981754e-07 4.2531462932220256e-08 -6.147405241321462e-08 -2.8475664818871896e-08 -2.650151119779478e-15 0.11235000001566975 -0.298599999983202 0.31364999997695675 3.2217650591519574e-10 3.141592653589793 3.2217503880713943e-10 0.0 0.0 -0.0 0.0 0.0 0.0
153223.44 1.5707963267948961 -1.5707963267948966 1.5707963267948966 -1.5707963267948966 -1.5707963267948966 0.0 0.0 0.0 0.0 0.0 0.0 0.0 0.0 0.0 0.0 0.0 0.0 0.0 -1.1512442590619146e-26 -0.5442396572688689 -0.7673661111166267 -0.229354796466502 -1.3146049461972196e-11 0.0 -1.511583712148294e-25 -7.14586669994025 -7.145866699940251 -1.0424175499402515 -5.974879480466362e-11 0.0 1.5707963705062866 -1.570796314870016 1.5707963705062866 -1.570796314870016 -1.570796314870016 0.0 0.0 0.0 0.0 0.0 0.0 0.0 -1.151244268742903e-26 -0.5442396402359009 -0.7673661112785339 -0.22935479879379272 -1.3146049353263134e-11 0.0 -1.151244268742903e-26 -0.5442396402359009 -0.7673661112785339 -0.22935479879379272 -1.3146049353263134e-11 0.0 0.11235001404453844 -0.29859999244446533 0.3136499823461779 -6.833951314017032e-08 3.141592579952271 1.0644698078325815e-07 0.0 0.0 0.0 0.0 0.0 0.0 -3.4768822317838045e-07 9.240737915981754e-07 4.2531462932220256e-08 -6.147405241321462e-08 -2.8475664818871896e-08 -2.650151119779478e-15 0.11235000001566975 -0.298599999983202 0.31364999997695675 3.2217650591519574e-10 3.141592653589793 3.2217503880713943e-10 0.0 0.0 -0.0 0.0 0.0 0.0
153223.448 1.5707963267948961 -1.5707963267948966 1.5707963267948966 -1.5707963267948966 -1.5707963267948966 0.0 0.0 0.0 0.0 0.0 0.0 0.0 0.0 0.0 0.0 0.0 0.0 0.0 -1.1512442590619146e-26 -0.5442396572688689 -0.7673661111166267 -0.229354796466502 -1.3146049461972196e-11 0.0 -1.511583712148294e-25 -7.14586669994025 -7.145866699940251 -1.0424175499402515 -5.974879480466362e-11 0.0 1.5707963705062866 -1.570796314870016 1.5707963705062866 -1.570796314870016 -1.570796314870016 0.0 0.0 0.0 0.0 0.0 0.0 0.0 -1.151244268742903e-26 -0.5442396402359009 -0.7673661112785339 -0.22935479879379272 -1.3146049353263134e-11 0.0 -1.151244268742903e-26 -0.5442396402359009 -0.7673661112785339 -0.22935479879379272 -1.3146049353263134e-11 0.0 0.11235001404453844 -0.29859999244446533 0.3136499823461779 -6.833951314017032e-08 3.141592579952271 1.0644698078325815e-07 0.0 0.0 0.0 0.0 0.0 0.0 -3.4768822317838045e-07 9.240737915981754e-07 4.2531462932220256e-08 -6.147405241321462e-08 -2.8475664818871896e-08 -2.650151119779478e-15 0.11235000001566975 -0.298599999983202 0.31364999997695675 3.2217650591519574e-10 3.141592653589793 3.2217503880713943e-10 0.0 0.0 -0.0 0.0 0.0 0.0
153223.456 1.5707963267948961 -1.5707963267948966 1.5707963267948966 -1.5707963267948966 -1.5707963267948966 0.0 0.0 0.0 0.0 0.0 0.0 0.0 0.0 0.0 0.0 0.0 0.0 0.0 -1.1512442590619146e-26 -0.5442396572688689 -0.7673661111166267 -0.229354796466502 -1.3146049461972196e-11 0.0 -1.511583712148294e-25 -7.14586669994025 -7.145866699940251 -1.0424175499402515 -5.974879480466362e-11 0.0 1.5707963705062866 -1.570796314870016 1.5707963705062866 -1.570796314870016 -1.570796314870016 0.0 0.0 0.0 0.0 0.0 0.0 0.0 -1.151244268742903e-26 -0.5442396402359009 -0.7673661112785339 -0.22935479879379272 -1.3146049353263134e-11 0.0 -1.151244268742903e-26 -0.5442396402359009 -0.7673661112785339 -0.22935479879379272 -1.3146049353263134e-11 0.0 0.11235001404453844 -0.29859999244446533 0.3136499823461779 -6.833951314017032e-08 3.141592579952271 1.0644698078325815e-07 0.0 0.0 0.0 0.0 0.0 0.0 -3.4768822317838045e-07 9.240737915981754e-07 4.2531462932220256e-08 -6.147405241321462e-08 -2.8475664818871896e-08 -2.650151119779478e-15 0.11235000001566975 -0.298599999983202 0.31364999997695675 3.2217650591519574e-10 3.141592653589793 3.2217503880713943e-10 0.0 0.0 -0.0 0.0 0.0 0.0
153223.464 1.5707963267948961 -1.5707963267948966 1.5707963267948966 -1.5707963267948966 -1.5707963267948966 0.0 0.0 0.0 0.0 0.0 0.0 0.0 0.0 0.0 0.0 0.0 0.0 0.0 -1.1512442590619146e-26 -0.5442396572688689 -0.7673661111166267 -0.229354796466502 -1.3146049461972196e-11 0.0 -1.511583712148294e-25 -7.14586669994025 -7.145866699940251 -1.0424175499402515 -5.974879480466362e-11 0.0 1.5707963705062866 -1.570796314870016 1.5707963705062866 -1.570796314870016 -1.570796314870016 0.0 0.0 0.0 0.0 0.0 0.0 0.0 -1.151244268742903e-26 -0.5442396402359009 -0.7673661112785339 -0.22935479879379272 -1.3146049353263134e-11 0.0 -1.151244268742903e-26 -0.5442396402359009 -0.7673661112785339 -0.22935479879379272 -1.3146049353263134e-11 0.0 0.11235001404453844 -0.29859999244446533 0.3136499823461779 -6.833951314017032e-08 3.141592579952271 1.0644698078325815e-07 0.0 0.0 0.0 0.0 0.0 0.0 -3.4768822317838045e-07 9.240737915981754e-07 4.2531462932220256e-08 -6.147405241321462e-08 -2.8475664818871896e-08 -2.650151119779478e-15 0.11235000001566975 -0.298599999983202 0.31364999997695675 3.2217650591519574e-10 3.141592653589793 3.2217503880713943e-10 0.0 0.0 -0.0 0.0 0.0 0.0
153223.47199999998 1.5707963267948961 -1.5707963267948966 1.5707963267948966 -1.5707963267948966 -1.5707963267948966 0.0 0.0 0.0 0.0 0.0 0.0 0.0 0.0 0.0 0.0 0.0 0.0 0.0 -1.1512442590619146e-26 -0.5442396572688689 -0.7673661111166267 -0.229354796466502 -1.3146049461972196e-11 0.0 -1.511583712148294e-25 -7.14586669994025 -7.145866699940251 -1.0424175499402515 -5.974879480466362e-11 0.0 1.5707963705062866 -1.570796314870016 1.5707963705062866 -1.570796314870016 -1.570796314870016 0.0 0.0 0.0 0.0 0.0 0.0 0.0 -1.151244268742903e-26 -0.5442396402359009 -0.7673661112785339 -0.22935479879379272 -1.3146049353263134e-11 0.0 -1.151244268742903e-26 -0.5442396402359009 -0.7673661112785339 -0.22935479879379272 -1.3146049353263134e-11 0.0 0.11235001404453844 -0.29859999244446533 0.3136499823461779 -6.833951314017032e-08 3.141592579952271 1.0644698078325815e-07 0.0 0.0 0.0 0.0 0.0 0.0 -3.4768822317838045e-07 9.240737915981754e-07 4.2531462932220256e-08 -6.147405241321462e-08 -2.8475664818871896e-08 -2.650151119779478e-15 0.11235000001566975 -0.298599999983202 0.31364999997695675 3.2217650591519574e-10 3.141592653589793 3.2217503880713943e-10 0.0 0.0 -0.0 0.0 0.0 0.0
153223.47999999998 1.5707963267948961 -1.5707963267948966 1.5707963267948966 -1.5707963267948966 -1.5707963267948966 0.0 0.0 0.0 0.0 0.0 0.0 0.0 0.0 0.0 0.0 0.0 0.0 0.0 -1.1512442590619146e-26 -0.5442396572688689 -0.7673661111166267 -0.229354796466502 -1.3146049461972196e-11 0.0 -1.511583712148294e-25 -7.14586669994025 -7.145866699940251 -1.0424175499402515 -5.974879480466362e-11 0.0 1.5707963705062866 -1.570796314870016 1.5707963705062866 -1.570796314870016 -1.570796314870016 0.0 0.0 0.0 0.0 0.0 0.0 0.0 -1.151244268742903e-26 -0.5442396402359009 -0.7673661112785339 -0.22935479879379272 -1.3146049353263134e-11 0.0 -1.151244268742903e-26 -0.5442396402359009 -0.7673661112785339 -0.22935479879379272 -1.3146049353263134e-11 0.0 0.11235001404453844 -0.29859999244446533 0.3136499823461779 -6.833951314017032e-08 3.141592579952271 1.0644698078325815e-07 0.0 0.0 0.0 0.0 0.0 0.0 -3.4768822317838045e-07 9.240737915981754e-07 4.2531462932220256e-08 -6.147405241321462e-08 -2.8475664818871896e-08 -2.650151119779478e-15 0.11235000001566975 -0.298599999983202 0.31364999997695675 3.2217650591519574e-10 3.141592653589793 3.2217503880713943e-10 0.0 0.0 -0.0 0.0 0.0 0.0
153223.48799999998 1.5707963267948961 -1.5707963267948966 1.5707963267948966 -1.5707963267948966 -1.5707963267948966 0.0 0.0 0.0 0.0 0.0 0.0 0.0 0.0 0.0 0.0 0.0 0.0 0.0 -1.1512442590619146e-26 -0.5442396572688689 -0.7673661111166267 -0.229354796466502 -1.3146049461972196e-11 0.0 -1.511583712148294e-25 -7.14586669994025 -7.145866699940251 -1.0424175499402515 -5.974879480466362e-11 0.0 1.5707963705062866 -1.570796314870016 1.5707963705062866 -1.570796314870016 -1.570796314870016 0.0 0.0 0.0 0.0 0.0 0.0 0.0 -1.151244268742903e-26 -0.5442396402359009 -0.7673661112785339 -0.22935479879379272 -1.3146049353263134e-11 0.0 -1.151244268742903e-26 -0.5442396402359009 -0.7673661112785339 -0.22935479879379272 -1.3146049353263134e-11 0.0 0.11235001404453844 -0.29859999244446533 0.3136499823461779 -6.833951314017032e-08 3.141592579952271 1.0644698078325815e-07 0.0 0.0 0.0 0.0 0.0 0.0 -3.4768822317838045e-07 9.240737915981754e-07 4.2531462932220256e-08 -6.147405241321462e-08 -2.8475664818871896e-08 -2.650151119779478e-15 0.11235000001566975 -0.298599999983202 0.31364999997695675 3.2217650591519574e-10 3.141592653589793 3.2217503880713943e-10 0.0 0.0 -0.0 0.0 0.0 0.0
153223.49599999998 1.5707963267948961 -1.5707963267948966 1.5707963267948966 -1.5707963267948966 -1.5707963267948966 0.0 0.0 0.0 0.0 0.0 0.0 0.0 0.0 0.0 0.0 0.0 0.0 0.0 -1.1512442590619146e-26 -0.5442396572688689 -0.7673661111166267 -0.229354796466502 -1.3146049461972196e-11 0.0 -1.511583712148294e-25 -7.14586669994025 -7.145866699940251 -1.0424175499402515 -5.974879480466362e-11 0.0 1.5707963705062866 -1.570796314870016 1.5707963705062866 -1.570796314870016 -1.570796314870016 0.0 0.0 0.0 0.0 0.0 0.0 0.0 -1.151244268742903e-26 -0.5442396402359009 -0.7673661112785339 -0.22935479879379272 -1.3146049353263134e-11 0.0 -1.151244268742903e-26 -0.5442396402359009 -0.7673661112785339 -0.22935479879379272 -1.3146049353263134e-11 0.0 0.11235001404453844 -0.29859999244446533 0.3136499823461779 -6.833951314017032e-08 3.141592579952271 1.0644698078325815e-07 0.0 0.0 0.0 0.0 0.0 0.0 -3.4768822317838045e-07 9.240737915981754e-07 4.2531462932220256e-08 -6.147405241321462e-08 -2.8475664818871896e-08 -2.650151119779478e-15 0.11235000001566975 -0.298599999983202 0.31364999997695675 3.2217650591519574e-10 3.141592653589793 3.2217503880713943e-10 0.0 0.0 -0.0 0.0 0.0 0.0
153223.504 1.5707963267948961 -1.5707963267948966 1.5707963267948966 -1.5707963267948966 -1.5707963267948966 0.0 0.0 0.0 0.0 0.0 0.0 0.0 0.0 0.0 0.0 0.0 0.0 0.0 -1.1512442590619146e-26 -0.5442396572688689 -0.7673661111166267 -0.229354796466502 -1.3146049461972196e-11 0.0 -1.511583712148294e-25 -7.14586669994025 -7.145866699940251 -1.0424175499402515 -5.974879480466362e-11 0.0 1.5707963705062866 -1.570796314870016 1.5707963705062866 -1.570796314870016 -1.570796314870016 0.0 0.0 0.0 0.0 0.0 0.0 0.0 -1.151244268742903e-26 -0.5442396402359009 -0.7673661112785339 -0.22935479879379272 -1.3146049353263134e-11 0.0 -1.151244268742903e-26 -0.5442396402359009 -0.7673661112785339 -0.22935479879379272 -1.3146049353263134e-11 0.0 0.11235001404453844 -0.29859999244446533 0.3136499823461779 -6.833951314017032e-08 3.141592579952271 1.0644698078325815e-07 0.0 0.0 0.0 0.0 0.0 0.0 -3.4768822317838045e-07 9.240737915981754e-07 4.2531462932220256e-08 -6.147405241321462e-08 -2.8475664818871896e-08 -2.650151119779478e-15 0.11235000001566975 -0.298599999983202 0.31364999997695675 3.2217650591519574e-10 3.141592653589793 3.2217503880713943e-10 0.0 0.0 -0.0 0.0 0.0 0.0
153223.512 1.5707963267948961 -1.5707963267948966 1.5707963267948966 -1.5707963267948966 -1.5707963267948966 0.0 0.0 0.0 0.0 0.0 0.0 0.0 0.0 0.0 0.0 0.0 0.0 0.0 -1.1512442590619146e-26 -0.5442396572688689 -0.7673661111166267 -0.229354796466502 -1.3146049461972196e-11 0.0 -1.511583712148294e-25 -7.14586669994025 -7.145866699940251 -1.0424175499402515 -5.974879480466362e-11 0.0 1.5707963705062866 -1.570796314870016 1.5707963705062866 -1.570796314870016 -1.570796314870016 0.0 0.0 0.0 0.0 0.0 0.0 0.0 -1.151244268742903e-26 -0.5442396402359009 -0.7673661112785339 -0.22935479879379272 -1.3146049353263134e-11 0.0 -1.151244268742903e-26 -0.5442396402359009 -0.7673661112785339 -0.22935479879379272 -1.3146049353263134e-11 0.0 0.11235001404453844 -0.29859999244446533 0.3136499823461779 -6.833951314017032e-08 3.141592579952271 1.0644698078325815e-07 0.0 0.0 0.0 0.0 0.0 0.0 -3.4768822317838045e-07 9.240737915981754e-07 4.2531462932220256e-08 -6.147405241321462e-08 -2.8475664818871896e-08 -2.650151119779478e-15 0.11235000001566975 -0.298599999983202 0.31364999997695675 3.2217650591519574e-10 3.141592653589793 3.2217503880713943e-10 0.0 0.0 -0.0 0.0 0.0 0.0
153223.52 1.5707963267948961 -1.5707963267948966 1.5707963267948966 -1.5707963267948966 -1.5707963267948966 0.0 0.0 0.0 0.0 0.0 0.0 0.0 0.0 0.0 0.0 0.0 0.0 0.0 -1.1512442590619146e-26 -0.5442396572688689 -0.7673661111166267 -0.229354796466502 -1.3146049461972196e-11 0.0 -1.511583712148294e-25 -7.14586669994025 -7.145866699940251 -1.0424175499402515 -5.974879480466362e-11 0.0 1.5707963705062866 -1.570796314870016 1.5707963705062866 -1.570796314870016 -1.570796314870016 0.0 0.0 0.0 0.0 0.0 0.0 0.0 -1.151244268742903e-26 -0.5442396402359009 -0.7673661112785339 -0.22935479879379272 -1.3146049353263134e-11 0.0 -1.151244268742903e-26 -0.5442396402359009 -0.7673661112785339 -0.22935479879379272 -1.3146049353263134e-11 0.0 0.11235001404453844 -0.29859999244446533 0.3136499823461779 -6.833951314017032e-08 3.141592579952271 1.0644698078325815e-07 0.0 0.0 0.0 0.0 0.0 0.0 -3.4768822317838045e-07 9.240737915981754e-07 4.2531462932220256e-08 -6.147405241321462e-08 -2.8475664818871896e-08 -2.650151119779478e-15 0.11235000001566975 -0.298599999983202 0.31364999997695675 3.2217650591519574e-10 3.141592653589793 3.2217503880713943e-10 0.0 0.0 -0.0 0.0 0.0 0.0
153223.528 1.5707963267948961 -1.5707963267948966 1.5707963267948966 -1.5707963267948966 -1.5707963267948966 0.0 0.0 0.0 0.0 0.0 0.0 0.0 0.0 0.0 0.0 0.0 0.0 0.0 -1.1512442590619146e-26 -0.5442396572688689 -0.7673661111166267 -0.229354796466502 -1.3146049461972196e-11 0.0 -1.511583712148294e-25 -7.14586669994025 -7.145866699940251 -1.0424175499402515 -5.974879480466362e-11 0.0 1.5707963705062866 -1.570796314870016 1.5707963705062866 -1.570796314870016 -1.570796314870016 0.0 0.0 0.0 0.0 0.0 0.0 0.0 -1.151244268742903e-26 -0.5442396402359009 -0.7673661112785339 -0.22935479879379272 -1.3146049353263134e-11 0.0 -1.151244268742903e-26 -0.5442396402359009 -0.7673661112785339 -0.22935479879379272 -1.3146049353263134e-11 0.0 0.11235001404453844 -0.29859999244446533 0.3136499823461779 -6.833951314017032e-08 3.141592579952271 1.0644698078325815e-07 0.0 0.0 0.0 0.0 0.0 0.0 -3.4768822317838045e-07 9.240737915981754e-07 4.2531462932220256e-08 -6.147405241321462e-08 -2.8475664818871896e-08 -2.650151119779478e-15 0.11235000001566975 -0.298599999983202 0.31364999997695675 3.2217650591519574e-10 3.141592653589793 3.2217503880713943e-10 0.0 0.0 -0.0 0.0 0.0 0.0
153223.536 1.5707963267948961 -1.5707963267948966 1.5707963267948966 -1.5707963267948966 -1.5707963267948966 0.0 0.0 0.0 0.0 0.0 0.0 0.0 0.0 0.0 0.0 0.0 0.0 0.0 -1.1512442590619146e-26 -0.5442396572688689 -0.7673661111166267 -0.229354796466502 -1.3146049461972196e-11 0.0 -1.511583712148294e-25 -7.14586669994025 -7.145866699940251 -1.0424175499402515 -5.974879480466362e-11 0.0 1.5707963705062866 -1.570796314870016 1.5707963705062866 -1.570796314870016 -1.570796314870016 0.0 0.0 0.0 0.0 0.0 0.0 0.0 -1.151244268742903e-26 -0.5442396402359009 -0.7673661112785339 -0.22935479879379272 -1.3146049353263134e-11 0.0 -1.151244268742903e-26 -0.5442396402359009 -0.7673661112785339 -0.22935479879379272 -1.3146049353263134e-11 0.0 0.11235001404453844 -0.29859999244446533 0.3136499823461779 -6.833951314017032e-08 3.141592579952271 1.0644698078325815e-07 0.0 0.0 0.0 0.0 0.0 0.0 -3.4768822317838045e-07 9.240737915981754e-07 4.2531462932220256e-08 -6.147405241321462e-08 -2.8475664818871896e-08 -2.650151119779478e-15 0.11235000001566975 -0.298599999983202 0.31364999997695675 3.2217650591519574e-10 3.141592653589793 3.2217503880713943e-10 0.0 0.0 -0.0 0.0 0.0 0.0
153223.544 1.5707963267948961 -1.5707963267948966 1.5707963267948966 -1.5707963267948966 -1.5707963267948966 0.0 0.0 0.0 0.0 0.0 0.0 0.0 0.0 0.0 0.0 0.0 0.0 0.0 -1.1512442590619146e-26 -0.5442396572688689 -0.7673661111166267 -0.229354796466502 -1.3146049461972196e-11 0.0 -1.511583712148294e-25 -7.14586669994025 -7.145866699940251 -1.0424175499402515 -5.974879480466362e-11 0.0 1.5707963705062866 -1.570796314870016 1.5707963705062866 -1.570796314870016 -1.570796314870016 0.0 0.0 0.0 0.0 0.0 0.0 0.0 -1.151244268742903e-26 -0.5442396402359009 -0.7673661112785339 -0.22935479879379272 -1.3146049353263134e-11 0.0 -1.151244268742903e-26 -0.5442396402359009 -0.7673661112785339 -0.22935479879379272 -1.3146049353263134e-11 0.0 0.11235001404453844 -0.29859999244446533 0.3136499823461779 -6.833951314017032e-08 3.141592579952271 1.0644698078325815e-07 0.0 0.0 0.0 0.0 0.0 0.0 -3.4768822317838045e-07 9.240737915981754e-07 4.2531462932220256e-08 -6.147405241321462e-08 -2.8475664818871896e-08 -2.650151119779478e-15 0.11235000001566975 -0.298599999983202 0.31364999997695675 3.2217650591519574e-10 3.141592653589793 3.2217503880713943e-10 0.0 0.0 -0.0 0.0 0.0 0.0
153223.552 1.5707963267948961 -1.5707963267948966 1.5707963267948966 -1.5707963267948966 -1.5707963267948966 0.0 0.0 0.0 0.0 0.0 0.0 0.0 0.0 0.0 0.0 0.0 0.0 0.0 -1.1512442590619146e-26 -0.5442396572688689 -0.7673661111166267 -0.229354796466502 -1.3146049461972196e-11 0.0 -1.511583712148294e-25 -7.14586669994025 -7.145866699940251 -1.0424175499402515 -5.974879480466362e-11 0.0 1.5707963705062866 -1.570796314870016 1.5707963705062866 -1.570796314870016 -1.570796314870016 0.0 0.0 0.0 0.0 0.0 0.0 0.0 -1.151244268742903e-26 -0.5442396402359009 -0.7673661112785339 -0.22935479879379272 -1.3146049353263134e-11 0.0 -1.151244268742903e-26 -0.5442396402359009 -0.7673661112785339 -0.22935479879379272 -1.3146049353263134e-11 0.0 0.11235001404453844 -0.29859999244446533 0.3136499823461779 -6.833951314017032e-08 3.141592579952271 1.0644698078325815e-07 0.0 0.0 0.0 0.0 0.0 0.0 -3.4768822317838045e-07 9.240737915981754e-07 4.2531462932220256e-08 -6.147405241321462e-08 -2.8475664818871896e-08 -2.650151119779478e-15 0.11235000001566975 -0.298599999983202 0.31364999997695675 3.2217650591519574e-10 3.141592653589793 3.2217503880713943e-10 0.0 0.0 -0.0 0.0 0.0 0.0
153223.56 1.5707963267948961 -1.5707963267948966 1.5707963267948966 -1.5707963267948966 -1.5707963267948966 0.0 0.0 0.0 0.0 0.0 0.0 0.0 0.0 0.0 0.0 0.0 0.0 0.0 -1.1512442590619146e-26 -0.5442396572688689 -0.7673661111166267 -0.229354796466502 -1.3146049461972196e-11 0.0 -1.511583712148294e-25 -7.14586669994025 -7.145866699940251 -1.0424175499402515 -5.974879480466362e-11 0.0 1.5707963705062866 -1.570796314870016 1.5707963705062866 -1.570796314870016 -1.570796314870016 0.0 0.0 0.0 0.0 0.0 0.0 0.0 -1.151244268742903e-26 -0.5442396402359009 -0.7673661112785339 -0.22935479879379272 -1.3146049353263134e-11 0.0 -1.151244268742903e-26 -0.5442396402359009 -0.7673661112785339 -0.22935479879379272 -1.3146049353263134e-11 0.0 0.11235001404453844 -0.29859999244446533 0.3136499823461779 -6.833951314017032e-08 3.141592579952271 1.0644698078325815e-07 0.0 0.0 0.0 0.0 0.0 0.0 -3.4768822317838045e-07 9.240737915981754e-07 4.2531462932220256e-08 -6.147405241321462e-08 -2.8475664818871896e-08 -2.650151119779478e-15 0.11235000001566975 -0.298599999983202 0.31364999997695675 3.2217650591519574e-10 3.141592653589793 3.2217503880713943e-10 0.0 0.0 -0.0 0.0 0.0 0.0
153223.568 1.5707963267948961 -1.5707963267948966 1.5707963267948966 -1.5707963267948966 -1.5707963267948966 0.0 0.0 0.0 0.0 0.0 0.0 0.0 0.0 0.0 0.0 0.0 0.0 0.0 -1.1512442590619146e-26 -0.5442396572688689 -0.7673661111166267 -0.229354796466502 -1.3146049461972196e-11 0.0 -1.511583712148294e-25 -7.14586669994025 -7.145866699940251 -1.0424175499402515 -5.974879480466362e-11 0.0 1.5707963705062866 -1.570796314870016 1.5707963705062866 -1.570796314870016 -1.570796314870016 0.0 0.0 0.0 0.0 0.0 0.0 0.0 -1.151244268742903e-26 -0.5442396402359009 -0.7673661112785339 -0.22935479879379272 -1.3146049353263134e-11 0.0 -1.151244268742903e-26 -0.5442396402359009 -0.7673661112785339 -0.22935479879379272 -1.3146049353263134e-11 0.0 0.11235001404453844 -0.29859999244446533 0.3136499823461779 -6.833951314017032e-08 3.141592579952271 1.0644698078325815e-07 0.0 0.0 0.0 0.0 0.0 0.0 -3.4768822317838045e-07 9.240737915981754e-07 4.2531462932220256e-08 -6.147405241321462e-08 -2.8475664818871896e-08 -2.650151119779478e-15 0.11235000001566975 -0.298599999983202 0.31364999997695675 3.2217650591519574e-10 3.141592653589793 3.2217503880713943e-10 0.0 0.0 -0.0 0.0 0.0 0.0
153223.576 1.5707963267948961 -1.5707963267948966 1.5707963267948966 -1.5707963267948966 -1.5707963267948966 0.0 0.0 0.0 0.0 0.0 0.0 0.0 0.0 0.0 0.0 0.0 0.0 0.0 -1.1512442590619146e-26 -0.5442396572688689 -0.7673661111166267 -0.229354796466502 -1.3146049461972196e-11 0.0 -1.511583712148294e-25 -7.14586669994025 -7.145866699940251 -1.0424175499402515 -5.974879480466362e-11 0.0 1.5707963705062866 -1.570796314870016 1.5707963705062866 -1.570796314870016 -1.570796314870016 0.0 0.0 0.0 0.0 0.0 0.0 0.0 -1.151244268742903e-26 -0.5442396402359009 -0.7673661112785339 -0.22935479879379272 -1.3146049353263134e-11 0.0 -1.151244268742903e-26 -0.5442396402359009 -0.7673661112785339 -0.22935479879379272 -1.3146049353263134e-11 0.0 0.11235001404453844 -0.29859999244446533 0.3136499823461779 -6.833951314017032e-08 3.141592579952271 1.0644698078325815e-07 0.0 0.0 0.0 0.0 0.0 0.0 -3.4768822317838045e-07 9.240737915981754e-07 4.2531462932220256e-08 -6.147405241321462e-08 -2.8475664818871896e-08 -2.650151119779478e-15 0.11235000001566975 -0.298599999983202 0.31364999997695675 3.2217650591519574e-10 3.141592653589793 3.2217503880713943e-10 0.0 0.0 -0.0 0.0 0.0 0.0
153223.584 1.5707963267948961 -1.5707963267948966 1.5707963267948966 -1.5707963267948966 -1.5707963267948966 0.0 0.0 0.0 0.0 0.0 0.0 0.0 0.0 0.0 0.0 0.0 0.0 0.0 -1.1512442590619146e-26 -0.5442396572688689 -0.7673661111166267 -0.229354796466502 -1.3146049461972196e-11 0.0 -1.511583712148294e-25 -7.14586669994025 -7.145866699940251 -1.0424175499402515 -5.974879480466362e-11 0.0 1.5707963705062866 -1.570796314870016 1.5707963705062866 -1.570796314870016 -1.570796314870016 0.0 0.0 0.0 0.0 0.0 0.0 0.0 -1.151244268742903e-26 -0.5442396402359009 -0.7673661112785339 -0.22935479879379272 -1.3146049353263134e-11 0.0 -1.151244268742903e-26 -0.5442396402359009 -0.7673661112785339 -0.22935479879379272 -1.3146049353263134e-11 0.0 0.11235001404453844 -0.29859999244446533 0.3136499823461779 -6.833951314017032e-08 3.141592579952271 1.0644698078325815e-07 0.0 0.0 0.0 0.0 0.0 0.0 -3.4768822317838045e-07 9.240737915981754e-07 4.2531462932220256e-08 -6.147405241321462e-08 -2.8475664818871896e-08 -2.650151119779478e-15 0.11235000001566975 -0.298599999983202 0.31364999997695675 3.2217650591519574e-10 3.141592653589793 3.2217503880713943e-10 0.0 0.0 -0.0 0.0 0.0 0.0
153223.592 1.5707963267948961 -1.5707963267948966 1.5707963267948966 -1.5707963267948966 -1.5707963267948966 0.0 0.0 0.0 0.0 0.0 0.0 0.0 0.0 0.0 0.0 0.0 0.0 0.0 -1.1512442590619146e-26 -0.5442396572688689 -0.7673661111166267 -0.229354796466502 -1.3146049461972196e-11 0.0 -1.511583712148294e-25 -7.14586669994025 -7.145866699940251 -1.0424175499402515 -5.974879480466362e-11 0.0 1.5707963705062866 -1.570796314870016 1.5707963705062866 -1.570796314870016 -1.570796314870016 0.0 0.0 0.0 0.0 0.0 0.0 0.0 -1.151244268742903e-26 -0.5442396402359009 -0.7673661112785339 -0.22935479879379272 -1.3146049353263134e-11 0.0 -1.151244268742903e-26 -0.5442396402359009 -0.7673661112785339 -0.22935479879379272 -1.3146049353263134e-11 0.0 0.11235001404453844 -0.29859999244446533 0.3136499823461779 -6.833951314017032e-08 3.141592579952271 1.0644698078325815e-07 0.0 0.0 0.0 0.0 0.0 0.0 -3.4768822317838045e-07 9.240737915981754e-07 4.2531462932220256e-08 -6.147405241321462e-08 -2.8475664818871896e-08 -2.650151119779478e-15 0.11235000001566975 -0.298599999983202 0.31364999997695675 3.2217650591519574e-10 3.141592653589793 3.2217503880713943e-10 0.0 0.0 -0.0 0.0 0.0 0.0
153223.6 1.5707963267948961 -1.5707963267948966 1.5707963267948966 -1.5707963267948966 -1.5707963267948966 0.0 0.0 0.0 0.0 0.0 0.0 0.0 0.0 0.0 0.0 0.0 0.0 0.0 -1.1512442590619146e-26 -0.5442396572688689 -0.7673661111166267 -0.229354796466502 -1.3146049461972196e-11 0.0 -1.511583712148294e-25 -7.14586669994025 -7.145866699940251 -1.0424175499402515 -5.974879480466362e-11 0.0 1.5707963705062866 -1.570796314870016 1.5707963705062866 -1.570796314870016 -1.570796314870016 0.0 0.0 0.0 0.0 0.0 0.0 0.0 -1.151244268742903e-26 -0.5442396402359009 -0.7673661112785339 -0.22935479879379272 -1.3146049353263134e-11 0.0 -1.151244268742903e-26 -0.5442396402359009 -0.7673661112785339 -0.22935479879379272 -1.3146049353263134e-11 0.0 0.11235001404453844 -0.29859999244446533 0.3136499823461779 -6.833951314017032e-08 3.141592579952271 1.0644698078325815e-07 0.0 0.0 0.0 0.0 0.0 0.0 -3.4768822317838045e-07 9.240737915981754e-07 4.2531462932220256e-08 -6.147405241321462e-08 -2.8475664818871896e-08 -2.650151119779478e-15 0.11235000001566975 -0.298599999983202 0.31364999997695675 3.2217650591519574e-10 3.141592653589793 3.2217503880713943e-10 0.0 0.0 -0.0 0.0 0.0 0.0
153223.608 1.5707963267948961 -1.5707963267948966 1.5707963267948966 -1.5707963267948966 -1.5707963267948966 0.0 0.0 0.0 0.0 0.0 0.0 0.0 0.0 0.0 0.0 0.0 0.0 0.0 -1.1512442590619146e-26 -0.5442396572688689 -0.7673661111166267 -0.229354796466502 -1.3146049461972196e-11 0.0 -1.511583712148294e-25 -7.14586669994025 -7.145866699940251 -1.0424175499402515 -5.974879480466362e-11 0.0 1.5707963705062866 -1.570796314870016 1.5707963705062866 -1.570796314870016 -1.570796314870016 0.0 0.0 0.0 0.0 0.0 0.0 0.0 -1.151244268742903e-26 -0.5442396402359009 -0.7673661112785339 -0.22935479879379272 -1.3146049353263134e-11 0.0 -1.151244268742903e-26 -0.5442396402359009 -0.7673661112785339 -0.22935479879379272 -1.3146049353263134e-11 0.0 0.11235001404453844 -0.29859999244446533 0.3136499823461779 -6.833951314017032e-08 3.141592579952271 1.0644698078325815e-07 0.0 0.0 0.0 0.0 0.0 0.0 -3.4768822317838045e-07 9.240737915981754e-07 4.2531462932220256e-08 -6.147405241321462e-08 -2.8475664818871896e-08 -2.650151119779478e-15 0.11235000001566975 -0.298599999983202 0.31364999997695675 3.2217650591519574e-10 3.141592653589793 3.2217503880713943e-10 0.0 0.0 -0.0 0.0 0.0 0.0
153223.61599999998 1.5707963267948961 -1.5707963267948966 1.5707963267948966 -1.5707963267948966 -1.5707963267948966 0.0 0.0 0.0 0.0 0.0 0.0 0.0 0.0 0.0 0.0 0.0 0.0 0.0 -1.1512442590619146e-26 -0.5442396572688689 -0.7673661111166267 -0.229354796466502 -1.3146049461972196e-11 0.0 -1.511583712148294e-25 -7.14586669994025 -7.145866699940251 -1.0424175499402515 -5.974879480466362e-11 0.0 1.5707963705062866 -1.570796314870016 1.5707963705062866 -1.570796314870016 -1.570796314870016 0.0 0.0 0.0 0.0 0.0 0.0 0.0 -1.151244268742903e-26 -0.5442396402359009 -0.7673661112785339 -0.22935479879379272 -1.3146049353263134e-11 0.0 -1.151244268742903e-26 -0.5442396402359009 -0.7673661112785339 -0.22935479879379272 -1.3146049353263134e-11 0.0 0.11235001404453844 -0.29859999244446533 0.3136499823461779 -6.833951314017032e-08 3.141592579952271 1.0644698078325815e-07 0.0 0.0 0.0 0.0 0.0 0.0 -3.4768822317838045e-07 9.240737915981754e-07 4.2531462932220256e-08 -6.147405241321462e-08 -2.8475664818871896e-08 -2.650151119779478e-15 0.11235000001566975 -0.298599999983202 0.31364999997695675 3.2217650591519574e-10 3.141592653589793 3.2217503880713943e-10 0.0 0.0 -0.0 0.0 0.0 0.0
153223.62399999998 1.5707963267948961 -1.5707963267948966 1.5707963267948966 -1.5707963267948966 -1.5707963267948966 0.0 0.0 0.0 0.0 0.0 0.0 0.0 0.0 0.0 0.0 0.0 0.0 0.0 -1.1512442590619146e-26 -0.5442396572688689 -0.7673661111166267 -0.229354796466502 -1.3146049461972196e-11 0.0 -1.511583712148294e-25 -7.14586669994025 -7.145866699940251 -1.0424175499402515 -5.974879480466362e-11 0.0 1.5707963705062866 -1.570796314870016 1.5707963705062866 -1.570796314870016 -1.570796314870016 0.0 0.0 0.0 0.0 0.0 0.0 0.0 -1.151244268742903e-26 -0.5442396402359009 -0.7673661112785339 -0.22935479879379272 -1.3146049353263134e-11 0.0 -1.151244268742903e-26 -0.5442396402359009 -0.7673661112785339 -0.22935479879379272 -1.3146049353263134e-11 0.0 0.11235001404453844 -0.29859999244446533 0.3136499823461779 -6.833951314017032e-08 3.141592579952271 1.0644698078325815e-07 0.0 0.0 0.0 0.0 0.0 0.0 -3.4768822317838045e-07 9.240737915981754e-07 4.2531462932220256e-08 -6.147405241321462e-08 -2.8475664818871896e-08 -2.650151119779478e-15 0.11235000001566975 -0.298599999983202 0.31364999997695675 3.2217650591519574e-10 3.141592653589793 3.2217503880713943e-10 0.0 0.0 -0.0 0.0 0.0 0.0
153223.63199999998 1.5707963267948961 -1.5707963267948966 1.5707963267948966 -1.5707963267948966 -1.5707963267948966 0.0 0.0 0.0 0.0 0.0 0.0 0.0 0.0 0.0 0.0 0.0 0.0 0.0 -1.1512442590619146e-26 -0.5442396572688689 -0.7673661111166267 -0.229354796466502 -1.3146049461972196e-11 0.0 -1.511583712148294e-25 -7.14586669994025 -7.145866699940251 -1.0424175499402515 -5.974879480466362e-11 0.0 1.5707963705062866 -1.570796314870016 1.5707963705062866 -1.570796314870016 -1.570796314870016 0.0 0.0 0.0 0.0 0.0 0.0 0.0 -1.151244268742903e-26 -0.5442396402359009 -0.7673661112785339 -0.22935479879379272 -1.3146049353263134e-11 0.0 -1.151244268742903e-26 -0.5442396402359009 -0.7673661112785339 -0.22935479879379272 -1.3146049353263134e-11 0.0 0.11235001404453844 -0.29859999244446533 0.3136499823461779 -6.833951314017032e-08 3.141592579952271 1.0644698078325815e-07 0.0 0.0 0.0 0.0 0.0 0.0 -3.4768822317838045e-07 9.240737915981754e-07 4.2531462932220256e-08 -6.147405241321462e-08 -2.8475664818871896e-08 -2.650151119779478e-15 0.11235000001566975 -0.298599999983202 0.31364999997695675 3.2217650591519574e-10 3.141592653589793 3.2217503880713943e-10 0.0 0.0 -0.0 0.0 0.0 0.0
153223.63999999998 1.5707963267948961 -1.5707963267948966 1.5707963267948966 -1.5707963267948966 -1.5707963267948966 0.0 0.0 0.0 0.0 0.0 0.0 0.0 0.0 0.0 0.0 0.0 0.0 0.0 -1.1512442590619146e-26 -0.5442396572688689 -0.7673661111166267 -0.229354796466502 -1.3146049461972196e-11 0.0 -1.511583712148294e-25 -7.14586669994025 -7.145866699940251 -1.0424175499402515 -5.974879480466362e-11 0.0 1.5707963705062866 -1.570796314870016 1.5707963705062866 -1.570796314870016 -1.570796314870016 0.0 0.0 0.0 0.0 0.0 0.0 0.0 -1.151244268742903e-26 -0.5442396402359009 -0.7673661112785339 -0.22935479879379272 -1.3146049353263134e-11 0.0 -1.151244268742903e-26 -0.5442396402359009 -0.7673661112785339 -0.22935479879379272 -1.3146049353263134e-11 0.0 0.11235001404453844 -0.29859999244446533 0.3136499823461779 -6.833951314017032e-08 3.141592579952271 1.0644698078325815e-07 0.0 0.0 0.0 0.0 0.0 0.0 -3.4768822317838045e-07 9.240737915981754e-07 4.2531462932220256e-08 -6.147405241321462e-08 -2.8475664818871896e-08 -2.650151119779478e-15 0.11235000001566975 -0.298599999983202 0.31364999997695675 3.2217650591519574e-10 3.141592653589793 3.2217503880713943e-10 0.0 0.0 -0.0 0.0 0.0 0.0
153223.648 1.5707963267948961 -1.5707963267948966 1.5707963267948966 -1.5707963267948966 -1.5707963267948966 0.0 0.0 0.0 0.0 0.0 0.0 0.0 0.0 0.0 0.0 0.0 0.0 0.0 -1.1512442590619146e-26 -0.5442396572688689 -0.7673661111166267 -0.229354796466502 -1.3146049461972196e-11 0.0 -1.511583712148294e-25 -7.14586669994025 -7.145866699940251 -1.0424175499402515 -5.974879480466362e-11 0.0 1.5707963705062866 -1.570796314870016 1.5707963705062866 -1.570796314870016 -1.570796314870016 0.0 0.0 0.0 0.0 0.0 0.0 0.0 -1.151244268742903e-26 -0.5442396402359009 -0.7673661112785339 -0.22935479879379272 -1.3146049353263134e-11 0.0 -1.151244268742903e-26 -0.5442396402359009 -0.7673661112785339 -0.22935479879379272 -1.3146049353263134e-11 0.0 0.11235001404453844 -0.29859999244446533 0.3136499823461779 -6.833951314017032e-08 3.141592579952271 1.0644698078325815e-07 0.0 0.0 0.0 0.0 0.0 0.0 -3.4768822317838045e-07 9.240737915981754e-07 4.2531462932220256e-08 -6.147405241321462e-08 -2.8475664818871896e-08 -2.650151119779478e-15 0.11235000001566975 -0.298599999983202 0.31364999997695675 3.2217650591519574e-10 3.141592653589793 3.2217503880713943e-10 0.0 0.0 -0.0 0.0 0.0 0.0
153223.656 1.5707963267948961 -1.5707963267948966 1.5707963267948966 -1.5707963267948966 -1.5707963267948966 0.0 0.0 0.0 0.0 0.0 0.0 0.0 0.0 0.0 0.0 0.0 0.0 0.0 -1.1512442590619146e-26 -0.5442396572688689 -0.7673661111166267 -0.229354796466502 -1.3146049461972196e-11 0.0 -1.511583712148294e-25 -7.14586669994025 -7.145866699940251 -1.0424175499402515 -5.974879480466362e-11 0.0 1.5707963705062866 -1.570796314870016 1.5707963705062866 -1.570796314870016 -1.570796314870016 0.0 0.0 0.0 0.0 0.0 0.0 0.0 -1.151244268742903e-26 -0.5442396402359009 -0.7673661112785339 -0.22935479879379272 -1.3146049353263134e-11 0.0 -1.151244268742903e-26 -0.5442396402359009 -0.7673661112785339 -0.22935479879379272 -1.3146049353263134e-11 0.0 0.11235001404453844 -0.29859999244446533 0.3136499823461779 -6.833951314017032e-08 3.141592579952271 1.0644698078325815e-07 0.0 0.0 0.0 0.0 0.0 0.0 -3.4768822317838045e-07 9.240737915981754e-07 4.2531462932220256e-08 -6.147405241321462e-08 -2.8475664818871896e-08 -2.650151119779478e-15 0.11235000001566975 -0.298599999983202 0.31364999997695675 3.2217650591519574e-10 3.141592653589793 3.2217503880713943e-10 0.0 0.0 -0.0 0.0 0.0 0.0
153223.664 1.5707963267948961 -1.5707963267948966 1.5707963267948966 -1.5707963267948966 -1.5707963267948966 0.0 0.0 0.0 0.0 0.0 0.0 0.0 0.0 0.0 0.0 0.0 0.0 0.0 -1.1512442590619146e-26 -0.5442396572688689 -0.7673661111166267 -0.229354796466502 -1.3146049461972196e-11 0.0 -1.511583712148294e-25 -7.14586669994025 -7.145866699940251 -1.0424175499402515 -5.974879480466362e-11 0.0 1.5707963705062866 -1.570796314870016 1.5707963705062866 -1.570796314870016 -1.570796314870016 0.0 0.0 0.0 0.0 0.0 0.0 0.0 -1.151244268742903e-26 -0.5442396402359009 -0.7673661112785339 -0.22935479879379272 -1.3146049353263134e-11 0.0 -1.151244268742903e-26 -0.5442396402359009 -0.7673661112785339 -0.22935479879379272 -1.3146049353263134e-11 0.0 0.11235001404453844 -0.29859999244446533 0.3136499823461779 -6.833951314017032e-08 3.141592579952271 1.0644698078325815e-07 0.0 0.0 0.0 0.0 0.0 0.0 -3.4768822317838045e-07 9.240737915981754e-07 4.2531462932220256e-08 -6.147405241321462e-08 -2.8475664818871896e-08 -2.650151119779478e-15 0.11235000001566975 -0.298599999983202 0.31364999997695675 3.2217650591519574e-10 3.141592653589793 3.2217503880713943e-10 0.0 0.0 -0.0 0.0 0.0 0.0
153223.672 1.5707963267948961 -1.5707963267948966 1.5707963267948966 -1.5707963267948966 -1.5707963267948966 0.0 0.0 0.0 0.0 0.0 0.0 0.0 0.0 0.0 0.0 0.0 0.0 0.0 -1.1512442590619146e-26 -0.5442396572688689 -0.7673661111166267 -0.229354796466502 -1.3146049461972196e-11 0.0 -1.511583712148294e-25 -7.14586669994025 -7.145866699940251 -1.0424175499402515 -5.974879480466362e-11 0.0 1.5707963705062866 -1.570796314870016 1.5707963705062866 -1.570796314870016 -1.570796314870016 0.0 0.0 0.0 0.0 0.0 0.0 0.0 -1.151244268742903e-26 -0.5442396402359009 -0.7673661112785339 -0.22935479879379272 -1.3146049353263134e-11 0.0 -1.151244268742903e-26 -0.5442396402359009 -0.7673661112785339 -0.22935479879379272 -1.3146049353263134e-11 0.0 0.11235001404453844 -0.29859999244446533 0.3136499823461779 -6.833951314017032e-08 3.141592579952271 1.0644698078325815e-07 0.0 0.0 0.0 0.0 0.0 0.0 -3.4768822317838045e-07 9.240737915981754e-07 4.2531462932220256e-08 -6.147405241321462e-08 -2.8475664818871896e-08 -2.650151119779478e-15 0.11235000001566975 -0.298599999983202 0.31364999997695675 3.2217650591519574e-10 3.141592653589793 3.2217503880713943e-10 0.0 0.0 -0.0 0.0 0.0 0.0
153223.68 1.5707963267948961 -1.5707963267948966 1.5707963267948966 -1.5707963267948966 -1.5707963267948966 0.0 0.0 0.0 0.0 0.0 0.0 0.0 0.0 0.0 0.0 0.0 0.0 0.0 -1.1512442590619146e-26 -0.5442396572688689 -0.7673661111166267 -0.229354796466502 -1.3146049461972196e-11 0.0 -1.511583712148294e-25 -7.14586669994025 -7.145866699940251 -1.0424175499402515 -5.974879480466362e-11 0.0 1.5707963705062866 -1.570796314870016 1.5707963705062866 -1.570796314870016 -1.570796314870016 0.0 0.0 0.0 0.0 0.0 0.0 0.0 -1.151244268742903e-26 -0.5442396402359009 -0.7673661112785339 -0.22935479879379272 -1.3146049353263134e-11 0.0 -1.151244268742903e-26 -0.5442396402359009 -0.7673661112785339 -0.22935479879379272 -1.3146049353263134e-11 0.0 0.11235001404453844 -0.29859999244446533 0.3136499823461779 -6.833951314017032e-08 3.141592579952271 1.0644698078325815e-07 0.0 0.0 0.0 0.0 0.0 0.0 -3.4768822317838045e-07 9.240737915981754e-07 4.2531462932220256e-08 -6.147405241321462e-08 -2.8475664818871896e-08 -2.650151119779478e-15 0.11235000001566975 -0.298599999983202 0.31364999997695675 3.2217650591519574e-10 3.141592653589793 3.2217503880713943e-10 0.0 0.0 -0.0 0.0 0.0 0.0
153223.688 1.5707963267948961 -1.5707963267948966 1.5707963267948966 -1.5707963267948966 -1.5707963267948966 0.0 0.0 0.0 0.0 0.0 0.0 0.0 0.0 0.0 0.0 0.0 0.0 0.0 -1.1512442590619146e-26 -0.5442396572688689 -0.7673661111166267 -0.229354796466502 -1.3146049461972196e-11 0.0 -1.511583712148294e-25 -7.14586669994025 -7.145866699940251 -1.0424175499402515 -5.974879480466362e-11 0.0 1.5707963705062866 -1.570796314870016 1.5707963705062866 -1.570796314870016 -1.570796314870016 0.0 0.0 0.0 0.0 0.0 0.0 0.0 -1.151244268742903e-26 -0.5442396402359009 -0.7673661112785339 -0.22935479879379272 -1.3146049353263134e-11 0.0 -1.151244268742903e-26 -0.5442396402359009 -0.7673661112785339 -0.22935479879379272 -1.3146049353263134e-11 0.0 0.11235001404453844 -0.29859999244446533 0.3136499823461779 -6.833951314017032e-08 3.141592579952271 1.0644698078325815e-07 0.0 0.0 0.0 0.0 0.0 0.0 -3.4768822317838045e-07 9.240737915981754e-07 4.2531462932220256e-08 -6.147405241321462e-08 -2.8475664818871896e-08 -2.650151119779478e-15 0.11235000001566975 -0.298599999983202 0.31364999997695675 3.2217650591519574e-10 3.141592653589793 3.2217503880713943e-10 0.0 0.0 -0.0 0.0 0.0 0.0
