mkrssg/UniversalRobots/rtde_client_3.5/examples/falscheWerte da mit movel/q1_90-240.csv
timestamp target_q_0 target_q_1 target_q_2 target_q_3 target_q_4 target_q_5 target_qd_0 target_qd_1 target_qd_2 target_qd_3 target_qd_4 target_qd_5 target_qdd_0 target_qdd_1 target_qdd_2 target_qdd_3 target_qdd_4 target_qdd_5 target_current_0 target_current_1 target_current_2 target_current_3 target_current_4 target_current_5 target_moment_0 target_moment_1 target_moment_2 target_moment_3 target_moment_4 target_moment_5 actual_q_0 actual_q_1 actual_q_2 actual_q_3 actual_q_4 actual_q_5 actual_qd_0 actual_qd_1 actual_qd_2 actual_qd_3 actual_qd_4 actual_qd_5 actual_current_0 actual_current_1 actual_current_2 actual_current_3 actual_current_4 actual_current_5 joint_control_output_0 joint_control_output_1 joint_control_output_2 joint_control_output_3 joint_control_output_4 joint_control_output_5 actual_TCP_pose_0 actual_TCP_pose_1 actual_TCP_pose_2 actual_TCP_pose_3 actual_TCP_pose_4 actual_TCP_pose_5 actual_TCP_speed_0 actual_TCP_speed_1 actual_TCP_speed_2 actual_TCP_speed_3 actual_TCP_speed_4 actual_TCP_speed_5 actual_TCP_force_0 actual_TCP_force_1 actual_TCP_force_2 actual_TCP_force_3 actual_TCP_force_4 actual_TCP_force_5 target_TCP_pose_0 target_TCP_pose_1 target_TCP_pose_2 target_TCP_pose_3 target_TCP_pose_4 target_TCP_pose_5 target_TCP_speed_0 target_TCP_speed_1 target_TCP_speed_2 target_TCP_speed_3 target_TCP_speed_4 target_TCP_speed_5
153162.216 1.5707963267948961 -1.5707963267948966 1.5707963267948966 -1.5707963267948966 -1.5707963267948966 0.0 0.0 0.0 0.0 0.0 0.0 0.0 0.0 0.0 0.0 0.0 0.0 0.0 -1.1512442590619146e-26 -0.5442396572688689 -0.7673661111166267 -0.229354796466502 -1.3146049461972196e-11 0.0 -1.511583712148294e-25 -7.14586669994025 -7.145866699940251 -1.0424175499402515 -5.974879480466362e-11 0.0 1.5707963705062866 -1.570796314870016 1.5707963705062866 -1.570796314870016 -1.570796314870016 0.0 0.0 0.0 0.0 0.0 0.0 0.0 -1.151244268742903e-26 -0.5442396402359009 -0.7673661112785339 -0.22935479879379272 -1.3146049353263134e-11 0.0 -1.151244268742903e-26 -0.5442396402359009 -0.7673661112785339 -0.22935479879379272 -1.3146049353263134e-11 0.0 0.11235001404453844 -0.29859999244446533 0.3136499823461779 -6.833951314017032e-08 3.141592579952271 1.0644698078325815e-07 0.0 0.0 0.0 0.0 0.0 0.0 -3.4768822317838045e-07 9.240737915981754e-07 4.2531462932220256e-08 -6.147405241321462e-08 -2.8475664818871896e-08 -2.650151119779478e-15 0.11235000001566975 -0.298599999983202 0.31364999997695675 3.2217650591519574e-10 3.141592653589793 3.2217503880713943e-10 0.0 0.0 -0.0 0.0 0.0 0.0
153162.224 1.5707963267948961 -1.5707963267948966 1.5707963267948966 -1.5707963267948966 -1.5707963267948966 0.0 0.0 0.0 0.0 0.0 0.0 0.0 0.0 0.0 0.0 0.0 0.0 0.0 -1.1512442590619146e-26 -0.5442396572688689 -0.7673661111166267 -0.229354796466502 -1.3146049461972196e-11 0.0 -1.511583712148294e-25 -7.14586669994025 -7.145866699940251 -1.0424175499402515 -5.974879480466362e-11 0.0 1.5707963705062866 -1.570796314870016 1.5707963705062866 -1.570796314870016 -1.570796314870016 0.0 0.0 0.0 0.0 0.0 0.0 0.0 -1.151244268742903e-26 -0.5442396402359009 -0.7673661112785339 -0.22935479879379272 -1.3146049353263134e-11 0.0 -1.151244268742903e-26 -0.5442396402359009 -0.7673661112785339 -0.22935479879379272 -1.3146049353263134e-11 0.0 0.11235001404453844 -0.29859999244446533 0.3136499823461779 -6.833951314017032e-08 3.141592579952271 1.0644698078325815e-07 0.0 0.0 0.0 0.0 0.0 0.0 -3.4768822317838045e-07 9.240737915981754e-07 4.2531462932220256e-08 -6.147405241321462e-08 -2.8475664818871896e-08 -2.650151119779478e-15 0.11235000001566975 -0.298599999983202 0.31364999997695675 3.2217650591519574e-10 3.141592653589793 3.2217503880713943e-10 0.0 0.0 -0.0 0.0 0.0 0.0
153162.232 1.5707963267948961 -1.5707963267948966 1.5707963267948966 -1.5707963267948966 -1.5707963267948966 0.0 0.0 0.0 0.0 0.0 0.0 0.0 0.0 0.0 0.0 0.0 0.0 0.0 -1.1512442590619146e-26 -0.5442396572688689 -0.7673661111166267 -0.229354796466502 -1.3146049461972196e-11 0.0 -1.511583712148294e-25 -7.14586669994025 -7.145866699940251 -1.0424175499402515 -5.974879480466362e-11 0.0 1.5707963705062866 -1.570796314870016 1.5707963705062866 -1.570796314870016 -1.570796314870016 0.0 0.0 0.0 0.0 0.0 0.0 0.0 -1.151244268742903e-26 -0.5442396402359009 -0.7673661112785339 -0.22935479879379272 -1.3146049353263134e-11 0.0 -1.151244268742903e-26 -0.5442396402359009 -0.7673661112785339 -0.22935479879379272 -1.3146049353263134e-11 0.0 0.11235001404453844 -0.29859999244446533 0.3136499823461779 -6.833951314017032e-08 3.141592579952271 1.0644698078325815e-07 0.0 0.0 0.0 0.0 0.0 0.0 -3.4768822317838045e-07 9.240737915981754e-07 4.2531462932220256e-08 -6.147405241321462e-08 -2.8475664818871896e-08 -2.650151119779478e-15 0.11235000001566975 -0.298599999983202 0.31364999997695675 3.2217650591519574e-10 3.141592653589793 3.2217503880713943e-10 0.0 0.0 -0.0 0.0 0.0 0.0
153162.24 1.5707963267948961 -1.5707963267948966 1.5707963267948966 -1.5707963267948966 -1.5707963267948966 0.0 0.0 0.0 0.0 0.0 0.0 0.0 0.0 0.0 0.0 0.0 0.0 0.0 -1.1512442590619146e-26 -0.5442396572688689 -0.7673661111166267 -0.229354796466502 -1.3146049461972196e-11 0.0 -1.511583712148294e-25 -7.14586669994025 -7.145866699940251 -1.0424175499402515 -5.974879480466362e-11 0.0 1.5707963705062866 -1.570796314870016 1.5707963705062866 -1.570796314870016 -1.570796314870016 0.0 0.0 0.0 0.0 0.0 0.0 0.0 -1.151244268742903e-26 -0.5442396402359009 -0.7673661112785339 -0.22935479879379272 -1.3146049353263134e-11 0.0 -1.151244268742903e-26 -0.5442396402359009 -0.7673661112785339 -0.22935479879379272 -1.3146049353263134e-11 0.0 0.11235001404453844 -0.29859999244446533 0.3136499823461779 -6.833951314017032e-08 3.141592579952271 1.0644698078325815e-07 0.0 0.0 0.0 0.0 0.0 0.0 -3.4768822317838045e-07 9.240737915981754e-07 4.2531462932220256e-08 -6.147405241321462e-08 -2.8475664818871896e-08 -2.650151119779478e-15 0.11235000001566975 -0.298599999983202 0.31364999997695675 3.2217650591519574e-10 3.141592653589793 3.2217503880713943e-10 0.0 0.0 -0.0 0.0 0.0 0.0
153162.248 1.5707963267948961 -1.5707963267948966 1.5707963267948966 -1.5707963267948966 -1.5707963267948966 0.0 0.0 0.0 0.0 0.0 0.0 0.0 0.0 0.0 0.0 0.0 0.0 0.0 -1.1512442590619146e-26 -0.5442396572688689 -0.7673661111166267 -0.229354796466502 -1.3146049461972196e-11 0.0 -1.511583712148294e-25 -7.14586669994025 -7.145866699940251 -1.0424175499402515 -5.974879480466362e-11 0.0 1.5707963705062866 -1.570796314870016 1.5707963705062866 -1.570796314870016 -1.570796314870016 0.0 0.0 0.0 0.0 0.0 0.0 0.0 -1.151244268742903e-26 -0.5442396402359009 -0.7673661112785339 -0.22935479879379272 -1.3146049353263134e-11 0.0 -1.151244268742903e-26 -0.5442396402359009 -0.7673661112785339 -0.22935479879379272 -1.3146049353263134e-11 0.0 0.11235001404453844 -0.29859999244446533 0.3136499823461779 -6.833951314017032e-08 3.141592579952271 1.0644698078325815e-07 0.0 0.0 0.0 0.0 0.0 0.0 -3.4768822317838045e-07 9.240737915981754e-07 4.2531462932220256e-08 -6.147405241321462e-08 -2.8475664818871896e-08 -2.650151119779478e-15 0.11235000001566975 -0.298599999983202 0.31364999997695675 3.2217650591519574e-10 3.141592653589793 3.2217503880713943e-10 0.0 0.0 -0.0 0.0 0.0 0.0
153162.256 1.5707963267948961 -1.5707963267948966 1.5707963267948966 -1.5707963267948966 -1.5707963267948966 0.0 0.0 0.0 0.0 0.0 0.0 0.0 0.0 0.0 0.0 0.0 0.0 0.0 -1.1512442590619146e-26 -0.5442396572688689 -0.7673661111166267 -0.229354796466502 -1.3146049461972196e-11 0.0 -1.511583712148294e-25 -7.14586669994025 -7.145866699940251 -1.0424175499402515 -5.974879480466362e-11 0.0 1.5707963705062866 -1.570796314870016 1.5707963705062866 -1.570796314870016 -1.570796314870016 0.0 0.0 0.0 0.0 0.0 0.0 0.0 -1.151244268742903e-26 -0.5442396402359009 -0.7673661112785339 -0.22935479879379272 -1.3146049353263134e-11 0.0 -1.151244268742903e-26 -0.5442396402359009 -0.7673661112785339 -0.22935479879379272 -1.3146049353263134e-11 0.0 0.11235001404453844 -0.29859999244446533 0.3136499823461779 -6.833951314017032e-08 3.141592579952271 1.0644698078325815e-07 0.0 0.0 0.0 0.0 0.0 0.0 -3.4768822317838045e-07 9.240737915981754e-07 4.2531462932220256e-08 -6.147405241321462e-08 -2.8475664818871896e-08 -2.650151119779478e-15 0.11235000001566975 -0.298599999983202 0.31364999997695675 3.2217650591519574e-10 3.141592653589793 3.2217503880713943e-10 0.0 0.0 -0.0 0.0 0.0 0.0
153162.264 1.5707963267948961 -1.5707963267948966 1.5707963267948966 -1.5707963267948966 -1.5707963267948966 0.0 0.0 0.0 0.0 0.0 0.0 0.0 0.0 0.0 0.0 0.0 0.0 0.0 -1.1512442590619146e-26 -0.5442396572688689 -0.7673661111166267 -0.229354796466502 -1.3146049461972196e-11 0.0 -1.511583712148294e-25 -7.14586669994025 -7.145866699940251 -1.0424175499402515 -5.974879480466362e-11 0.0 1.5707963705062866 -1.570796314870016 1.5707963705062866 -1.570796314870016 -1.570796314870016 0.0 0.0 0.0 0.0 0.0 0.0 0.0 -1.151244268742903e-26 -0.5442396402359009 -0.7673661112785339 -0.22935479879379272 -1.3146049353263134e-11 0.0 -1.151244268742903e-26 -0.5442396402359009 -0.7673661112785339 -0.22935479879379272 -1.3146049353263134e-11 0.0 0.11235001404453844 -0.29859999244446533 0.3136499823461779 -6.833951314017032e-08 3.141592579952271 1.0644698078325815e-07 0.0 0.0 0.0 0.0 0.0 0.0 -3.4768822317838045e-07 9.240737915981754e-07 4.2531462932220256e-08 -6.147405241321462e-08 -2.8475664818871896e-08 -2.650151119779478e-15 0.11235000001566975 -0.298599999983202 0.31364999997695675 3.2217650591519574e-10 3.141592653589793 3.2217503880713943e-10 0.0 0.0 -0.0 0.0 0.0 0.0
153162.272 1.5707963267948961 -1.5707963267948966 1.5707963267948966 -1.5707963267948966 -1.5707963267948966 0.0 0.0 0.0 0.0 0.0 0.0 0.0 0.0 0.0 0.0 0.0 0.0 0.0 -1.1512442590619146e-26 -0.5442396572688689 -0.7673661111166267 -0.229354796466502 -1.3146049461972196e-11 0.0 -1.511583712148294e-25 -7.14586669994025 -7.145866699940251 -1.0424175499402515 -5.974879480466362e-11 0.0 1.5707963705062866 -1.570796314870016 1.5707963705062866 -1.570796314870016 -1.570796314870016 0.0 0.0 0.0 0.0 0.0 0.0 0.0 -1.151244268742903e-26 -0.5442396402359009 -0.7673661112785339 -0.22935479879379272 -1.3146049353263134e-11 0.0 -1.151244268742903e-26 -0.5442396402359009 -0.7673661112785339 -0.22935479879379272 -1.3146049353263134e-11 0.0 0.11235001404453844 -0.29859999244446533 0.3136499823461779 -6.833951314017032e-08 3.141592579952271 1.0644698078325815e-07 0.0 0.0 0.0 0.0 0.0 0.0 -3.4768822317838045e-07 9.240737915981754e-07 4.2531462932220256e-08 -6.147405241321462e-08 -2.8475664818871896e-08 -2.650151119779478e-15 0.11235000001566975 -0.298599999983202 0.31364999997695675 3.2217650591519574e-10 3.141592653589793 3.2217503880713943e-10 0.0 0.0 -0.0 0.0 0.0 0.0
153162.28 1.5707963267948961 -1.5707963267948966 1.5707963267948966 -1.5707963267948966 -1.5707963267948966 0.0 0.0 0.0 0.0 0.0 0.0 0.0 0.0 0.0 0.0 0.0 0.0 0.0 -1.1512442590619146e-26 -0.5442396572688689 -0.7673661111166267 -0.229354796466502 -1.3146049461972196e-11 0.0 -1.511583712148294e-25 -7.14586669994025 -7.145866699940251 -1.0424175499402515 -5.974879480466362e-11 0.0 1.5707963705062866 -1.570796314870016 1.5707963705062866 -1.570796314870016 -1.570796314870016 0.0 0.0 0.0 0.0 0.0 0.0 0.0 -1.151244268742903e-26 -0.5442396402359009 -0.7673661112785339 -0.22935479879379272 -1.3146049353263134e-11 0.0 -1.151244268742903e-26 -0.5442396402359009 -0.7673661112785339 -0.22935479879379272 -1.3146049353263134e-11 0.0 0.11235001404453844 -0.29859999244446533 0.3136499823461779 -6.833951314017032e-08 3.141592579952271 1.0644698078325815e-07 0.0 0.0 0.0 0.0 0.0 0.0 -3.4768822317838045e-07 9.240737915981754e-07 4.2531462932220256e-08 -6.147405241321462e-08 -2.8475664818871896e-08 -2.650151119779478e-15 0.11235000001566975 -0.298599999983202 0.31364999997695675 3.2217650591519574e-10 3.141592653589793 3.2217503880713943e-10 0.0 0.0 -0.0 0.0 0.0 0.0
153162.288 1.5707963267948961 -1.5707963267948966 1.5707963267948966 -1.5707963267948966 -1.5707963267948966 0.0 0.0 0.0 0.0 0.0 0.0 0.0 0.0 0.0 0.0 0.0 0.0 0.0 -1.1512442590619146e-26 -0.5442396572688689 -0.7673661111166267 -0.229354796466502 -1.3146049461972196e-11 0.0 -1.511583712148294e-25 -7.14586669994025 -7.145866699940251 -1.0424175499402515 -5.974879480466362e-11 0.0 1.5707963705062866 -1.570796314870016 1.5707963705062866 -1.570796314870016 -1.570796314870016 0.0 0.0 0.0 0.0 0.0 0.0 0.0 -1.151244268742903e-26 -0.5442396402359009 -0.7673661112785339 -0.22935479879379272 -1.3146049353263134e-11 0.0 -1.151244268742903e-26 -0.5442396402359009 -0.7673661112785339 -0.22935479879379272 -1.3146049353263134e-11 0.0 0.11235001404453844 -0.29859999244446533 0.3136499823461779 -6.833951314017032e-08 3.141592579952271 1.0644698078325815e-07 0.0 0.0 0.0 0.0 0.0 0.0 -3.4768822317838045e-07 9.240737915981754e-07 4.2531462932220256e-08 -6.147405241321462e-08 -2.8475664818871896e-08 -2.650151119779478e-15 0.11235000001566975 -0.298599999983202 0.31364999997695675 3.2217650591519574e-10 3.141592653589793 3.2217503880713943e-10 0.0 0.0 -0.0 0.0 0.0 0.0
153162.296 1.5707963267948961 -1.5707963267948966 1.5707963267948966 -1.5707963267948966 -1.5707963267948966 0.0 0.0 0.0 0.0 0.0 0.0 0.0 0.0 0.0 0.0 0.0 0.0 0.0 -1.1512442590619146e-26 -0.5442396572688689 -0.7673661111166267 -0.229354796466502 -1.3146049461972196e-11 0.0 -1.511583712148294e-25 -7.14586669994025 -7.145866699940251 -1.0424175499402515 -5.974879480466362e-11 0.0 1.5707963705062866 -1.570796314870016 1.5707963705062866 -1.570796314870016 -1.570796314870016 0.0 0.0 0.0 0.0 0.0 0.0 0.0 -1.151244268742903e-26 -0.5442396402359009 -0.7673661112785339 -0.22935479879379272 -1.3146049353263134e-11 0.0 -1.151244268742903e-26 -0.5442396402359009 -0.7673661112785339 -0.22935479879379272 -1.3146049353263134e-11 0.0 0.11235001404453844 -0.29859999244446533 0.3136499823461779 -6.833951314017032e-08 3.141592579952271 1.0644698078325815e-07 0.0 0.0 0.0 0.0 0.0 0.0 -3.4768822317838045e-07 9.240737915981754e-07 4.2531462932220256e-08 -6.147405241321462e-08 -2.8475664818871896e-08 -2.650151119779478e-15 0.11235000001566975 -0.298599999983202 0.31364999997695675 3.2217650591519574e-10 3.141592653589793 3.2217503880713943e-10 0.0 0.0 -0.0 0.0 0.0 0.0
153162.304 1.5707963267948961 -1.5707963267948966 1.5707963267948966 -1.5707963267948966 -1.5707963267948966 0.0 0.0 0.0 0.0 0.0 0.0 0.0 0.0 0.0 0.0 0.0 0.0 0.0 -1.1512442590619146e-26 -0.5442396572688689 -0.7673661111166267 -0.229354796466502 -1.3146049461972196e-11 0.0 -1.511583712148294e-25 -7.14586669994025 -7.145866699940251 -1.0424175499402515 -5.974879480466362e-11 0.0 1.5707963705062866 -1.570796314870016 1.5707963705062866 -1.570796314870016 -1.570796314870016 0.0 0.0 0.0 0.0 0.0 0.0 0.0 -1.151244268742903e-26 -0.5442396402359009 -0.7673661112785339 -0.22935479879379272 -1.3146049353263134e-11 0.0 -1.151244268742903e-26 -0.5442396402359009 -0.7673661112785339 -0.22935479879379272 -1.3146049353263134e-11 0.0 0.11235001404453844 -0.29859999244446533 0.3136499823461779 -6.833951314017032e-08 3.141592579952271 1.0644698078325815e-07 0.0 0.0 0.0 0.0 0.0 0.0 -3.4768822317838045e-07 9.240737915981754e-07 4.2531462932220256e-08 -6.147405241321462e-08 -2.8475664818871896e-08 -2.650151119779478e-15 0.11235000001566975 -0.298599999983202 0.31364999997695675 3.2217650591519574e-10 3.141592653589793 3.2217503880713943e-10 0.0 0.0 -0.0 0.0 0.0 0.0
153162.312 1.5707963267948961 -1.5707963267948966 1.5707963267948966 -1.5707963267948966 -1.5707963267948966 0.0 0.0 0.0 0.0 0.0 0.0 0.0 0.0 0.0 0.0 0.0 0.0 0.0 -1.1512442590619146e-26 -0.5442396572688689 -0.7673661111166267 -0.229354796466502 -1.3146049461972196e-11 0.0 -1.511583712148294e-25 -7.14586669994025 -7.145866699940251 -1.0424175499402515 -5.974879480466362e-11 0.0 1.5707963705062866 -1.570796314870016 1.5707963705062866 -1.570796314870016 -1.570796314870016 0.0 0.0 0.0 0.0 0.0 0.0 0.0 -1.151244268742903e-26 -0.5442396402359009 -0.7673661112785339 -0.22935479879379272 -1.3146049353263134e-11 0.0 -1.151244268742903e-26 -0.5442396402359009 -0.7673661112785339 -0.22935479879379272 -1.3146049353263134e-11 0.0 0.11235001404453844 -0.29859999244446533 0.3136499823461779 -6.833951314017032e-08 3.141592579952271 1.0644698078325815e-07 0.0 0.0 0.0 0.0 0.0 0.0 -3.4768822317838045e-07 9.240737915981754e-07 4.2531462932220256e-08 -6.147405241321462e-08 -2.8475664818871896e-08 -2.650151119779478e-15 0.11235000001566975 -0.298599999983202 0.31364999997695675 3.2217650591519574e-10 3.141592653589793 3.2217503880713943e-10 0.0 0.0 -0.0 0.0 0.0 0.0
153162.32 1.5707963267948961 -1.5707963267948966 1.5707963267948966 -1.5707963267948966 -1.5707963267948966 0.0 0.0 0.0 0.0 0.0 0.0 0.0 0.0 0.0 0.0 0.0 0.0 0.0 -1.1512442590619146e-26 -0.5442396572688689 -0.7673661111166267 -0.229354796466502 -1.3146049461972196e-11 0.0 -1.511583712148294e-25 -7.14586669994025 -7.145866699940251 -1.0424175499402515 -5.974879480466362e-11 0.0 1.5707963705062866 -1.570796314870016 1.5707963705062866 -1.570796314870016 -1.570796314870016 0.0 0.0 0.0 0.0 0.0 0.0 0.0 -1.151244268742903e-26 -0.5442396402359009 -0.7673661112785339 -0.22935479879379272 -1.3146049353263134e-11 0.0 -1.151244268742903e-26 -0.5442396402359009 -0.7673661112785339 -0.22935479879379272 -1.3146049353263134e-11 0.0 0.11235001404453844 -0.29859999244446533 0.3136499823461779 -6.833951314017032e-08 3.141592579952271 1.0644698078325815e-07 0.0 0.0 0.0 0.0 0.0 0.0 -3.4768822317838045e-07 9.240737915981754e-07 4.2531462932220256e-08 -6.147405241321462e-08 -2.8475664818871896e-08 -2.650151119779478e-15 0.11235000001566975 -0.298599999983202 0.31364999997695675 3.2217650591519574e-10 3.141592653589793 3.2217503880713943e-10 0.0 0.0 -0.0 0.0 0.0 0.0
153162.32799999998 1.5707963267948961 -1.5707963267948966 1.5707963267948966 -1.5707963267948966 -1.5707963267948966 0.0 0.0 0.0 0.0 0.0 0.0 0.0 0.0 0.0 0.0 0.0 0.0 0.0 -1.1512442590619146e-26 -0.5442396572688689 -0.7673661111166267 -0.229354796466502 -1.3146049461972196e-11 0.0 -1.511583712148294e-25 -7.14586669994025 -7.145866699940251 -1.0424175499402515 -5.974879480466362e-11 0.0 1.5707963705062866 -1.570796314870016 1.5707963705062866 -1.570796314870016 -1.570796314870016 0.0 0.0 0.0 0.0 0.0 0.0 0.0 -1.151244268742903e-26 -0.5442396402359009 -0.7673661112785339 -0.22935479879379272 -1.3146049353263134e-11 0.0 -1.151244268742903e-26 -0.5442396402359009 -0.7673661112785339 -0.22935479879379272 -1.3146049353263134e-11 0.0 0.11235001404453844 -0.29859999244446533 0.3136499823461779 -6.833951314017032e-08 3.141592579952271 1.0644698078325815e-07 0.0 0.0 0.0 0.0 0.0 0.0 -3.4768822317838045e-07 9.240737915981754e-07 4.2531462932220256e-08 -6.147405241321462e-08 -2.8475664818871896e-08 -2.650151119779478e-15 0.11235000001566975 -0.298599999983202 0.31364999997695675 3.2217650591519574e-10 3.141592653589793 3.2217503880713943e-10 0.0 0.0 -0.0 0.0 0.0 0.0
153162.33599999998 1.5707963267948961 -1.5707963267948966 1.5707963267948966 -1.5707963267948966 -1.5707963267948966 0.0 0.0 0.0 0.0 0.0 0.0 0.0 0.0 0.0 0.0 0.0 0.0 0.0 -1.1512442590619146e-26 -0.5442396572688689 -0.7673661111166267 -0.229354796466502 -1.3146049461972196e-11 0.0 -1.511583712148294e-25 -7.14586669994025 -7.145866699940251 -1.0424175499402515 -5.974879480466362e-11 0.0 1.5707963705062866 -1.570796314870016 1.5707963705062866 -1.570796314870016 -1.570796314870016 0.0 0.0 0.0 0.0 0.0 0.0 0.0 -1.151244268742903e-26 -0.5442396402359009 -0.7673661112785339 -0.22935479879379272 -1.3146049353263134e-11 0.0 -1.151244268742903e-26 -0.5442396402359009 -0.7673661112785339 -0.22935479879379272 -1.3146049353263134e-11 0.0 0.11235001404453844 -0.29859999244446533 0.3136499823461779 -6.833951314017032e-08 3.141592579952271 1.0644698078325815e-07 0.0 0.0 0.0 0.0 0.0 0.0 -3.4768822317838045e-07 9.240737915981754e-07 4.2531462932220256e-08 -6.147405241321462e-08 -2.8475664818871896e-08 -2.650151119779478e-15 0.11235000001566975 -0.298599999983202 0.31364999997695675 3.2217650591519574e-10 3.141592653589793 3.2217503880713943e-10 0.0 0.0 -0.0 0.0 0.0 0.0
153162.34399999998 1.5707963267948961 -1.5707963267948966 1.5707963267948966 -1.5707963267948966 -1.5707963267948966 0.0 0.0 0.0 0.0 0.0 0.0 0.0 0.0 0.0 0.0 0.0 0.0 0.0 -1.1512442590619146e-26 -0.5442396572688689 -0.7673661111166267 -0.229354796466502 -1.3146049461972196e-11 0.0 -1.511583712148294e-25 -7.14586669994025 -7.145866699940251 -1.0424175499402515 -5.974879480466362e-11 0.0 1.5707963705062866 -1.570796314870016 1.5707963705062866 -1.570796314870016 -1.570796314870016 0.0 0.0 0.0 0.0 0.0 0.0 0.0 -1.151244268742903e-26 -0.5442396402359009 -0.7673661112785339 -0.22935479879379272 -1.3146049353263134e-11 0.0 -1.151244268742903e-26 -0.5442396402359009 -0.7673661112785339 -0.22935479879379272 -1.3146049353263134e-11 0.0 0.11235001404453844 -0.29859999244446533 0.3136499823461779 -6.833951314017032e-08 3.141592579952271 1.0644698078325815e-07 0.0 0.0 0.0 0.0 0.0 0.0 -3.4768822317838045e-07 9.240737915981754e-07 4.2531462932220256e-08 -6.147405241321462e-08 -2.8475664818871896e-08 -2.650151119779478e-15 0.11235000001566975 -0.298599999983202 0.31364999997695675 3.2217650591519574e-10 3.141592653589793 3.2217503880713943e-10 0.0 0.0 -0.0 0.0 0.0 0.0
153162.35199999998 1.5707963267948961 -1.5707963267948966 1.5707963267948966 -1.5707963267948966 -1.5707963267948966 0.0 0.0 0.0 0.0 0.0 0.0 0.0 0.0 0.0 0.0 0.0 0.0 0.0 -1.1512442590619146e-26 -0.5442396572688689 -0.7673661111166267 -0.229354796466502 -1.3146049461972196e-11 0.0 -1.511583712148294e-25 -7.14586669994025 -7.145866699940251 -1.0424175499402515 -5.974879480466362e-11 0.0 1.5707963705062866 -1.570796314870016 1.5707963705062866 -1.570796314870016 -1.570796314870016 0.0 0.0 0.0 0.0 0.0 0.0 0.0 -1.151244268742903e-26 -0.5442396402359009 -0.7673661112785339 -0.22935479879379272 -1.3146049353263134e-11 0.0 -1.151244268742903e-26 -0.5442396402359009 -0.7673661112785339 -0.22935479879379272 -1.3146049353263134e-11 0.0 0.11235001404453844 -0.29859999244446533 0.3136499823461779 -6.833951314017032e-08 3.141592579952271 1.0644698078325815e-07 0.0 0.0 0.0 0.0 0.0 0.0 -3.4768822317838045e-07 9.240737915981754e-07 4.2531462932220256e-08 -6.147405241321462e-08 -2.8475664818871896e-08 -2.650151119779478e-15 0.11235000001566975 -0.298599999983202 0.31364999997695675 3.2217650591519574e-10 3.141592653589793 3.2217503880713943e-10 0.0 0.0 -0.0 0.0 0.0 0.0
153162.36 1.5707963267948961 -1.5707963267948966 1.5707963267948966 -1.5707963267948966 -1.5707963267948966 0.0 0.0 0.0 0.0 0.0 0.0 0.0 0.0 0.0 0.0 0.0 0.0 0.0 -1.1512442590619146e-26 -0.5442396572688689 -0.7673661111166267 -0.229354796466502 -1.3146049461972196e-11 0.0 -1.511583712148294e-25 -7.14586669994025 -7.145866699940251 -1.0424175499402515 -5.974879480466362e-11 0.0 1.5707963705062866 -1.570796314870016 1.5707963705062866 -1.570796314870016 -1.570796314870016 0.0 0.0 0.0 0.0 0.0 0.0 0.0 -1.151244268742903e-26 -0.5442396402359009 -0.7673661112785339 -0.22935479879379272 -1.3146049353263134e-11 0.0 -1.151244268742903e-26 -0.5442396402359009 -0.7673661112785339 -0.22935479879379272 -1.3146049353263134e-11 0.0 0.11235001404453844 -0.29859999244446533 0.3136499823461779 -6.833951314017032e-08 3.141592579952271 1.0644698078325815e-07 0.0 0.0 0.0 0.0 0.0 0.0 -3.4768822317838045e-07 9.240737915981754e-07 4.2531462932220256e-08 -6.147405241321462e-08 -2.8475664818871896e-08 -2.650151119779478e-15 0.11235000001566975 -0.298599999983202 0.31364999997695675 3.2217650591519574e-10 3.141592653589793 3.2217503880713943e-10 0.0 0.0 -0.0 0.0 0.0 0.0
153162.368 1.5707963267948961 -1.5707963267948966 1.5707963267948966 -1.5707963267948966 -1.5707963267948966 0.0 0.0 0.0 0.0 0.0 0.0 0.0 0.0 0.0 0.0 0.0 0.0 0.0 -1.1512442590619146e-26 -0.5442396572688689 -0.7673661111166267 -0.229354796466502 -1.3146049461972196e-11 0.0 -1.511583712148294e-25 -7.14586669994025 -7.145866699940251 -1.0424175499402515 -5.974879480466362e-11 0.0 1.5707963705062866 -1.570796314870016 1.5707963705062866 -1.570796314870016 -1.570796314870016 0.0 0.0 0.0 0.0 0.0 0.0 0.0 -1.151244268742903e-26 -0.5442396402359009 -0.7673661112785339 -0.22935479879379272 -1.3146049353263134e-11 0.0 -1.151244268742903e-26 -0.5442396402359009 -0.7673661112785339 -0.22935479879379272 -1.3146049353263134e-11 0.0 0.11235001404453844 -0.29859999244446533 0.3136499823461779 -6.833951314017032e-08 3.141592579952271 1.0644698078325815e-07 0.0 0.0 0.0 0.0 0.0 0.0 -3.4768822317838045e-07 9.240737915981754e-07 4.2531462932220256e-08 -6.147405241321462e-08 -2.8475664818871896e-08 -2.650151119779478e-15 0.11235000001566975 -0.298599999983202 0.31364999997695675 3.2217650591519574e-10 3.141592653589793 3.2217503880713943e-10 0.0 0.0 -0.0 0.0 0.0 0.0
153162.376 1.5707963267948961 -1.5707963267948966 1.5707963267948966 -1.5707963267948966 -1.5707963267948966 0.0 0.0 0.0 0.0 0.0 0.0 0.0 0.0 0.0 0.0 0.0 0.0 0.0 -1.1512442590619146e-26 -0.5442396572688689 -0.7673661111166267 -0.229354796466502 -1.3146049461972196e-11 0.0 -1.511583712148294e-25 -7.14586669994025 -7.145866699940251 -1.0424175499402515 -5.974879480466362e-11 0.0 1.5707963705062866 -1.570796314870016 1.5707963705062866 -1.570796314870016 -1.570796314870016 0.0 0.0 0.0 0.0 0.0 0.0 0.0 -1.151244268742903e-26 -0.5442396402359009 -0.7673661112785339 -0.22935479879379272 -1.3146049353263134e-11 0.0 -1.151244268742903e-26 -0.5442396402359009 -0.7673661112785339 -0.22935479879379272 -1.3146049353263134e-11 0.0 0.11235001404453844 -0.29859999244446533 0.3136499823461779 -6.833951314017032e-08 3.141592579952271 1.0644698078325815e-07 0.0 0.0 0.0 0.0 0.0 0.0 -3.4768822317838045e-07 9.240737915981754e-07 4.2531462932220256e-08 -6.147405241321462e-08 -2.8475664818871896e-08 -2.650151119779478e-15 0.11235000001566975 -0.298599999983202 0.31364999997695675 3.2217650591519574e-10 3.141592653589793 3.2217503880713943e-10 0.0 0.0 -0.0 0.0 0.0 0.0
153162.384 1.5707963267948961 -1.5707963267948966 1.5707963267948966 -1.5707963267948966 -1.5707963267948966 0.0 0.0 0.0 0.0 0.0 0.0 0.0 0.0 0.0 0.0 0.0 0.0 0.0 -1.1512442590619146e-26 -0.5442396572688689 -0.7673661111166267 -0.229354796466502 -1.3146049461972196e-11 0.0 -1.511583712148294e-25 -7.14586669994025 -7.145866699940251 -1.0424175499402515 -5.974879480466362e-11 0.0 1.5707963705062866 -1.570796314870016 1.5707963705062866 -1.570796314870016 -1.570796314870016 0.0 0.0 0.0 0.0 0.0 0.0 0.0 -1.151244268742903e-26 -0.5442396402359009 -0.7673661112785339 -0.22935479879379272 -1.3146049353263134e-11 0.0 -1.151244268742903e-26 -0.5442396402359009 -0.7673661112785339 -0.22935479879379272 -1.3146049353263134e-11 0.0 0.11235001404453844 -0.29859999244446533 0.3136499823461779 -6.833951314017032e-08 3.141592579952271 1.0644698078325815e-07 0.0 0.0 0.0 0.0 0.0 0.0 -3.4768822317838045e-07 9.240737915981754e-07 4.2531462932220256e-08 -6.147405241321462e-08 -2.8475664818871896e-08 -2.650151119779478e-15 0.11235000001566975 -0.298599999983202 0.31364999997695675 3.2217650591519574e-10 3.141592653589793 3.2217503880713943e-10 0.0 0.0 -0.0 0.0 0.0 0.0
153162.392 1.5707963267948961 -1.5707963267948966 1.5707963267948966 -1.5707963267948966 -1.5707963267948966 0.0 0.0 0.0 0.0 0.0 0.0 0.0 0.0 0.0 0.0 0.0 0.0 0.0 -1.1512442590619146e-26 -0.5442396572688689 -0.7673661111166267 -0.229354796466502 -1.3146049461972196e-11 0.0 -1.511583712148294e-25 -7.14586669994025 -7.145866699940251 -1.0424175499402515 -5.974879480466362e-11 0.0 1.5707963705062866 -1.570796314870016 1.5707963705062866 -1.570796314870016 -1.570796314870016 0.0 0.0 0.0 0.0 0.0 0.0 0.0 -1.151244268742903e-26 -0.5442396402359009 -0.7673661112785339 -0.22935479879379272 -1.3146049353263134e-11 0.0 -1.151244268742903e-26 -0.5442396402359009 -0.7673661112785339 -0.22935479879379272 -1.3146049353263134e-11 0.0 0.11235001404453844 -0.29859999244446533 0.3136499823461779 -6.833951314017032e-08 3.141592579952271 1.0644698078325815e-07 0.0 0.0 0.0 0.0 0.0 0.0 -3.4768822317838045e-07 9.240737915981754e-07 4.2531462932220256e-08 -6.147405241321462e-08 -2.8475664818871896e-08 -2.650151119779478e-15 0.11235000001566975 -0.298599999983202 0.31364999997695675 3.2217650591519574e-10 3.141592653589793 3.2217503880713943e-10 0.0 0.0 -0.0 0.0 0.0 0.0
153162.4 1.5707963267948961 -1.5707963267948966 1.5707963267948966 -1.5707963267948966 -1.5707963267948966 0.0 0.0 0.0 0.0 0.0 0.0 0.0 0.0 0.0 0.0 0.0 0.0 0.0 -1.1512442590619146e-26 -0.5442396572688689 -0.7673661111166267 -0.229354796466502 -1.3146049461972196e-11 0.0 -1.511583712148294e-25 -7.14586669994025 -7.145866699940251 -1.0424175499402515 -5.974879480466362e-11 0.0 1.5707963705062866 -1.570796314870016 1.5707963705062866 -1.570796314870016 -1.570796314870016 0.0 0.0 0.0 0.0 0.0 0.0 0.0 -1.151244268742903e-26 -0.5442396402359009 -0.7673661112785339 -0.22935479879379272 -1.3146049353263134e-11 0.0 -1.151244268742903e-26 -0.5442396402359009 -0.7673661112785339 -0.22935479879379272 -1.3146049353263134e-11 0.0 0.11235001404453844 -0.29859999244446533 0.3136499823461779 -6.833951314017032e-08 3.141592579952271 1.0644698078325815e-07 0.0 0.0 0.0 0.0 0.0 0.0 -3.4768822317838045e-07 9.240737915981754e-07 4.2531462932220256e-08 -6.147405241321462e-08 -2.8475664818871896e-08 -2.650151119779478e-15 0.11235000001566975 -0.298599999983202 0.31364999997695675 3.2217650591519574e-10 3.141592653589793 3.2217503880713943e-10 0.0 0.0 -0.0 0.0 0.0 0.0
153162.408 1.5707963267948961 -1.5707963267948966 1.5707963267948966 -1.5707963267948966 -1.5707963267948966 0.0 0.0 0.0 0.0 0.0 0.0 0.0 0.0 0.0 0.0 0.0 0.0 0.0 -1.1512442590619146e-26 -0.5442396572688689 -0.7673661111166267 -0.229354796466502 -1.3146049461972196e-11 0.0 -1.511583712148294e-25 -7.14586669994025 -7.145866699940251 -1.0424175499402515 -5.974879480466362e-11 0.0 1.5707963705062866 -1.570796314870016 1.5707963705062866 -1.570796314870016 -1.570796314870016 0.0 0.0 0.0 0.0 0.0 0.0 0.0 -1.151244268742903e-26 -0.5442396402359009 -0.7673661112785339 -0.22935479879379272 -1.3146049353263134e-11 0.0 -1.151244268742903e-26 -0.5442396402359009 -0.7673661112785339 -0.22935479879379272 -1.3146049353263134e-11 0.0 0.11235001404453844 -0.29859999244446533 0.3136499823461779 -6.833951314017032e-08 3.141592579952271 1.0644698078325815e-07 0.0 0.0 0.0 0.0 0.0 0.0 -3.4768822317838045e-07 9.240737915981754e-07 4.2531462932220256e-08 -6.147405241321462e-08 -2.8475664818871896e-08 -2.650151119779478e-15 0.11235000001566975 -0.298599999983202 0.31364999997695675 3.2217650591519574e-10 3.141592653589793 3.2217503880713943e-10 0.0 0.0 -0.0 0.0 0.0 0.0
153162.416 1.5707963267948961 -1.5707963267948966 1.5707963267948966 -1.5707963267948966 -1.5707963267948966 0.0 0.0 0.0 0.0 0.0 0.0 0.0 0.0 0.0 0.0 0.0 0.0 0.0 -1.1512442590619146e-26 -0.5442396572688689 -0.7673661111166267 -0.229354796466502 -1.3146049461972196e-11 0.0 -1.511583712148294e-25 -7.14586669994025 -7.145866699940251 -1.0424175499402515 -5.974879480466362e-11 0.0 1.5707963705062866 -1.570796314870016 1.5707963705062866 -1.570796314870016 -1.570796314870016 0.0 0.0 0.0 0.0 0.0 0.0 0.0 -1.151244268742903e-26 -0.5442396402359009 -0.7673661112785339 -0.22935479879379272 -1.3146049353263134e-11 0.0 -1.151244268742903e-26 -0.5442396402359009 -0.7673661112785339 -0.22935479879379272 -1.3146049353263134e-11 0.0 0.11235001404453844 -0.29859999244446533 0.3136499823461779 -6.833951314017032e-08 3.141592579952271 1.0644698078325815e-07 0.0 0.0 0.0 0.0 0.0 0.0 -3.4768822317838045e-07 9.240737915981754e-07 4.2531462932220256e-08 -6.147405241321462e-08 -2.8475664818871896e-08 -2.650151119779478e-15 0.11235000001566975 -0.298599999983202 0.31364999997695675 3.2217650591519574e-10 3.141592653589793 3.2217503880713943e-10 0.0 0.0 -0.0 0.0 0.0 0.0
153162.424 1.5707963267948961 -1.5707963267948966 1.5707963267948966 -1.5707963267948966 -1.5707963267948966 0.0 0.0 0.0 0.0 0.0 0.0 0.0 0.0 0.0 0.0 0.0 0.0 0.0 -1.1512442590619146e-26 -0.5442396572688689 -0.7673661111166267 -0.229354796466502 -1.3146049461972196e-11 0.0 -1.511583712148294e-25 -7.14586669994025 -7.145866699940251 -1.0424175499402515 -5.974879480466362e-11 0.0 1.5707963705062866 -1.570796314870016 1.5707963705062866 -1.570796314870016 -1.570796314870016 0.0 0.0 0.0 0.0 0.0 0.0 0.0 -1.151244268742903e-26 -0.5442396402359009 -0.7673661112785339 -0.22935479879379272 -1.3146049353263134e-11 0.0 -1.151244268742903e-26 -0.5442396402359009 -0.7673661112785339 -0.22935479879379272 -1.3146049353263134e-11 0.0 0.11235001404453844 -0.29859999244446533 0.3136499823461779 -6.833951314017032e-08 3.141592579952271 1.0644698078325815e-07 0.0 0.0 0.0 0.0 0.0 0.0 -3.4768822317838045e-07 9.240737915981754e-07 4.2531462932220256e-08 -6.147405241321462e-08 -2.8475664818871896e-08 -2.650151119779478e-15 0.11235000001566975 -0.298599999983202 0.31364999997695675 3.2217650591519574e-10 3.141592653589793 3.2217503880713943e-10 0.0 0.0 -0.0 0.0 0.0 0.0
153162.432 1.5707963267948961 -1.5707963267948966 1.5707963267948966 -1.5707963267948966 -1.5707963267948966 0.0 0.0 0.0 0.0 0.0 0.0 0.0 0.0 0.0 0.0 0.0 0.0 0.0 -1.1512442590619146e-26 -0.5442396572688689 -0.7673661111166267 -0.229354796466502 -1.3146049461972196e-11 0.0 -1.511583712148294e-25 -7.14586669994025 -7.145866699940251 -1.0424175499402515 -5.974879480466362e-11 0.0 1.5707963705062866 -1.570796314870016 1.5707963705062866 -1.570796314870016 -1.570796314870016 0.0 0.0 0.0 0.0 0.0 0.0 0.0 -1.151244268742903e-26 -0.5442396402359009 -0.7673661112785339 -0.22935479879379272 -1.3146049353263134e-11 0.0 -1.151244268742903e-26 -0.5442396402359009 -0.7673661112785339 -0.22935479879379272 -1.3146049353263134e-11 0.0 0.11235001404453844 -0.29859999244446533 0.3136499823461779 -6.833951314017032e-08 3.141592579952271 1.0644698078325815e-07 0.0 0.0 0.0 0.0 0.0 0.0 -3.4768822317838045e-07 9.240737915981754e-07 4.2531462932220256e-08 -6.147405241321462e-08 -2.8475664818871896e-08 -2.650151119779478e-15 0.11235000001566975 -0.298599999983202 0.31364999997695675 3.2217650591519574e-10 3.141592653589793 3.2217503880713943e-10 0.0 0.0 -0.0 0.0 0.0 0.0
153162.44 1.5707963267948961 -1.5707963267948966 1.5707963267948966 -1.5707963267948966 -1.5707963267948966 0.0 0.0 0.0 0.0 0.0 0.0 0.0 0.0 0.0 0.0 0.0 0.0 0.0 -1.1512442590619146e-26 -0.5442396572688689 -0.7673661111166267 -0.229354796466502 -1.3146049461972196e-11 0.0 -1.511583712148294e-25 -7.14586669994025 -7.145866699940251 -1.0424175499402515 -5.974879480466362e-11 0.0 1.5707963705062866 -1.570796314870016 1.5707963705062866 -1.570796314870016 -1.570796314870016 0.0 0.0 0.0 0.0 0.0 0.0 0.0 -1.151244268742903e-26 -0.5442396402359009 -0.7673661112785339 -0.22935479879379272 -1.3146049353263134e-11 0.0 -1.151244268742903e-26 -0.5442396402359009 -0.7673661112785339 -0.22935479879379272 -1.3146049353263134e-11 0.0 0.11235001404453844 -0.29859999244446533 0.3136499823461779 -6.833951314017032e-08 3.141592579952271 1.0644698078325815e-07 0.0 0.0 0.0 0.0 0.0 0.0 -3.4768822317838045e-07 9.240737915981754e-07 4.2531462932220256e-08 -6.147405241321462e-08 -2.8475664818871896e-08 -2.650151119779478e-15 0.11235000001566975 -0.298599999983202 0.31364999997695675 3.2217650591519574e-10 3.141592653589793 3.2217503880713943e-10 0.0 0.0 -0.0 0.0 0.0 0.0
153162.448 1.5707963267948961 -1.5707963267948966 1.5707963267948966 -1.5707963267948966 -1.5707963267948966 0.0 0.0 0.0 0.0 0.0 0.0 0.0 0.0 0.0 0.0 0.0 0.0 0.0 -1.1512442590619146e-26 -0.5442396572688689 -0.7673661111166267 -0.229354796466502 -1.3146049461972196e-11 0.0 -1.511583712148294e-25 -7.14586669994025 -7.145866699940251 -1.0424175499402515 -5.974879480466362e-11 0.0 1.5707963705062866 -1.570796314870016 1.5707963705062866 -1.570796314870016 -1.570796314870016 0.0 0.0 0.0 0.0 0.0 0.0 0.0 -1.151244268742903e-26 -0.5442396402359009 -0.7673661112785339 -0.22935479879379272 -1.3146049353263134e-11 0.0 -1.151244268742903e-26 -0.5442396402359009 -0.7673661112785339 -0.22935479879379272 -1.3146049353263134e-11 0.0 0.11235001404453844 -0.29859999244446533 0.3136499823461779 -6.833951314017032e-08 3.141592579952271 1.0644698078325815e-07 0.0 0.0 0.0 0.0 0.0 0.0 -3.4768822317838045e-07 9.240737915981754e-07 4.2531462932220256e-08 -6.147405241321462e-08 -2.8475664818871896e-08 -2.650151119779478e-15 0.11235000001566975 -0.298599999983202 0.31364999997695675 3.2217650591519574e-10 3.141592653589793 3.2217503880713943e-10 0.0 0.0 -0.0 0.0 0.0 0.0
153162.456 1.5707963267948961 -1.5707963267948966 1.5707963267948966 -1.5707963267948966 -1.5707963267948966 0.0 0.0 0.0 0.0 0.0 0.0 0.0 0.0 0.0 0.0 0.0 0.0 0.0 -1.1512442590619146e-26 -0.5442396572688689 -0.7673661111166267 -0.229354796466502 -1.3146049461972196e-11 0.0 -1.511583712148294e-25 -7.14586669994025 -7.145866699940251 -1.0424175499402515 -5.974879480466362e-11 0.0 1.5707963705062866 -1.570796314870016 1.5707963705062866 -1.570796314870016 -1.570796314870016 0.0 0.0 0.0 0.0 0.0 0.0 0.0 -1.151244268742903e-26 -0.5442396402359009 -0.7673661112785339 -0.22935479879379272 -1.3146049353263134e-11 0.0 -1.151244268742903e-26 -0.5442396402359009 -0.7673661112785339 -0.22935479879379272 -1.3146049353263134e-11 0.0 0.11235001404453844 -0.29859999244446533 0.3136499823461779 -6.833951314017032e-08 3.141592579952271 1.0644698078325815e-07 0.0 0.0 0.0 0.0 0.0 0.0 -3.4768822317838045e-07 9.240737915981754e-07 4.2531462932220256e-08 -6.147405241321462e-08 -2.8475664818871896e-08 -2.650151119779478e-15 0.11235000001566975 -0.298599999983202 0.31364999997695675 3.2217650591519574e-10 3.141592653589793 3.2217503880713943e-10 0.0 0.0 -0.0 0.0 0.0 0.0
153162.464 1.5707963267948961 -1.5707963267948966 1.5707963267948966 -1.5707963267948966 -1.5707963267948966 0.0 0.0 0.0 0.0 0.0 0.0 0.0 0.0 0.0 0.0 0.0 0.0 0.0 -1.1512442590619146e-26 -0.5442396572688689 -0.7673661111166267 -0.229354796466502 -1.3146049461972196e-11 0.0 -1.511583712148294e-25 -7.14586669994025 -7.145866699940251 -1.0424175499402515 -5.974879480466362e-11 0.0 1.5707963705062866 -1.570796314870016 1.5707963705062866 -1.570796314870016 -1.570796314870016 0.0 0.0 0.0 0.0 0.0 0.0 0.0 -1.151244268742903e-26 -0.5442396402359009 -0.7673661112785339 -0.22935479879379272 -1.3146049353263134e-11 0.0 -1.151244268742903e-26 -0.5442396402359009 -0.7673661112785339 -0.22935479879379272 -1.3146049353263134e-11 0.0 0.11235001404453844 -0.29859999244446533 0.3136499823461779 -6.833951314017032e-08 3.141592579952271 1.0644698078325815e-07 0.0 0.0 0.0 0.0 0.0 0.0 -3.4768822317838045e-07 9.240737915981754e-07 4.2531462932220256e-08 -6.147405241321462e-08 -2.8475664818871896e-08 -2.650151119779478e-15 0.11235000001566975 -0.298599999983202 0.31364999997695675 3.2217650591519574e-10 3.141592653589793 3.2217503880713943e-10 0.0 0.0 -0.0 0.0 0.0 0.0
153162.47199999998 1.5707963267948961 -1.5707963267948966 1.5707963267948966 -1.5707963267948966 -1.5707963267948966 0.0 0.0 0.0 0.0 0.0 0.0 0.0 0.0 0.0 0.0 0.0 0.0 0.0 -1.1512442590619146e-26 -0.5442396572688689 -0.7673661111166267 -0.229354796466502 -1.3146049461972196e-11 0.0 -1.511583712148294e-25 -7.14586669994025 -7.145866699940251 -1.0424175499402515 -5.974879480466362e-11 0.0 1.5707963705062866 -1.570796314870016 1.5707963705062866 -1.570796314870016 -1.570796314870016 0.0 0.0 0.0 0.0 0.0 0.0 0.0 -1.151244268742903e-26 -0.5442396402359009 -0.7673661112785339 -0.22935479879379272 -1.3146049353263134e-11 0.0 -1.151244268742903e-26 -0.5442396402359009 -0.7673661112785339 -0.22935479879379272 -1.3146049353263134e-11 0.0 0.11235001404453844 -0.29859999244446533 0.3136499823461779 -6.833951314017032e-08 3.141592579952271 1.0644698078325815e-07 0.0 0.0 0.0 0.0 0.0 0.0 -3.4768822317838045e-07 9.240737915981754e-07 4.2531462932220256e-08 -6.147405241321462e-08 -2.8475664818871896e-08 -2.650151119779478e-15 0.11235000001566975 -0.298599999983202 0.31364999997695675 3.2217650591519574e-10 3.141592653589793 3.2217503880713943e-10 0.0 0.0 -0.0 0.0 0.0 0.0
153162.47999999998 1.5707963267948961 -1.5707963267948966 1.5707963267948966 -1.5707963267948966 -1.5707963267948966 0.0 0.0 0.0 0.0 0.0 0.0 0.0 0.0 0.0 0.0 0.0 0.0 0.0 -1.1512442590619146e-26 -0.5442396572688689 -0.7673661111166267 -0.229354796466502 -1.3146049461972196e-11 0.0 -1.511583712148294e-25 -7.14586669994025 -7.145866699940251 -1.0424175499402515 -5.974879480466362e-11 0.0 1.5707963705062866 -1.570796314870016 1.5707963705062866 -1.570796314870016 -1.570796314870016 0.0 0.0 0.0 0.0 0.0 0.0 0.0 -1.151244268742903e-26 -0.5442396402359009 -0.7673661112785339 -0.22935479879379272 -1.3146049353263134e-11 0.0 -1.151244268742903e-26 -0.5442396402359009 -0.7673661112785339 -0.22935479879379272 -1.3146049353263134e-11 0.0 0.11235001404453844 -0.29859999244446533 0.3136499823461779 -6.833951314017032e-08 3.141592579952271 1.0644698078325815e-07 0.0 0.0 0.0 0.0 0.0 0.0 -3.4768822317838045e-07 9.240737915981754e-07 4.2531462932220256e-08 -6.147405241321462e-08 -2.8475664818871896e-08 -2.650151119779478e-15 0.11235000001566975 -0.298599999983202 0.31364999997695675 3.2217650591519574e-10 3.141592653589793 3.2217503880713943e-10 0.0 0.0 -0.0 0.0 0.0 0.0
153162.48799999998 1.5707963267948961 -1.5707963267948966 1.5707963267948966 -1.5707963267948966 -1.5707963267948966 0.0 0.0 0.0 0.0 0.0 0.0 0.0 0.0 0.0 0.0 0.0 0.0 0.0 -1.1512442590619146e-26 -0.5442396572688689 -0.7673661111166267 -0.229354796466502 -1.3146049461972196e-11 0.0 -1.511583712148294e-25 -7.14586669994025 -7.145866699940251 -1.0424175499402515 -5.974879480466362e-11 0.0 1.5707963705062866 -1.570796314870016 1.5707963705062866 -1.570796314870016 -1.570796314870016 0.0 0.0 0.0 0.0 0.0 0.0 0.0 -1.151244268742903e-26 -0.5442396402359009 -0.7673661112785339 -0.22935479879379272 -1.3146049353263134e-11 0.0 -1.151244268742903e-26 -0.5442396402359009 -0.7673661112785339 -0.22935479879379272 -1.3146049353263134e-11 0.0 0.11235001404453844 -0.29859999244446533 0.3136499823461779 -6.833951314017032e-08 3.141592579952271 1.0644698078325815e-07 0.0 0.0 0.0 0.0 0.0 0.0 -3.4768822317838045e-07 9.240737915981754e-07 4.2531462932220256e-08 -6.147405241321462e-08 -2.8475664818871896e-08 -2.650151119779478e-15 0.11235000001566975 -0.298599999983202 0.31364999997695675 3.2217650591519574e-10 3.141592653589793 3.2217503880713943e-10 0.0 0.0 -0.0 0.0 0.0 0.0
153162.49599999998 1.5707963267948961 -1.5707963267948966 1.5707963267948966 -1.5707963267948966 -1.5707963267948966 0.0 0.0 0.0 0.0 0.0 0.0 0.0 0.0 0.0 0.0 0.0 0.0 0.0 -1.1512442590619146e-26 -0.5442396572688689 -0.7673661111166267 -0.229354796466502 -1.3146049461972196e-11 0.0 -1.511583712148294e-25 -7.14586669994025 -7.145866699940251 -1.0424175499402515 -5.974879480466362e-11 0.0 1.5707963705062866 -1.570796314870016 1.5707963705062866 -1.570796314870016 -1.570796314870016 0.0 0.0 0.0 0.0 0.0 0.0 0.0 -1.151244268742903e-26 -0.5442396402359009 -0.7673661112785339 -0.22935479879379272 -1.3146049353263134e-11 0.0 -1.151244268742903e-26 -0.5442396402359009 -0.7673661112785339 -0.22935479879379272 -1.3146049353263134e-11 0.0 0.11235001404453844 -0.29859999244446533 0.3136499823461779 -6.833951314017032e-08 3.141592579952271 1.0644698078325815e-07 0.0 0.0 0.0 0.0 0.0 0.0 -3.4768822317838045e-07 9.240737915981754e-07 4.2531462932220256e-08 -6.147405241321462e-08 -2.8475664818871896e-08 -2.650151119779478e-15 0.11235000001566975 -0.298599999983202 0.31364999997695675 3.2217650591519574e-10 3.141592653589793 3.2217503880713943e-10 0.0 0.0 -0.0 0.0 0.0 0.0
153162.504 1.5707963267948961 -1.5707963267948966 1.5707963267948966 -1.5707963267948966 -1.5707963267948966 0.0 0.0 0.0 0.0 0.0 0.0 0.0 0.0 0.0 0.0 0.0 0.0 0.0 -1.1512442590619146e-26 -0.5442396572688689 -0.7673661111166267 -0.229354796466502 -1.3146049461972196e-11 0.0 -1.511583712148294e-25 -7.14586669994025 -7.145866699940251 -1.0424175499402515 -5.974879480466362e-11 0.0 1.5707963705062866 -1.570796314870016 1.5707963705062866 -1.570796314870016 -1.570796314870016 0.0 0.0 0.0 0.0 0.0 0.0 0.0 -1.151244268742903e-26 -0.5442396402359009 -0.7673661112785339 -0.22935479879379272 -1.3146049353263134e-11 0.0 -1.151244268742903e-26 -0.5442396402359009 -0.7673661112785339 -0.22935479879379272 -1.3146049353263134e-11 0.0 0.11235001404453844 -0.29859999244446533 0.3136499823461779 -6.833951314017032e-08 3.141592579952271 1.0644698078325815e-07 0.0 0.0 0.0 0.0 0.0 0.0 -3.4768822317838045e-07 9.240737915981754e-07 4.2531462932220256e-08 -6.147405241321462e-08 -2.8475664818871896e-08 -2.650151119779478e-15 0.11235000001566975 -0.298599999983202 0.31364999997695675 3.2217650591519574e-10 3.141592653589793 3.2217503880713943e-10 0.0 0.0 -0.0 0.0 0.0 0.0
153162.512 1.5707963267948961 -1.5707963267948966 1.5707963267948966 -1.5707963267948966 -1.5707963267948966 0.0 0.0 0.0 0.0 0.0 0.0 0.0 0.0 0.0 0.0 0.0 0.0 0.0 -1.1512442590619146e-26 -0.5442396572688689 -0.7673661111166267 -0.229354796466502 -1.3146049461972196e-11 0.0 -1.511583712148294e-25 -7.14586669994025 -7.145866699940251 -1.0424175499402515 -5.974879480466362e-11 0.0 1.5707963705062866 -1.570796314870016 1.5707963705062866 -1.570796314870016 -1.570796314870016 0.0 0.0 0.0 0.0 0.0 0.0 0.0 -1.151244268742903e-26 -0.5442396402359009 -0.7673661112785339 -0.22935479879379272 -1.3146049353263134e-11 0.0 -1.151244268742903e-26 -0.5442396402359009 -0.7673661112785339 -0.22935479879379272 -1.3146049353263134e-11 0.0 0.11235001404453844 -0.29859999244446533 0.3136499823461779 -6.833951314017032e-08 3.141592579952271 1.0644698078325815e-07 0.0 0.0 0.0 0.0 0.0 0.0 -3.4768822317838045e-07 9.240737915981754e-07 4.2531462932220256e-08 -6.147405241321462e-08 -2.8475664818871896e-08 -2.650151119779478e-15 0.11235000001566975 -0.298599999983202 0.31364999997695675 3.2217650591519574e-10 3.141592653589793 3.2217503880713943e-10 0.0 0.0 -0.0 0.0 0.0 0.0
153162.52 1.5707963267948961 -1.5707963267948966 1.5707963267948966 -1.5707963267948966 -1.5707963267948966 0.0 0.0 0.0 0.0 0.0 0.0 0.0 0.0 0.0 0.0 0.0 0.0 0.0 -1.1512442590619146e-26 -0.5442396572688689 -0.7673661111166267 -0.229354796466502 -1.3146049461972196e-11 0.0 -1.511583712148294e-25 -7.14586669994025 -7.145866699940251 -1.0424175499402515 -5.974879480466362e-11 0.0 1.5707963705062866 -1.570796314870016 1.5707963705062866 -1.570796314870016 -1.570796314870016 0.0 0.0 0.0 0.0 0.0 0.0 0.0 -1.151244268742903e-26 -0.5442396402359009 -0.7673661112785339 -0.22935479879379272 -1.3146049353263134e-11 0.0 -1.151244268742903e-26 -0.5442396402359009 -0.7673661112785339 -0.22935479879379272 -1.3146049353263134e-11 0.0 0.11235001404453844 -0.29859999244446533 0.3136499823461779 -6.833951314017032e-08 3.141592579952271 1.0644698078325815e-07 0.0 0.0 0.0 0.0 0.0 0.0 -3.4768822317838045e-07 9.240737915981754e-07 4.2531462932220256e-08 -6.147405241321462e-08 -2.8475664818871896e-08 -2.650151119779478e-15 0.11235000001566975 -0.298599999983202 0.31364999997695675 3.2217650591519574e-10 3.141592653589793 3.2217503880713943e-10 0.0 0.0 -0.0 0.0 0.0 0.0
153162.528 1.5707963267948961 -1.5707963267948966 1.5707963267948966 -1.5707963267948966 -1.5707963267948966 0.0 0.0 0.0 0.0 0.0 0.0 0.0 0.0 0.0 0.0 0.0 0.0 0.0 -1.1512442590619146e-26 -0.5442396572688689 -0.7673661111166267 -0.229354796466502 -1.3146049461972196e-11 0.0 -1.511583712148294e-25 -7.14586669994025 -7.145866699940251 -1.0424175499402515 -5.974879480466362e-11 0.0 1.5707963705062866 -1.570796314870016 1.5707963705062866 -1.570796314870016 -1.570796314870016 0.0 0.0 0.0 0.0 0.0 0.0 0.0 -1.151244268742903e-26 -0.5442396402359009 -0.7673661112785339 -0.22935479879379272 -1.3146049353263134e-11 0.0 -1.151244268742903e-26 -0.5442396402359009 -0.7673661112785339 -0.22935479879379272 -1.3146049353263134e-11 0.0 0.11235001404453844 -0.29859999244446533 0.3136499823461779 -6.833951314017032e-08 3.141592579952271 1.0644698078325815e-07 0.0 0.0 0.0 0.0 0.0 0.0 -3.4768822317838045e-07 9.240737915981754e-07 4.2531462932220256e-08 -6.147405241321462e-08 -2.8475664818871896e-08 -2.650151119779478e-15 0.11235000001566975 -0.298599999983202 0.31364999997695675 3.2217650591519574e-10 3.141592653589793 3.2217503880713943e-10 0.0 0.0 -0.0 0.0 0.0 0.0
153162.536 1.5707963267948961 -1.5707963267948966 1.5707963267948966 -1.5707963267948966 -1.5707963267948966 0.0 0.0 0.0 0.0 0.0 0.0 0.0 0.0 0.0 0.0 0.0 0.0 0.0 -1.1512442590619146e-26 -0.5442396572688689 -0.7673661111166267 -0.229354796466502 -1.3146049461972196e-11 0.0 -1.511583712148294e-25 -7.14586669994025 -7.145866699940251 -1.0424175499402515 -5.974879480466362e-11 0.0 1.5707963705062866 -1.570796314870016 1.5707963705062866 -1.570796314870016 -1.570796314870016 0.0 0.0 0.0 0.0 0.0 0.0 0.0 -1.151244268742903e-26 -0.5442396402359009 -0.7673661112785339 -0.22935479879379272 -1.3146049353263134e-11 0.0 -1.151244268742903e-26 -0.5442396402359009 -0.7673661112785339 -0.22935479879379272 -1.3146049353263134e-11 0.0 0.11235001404453844 -0.29859999244446533 0.3136499823461779 -6.833951314017032e-08 3.141592579952271 1.0644698078325815e-07 0.0 0.0 0.0 0.0 0.0 0.0 -3.4768822317838045e-07 9.240737915981754e-07 4.2531462932220256e-08 -6.147405241321462e-08 -2.8475664818871896e-08 -2.650151119779478e-15 0.11235000001566975 -0.298599999983202 0.31364999997695675 3.2217650591519574e-10 3.141592653589793 3.2217503880713943e-10 0.0 0.0 -0.0 0.0 0.0 0.0
153162.544 1.5707963267948961 -1.5707963267948966 1.5707963267948966 -1.5707963267948966 -1.5707963267948966 0.0 0.0 0.0 0.0 0.0 0.0 0.0 0.0 0.0 0.0 0.0 0.0 0.0 -1.1512442590619146e-26 -0.5442396572688689 -0.7673661111166267 -0.229354796466502 -1.3146049461972196e-11 0.0 -1.511583712148294e-25 -7.14586669994025 -7.145866699940251 -1.0424175499402515 -5.974879480466362e-11 0.0 1.5707963705062866 -1.570796314870016 1.5707963705062866 -1.570796314870016 -1.570796314870016 0.0 0.0 0.0 0.0 0.0 0.0 0.0 -1.151244268742903e-26 -0.5442396402359009 -0.7673661112785339 -0.22935479879379272 -1.3146049353263134e-11 0.0 -1.151244268742903e-26 -0.5442396402359009 -0.7673661112785339 -0.22935479879379272 -1.3146049353263134e-11 0.0 0.11235001404453844 -0.29859999244446533 0.3136499823461779 -6.833951314017032e-08 3.141592579952271 1.0644698078325815e-07 0.0 0.0 0.0 0.0 0.0 0.0 -3.4768822317838045e-07 9.240737915981754e-07 4.2531462932220256e-08 -6.147405241321462e-08 -2.8475664818871896e-08 -2.650151119779478e-15 0.11235000001566975 -0.298599999983202 0.31364999997695675 3.2217650591519574e-10 3.141592653589793 3.2217503880713943e-10 0.0 0.0 -0.0 0.0 0.0 0.0
153162.552 1.5707963267948961 -1.5707963267948966 1.5707963267948966 -1.5707963267948966 -1.5707963267948966 0.0 0.0 0.0 0.0 0.0 0.0 0.0 0.0 0.0 0.0 0.0 0.0 0.0 -1.1512442590619146e-26 -0.5442396572688689 -0.7673661111166267 -0.229354796466502 -1.3146049461972196e-11 0.0 -1.511583712148294e-25 -7.14586669994025 -7.145866699940251 -1.0424175499402515 -5.974879480466362e-11 0.0 1.5707963705062866 -1.570796314870016 1.5707963705062866 -1.570796314870016 -1.570796314870016 0.0 0.0 0.0 0.0 0.0 0.0 0.0 -1.151244268742903e-26 -0.5442396402359009 -0.7673661112785339 -0.22935479879379272 -1.3146049353263134e-11 0.0 -1.151244268742903e-26 -0.5442396402359009 -0.7673661112785339 -0.22935479879379272 -1.3146049353263134e-11 0.0 0.11235001404453844 -0.29859999244446533 0.3136499823461779 -6.833951314017032e-08 3.141592579952271 1.0644698078325815e-07 0.0 0.0 0.0 0.0 0.0 0.0 -3.4768822317838045e-07 9.240737915981754e-07 4.2531462932220256e-08 -6.147405241321462e-08 -2.8475664818871896e-08 -2.650151119779478e-15 0.11235000001566975 -0.298599999983202 0.31364999997695675 3.2217650591519574e-10 3.141592653589793 3.2217503880713943e-10 0.0 0.0 -0.0 0.0 0.0 0.0
153162.56 1.5707963267948961 -1.5707963267948966 1.5707963267948966 -1.5707963267948966 -1.5707963267948966 0.0 0.0 0.0 0.0 0.0 0.0 0.0 0.0 0.0 0.0 0.0 0.0 0.0 -1.1512442590619146e-26 -0.5442396572688689 -0.7673661111166267 -0.229354796466502 -1.3146049461972196e-11 0.0 -1.511583712148294e-25 -7.14586669994025 -7.145866699940251 -1.0424175499402515 -5.974879480466362e-11 0.0 1.5707963705062866 -1.570796314870016 1.5707963705062866 -1.570796314870016 -1.570796314870016 0.0 0.0 0.0 0.0 0.0 0.0 0.0 -1.151244268742903e-26 -0.5442396402359009 -0.7673661112785339 -0.22935479879379272 -1.3146049353263134e-11 0.0 -1.151244268742903e-26 -0.5442396402359009 -0.7673661112785339 -0.22935479879379272 -1.3146049353263134e-11 0.0 0.11235001404453844 -0.29859999244446533 0.3136499823461779 -6.833951314017032e-08 3.141592579952271 1.0644698078325815e-07 0.0 0.0 0.0 0.0 0.0 0.0 -3.4768822317838045e-07 9.240737915981754e-07 4.2531462932220256e-08 -6.147405241321462e-08 -2.8475664818871896e-08 -2.650151119779478e-15 0.11235000001566975 -0.298599999983202 0.31364999997695675 3.2217650591519574e-10 3.141592653589793 3.2217503880713943e-10 0.0 0.0 -0.0 0.0 0.0 0.0
153162.568 1.5707963267948961 -1.5707963267948966 1.5707963267948966 -1.5707963267948966 -1.5707963267948966 0.0 0.0 0.0 0.0 0.0 0.0 0.0 0.0 0.0 0.0 0.0 0.0 0.0 -1.1512442590619146e-26 -0.5442396572688689 -0.7673661111166267 -0.229354796466502 -1.3146049461972196e-11 0.0 -1.511583712148294e-25 -7.14586669994025 -7.145866699940251 -1.0424175499402515 -5.974879480466362e-11 0.0 1.5707963705062866 -1.570796314870016 1.5707963705062866 -1.570796314870016 -1.570796314870016 0.0 0.0 0.0 0.0 0.0 0.0 0.0 -1.151244268742903e-26 -0.5442396402359009 -0.7673661112785339 -0.22935479879379272 -1.3146049353263134e-11 0.0 -1.151244268742903e-26 -0.5442396402359009 -0.7673661112785339 -0.22935479879379272 -1.3146049353263134e-11 0.0 0.11235001404453844 -0.29859999244446533 0.3136499823461779 -6.833951314017032e-08 3.141592579952271 1.0644698078325815e-07 0.0 0.0 0.0 0.0 0.0 0.0 -3.4768822317838045e-07 9.240737915981754e-07 4.2531462932220256e-08 -6.147405241321462e-08 -2.8475664818871896e-08 -2.650151119779478e-15 0.11235000001566975 -0.298599999983202 0.31364999997695675 3.2217650591519574e-10 3.141592653589793 3.2217503880713943e-10 0.0 0.0 -0.0 0.0 0.0 0.0
153162.576 1.5707963267948961 -1.5707963267948966 1.5707963267948966 -1.5707963267948966 -1.5707963267948966 0.0 0.0 0.0 0.0 0.0 0.0 0.0 0.0 0.0 0.0 0.0 0.0 0.0 -1.1512442590619146e-26 -0.5442396572688689 -0.7673661111166267 -0.229354796466502 -1.3146049461972196e-11 0.0 -1.511583712148294e-25 -7.14586669994025 -7.145866699940251 -1.0424175499402515 -5.974879480466362e-11 0.0 1.5707963705062866 -1.570796314870016 1.5707963705062866 -1.570796314870016 -1.570796314870016 0.0 0.0 0.0 0.0 0.0 0.0 0.0 -1.151244268742903e-26 -0.5442396402359009 -0.7673661112785339 -0.22935479879379272 -1.3146049353263134e-11 0.0 -1.151244268742903e-26 -0.5442396402359009 -0.7673661112785339 -0.22935479879379272 -1.3146049353263134e-11 0.0 0.11235001404453844 -0.29859999244446533 0.3136499823461779 -6.833951314017032e-08 3.141592579952271 1.0644698078325815e-07 0.0 0.0 0.0 0.0 0.0 0.0 -3.4768822317838045e-07 9.240737915981754e-07 4.2531462932220256e-08 -6.147405241321462e-08 -2.8475664818871896e-08 -2.650151119779478e-15 0.11235000001566975 -0.298599999983202 0.31364999997695675 3.2217650591519574e-10 3.141592653589793 3.2217503880713943e-10 0.0 0.0 -0.0 0.0 0.0 0.0
153162.584 1.5707963267948961 -1.5707963267948966 1.5707963267948966 -1.5707963267948966 -1.5707963267948966 0.0 0.0 0.0 0.0 0.0 0.0 0.0 0.0 0.0 0.0 0.0 0.0 0.0 -1.1512442590619146e-26 -0.5442396572688689 -0.7673661111166267 -0.229354796466502 -1.3146049461972196e-11 0.0 -1.511583712148294e-25 -7.14586669994025 -7.145866699940251 -1.0424175499402515 -5.974879480466362e-11 0.0 1.5707963705062866 -1.570796314870016 1.5707963705062866 -1.570796314870016 -1.570796314870016 0.0 0.0 0.0 0.0 0.0 0.0 0.0 -1.151244268742903e-26 -0.5442396402359009 -0.7673661112785339 -0.22935479879379272 -1.3146049353263134e-11 0.0 -1.151244268742903e-26 -0.5442396402359009 -0.7673661112785339 -0.22935479879379272 -1.3146049353263134e-11 0.0 0.11235001404453844 -0.29859999244446533 0.3136499823461779 -6.833951314017032e-08 3.141592579952271 1.0644698078325815e-07 0.0 0.0 0.0 0.0 0.0 0.0 -3.4768822317838045e-07 9.240737915981754e-07 4.2531462932220256e-08 -6.147405241321462e-08 -2.8475664818871896e-08 -2.650151119779478e-15 0.11235000001566975 -0.298599999983202 0.31364999997695675 3.2217650591519574e-10 3.141592653589793 3.2217503880713943e-10 0.0 0.0 -0.0 0.0 0.0 0.0
153162.592 1.5707963267948961 -1.5707963267948966 1.5707963267948966 -1.5707963267948966 -1.5707963267948966 0.0 0.0 0.0 0.0 0.0 0.0 0.0 0.0 0.0 0.0 0.0 0.0 0.0 -1.1512442590619146e-26 -0.5442396572688689 -0.7673661111166267 -0.229354796466502 -1.3146049461972196e-11 0.0 -1.511583712148294e-25 -7.14586669994025 -7.145866699940251 -1.0424175499402515 -5.974879480466362e-11 0.0 1.5707963705062866 -1.570796314870016 1.5707963705062866 -1.570796314870016 -1.570796314870016 0.0 0.0 0.0 0.0 0.0 0.0 0.0 -1.151244268742903e-26 -0.5442396402359009 -0.7673661112785339 -0.22935479879379272 -1.3146049353263134e-11 0.0 -1.151244268742903e-26 -0.5442396402359009 -0.7673661112785339 -0.22935479879379272 -1.3146049353263134e-11 0.0 0.11235001404453844 -0.29859999244446533 0.3136499823461779 -6.833951314017032e-08 3.141592579952271 1.0644698078325815e-07 0.0 0.0 0.0 0.0 0.0 0.0 -3.4768822317838045e-07 9.240737915981754e-07 4.2531462932220256e-08 -6.147405241321462e-08 -2.8475664818871896e-08 -2.650151119779478e-15 0.11235000001566975 -0.298599999983202 0.31364999997695675 3.2217650591519574e-10 3.141592653589793 3.2217503880713943e-10 0.0 0.0 -0.0 0.0 0.0 0.0
153162.6 1.5707963267948961 -1.5707963267948966 1.5707963267948966 -1.5707963267948966 -1.5707963267948966 0.0 0.0 0.0 0.0 0.0 0.0 0.0 0.0 0.0 0.0 0.0 0.0 0.0 -1.1512442590619146e-26 -0.5442396572688689 -0.7673661111166267 -0.229354796466502 -1.3146049461972196e-11 0.0 -1.511583712148294e-25 -7.14586669994025 -7.145866699940251 -1.0424175499402515 -5.974879480466362e-11 0.0 1.5707963705062866 -1.570796314870016 1.5707963705062866 -1.570796314870016 -1.570796314870016 0.0 0.0 0.0 0.0 0.0 0.0 0.0 -1.151244268742903e-26 -0.5442396402359009 -0.7673661112785339 -0.22935479879379272 -1.3146049353263134e-11 0.0 -1.151244268742903e-26 -0.5442396402359009 -0.7673661112785339 -0.22935479879379272 -1.3146049353263134e-11 0.0 0.11235001404453844 -0.29859999244446533 0.3136499823461779 -6.833951314017032e-08 3.141592579952271 1.0644698078325815e-07 0.0 0.0 0.0 0.0 0.0 0.0 -3.4768822317838045e-07 9.240737915981754e-07 4.2531462932220256e-08 -6.147405241321462e-08 -2.8475664818871896e-08 -2.650151119779478e-15 0.11235000001566975 -0.298599999983202 0.31364999997695675 3.2217650591519574e-10 3.141592653589793 3.2217503880713943e-10 0.0 0.0 -0.0 0.0 0.0 0.0
153162.608 1.5707963267948961 -1.5707963267948966 1.5707963267948966 -1.5707963267948966 -1.5707963267948966 0.0 0.0 0.0 0.0 0.0 0.0 0.0 0.0 0.0 0.0 0.0 0.0 0.0 -1.1512442590619146e-26 -0.5442396572688689 -0.7673661111166267 -0.229354796466502 -1.3146049461972196e-11 0.0 -1.511583712148294e-25 -7.14586669994025 -7.145866699940251 -1.0424175499402515 -5.974879480466362e-11 0.0 1.5707963705062866 -1.570796314870016 1.5707963705062866 -1.570796314870016 -1.570796314870016 0.0 0.0 0.0 0.0 0.0 0.0 0.0 -1.151244268742903e-26 -0.5442396402359009 -0.7673661112785339 -0.22935479879379272 -1.3146049353263134e-11 0.0 -1.151244268742903e-26 -0.5442396402359009 -0.7673661112785339 -0.22935479879379272 -1.3146049353263134e-11 0.0 0.11235001404453844 -0.29859999244446533 0.3136499823461779 -6.833951314017032e-08 3.141592579952271 1.0644698078325815e-07 0.0 0.0 0.0 0.0 0.0 0.0 -3.4768822317838045e-07 9.240737915981754e-07 4.2531462932220256e-08 -6.147405241321462e-08 -2.8475664818871896e-08 -2.650151119779478e-15 0.11235000001566975 -0.298599999983202 0.31364999997695675 3.2217650591519574e-10 3.141592653589793 3.2217503880713943e-10 0.0 0.0 -0.0 0.0 0.0 0.0
153162.61599999998 1.5707963267948961 -1.5707963267948966 1.5707963267948966 -1.5707963267948966 -1.5707963267948966 0.0 0.0 0.0 0.0 0.0 0.0 0.0 0.0 0.0 0.0 0.0 0.0 0.0 -1.1512442590619146e-26 -0.5442396572688689 -0.7673661111166267 -0.229354796466502 -1.3146049461972196e-11 0.0 -1.511583712148294e-25 -7.14586669994025 -7.145866699940251 -1.0424175499402515 -5.974879480466362e-11 0.0 1.5707963705062866 -1.570796314870016 1.5707963705062866 -1.570796314870016 -1.570796314870016 0.0 0.0 0.0 0.0 0.0 0.0 0.0 -1.151244268742903e-26 -0.5442396402359009 -0.7673661112785339 -0.22935479879379272 -1.3146049353263134e-11 0.0 -1.151244268742903e-26 -0.5442396402359009 -0.7673661112785339 -0.22935479879379272 -1.3146049353263134e-11 0.0 0.11235001404453844 -0.29859999244446533 0.3136499823461779 -6.833951314017032e-08 3.141592579952271 1.0644698078325815e-07 0.0 0.0 0.0 0.0 0.0 0.0 -3.4768822317838045e-07 9.240737915981754e-07 4.2531462932220256e-08 -6.147405241321462e-08 -2.8475664818871896e-08 -2.650151119779478e-15 0.11235000001566975 -0.298599999983202 0.31364999997695675 3.2217650591519574e-10 3.141592653589793 3.2217503880713943e-10 0.0 0.0 -0.0 0.0 0.0 0.0
153162.62399999998 1.5707963267948961 -1.5707963267948966 1.5707963267948966 -1.5707963267948966 -1.5707963267948966 0.0 0.0 0.0 0.0 0.0 0.0 0.0 0.0 0.0 0.0 0.0 0.0 0.0 -1.1512442590619146e-26 -0.5442396572688689 -0.7673661111166267 -0.229354796466502 -1.3146049461972196e-11 0.0 -1.511583712148294e-25 -7.14586669994025 -7.145866699940251 -1.0424175499402515 -5.974879480466362e-11 0.0 1.5707963705062866 -1.570796314870016 1.5707963705062866 -1.570796314870016 -1.570796314870016 0.0 0.0 0.0 0.0 0.0 0.0 0.0 -1.151244268742903e-26 -0.5442396402359009 -0.7673661112785339 -0.22935479879379272 -1.3146049353263134e-11 0.0 -1.151244268742903e-26 -0.5442396402359009 -0.7673661112785339 -0.22935479879379272 -1.3146049353263134e-11 0.0 0.11235001404453844 -0.29859999244446533 0.3136499823461779 -6.833951314017032e-08 3.141592579952271 1.0644698078325815e-07 0.0 0.0 0.0 0.0 0.0 0.0 -3.4768822317838045e-07 9.240737915981754e-07 4.2531462932220256e-08 -6.147405241321462e-08 -2.8475664818871896e-08 -2.650151119779478e-15 0.11235000001566975 -0.298599999983202 0.31364999997695675 3.2217650591519574e-10 3.141592653589793 3.2217503880713943e-10 0.0 0.0 -0.0 0.0 0.0 0.0
153162.63199999998 1.5707963267948961 -1.5707963267948966 1.5707963267948966 -1.5707963267948966 -1.5707963267948966 0.0 0.0 0.0 0.0 0.0 0.0 0.0 0.0 0.0 0.0 0.0 0.0 0.0 -1.1512442590619146e-26 -0.5442396572688689 -0.7673661111166267 -0.229354796466502 -1.3146049461972196e-11 0.0 -1.511583712148294e-25 -7.14586669994025 -7.145866699940251 -1.0424175499402515 -5.974879480466362e-11 0.0 1.5707963705062866 -1.570796314870016 1.5707963705062866 -1.570796314870016 -1.570796314870016 0.0 0.0 0.0 0.0 0.0 0.0 0.0 -1.151244268742903e-26 -0.5442396402359009 -0.7673661112785339 -0.22935479879379272 -1.3146049353263134e-11 0.0 -1.151244268742903e-26 -0.5442396402359009 -0.7673661112785339 -0.22935479879379272 -1.3146049353263134e-11 0.0 0.11235001404453844 -0.29859999244446533 0.3136499823461779 -6.833951314017032e-08 3.141592579952271 1.0644698078325815e-07 0.0 0.0 0.0 0.0 0.0 0.0 -3.4768822317838045e-07 9.240737915981754e-07 4.2531462932220256e-08 -6.147405241321462e-08 -2.8475664818871896e-08 -2.650151119779478e-15 0.11235000001566975 -0.298599999983202 0.31364999997695675 3.2217650591519574e-10 3.141592653589793 3.2217503880713943e-10 0.0 0.0 -0.0 0.0 0.0 0.0
153162.63999999998 1.5707963267948961 -1.5707963267948966 1.5707963267948966 -1.5707963267948966 -1.5707963267948966 0.0 0.0 0.0 0.0 0.0 0.0 0.0 0.0 0.0 0.0 0.0 0.0 0.0 -1.1512442590619146e-26 -0.5442396572688689 -0.7673661111166267 -0.229354796466502 -1.3146049461972196e-11 0.0 -1.511583712148294e-25 -7.14586669994025 -7.145866699940251 -1.0424175499402515 -5.974879480466362e-11 0.0 1.5707963705062866 -1.570796314870016 1.5707963705062866 -1.570796314870016 -1.570796314870016 0.0 0.0 0.0 0.0 0.0 0.0 0.0 -1.151244268742903e-26 -0.5442396402359009 -0.7673661112785339 -0.22935479879379272 -1.3146049353263134e-11 0.0 -1.151244268742903e-26 -0.5442396402359009 -0.7673661112785339 -0.22935479879379272 -1.3146049353263134e-11 0.0 0.11235001404453844 -0.29859999244446533 0.3136499823461779 -6.833951314017032e-08 3.141592579952271 1.0644698078325815e-07 0.0 0.0 0.0 0.0 0.0 0.0 -3.4768822317838045e-07 9.240737915981754e-07 4.2531462932220256e-08 -6.147405241321462e-08 -2.8475664818871896e-08 -2.650151119779478e-15 0.11235000001566975 -0.298599999983202 0.31364999997695675 3.2217650591519574e-10 3.141592653589793 3.2217503880713943e-10 0.0 0.0 -0.0 0.0 0.0 0.0
153162.648 1.5707963267948961 -1.5707963267948966 1.5707963267948966 -1.5707963267948966 -1.5707963267948966 0.0 0.0 0.0 0.0 0.0 0.0 0.0 0.0 0.0 0.0 0.0 0.0 0.0 -1.1512442590619146e-26 -0.5442396572688689 -0.7673661111166267 -0.229354796466502 -1.3146049461972196e-11 0.0 -1.511583712148294e-25 -7.14586669994025 -7.145866699940251 -1.0424175499402515 -5.974879480466362e-11 0.0 1.5707963705062866 -1.570796314870016 1.5707963705062866 -1.570796314870016 -1.570796314870016 0.0 0.0 0.0 0.0 0.0 0.0 0.0 -1.151244268742903e-26 -0.5442396402359009 -0.7673661112785339 -0.22935479879379272 -1.3146049353263134e-11 0.0 -1.151244268742903e-26 -0.5442396402359009 -0.7673661112785339 -0.22935479879379272 -1.3146049353263134e-11 0.0 0.11235001404453844 -0.29859999244446533 0.3136499823461779 -6.833951314017032e-08 3.141592579952271 1.0644698078325815e-07 0.0 0.0 0.0 0.0 0.0 0.0 -3.4768822317838045e-07 9.240737915981754e-07 4.2531462932220256e-08 -6.147405241321462e-08 -2.8475664818871896e-08 -2.650151119779478e-15 0.11235000001566975 -0.298599999983202 0.31364999997695675 3.2217650591519574e-10 3.141592653589793 3.2217503880713943e-10 0.0 0.0 -0.0 0.0 0.0 0.0
153162.656 1.5707963267948961 -1.5707963267948966 1.5707963267948966 -1.5707963267948966 -1.5707963267948966 0.0 0.0 0.0 0.0 0.0 0.0 0.0 0.0 0.0 0.0 0.0 0.0 0.0 -1.1512442590619146e-26 -0.5442396572688689 -0.7673661111166267 -0.229354796466502 -1.3146049461972196e-11 0.0 -1.511583712148294e-25 -7.14586669994025 -7.145866699940251 -1.0424175499402515 -5.974879480466362e-11 0.0 1.5707963705062866 -1.570796314870016 1.5707963705062866 -1.570796314870016 -1.570796314870016 0.0 0.0 0.0 0.0 0.0 0.0 0.0 -1.151244268742903e-26 -0.5442396402359009 -0.7673661112785339 -0.22935479879379272 -1.3146049353263134e-11 0.0 -1.151244268742903e-26 -0.5442396402359009 -0.7673661112785339 -0.22935479879379272 -1.3146049353263134e-11 0.0 0.11235001404453844 -0.29859999244446533 0.3136499823461779 -6.833951314017032e-08 3.141592579952271 1.0644698078325815e-07 0.0 0.0 0.0 0.0 0.0 0.0 -3.4768822317838045e-07 9.240737915981754e-07 4.2531462932220256e-08 -6.147405241321462e-08 -2.8475664818871896e-08 -2.650151119779478e-15 0.11235000001566975 -0.298599999983202 0.31364999997695675 3.2217650591519574e-10 3.141592653589793 3.2217503880713943e-10 0.0 0.0 -0.0 0.0 0.0 0.0
153162.664 1.5707963267948961 -1.5707963267948966 1.5707963267948966 -1.5707963267948966 -1.5707963267948966 0.0 0.0 0.0 0.0 0.0 0.0 0.0 0.0 0.0 0.0 0.0 0.0 0.0 -1.1512442590619146e-26 -0.5442396572688689 -0.7673661111166267 -0.229354796466502 -1.3146049461972196e-11 0.0 -1.511583712148294e-25 -7.14586669994025 -7.145866699940251 -1.0424175499402515 -5.974879480466362e-11 0.0 1.5707963705062866 -1.570796314870016 1.5707963705062866 -1.570796314870016 -1.570796314870016 0.0 0.0 0.0 0.0 0.0 0.0 0.0 -1.151244268742903e-26 -0.5442396402359009 -0.7673661112785339 -0.22935479879379272 -1.3146049353263134e-11 0.0 -1.151244268742903e-26 -0.5442396402359009 -0.7673661112785339 -0.22935479879379272 -1.3146049353263134e-11 0.0 0.11235001404453844 -0.29859999244446533 0.3136499823461779 -6.833951314017032e-08 3.141592579952271 1.0644698078325815e-07 0.0 0.0 0.0 0.0 0.0 0.0 -3.4768822317838045e-07 9.240737915981754e-07 4.2531462932220256e-08 -6.147405241321462e-08 -2.8475664818871896e-08 -2.650151119779478e-15 0.11235000001566975 -0.298599999983202 0.31364999997695675 3.2217650591519574e-10 3.141592653589793 3.2217503880713943e-10 0.0 0.0 -0.0 0.0 0.0 0.0
153162.672 1.5707963267948961 -1.5707963267948966 1.5707963267948966 -1.5707963267948966 -1.5707963267948966 0.0 0.0 0.0 0.0 0.0 0.0 0.0 0.0 0.0 0.0 0.0 0.0 0.0 -1.1512442590619146e-26 -0.5442396572688689 -0.7673661111166267 -0.229354796466502 -1.3146049461972196e-11 0.0 -1.511583712148294e-25 -7.14586669994025 -7.145866699940251 -1.0424175499402515 -5.974879480466362e-11 0.0 1.5707963705062866 -1.570796314870016 1.5707963705062866 -1.570796314870016 -1.570796314870016 0.0 0.0 0.0 0.0 0.0 0.0 0.0 -1.151244268742903e-26 -0.5442396402359009 -0.7673661112785339 -0.22935479879379272 -1.3146049353263134e-11 0.0 -1.151244268742903e-26 -0.5442396402359009 -0.7673661112785339 -0.22935479879379272 -1.3146049353263134e-11 0.0 0.11235001404453844 -0.29859999244446533 0.3136499823461779 -6.833951314017032e-08 3.141592579952271 1.0644698078325815e-07 0.0 0.0 0.0 0.0 0.0 0.0 -3.4768822317838045e-07 9.240737915981754e-07 4.2531462932220256e-08 -6.147405241321462e-08 -2.8475664818871896e-08 -2.650151119779478e-15 0.11235000001566975 -0.298599999983202 0.31364999997695675 3.2217650591519574e-10 3.141592653589793 3.2217503880713943e-10 0.0 0.0 -0.0 0.0 0.0 0.0
153162.68 1.5707963267948961 -1.5707963267948966 1.5707963267948966 -1.5707963267948966 -1.5707963267948966 0.0 0.0 0.0 0.0 0.0 0.0 0.0 0.0 0.0 0.0 0.0 0.0 0.0 -1.1512442590619146e-26 -0.5442396572688689 -0.7673661111166267 -0.229354796466502 -1.3146049461972196e-11 0.0 -1.511583712148294e-25 -7.14586669994025 -7.145866699940251 -1.0424175499402515 -5.974879480466362e-11 0.0 1.5707963705062866 -1.570796314870016 1.5707963705062866 -1.570796314870016 -1.570796314870016 0.0 0.0 0.0 0.0 0.0 0.0 0.0 -1.151244268742903e-26 -0.5442396402359009 -0.7673661112785339 -0.22935479879379272 -1.3146049353263134e-11 0.0 -1.151244268742903e-26 -0.5442396402359009 -0.7673661112785339 -0.22935479879379272 -1.3146049353263134e-11 0.0 0.11235001404453844 -0.29859999244446533 0.3136499823461779 -6.833951314017032e-08 3.141592579952271 1.0644698078325815e-07 0.0 0.0 0.0 0.0 0.0 0.0 -3.4768822317838045e-07 9.240737915981754e-07 4.2531462932220256e-08 -6.147405241321462e-08 -2.8475664818871896e-08 -2.650151119779478e-15 0.11235000001566975 -0.298599999983202 0.31364999997695675 3.2217650591519574e-10 3.141592653589793 3.2217503880713943e-10 0.0 0.0 -0.0 0.0 0.0 0.0
153162.688 1.5707963267948961 -1.5707963267948966 1.5707963267948966 -1.5707963267948966 -1.5707963267948966 0.0 0.0 0.0 0.0 0.0 0.0 0.0 0.0 0.0 0.0 0.0 0.0 0.0 -1.1512442590619146e-26 -0.5442396572688689 -0.7673661111166267 -0.229354796466502 -1.3146049461972196e-11 0.0 -1.511583712148294e-25 -7.14586669994025 -7.145866699940251 -1.0424175499402515 -5.974879480466362e-11 0.0 1.5707963705062866 -1.570796314870016 1.5707963705062866 -1.570796314870016 -1.570796314870016 0.0 0.0 0.0 0.0 0.0 0.0 0.0 -1.151244268742903e-26 -0.5442396402359009 -0.7673661112785339 -0.22935479879379272 -1.3146049353263134e-11 0.0 -1.151244268742903e-26 -0.5442396402359009 -0.7673661112785339 -0.22935479879379272 -1.3146049353263134e-11 0.0 0.11235001404453844 -0.29859999244446533 0.3136499823461779 -6.833951314017032e-08 3.141592579952271 1.0644698078325815e-07 0.0 0.0 0.0 0.0 0.0 0.0 -3.4768822317838045e-07 9.240737915981754e-07 4.2531462932220256e-08 -6.147405241321462e-08 -2.8475664818871896e-08 -2.650151119779478e-15 0.11235000001566975 -0.298599999983202 0.31364999997695675 3.2217650591519574e-10 3.141592653589793 3.2217503880713943e-10 0.0 0.0 -0.0 0.0 0.0 0.0
153162.696 1.5707963267948961 -1.5707963267948966 1.5707963267948966 -1.5707963267948966 -1.5707963267948966 0.0 0.0 0.0 0.0 0.0 0.0 0.0 0.0 0.0 0.0 0.0 0.0 0.0 -1.1512442590619146e-26 -0.5442396572688689 -0.7673661111166267 -0.229354796466502 -1.3146049461972196e-11 0.0 -1.511583712148294e-25 -7.14586669994025 -7.145866699940251 -1.0424175499402515 -5.974879480466362e-11 0.0 1.5707963705062866 -1.570796314870016 1.5707963705062866 -1.570796314870016 -1.570796314870016 0.0 0.0 0.0 0.0 0.0 0.0 0.0 -1.151244268742903e-26 -0.5442396402359009 -0.7673661112785339 -0.22935479879379272 -1.3146049353263134e-11 0.0 -1.151244268742903e-26 -0.5442396402359009 -0.7673661112785339 -0.22935479879379272 -1.3146049353263134e-11 0.0 0.11235001404453844 -0.29859999244446533 0.3136499823461779 -6.833951314017032e-08 3.141592579952271 1.0644698078325815e-07 0.0 0.0 0.0 0.0 0.0 0.0 -3.4768822317838045e-07 9.240737915981754e-07 4.2531462932220256e-08 -6.147405241321462e-08 -2.8475664818871896e-08 -2.650151119779478e-15 0.11235000001566975 -0.298599999983202 0.31364999997695675 3.2217650591519574e-10 3.141592653589793 3.2217503880713943e-10 0.0 0.0 -0.0 0.0 0.0 0.0
153162.704 1.5707963267948961 -1.5707963267948966 1.5707963267948966 -1.5707963267948966 -1.5707963267948966 0.0 0.0 0.0 0.0 0.0 0.0 0.0 0.0 0.0 0.0 0.0 0.0 0.0 -1.1512442590619146e-26 -0.5442396572688689 -0.7673661111166267 -0.229354796466502 -1.3146049461972196e-11 0.0 -1.511583712148294e-25 -7.14586669994025 -7.145866699940251 -1.0424175499402515 -5.974879480466362e-11 0.0 1.5707963705062866 -1.570796314870016 1.5707963705062866 -1.570796314870016 -1.570796314870016 0.0 0.0 0.0 0.0 0.0 0.0 0.0 -1.151244268742903e-26 -0.5442396402359009 -0.7673661112785339 -0.22935479879379272 -1.3146049353263134e-11 0.0 -1.151244268742903e-26 -0.5442396402359009 -0.7673661112785339 -0.22935479879379272 -1.3146049353263134e-11 0.0 0.11235001404453844 -0.29859999244446533 0.3136499823461779 -6.833951314017032e-08 3.141592579952271 1.0644698078325815e-07 0.0 0.0 0.0 0.0 0.0 0.0 -3.4768822317838045e-07 9.240737915981754e-07 4.2531462932220256e-08 -6.147405241321462e-08 -2.8475664818871896e-08 -2.650151119779478e-15 0.11235000001566975 -0.298599999983202 0.31364999997695675 3.2217650591519574e-10 3.141592653589793 3.2217503880713943e-10 0.0 0.0 -0.0 0.0 0.0 0.0
153162.712 1.5707963267948961 -1.5707963267948966 1.5707963267948966 -1.5707963267948966 -1.5707963267948966 0.0 0.0 0.0 0.0 0.0 0.0 0.0 0.0 0.0 0.0 0.0 0.0 0.0 -1.1512442590619146e-26 -0.5442396572688689 -0.7673661111166267 -0.229354796466502 -1.3146049461972196e-11 0.0 -1.511583712148294e-25 -7.14586669994025 -7.145866699940251 -1.0424175499402515 -5.974879480466362e-11 0.0 1.5707963705062866 -1.570796314870016 1.5707963705062866 -1.570796314870016 -1.570796314870016 0.0 0.0 0.0 0.0 0.0 0.0 0.0 -1.151244268742903e-26 -0.5442396402359009 -0.7673661112785339 -0.22935479879379272 -1.3146049353263134e-11 0.0 -1.151244268742903e-26 -0.5442396402359009 -0.7673661112785339 -0.22935479879379272 -1.3146049353263134e-11 0.0 0.11235001404453844 -0.29859999244446533 0.3136499823461779 -6.833951314017032e-08 3.141592579952271 1.0644698078325815e-07 0.0 0.0 0.0 0.0 0.0 0.0 -3.4768822317838045e-07 9.240737915981754e-07 4.2531462932220256e-08 -6.147405241321462e-08 -2.8475664818871896e-08 -2.650151119779478e-15 0.11235000001566975 -0.298599999983202 0.31364999997695675 3.2217650591519574e-10 3.141592653589793 3.2217503880713943e-10 0.0 0.0 -0.0 0.0 0.0 0.0
153162.72 1.5707963267948961 -1.5707963267948966 1.5707963267948966 -1.5707963267948966 -1.5707963267948966 0.0 0.0 0.0 0.0 0.0 0.0 0.0 0.0 0.0 0.0 0.0 0.0 0.0 -1.1512442590619146e-26 -0.5442396572688689 -0.7673661111166267 -0.229354796466502 -1.3146049461972196e-11 0.0 -1.511583712148294e-25 -7.14586669994025 -7.145866699940251 -1.0424175499402515 -5.974879480466362e-11 0.0 1.5707963705062866 -1.570796314870016 1.5707963705062866 -1.570796314870016 -1.570796314870016 0.0 0.0 0.0 0.0 0.0 0.0 0.0 -1.151244268742903e-26 -0.5442396402359009 -0.7673661112785339 -0.22935479879379272 -1.3146049353263134e-11 0.0 -1.151244268742903e-26 -0.5442396402359009 -0.7673661112785339 -0.22935479879379272 -1.3146049353263134e-11 0.0 0.11235001404453844 -0.29859999244446533 0.3136499823461779 -6.833951314017032e-08 3.141592579952271 1.0644698078325815e-07 0.0 0.0 0.0 0.0 0.0 0.0 -3.4768822317838045e-07 9.240737915981754e-07 4.2531462932220256e-08 -6.147405241321462e-08 -2.8475664818871896e-08 -2.650151119779478e-15 0.11235000001566975 -0.298599999983202 0.31364999997695675 3.2217650591519574e-10 3.141592653589793 3.2217503880713943e-10 0.0 0.0 -0.0 0.0 0.0 0.0
153162.728 1.5707963267948961 -1.5707963267948966 1.5707963267948966 -1.5707963267948966 -1.5707963267948966 0.0 0.0 0.0 0.0 0.0 0.0 0.0 0.0 0.0 0.0 0.0 0.0 0.0 -1.1512442590619146e-26 -0.5442396572688689 -0.7673661111166267 -0.229354796466502 -1.3146049461972196e-11 0.0 -1.511583712148294e-25 -7.14586669994025 -7.145866699940251 -1.0424175499402515 -5.974879480466362e-11 0.0 1.5707963705062866 -1.570796314870016 1.5707963705062866 -1.570796314870016 -1.570796314870016 0.0 0.0 0.0 0.0 0.0 0.0 0.0 -1.151244268742903e-26 -0.5442396402359009 -0.7673661112785339 -0.22935479879379272 -1.3146049353263134e-11 0.0 -1.151244268742903e-26 -0.5442396402359009 -0.7673661112785339 -0.22935479879379272 -1.3146049353263134e-11 0.0 0.11235001404453844 -0.29859999244446533 0.3136499823461779 -6.833951314017032e-08 3.141592579952271 1.0644698078325815e-07 0.0 0.0 0.0 0.0 0.0 0.0 -3.4768822317838045e-07 9.240737915981754e-07 4.2531462932220256e-08 -6.147405241321462e-08 -2.8475664818871896e-08 -2.650151119779478e-15 0.11235000001566975 -0.298599999983202 0.31364999997695675 3.2217650591519574e-10 3.141592653589793 3.2217503880713943e-10 0.0 0.0 -0.0 0.0 0.0 0.0
153162.736 1.5707963267948961 -1.5707963267948966 1.5707963267948966 -1.5707963267948966 -1.5707963267948966 0.0 0.0 0.0 0.0 0.0 0.0 0.0 0.0 0.0 0.0 0.0 0.0 0.0 -1.1512442590619146e-26 -0.5442396572688689 -0.7673661111166267 -0.229354796466502 -1.3146049461972196e-11 0.0 -1.511583712148294e-25 -7.14586669994025 -7.145866699940251 -1.0424175499402515 -5.974879480466362e-11 0.0 1.5707963705062866 -1.570796314870016 1.5707963705062866 -1.570796314870016 -1.570796314870016 0.0 0.0 0.0 0.0 0.0 0.0 0.0 -1.151244268742903e-26 -0.5442396402359009 -0.7673661112785339 -0.22935479879379272 -1.3146049353263134e-11 0.0 -1.151244268742903e-26 -0.5442396402359009 -0.7673661112785339 -0.22935479879379272 -1.3146049353263134e-11 0.0 0.11235001404453844 -0.29859999244446533 0.3136499823461779 -6.833951314017032e-08 3.141592579952271 1.0644698078325815e-07 0.0 0.0 0.0 0.0 0.0 0.0 -3.4768822317838045e-07 9.240737915981754e-07 4.2531462932220256e-08 -6.147405241321462e-08 -2.8475664818871896e-08 -2.650151119779478e-15 0.11235000001566975 -0.298599999983202 0.31364999997695675 3.2217650591519574e-10 3.141592653589793 3.2217503880713943e-10 0.0 0.0 -0.0 0.0 0.0 0.0
153162.744 1.5707963267948961 -1.5707963267948966 1.5707963267948966 -1.5707963267948966 -1.5707963267948966 0.0 0.0 0.0 0.0 0.0 0.0 0.0 0.0 0.0 0.0 0.0 0.0 0.0 -1.1512442590619146e-26 -0.5442396572688689 -0.7673661111166267 -0.229354796466502 -1.3146049461972196e-11 0.0 -1.511583712148294e-25 -7.14586669994025 -7.145866699940251 -1.0424175499402515 -5.974879480466362e-11 0.0 1.5707963705062866 -1.570796314870016 1.5707963705062866 -1.570796314870016 -1.570796314870016 0.0 0.0 0.0 0.0 0.0 0.0 0.0 -1.151244268742903e-26 -0.5442396402359009 -0.7673661112785339 -0.22935479879379272 -1.3146049353263134e-11 0.0 -1.151244268742903e-26 -0.5442396402359009 -0.7673661112785339 -0.22935479879379272 -1.3146049353263134e-11 0.0 0.11235001404453844 -0.29859999244446533 0.3136499823461779 -6.833951314017032e-08 3.141592579952271 1.0644698078325815e-07 0.0 0.0 0.0 0.0 0.0 0.0 -3.4768822317838045e-07 9.240737915981754e-07 4.2531462932220256e-08 -6.147405241321462e-08 -2.8475664818871896e-08 -2.650151119779478e-15 0.11235000001566975 -0.298599999983202 0.31364999997695675 3.2217650591519574e-10 3.141592653589793 3.2217503880713943e-10 0.0 0.0 -0.0 0.0 0.0 0.0
153162.75199999998 1.5707963267948961 -1.5707963267948966 1.5707963267948966 -1.5707963267948966 -1.5707963267948966 0.0 0.0 0.0 0.0 0.0 0.0 0.0 0.0 0.0 0.0 0.0 0.0 0.0 -1.1512442590619146e-26 -0.5442396572688689 -0.7673661111166267 -0.229354796466502 -1.3146049461972196e-11 0.0 -1.511583712148294e-25 -7.14586669994025 -7.145866699940251 -1.0424175499402515 -5.974879480466362e-11 0.0 1.5707963705062866 -1.570796314870016 1.5707963705062866 -1.570796314870016 -1.570796314870016 0.0 0.0 0.0 0.0 0.0 0.0 0.0 -1.151244268742903e-26 -0.5442396402359009 -0.7673661112785339 -0.22935479879379272 -1.3146049353263134e-11 0.0 -1.151244268742903e-26 -0.5442396402359009 -0.7673661112785339 -0.22935479879379272 -1.3146049353263134e-11 0.0 0.11235001404453844 -0.29859999244446533 0.3136499823461779 -6.833951314017032e-08 3.141592579952271 1.0644698078325815e-07 0.0 0.0 0.0 0.0 0.0 0.0 -3.4768822317838045e-07 9.240737915981754e-07 4.2531462932220256e-08 -6.147405241321462e-08 -2.8475664818871896e-08 -2.650151119779478e-15 0.11235000001566975 -0.298599999983202 0.31364999997695675 3.2217650591519574e-10 3.141592653589793 3.2217503880713943e-10 0.0 0.0 -0.0 0.0 0.0 0.0
153162.75999999998 1.5707963267948961 -1.5707963267948966 1.5707963267948966 -1.5707963267948966 -1.5707963267948966 0.0 0.0 0.0 0.0 0.0 0.0 0.0 0.0 0.0 0.0 0.0 0.0 0.0 -1.1512442590619146e-26 -0.5442396572688689 -0.7673661111166267 -0.229354796466502 -1.3146049461972196e-11 0.0 -1.511583712148294e-25 -7.14586669994025 -7.145866699940251 -1.0424175499402515 -5.974879480466362e-11 0.0 1.5707963705062866 -1.570796314870016 1.5707963705062866 -1.570796314870016 -1.570796314870016 0.0 0.0 0.0 0.0 0.0 0.0 0.0 -1.151244268742903e-26 -0.5442396402359009 -0.7673661112785339 -0.22935479879379272 -1.3146049353263134e-11 0.0 -1.151244268742903e-26 -0.5442396402359009 -0.7673661112785339 -0.22935479879379272 -1.3146049353263134e-11 0.0 0.11235001404453844 -0.29859999244446533 0.3136499823461779 -6.833951314017032e-08 3.141592579952271 1.0644698078325815e-07 0.0 0.0 0.0 0.0 0.0 0.0 -3.4768822317838045e-07 9.240737915981754e-07 4.2531462932220256e-08 -6.147405241321462e-08 -2.8475664818871896e-08 -2.650151119779478e-15 0.11235000001566975 -0.298599999983202 0.31364999997695675 3.2217650591519574e-10 3.141592653589793 3.2217503880713943e-10 0.0 0.0 -0.0 0.0 0.0 0.0
153162.76799999998 1.5707963267948961 -1.5707963267948966 1.5707963267948966 -1.5707963267948966 -1.5707963267948966 0.0 0.0 0.0 0.0 0.0 0.0 0.0 0.0 0.0 0.0 0.0 0.0 0.0 -1.1512442590619146e-26 -0.5442396572688689 -0.7673661111166267 -0.229354796466502 -1.3146049461972196e-11 0.0 -1.511583712148294e-25 -7.14586669994025 -7.145866699940251 -1.0424175499402515 -5.974879480466362e-11 0.0 1.5707963705062866 -1.570796314870016 1.5707963705062866 -1.570796314870016 -1.570796314870016 0.0 0.0 0.0 0.0 0.0 0.0 0.0 -1.151244268742903e-26 -0.5442396402359009 -0.7673661112785339 -0.22935479879379272 -1.3146049353263134e-11 0.0 -1.151244268742903e-26 -0.5442396402359009 -0.7673661112785339 -0.22935479879379272 -1.3146049353263134e-11 0.0 0.11235001404453844 -0.29859999244446533 0.3136499823461779 -6.833951314017032e-08 3.141592579952271 1.0644698078325815e-07 0.0 0.0 0.0 0.0 0.0 0.0 -3.4768822317838045e-07 9.240737915981754e-07 4.2531462932220256e-08 -6.147405241321462e-08 -2.8475664818871896e-08 -2.650151119779478e-15 0.11235000001566975 -0.298599999983202 0.31364999997695675 3.2217650591519574e-10 3.141592653589793 3.2217503880713943e-10 0.0 0.0 -0.0 0.0 0.0 0.0
153162.77599999998 1.5707963267948961 -1.5707963267948966 1.5707963267948966 -1.5707963267948966 -1.5707963267948966 0.0 0.0 0.0 0.0 0.0 0.0 0.0 0.0 0.0 0.0 0.0 0.0 0.0 -1.1512442590619146e-26 -0.5442396572688689 -0.7673661111166267 -0.229354796466502 -1.3146049461972196e-11 0.0 -1.511583712148294e-25 -7.14586669994025 -7.145866699940251 -1.0424175499402515 -5.974879480466362e-11 0.0 1.5707963705062866 -1.570796314870016 1.5707963705062866 -1.570796314870016 -1.570796314870016 0.0 0.0 0.0 0.0 0.0 0.0 0.0 -1.151244268742903e-26 -0.5442396402359009 -0.7673661112785339 -0.22935479879379272 -1.3146049353263134e-11 0.0 -1.151244268742903e-26 -0.5442396402359009 -0.7673661112785339 -0.22935479879379272 -1.3146049353263134e-11 0.0 0.11235001404453844 -0.29859999244446533 0.3136499823461779 -6.833951314017032e-08 3.141592579952271 1.0644698078325815e-07 0.0 0.0 0.0 0.0 0.0 0.0 -3.4768822317838045e-07 9.240737915981754e-07 4.2531462932220256e-08 -6.147405241321462e-08 -2.8475664818871896e-08 -2.650151119779478e-15 0.11235000001566975 -0.298599999983202 0.31364999997695675 3.2217650591519574e-10 3.141592653589793 3.2217503880713943e-10 0.0 0.0 -0.0 0.0 0.0 0.0
153162.78399999999 1.5707963267948961 -1.5707963267948966 1.5707963267948966 -1.5707963267948966 -1.5707963267948966 0.0 0.0 0.0 0.0 0.0 0.0 0.0 0.0 0.0 0.0 0.0 0.0 0.0 -1.1512442590619146e-26 -0.5442396572688689 -0.7673661111166267 -0.229354796466502 -1.3146049461972196e-11 0.0 -1.511583712148294e-25 -7.14586669994025 -7.145866699940251 -1.0424175499402515 -5.974879480466362e-11 0.0 1.5707963705062866 -1.570796314870016 1.5707963705062866 -1.570796314870016 -1.570796314870016 0.0 0.0 0.0 0.0 0.0 0.0 0.0 -1.151244268742903e-26 -0.5442396402359009 -0.7673661112785339 -0.22935479879379272 -1.3146049353263134e-11 0.0 -1.151244268742903e-26 -0.5442396402359009 -0.7673661112785339 -0.22935479879379272 -1.3146049353263134e-11 0.0 0.11235001404453844 -0.29859999244446533 0.3136499823461779 -6.833951314017032e-08 3.141592579952271 1.0644698078325815e-07 0.0 0.0 0.0 0.0 0.0 0.0 -3.4768822317838045e-07 9.240737915981754e-07 4.2531462932220256e-08 -6.147405241321462e-08 -2.8475664818871896e-08 -2.650151119779478e-15 0.11235000001566975 -0.298599999983202 0.31364999997695675 3.2217650591519574e-10 3.141592653589793 3.2217503880713943e-10 0.0 0.0 -0.0 0.0 0.0 0.0
153162.792 1.5707963267948961 -1.5707963267948966 1.5707963267948966 -1.5707963267948966 -1.5707963267948966 0.0 0.0 0.0 0.0 0.0 0.0 0.0 0.0 0.0 0.0 0.0 0.0 0.0 -1.1512442590619146e-26 -0.5442396572688689 -0.7673661111166267 -0.229354796466502 -1.3146049461972196e-11 0.0 -1.511583712148294e-25 -7.14586669994025 -7.145866699940251 -1.0424175499402515 -5.974879480466362e-11 0.0 1.5707963705062866 -1.570796314870016 1.5707963705062866 -1.570796314870016 -1.570796314870016 0.0 0.0 0.0 0.0 0.0 0.0 0.0 -1.151244268742903e-26 -0.5442396402359009 -0.7673661112785339 -0.22935479879379272 -1.3146049353263134e-11 0.0 -1.151244268742903e-26 -0.5442396402359009 -0.7673661112785339 -0.22935479879379272 -1.3146049353263134e-11 0.0 0.11235001404453844 -0.29859999244446533 0.3136499823461779 -6.833951314017032e-08 3.141592579952271 1.0644698078325815e-07 0.0 0.0 0.0 0.0 0.0 0.0 -3.4768822317838045e-07 9.240737915981754e-07 4.2531462932220256e-08 -6.147405241321462e-08 -2.8475664818871896e-08 -2.650151119779478e-15 0.11235000001566975 -0.298599999983202 0.31364999997695675 3.2217650591519574e-10 3.141592653589793 3.2217503880713943e-10 0.0 0.0 -0.0 0.0 0.0 0.0
153162.8 1.5707963267948961 -1.5707963267948966 1.5707963267948966 -1.5707963267948966 -1.5707963267948966 0.0 0.0 0.0 0.0 0.0 0.0 0.0 0.0 0.0 0.0 0.0 0.0 0.0 -1.1512442590619146e-26 -0.5442396572688689 -0.7673661111166267 -0.229354796466502 -1.3146049461972196e-11 0.0 -1.511583712148294e-25 -7.14586669994025 -7.145866699940251 -1.0424175499402515 -5.974879480466362e-11 0.0 1.5707963705062866 -1.570796314870016 1.5707963705062866 -1.570796314870016 -1.570796314870016 0.0 0.0 0.0 0.0 0.0 0.0 0.0 -1.151244268742903e-26 -0.5442396402359009 -0.7673661112785339 -0.22935479879379272 -1.3146049353263134e-11 0.0 -1.151244268742903e-26 -0.5442396402359009 -0.7673661112785339 -0.22935479879379272 -1.3146049353263134e-11 0.0 0.11235001404453844 -0.29859999244446533 0.3136499823461779 -6.833951314017032e-08 3.141592579952271 1.0644698078325815e-07 0.0 0.0 0.0 0.0 0.0 0.0 -3.4768822317838045e-07 9.240737915981754e-07 4.2531462932220256e-08 -6.147405241321462e-08 -2.8475664818871896e-08 -2.650151119779478e-15 0.11235000001566975 -0.298599999983202 0.31364999997695675 3.2217650591519574e-10 3.141592653589793 3.2217503880713943e-10 0.0 0.0 -0.0 0.0 0.0 0.0
153162.808 1.5707963267948961 -1.5707963267948966 1.5707963267948966 -1.5707963267948966 -1.5707963267948966 0.0 0.0 0.0 0.0 0.0 0.0 0.0 0.0 0.0 0.0 0.0 0.0 0.0 -1.1512442590619146e-26 -0.5442396572688689 -0.7673661111166267 -0.229354796466502 -1.3146049461972196e-11 0.0 -1.511583712148294e-25 -7.14586669994025 -7.145866699940251 -1.0424175499402515 -5.974879480466362e-11 0.0 1.5707963705062866 -1.570796314870016 1.5707963705062866 -1.570796314870016 -1.570796314870016 0.0 0.0 0.0 0.0 0.0 0.0 0.0 -1.151244268742903e-26 -0.5442396402359009 -0.7673661112785339 -0.22935479879379272 -1.3146049353263134e-11 0.0 -1.151244268742903e-26 -0.5442396402359009 -0.7673661112785339 -0.22935479879379272 -1.3146049353263134e-11 0.0 0.11235001404453844 -0.29859999244446533 0.3136499823461779 -6.833951314017032e-08 3.141592579952271 1.0644698078325815e-07 0.0 0.0 0.0 0.0 0.0 0.0 -3.4768822317838045e-07 9.240737915981754e-07 4.2531462932220256e-08 -6.147405241321462e-08 -2.8475664818871896e-08 -2.650151119779478e-15 0.11235000001566975 -0.298599999983202 0.31364999997695675 3.2217650591519574e-10 3.141592653589793 3.2217503880713943e-10 0.0 0.0 -0.0 0.0 0.0 0.0
153162.816 1.5707963267948961 -1.5707963267948966 1.5707963267948966 -1.5707963267948966 -1.5707963267948966 0.0 0.0 0.0 0.0 0.0 0.0 0.0 0.0 0.0 0.0 0.0 0.0 0.0 -1.1512442590619146e-26 -0.5442396572688689 -0.7673661111166267 -0.229354796466502 -1.3146049461972196e-11 0.0 -1.511583712148294e-25 -7.14586669994025 -7.145866699940251 -1.0424175499402515 -5.974879480466362e-11 0.0 1.5707963705062866 -1.570796314870016 1.5707963705062866 -1.570796314870016 -1.570796314870016 0.0 0.0 0.0 0.0 0.0 0.0 0.0 -1.151244268742903e-26 -0.5442396402359009 -0.7673661112785339 -0.22935479879379272 -1.3146049353263134e-11 0.0 -1.151244268742903e-26 -0.5442396402359009 -0.7673661112785339 -0.22935479879379272 -1.3146049353263134e-11 0.0 0.11235001404453844 -0.29859999244446533 0.3136499823461779 -6.833951314017032e-08 3.141592579952271 1.0644698078325815e-07 0.0 0.0 0.0 0.0 0.0 0.0 -3.4768822317838045e-07 9.240737915981754e-07 4.2531462932220256e-08 -6.147405241321462e-08 -2.8475664818871896e-08 -2.650151119779478e-15 0.11235000001566975 -0.298599999983202 0.31364999997695675 3.2217650591519574e-10 3.141592653589793 3.2217503880713943e-10 0.0 0.0 -0.0 0.0 0.0 0.0
153162.824 1.5707963267948961 -1.5707963267948966 1.5707963267948966 -1.5707963267948966 -1.5707963267948966 0.0 0.0 0.0 0.0 0.0 0.0 0.0 0.0 0.0 0.0 0.0 0.0 0.0 -1.1512442590619146e-26 -0.5442396572688689 -0.7673661111166267 -0.229354796466502 -1.3146049461972196e-11 0.0 -1.511583712148294e-25 -7.14586669994025 -7.145866699940251 -1.0424175499402515 -5.974879480466362e-11 0.0 1.5707963705062866 -1.570796314870016 1.5707963705062866 -1.570796314870016 -1.570796314870016 0.0 0.0 0.0 0.0 0.0 0.0 0.0 -1.151244268742903e-26 -0.5442396402359009 -0.7673661112785339 -0.22935479879379272 -1.3146049353263134e-11 0.0 -1.151244268742903e-26 -0.5442396402359009 -0.7673661112785339 -0.22935479879379272 -1.3146049353263134e-11 0.0 0.11235001404453844 -0.29859999244446533 0.3136499823461779 -6.833951314017032e-08 3.141592579952271 1.0644698078325815e-07 0.0 0.0 0.0 0.0 0.0 0.0 -3.4768822317838045e-07 9.240737915981754e-07 4.2531462932220256e-08 -6.147405241321462e-08 -2.8475664818871896e-08 -2.650151119779478e-15 0.11235000001566975 -0.298599999983202 0.31364999997695675 3.2217650591519574e-10 3.141592653589793 3.2217503880713943e-10 0.0 0.0 -0.0 0.0 0.0 0.0
153162.832 1.5707963267948961 -1.5707963267948966 1.5707963267948966 -1.5707963267948966 -1.5707963267948966 0.0 0.0 0.0 0.0 0.0 0.0 0.0 0.0 0.0 0.0 0.0 0.0 0.0 -1.1512442590619146e-26 -0.5442396572688689 -0.7673661111166267 -0.229354796466502 -1.3146049461972196e-11 0.0 -1.511583712148294e-25 -7.14586669994025 -7.145866699940251 -1.0424175499402515 -5.974879480466362e-11 0.0 1.5707963705062866 -1.570796314870016 1.5707963705062866 -1.570796314870016 -1.570796314870016 0.0 0.0 0.0 0.0 0.0 0.0 0.0 -1.151244268742903e-26 -0.5442396402359009 -0.7673661112785339 -0.22935479879379272 -1.3146049353263134e-11 0.0 -1.151244268742903e-26 -0.5442396402359009 -0.7673661112785339 -0.22935479879379272 -1.3146049353263134e-11 0.0 0.11235001404453844 -0.29859999244446533 0.3136499823461779 -6.833951314017032e-08 3.141592579952271 1.0644698078325815e-07 0.0 0.0 0.0 0.0 0.0 0.0 -3.4768822317838045e-07 9.240737915981754e-07 4.2531462932220256e-08 -6.147405241321462e-08 -2.8475664818871896e-08 -2.650151119779478e-15 0.11235000001566975 -0.298599999983202 0.31364999997695675 3.2217650591519574e-10 3.141592653589793 3.2217503880713943e-10 0.0 0.0 -0.0 0.0 0.0 0.0
153162.84 1.5707963267948961 -1.5707963267948966 1.5707963267948966 -1.5707963267948966 -1.5707963267948966 0.0 0.0 0.0 0.0 0.0 0.0 0.0 0.0 0.0 0.0 0.0 0.0 0.0 -1.1512442590619146e-26 -0.5442396572688689 -0.7673661111166267 -0.229354796466502 -1.3146049461972196e-11 0.0 -1.511583712148294e-25 -7.14586669994025 -7.145866699940251 -1.0424175499402515 -5.974879480466362e-11 0.0 1.5707963705062866 -1.570796314870016 1.5707963705062866 -1.570796314870016 -1.570796314870016 0.0 0.0 0.0 0.0 0.0 0.0 0.0 -1.151244268742903e-26 -0.5442396402359009 -0.7673661112785339 -0.22935479879379272 -1.3146049353263134e-11 0.0 -1.151244268742903e-26 -0.5442396402359009 -0.7673661112785339 -0.22935479879379272 -1.3146049353263134e-11 0.0 0.11235001404453844 -0.29859999244446533 0.3136499823461779 -6.833951314017032e-08 3.141592579952271 1.0644698078325815e-07 0.0 0.0 0.0 0.0 0.0 0.0 -3.4768822317838045e-07 9.240737915981754e-07 4.2531462932220256e-08 -6.147405241321462e-08 -2.8475664818871896e-08 -2.650151119779478e-15 0.11235000001566975 -0.298599999983202 0.31364999997695675 3.2217650591519574e-10 3.141592653589793 3.2217503880713943e-10 0.0 0.0 -0.0 0.0 0.0 0.0
153162.848 1.5707963267948961 -1.5707963267948966 1.5707963267948966 -1.5707963267948966 -1.5707963267948966 0.0 0.0 0.0 0.0 0.0 0.0 0.0 0.0 0.0 0.0 0.0 0.0 0.0 -1.1512442590619146e-26 -0.5442396572688689 -0.7673661111166267 -0.229354796466502 -1.3146049461972196e-11 0.0 -1.511583712148294e-25 -7.14586669994025 -7.145866699940251 -1.0424175499402515 -5.974879480466362e-11 0.0 1.5707963705062866 -1.570796314870016 1.5707963705062866 -1.570796314870016 -1.570796314870016 0.0 0.0 0.0 0.0 0.0 0.0 0.0 -1.151244268742903e-26 -0.5442396402359009 -0.7673661112785339 -0.22935479879379272 -1.3146049353263134e-11 0.0 -1.151244268742903e-26 -0.5442396402359009 -0.7673661112785339 -0.22935479879379272 -1.3146049353263134e-11 0.0 0.11235001404453844 -0.29859999244446533 0.3136499823461779 -6.833951314017032e-08 3.141592579952271 1.0644698078325815e-07 0.0 0.0 0.0 0.0 0.0 0.0 -3.4768822317838045e-07 9.240737915981754e-07 4.2531462932220256e-08 -6.147405241321462e-08 -2.8475664818871896e-08 -2.650151119779478e-15 0.11235000001566975 -0.298599999983202 0.31364999997695675 3.2217650591519574e-10 3.141592653589793 3.2217503880713943e-10 0.0 0.0 -0.0 0.0 0.0 0.0
153162.856 1.5707963267948961 -1.5707963267948966 1.5707963267948966 -1.5707963267948966 -1.5707963267948966 0.0 0.0 0.0 0.0 0.0 0.0 0.0 0.0 0.0 0.0 0.0 0.0 0.0 -1.1512442590619146e-26 -0.5442396572688689 -0.7673661111166267 -0.229354796466502 -1.3146049461972196e-11 0.0 -1.511583712148294e-25 -7.14586669994025 -7.145866699940251 -1.0424175499402515 -5.974879480466362e-11 0.0 1.5707963705062866 -1.570796314870016 1.5707963705062866 -1.570796314870016 -1.570796314870016 0.0 0.0 0.0 0.0 0.0 0.0 0.0 -1.151244268742903e-26 -0.5442396402359009 -0.7673661112785339 -0.22935479879379272 -1.3146049353263134e-11 0.0 -1.151244268742903e-26 -0.5442396402359009 -0.7673661112785339 -0.22935479879379272 -1.3146049353263134e-11 0.0 0.11235001404453844 -0.29859999244446533 0.3136499823461779 -6.833951314017032e-08 3.141592579952271 1.0644698078325815e-07 0.0 0.0 0.0 0.0 0.0 0.0 -3.4768822317838045e-07 9.240737915981754e-07 4.2531462932220256e-08 -6.147405241321462e-08 -2.8475664818871896e-08 -2.650151119779478e-15 0.11235000001566975 -0.298599999983202 0.31364999997695675 3.2217650591519574e-10 3.141592653589793 3.2217503880713943e-10 0.0 0.0 -0.0 0.0 0.0 0.0
153162.864 1.5707963267948961 -1.5707963267948966 1.5707963267948966 -1.5707963267948966 -1.5707963267948966 0.0 0.0 0.0 0.0 0.0 0.0 0.0 0.0 0.0 0.0 0.0 0.0 0.0 -1.1512442590619146e-26 -0.5442396572688689 -0.7673661111166267 -0.229354796466502 -1.3146049461972196e-11 0.0 -1.511583712148294e-25 -7.14586669994025 -7.145866699940251 -1.0424175499402515 -5.974879480466362e-11 0.0 1.5707963705062866 -1.570796314870016 1.5707963705062866 -1.570796314870016 -1.570796314870016 0.0 0.0 0.0 0.0 0.0 0.0 0.0 -1.151244268742903e-26 -0.5442396402359009 -0.7673661112785339 -0.22935479879379272 -1.3146049353263134e-11 0.0 -1.151244268742903e-26 -0.5442396402359009 -0.7673661112785339 -0.22935479879379272 -1.3146049353263134e-11 0.0 0.11235001404453844 -0.29859999244446533 0.3136499823461779 -6.833951314017032e-08 3.141592579952271 1.0644698078325815e-07 0.0 0.0 0.0 0.0 0.0 0.0 -3.4768822317838045e-07 9.240737915981754e-07 4.2531462932220256e-08 -6.147405241321462e-08 -2.8475664818871896e-08 -2.650151119779478e-15 0.11235000001566975 -0.298599999983202 0.31364999997695675 3.2217650591519574e-10 3.141592653589793 3.2217503880713943e-10 0.0 0.0 -0.0 0.0 0.0 0.0
153162.872 1.5707963267948961 -1.5707963267948966 1.5707963267948966 -1.5707963267948966 -1.5707963267948966 0.0 0.0 0.0 0.0 0.0 0.0 0.0 0.0 0.0 0.0 0.0 0.0 0.0 -1.1512442590619146e-26 -0.5442396572688689 -0.7673661111166267 -0.229354796466502 -1.3146049461972196e-11 0.0 -1.511583712148294e-25 -7.14586669994025 -7.145866699940251 -1.0424175499402515 -5.974879480466362e-11 0.0 1.5707963705062866 -1.570796314870016 1.5707963705062866 -1.570796314870016 -1.570796314870016 0.0 0.0 0.0 0.0 0.0 0.0 0.0 -1.151244268742903e-26 -0.5442396402359009 -0.7673661112785339 -0.22935479879379272 -1.3146049353263134e-11 0.0 -1.151244268742903e-26 -0.5442396402359009 -0.7673661112785339 -0.22935479879379272 -1.3146049353263134e-11 0.0 0.11235001404453844 -0.29859999244446533 0.3136499823461779 -6.833951314017032e-08 3.141592579952271 1.0644698078325815e-07 0.0 0.0 0.0 0.0 0.0 0.0 -3.4768822317838045e-07 9.240737915981754e-07 4.2531462932220256e-08 -6.147405241321462e-08 -2.8475664818871896e-08 -2.650151119779478e-15 0.11235000001566975 -0.298599999983202 0.31364999997695675 3.2217650591519574e-10 3.141592653589793 3.2217503880713943e-10 0.0 0.0 -0.0 0.0 0.0 0.0
153162.88 1.5707963267948961 -1.5707963267948966 1.5707963267948966 -1.5707963267948966 -1.5707963267948966 0.0 0.0 0.0 0.0 0.0 0.0 0.0 0.0 0.0 0.0 0.0 0.0 0.0 -1.1512442590619146e-26 -0.5442396572688689 -0.7673661111166267 -0.229354796466502 -1.3146049461972196e-11 0.0 -1.511583712148294e-25 -7.14586669994025 -7.145866699940251 -1.0424175499402515 -5.974879480466362e-11 0.0 1.5707963705062866 -1.570796314870016 1.5707963705062866 -1.570796314870016 -1.570796314870016 0.0 0.0 0.0 0.0 0.0 0.0 0.0 -1.151244268742903e-26 -0.5442396402359009 -0.7673661112785339 -0.22935479879379272 -1.3146049353263134e-11 0.0 -1.151244268742903e-26 -0.5442396402359009 -0.7673661112785339 -0.22935479879379272 -1.3146049353263134e-11 0.0 0.11235001404453844 -0.29859999244446533 0.3136499823461779 -6.833951314017032e-08 3.141592579952271 1.0644698078325815e-07 0.0 0.0 0.0 0.0 0.0 0.0 -3.4768822317838045e-07 9.240737915981754e-07 4.2531462932220256e-08 -6.147405241321462e-08 -2.8475664818871896e-08 -2.650151119779478e-15 0.11235000001566975 -0.298599999983202 0.31364999997695675 3.2217650591519574e-10 3.141592653589793 3.2217503880713943e-10 0.0 0.0 -0.0 0.0 0.0 0.0
