mkrssg/UniversalRobots/rtde_client_3.5/examples/roboter/backup/movej_3Achsen_syncron.csv
timestamp target_q_0 target_q_1 target_q_2 target_q_3 target_q_4 target_q_5 target_qd_0 target_qd_1 target_qd_2 target_qd_3 target_qd_4 target_qd_5 target_qdd_0 target_qdd_1 target_qdd_2 target_qdd_3 target_qdd_4 target_qdd_5 target_current_0 target_current_1 target_current_2 target_current_3 target_current_4 target_current_5 target_moment_0 target_moment_1 target_moment_2 target_moment_3 target_moment_4 target_moment_5 actual_q_0 actual_q_1 actual_q_2 actual_q_3 actual_q_4 actual_q_5 actual_qd_0 actual_qd_1 actual_qd_2 actual_qd_3 actual_qd_4 actual_qd_5 actual_current_0 actual_current_1 actual_current_2 actual_current_3 actual_current_4 actual_current_5 joint_control_output_0 joint_control_output_1 joint_control_output_2 joint_control_output_3 joint_control_output_4 joint_control_output_5 actual_TCP_pose_0 actual_TCP_pose_1 actual_TCP_pose_2 actual_TCP_pose_3 actual_TCP_pose_4 actual_TCP_pose_5 actual_TCP_speed_0 actual_TCP_speed_1 actual_TCP_speed_2 actual_TCP_speed_3 actual_TCP_speed_4 actual_TCP_speed_5 actual_TCP_force_0 actual_TCP_force_1 actual_TCP_force_2 actual_TCP_force_3 actual_TCP_force_4 actual_TCP_force_5 target_TCP_pose_0 target_TCP_pose_1 target_TCP_pose_2 target_TCP_pose_3 target_TCP_pose_4 target_TCP_pose_5 target_TCP_speed_0 target_TCP_speed_1 target_TCP_speed_2 target_TCP_speed_3 target_TCP_speed_4 target_TCP_speed_5
6659.08 3.5561831257524545e-17 -1.5707963267948966 1.5707963267948968 -1.5707963267948966 -1.5707963267948966 0.0 0.0 0.0 0.0 0.0 0.0 0.0 0.0 0.0 0.0 0.0 0.0 0.0 2.072980291448686e-26 -0.620381750820575 -0.8463465614411209 -0.2525548825603051 -1.439250644349618e-11 0.0 2.378952054656901e-25 -7.1458666999402505 -7.145866699940252 -1.0424175499402515 -5.974879480466363e-11 0.0 3.5952674807049334e-05 -1.5707600752459925 1.5708613395690918 -1.5707243124591272 -1.5708745161639612 4.793690095539205e-05 0.0 0.0 -0.0 0.0 0.0 0.0 0.02243042178452015 -0.7043152451515198 -0.8204721808433533 -0.16113510727882385 -0.08168654888868332 0.11189938336610794 0.02467346377670765 -0.7222595810890198 -0.8143720030784607 -0.15889713168144226 -0.07944856584072113 0.11301837861537933 -0.2984206791433058 -0.11275922678028003 0.3131479842545731 -2.2178874073215518 -2.2195134903248954 -0.008458913656999011 0.0 0.0 0.0 0.0 0.0 0.0 -5.443138016272528 0.6493817617442605 -0.8336408589283365 -0.43361144721792866 0.04205312984437574 0.5189400790308237 -0.2984301935029837 -0.11275507530515129 0.3131843183387717 -2.217827088832791 -2.2194802147226973 -0.008179933726190749 0.0 0.0 0.0 0.0 0.0 0.0
6659.088 3.5561831257524545e-17 -1.5707963267948966 1.5707963267948968 -1.5707963267948966 -1.5707963267948966 0.0 0.0 0.0 0.0 0.0 0.0 0.0 0.0 0.0 0.0 0.0 0.0 0.0 2.072980291448686e-26 -0.620381750820575 -0.8463465614411209 -0.2525548825603051 -1.439250644349618e-11 0.0 2.378952054656901e-25 -7.1458666999402505 -7.145866699940252 -1.0424175499402515 -5.974879480466363e-11 0.0 1.1984225238848012e-05 -1.5707362333880823 1.570885181427002 -1.5707362333880823 -1.570850674306051 5.992112710373476e-05 0.0 0.0 -0.0 0.0 0.0 0.0 0.0269165076315403 -0.7065582871437073 -0.8235222101211548 -0.15889713168144226 -0.08616252988576889 0.11525636911392212 0.02467346377670765 -0.7177734971046448 -0.8143720030784607 -0.15889713168144226 -0.07609158009290695 0.11301837861537933 -0.2984262335989332 -0.11275400976340134 0.3131347498488081 -2.2179570080847553 -2.219503540414384 -0.008472283463653788 0.0 0.0 0.0 0.0 0.0 0.0 -5.444048351752193 0.8950889144584581 -1.0169458341585855 -0.47459633746831453 0.06796754816111272 0.534620793744033 -0.2984301935029837 -0.11275507530515129 0.3131843183387717 -2.217827088832791 -2.2194802147226973 -0.008179933726190749 0.0 0.0 0.0 0.0 0.0 0.0
6659.096 3.5561831257524545e-17 -1.5707963267948966 1.5707963267948968 -1.5707963267948966 -1.5707963267948966 0.0 0.0 0.0 0.0 0.0 0.0 0.0 0.0 0.0 0.0 0.0 0.0 0.0 2.072980291448686e-26 -0.620381750820575 -0.8463465614411209 -0.2525548825603051 -1.439250644349618e-11 0.0 2.378952054656901e-25 -7.1458666999402505 -7.145866699940252 -1.0424175499402515 -5.974879480466363e-11 0.0 5.992112710373476e-05 -1.5707362333880823 1.5708250999450684 -1.5707243124591272 -1.570850674306051 4.793690095539205e-05 0.0 0.0 -0.0 0.0 0.0 0.0 0.0269165076315403 -0.7110443711280823 -0.8158970475196838 -0.1678490787744522 -0.07944856584072113 0.11749435216188431 0.02467346377670765 -0.7245026230812073 -0.8143720030784607 -0.15889713168144226 -0.07721057534217834 0.11525636911392212 -0.29842481695621287 -0.1127683761354404 0.31315167368921654 -2.217866497596812 -2.219545922049718 -0.00841864143406523 0.0 0.0 0.0 0.0 0.0 0.0 -5.976779002437979 0.7256935640204656 -0.4851516792542501 -0.4296593322013145 -0.0628370631181948 0.5442211308945788 -0.2984301935029837 -0.11275507530515129 0.3131843183387717 -2.217827088832791 -2.2194802147226973 -0.008179933726190749 0.0 0.0 0.0 0.0 0.0 0.0
6659.103999999999 3.5561831257524545e-17 -1.5707963267948966 1.5707963267948968 -1.5707963267948966 -1.5707963267948966 0.0 0.0 0.0 0.0 0.0 0.0 0.0 0.0 0.0 0.0 0.0 0.0 0.0 2.072980291448686e-26 -0.620381750820575 -0.8463465614411209 -0.2525548825603051 -1.439250644349618e-11 0.0 2.378952054656901e-25 -7.1458666999402505 -7.145866699940252 -1.0424175499402515 -5.974879480466363e-11 0.0 4.793690095539205e-05 -1.5707009474383753 1.5708613395690918 -1.5707123915301722 -1.5708263556109827 3.5952674807049334e-05 0.0 0.0 -0.0 0.0 0.0 0.0 0.0269165076315403 -0.7065582871437073 -0.817422091960907 -0.16225410997867584 -0.07497258484363556 0.11637535691261292 0.02467346377670765 -0.7222595810890198 -0.8143720030784607 -0.15889713168144226 -0.07609158009290695 0.11413737386465073 -0.29842787482840916 -0.11276673966882875 0.3131292856202726 -2.2179202409126666 -2.219599771840182 -0.008484548326013442 0.0 0.0 0.0 0.0 0.0 0.0 -5.680556760059732 0.8216393672685696 -0.6741131773683384 -0.416682456576682 0.003671334768577115 0.5394424548451108 -0.2984301935029837 -0.11275507530515129 0.3131843183387717 -2.217827088832791 -2.2194802147226973 -0.008179933726190749 0.0 0.0 0.0 0.0 0.0 0.0
6659.112 3.5561831257524545e-17 -1.5707963267948966 1.5707963267948968 -1.5707963267948966 -1.5707963267948966 0.0 0.0 0.0 0.0 0.0 0.0 0.0 0.0 0.0 0.0 0.0 0.0 0.0 2.072980291448686e-26 -0.620381750820575 -0.8463465614411209 -0.2525548825603051 -1.439250644349618e-11 0.0 2.378952054656901e-25 -7.1458666999402505 -7.145866699940252 -1.0424175499402515 -5.974879480466363e-11 0.0 3.5952674807049334e-05 -1.5707481543170374 1.570885181427002 -1.5707243124591272 -1.5708382765399378 9.58738019107841e-05 0.0 0.0 -0.0 0.0 0.0 0.0 0.02243042178452015 -0.7020722031593323 -0.8189471364021301 -0.15665914118289948 -0.07497258484363556 0.11413737386465073 0.02467346377670765 -0.7155304551124573 -0.8143720030784607 -0.15889713168144226 -0.07609158009290695 0.11301837861537933 -0.29842062612891 -0.11276217957361238 0.3131372833976529 -2.217976472870337 -2.219496291064597 -0.00845840206116158 0.0 0.0 0.0 0.0 0.0 0.0 -5.383750644316869 0.7072148642113341 -0.8630196693754103 -0.40714580010102075 0.07016750823823183 0.5295180582142609 -0.2984301935029837 -0.11275507530515129 0.3131843183387717 -2.217827088832791 -2.2194802147226973 -0.008179933726190749 0.0 0.0 0.0 0.0 0.0 0.0
6659.12 3.5561831257524545e-17 -1.5707963267948966 1.5707963267948968 -1.5707963267948966 -1.5707963267948966 0.0 0.0 0.0 0.0 0.0 0.0 0.0 0.0 0.0 0.0 0.0 0.0 0.0 2.072980291448686e-26 -0.620381750820575 -0.8463465614411209 -0.2525548825603051 -1.439250644349618e-11 0.0 2.378952054656901e-25 -7.1458666999402505 -7.145866699940252 -1.0424175499402515 -5.974879480466363e-11 0.0 1.1984225238848012e-05 -1.5707600752459925 1.5708370208740234 -1.5707481543170374 -1.5708745161639612 8.388957940042019e-05 0.0 0.0 -0.0 0.0 0.0 0.0 0.0291595496237278 -0.7132874131202698 -0.817422091960907 -0.15889713168144226 -0.07497258484363556 0.11301837861537933 0.02467346377670765 -0.7200165390968323 -0.8143720030784607 -0.15889713168144226 -0.07721057534217834 0.11301837861537933 -0.29842735795115927 -0.1127521186444229 0.31315728110240915 -2.217929838992179 -2.2194231481363293 -0.008405308924654459 0.0 0.0 0.0 0.0 0.0 0.0 -6.036712864372856 0.7319106596883488 -0.7474717284168461 -0.40917748104904367 -0.0037475133027971017 0.5238775410595032 -0.2984301935029837 -0.11275507530515129 0.3131843183387717 -2.217827088832791 -2.2194802147226973 -0.008179933726190749 0.0 0.0 0.0 0.0 0.0 0.0
6659.128 3.5561831257524545e-17 -1.5707963267948966 1.5707963267948968 -1.5707963267948966 -1.5707963267948966 0.0 0.0 0.0 0.0 0.0 0.0 0.0 0.0 0.0 0.0 0.0 0.0 0.0 2.072980291448686e-26 -0.620381750820575 -0.8463465614411209 -0.2525548825603051 -1.439250644349618e-11 0.0 2.378952054656901e-25 -7.1458666999402505 -7.145866699940252 -1.0424175499402515 -5.974879480466363e-11 0.0 2.3968450477696024e-05 -1.5707362333880823 1.5708012580871582 -1.570688549672262 -1.5708864370929163 7.190534961409867e-05 0.0 0.0 -0.0 0.0 0.0 0.0 0.02467346377670765 -0.7267456650733948 -0.8265722990036011 -0.16337309777736664 -0.0839245393872261 0.11637535691261292 0.02467346377670765 -0.7177734971046448 -0.8143720030784607 -0.15889713168144226 -0.07832957059144974 0.11301837861537933 -0.29842789903863726 -0.11275470399960193 0.3131557634624502 -2.2179211102693843 -2.219467307309692 -0.008471556715215867 0.0 0.0 0.0 0.0 0.0 0.0 -6.393099443971859 0.45530816712888517 -1.0572807342568813 -0.42790650797360325 -0.027743005702923818 0.5392545061371815 -0.2984301935029837 -0.11275507530515129 0.3131843183387717 -2.217827088832791 -2.2194802147226973 -0.008179933726190749 0.0 0.0 0.0 0.0 0.0 0.0
6659.1359999999995 3.5561831257524545e-17 -1.5707963267948966 1.5707963267948968 -1.5707963267948966 -1.5707963267948966 0.0 0.0 0.0 0.0 0.0 0.0 0.0 0.0 0.0 0.0 0.0 0.0 0.0 2.072980291448686e-26 -0.620381750820575 -0.8463465614411209 -0.2525548825603051 -1.439250644349618e-11 0.0 2.378952054656901e-25 -7.1458666999402505 -7.145866699940252 -1.0424175499402515 -5.974879480466363e-11 0.0 2.3968450477696024e-05 -1.5707481543170374 1.5708489418029785 -1.570688549672262 -1.5708263556109827 5.992112710373476e-05 0.0 0.0 -0.0 0.0 0.0 0.0 0.0291595496237278 -0.7155304551124573 -0.8128469586372375 -0.15889713168144226 -0.07832957059144974 0.11189938336610794 0.02467346377670765 -0.7177734971046448 -0.8143720030784607 -0.16001611948013306 -0.07609158009290695 0.11301837861537933 -0.2984220284416582 -0.11275960164287004 0.31314504548301475 -2.2179558062301084 -2.219528590111703 -0.00844485434578231 0.0 0.0 0.0 0.0 0.0 0.0 -6.332529948957581 0.601559223938039 -0.5453301746627305 -0.4142324757253445 -0.04549087856949744 0.5183752897976569 -0.2984301935029837 -0.11275507530515129 0.3131843183387717 -2.217827088832791 -2.2194802147226973 -0.008179933726190749 0.0 0.0 0.0 0.0 0.0 0.0
6659.143999999999 3.5561831257524545e-17 -1.5707963267948966 1.5707963267948968 -1.5707963267948966 -1.5707963267948966 0.0 0.0 0.0 0.0 0.0 0.0 0.0 0.0 0.0 0.0 0.0 0.0 0.0 2.072980291448686e-26 -0.620381750820575 -0.8463465614411209 -0.2525548825603051 -1.439250644349618e-11 0.0 2.378952054656901e-25 -7.1458666999402505 -7.145866699940252 -1.0424175499402515 -5.974879480466363e-11 0.0 4.793690095539205e-05 -1.5707600752459925 1.5708370208740234 -1.5707123915301722 -1.5708625952350062 9.58738019107841e-05 0.0 0.0 -0.0 0.0 0.0 0.0 0.02467346377670765 -0.7222595810890198 -0.8143720030784607 -0.16449210047721863 -0.09287648648023605 0.11525636911392212 0.02467346377670765 -0.7200165390968323 -0.8143720030784607 -0.16001611948013306 -0.07609158009290695 0.11525636911392212 -0.29842035670315387 -0.11276380452147489 0.3131542213352876 -2.217927032994778 -2.2194732918531273 -0.00843176295538354 0.0 0.0 0.0 0.0 0.0 0.0 -6.628443273609834 0.34710447449140497 -0.4920580140522418 -0.4609825671260226 -0.10065312732700146 0.5335573336387177 -0.2984301935029837 -0.11275507530515129 0.3131843183387717 -2.217827088832791 -2.2194802147226973 -0.008179933726190749 0.0 0.0 0.0 0.0 0.0 0.0
6659.152 3.5561831257524545e-17 -1.5707963267948966 1.5707963267948968 -1.5707963267948966 -1.5707963267948966 0.0 0.0 0.0 0.0 0.0 0.0 0.0 0.0 0.0 0.0 0.0 0.0 0.0 2.072980291448686e-26 -0.620381750820575 -0.8463465614411209 -0.2525548825603051 -1.439250644349618e-11 0.0 2.378952054656901e-25 -7.1458666999402505 -7.145866699940252 -1.0424175499402515 -5.974879480466363e-11 0.0 0.0 -1.570676628743307 1.570897102355957 -1.5707123915301722 -1.5708625952350062 5.992112710373476e-05 0.0 0.0 -0.0 0.0 0.0 0.0 0.0291595496237278 -0.7132874131202698 -0.8158970475196838 -0.16225410997867584 -0.07721057534217834 0.11301837861537933 0.02467346377670765 -0.7177734971046448 -0.8143720030784607 -0.16001611948013306 -0.07609158009290695 0.11189938336610794 -0.29843424270882635 -0.11274939923394957 0.31311136937212264 -2.2180117601973937 -2.2195318101777755 -0.008591516244004047 0.0 0.0 0.0 0.0 0.0 0.0 -6.095674457856289 0.7086821693199056 -0.6079153961910243 -0.41783794001577523 -0.03618013603983243 0.5235818710976011 -0.2984301935029837 -0.11275507530515129 0.3131843183387717 -2.217827088832791 -2.2194802147226973 -0.008179933726190749 0.0 0.0 0.0 0.0 0.0 0.0
6659.16 3.5561831257524545e-17 -1.5707963267948966 1.5707963267948968 -1.5707963267948966 -1.5707963267948966 0.0 0.0 0.0 0.0 0.0 0.0 0.0 0.0 0.0 0.0 0.0 0.0 0.0 2.072980291448686e-26 -0.620381750820575 -0.8463465614411209 -0.2525548825603051 -1.439250644349618e-11 0.0 2.378952054656901e-25 -7.1458666999402505 -7.145866699940252 -1.0424175499402515 -5.974879480466363e-11 0.0 0.0 -1.5707724730121058 1.5708489418029785 -1.5707123915301722 -1.5708263556109827 7.190534961409867e-05 0.0 0.0 -0.0 0.0 0.0 0.0 0.0269165076315403 -0.7110443711280823 -0.8128469586372375 -0.16113510727882385 -0.08056755363941193 0.11413737386465073 0.02467346377670765 -0.7200165390968323 -0.8143720030784607 -0.16001611948013306 -0.07721057534217834 0.11525636911392212 -0.2984227746489339 -0.11275247451504009 0.3131543398796347 -2.2179717375894348 -2.219464798605164 -0.008391344524929747 0.0 0.0 0.0 0.0 0.0 0.0 -6.094967764089297 0.6296750352010707 -0.49598886604468423 -0.42694970628688983 -0.040518521054538154 0.5287965678824973 -0.2984301935029837 -0.11275507530515129 0.3131843183387717 -2.217827088832791 -2.2194802147226973 -0.008179933726190749 0.0 0.0 0.0 0.0 0.0 0.0
6659.168 3.5561831257524545e-17 -1.5707963267948966 1.5707963267948968 -1.5707963267948966 -1.5707963267948966 0.0 0.0 0.0 0.0 0.0 0.0 0.0 0.0 0.0 0.0 0.0 0.0 0.0 2.072980291448686e-26 -0.620381750820575 -0.8463465614411209 -0.2525548825603051 -1.439250644349618e-11 0.0 2.378952054656901e-25 -7.1458666999402505 -7.145866699940252 -1.0424175499402515 -5.974879480466363e-11 0.0 2.3968450477696024e-05 -1.5707243124591272 1.5708613395690918 -1.5707123915301722 -1.5708864370929163 5.992112710373476e-05 0.0 0.0 -0.0 0.0 0.0 0.0 0.02243042178452015 -0.7267456650733948 -0.8219972252845764 -0.16113510727882385 -0.0850435346364975 0.12085133790969849 0.02467346377670765 -0.7200165390968323 -0.8143720030784607 -0.16001611948013306 -0.07944856584072113 0.11413737386465073 -0.298426814613997 -0.11275464724247479 0.31313629833621137 -2.217931717195203 -2.2195047005525512 -0.008525103785093444 0.0 0.0 0.0 0.0 0.0 0.0 -6.570067080534005 0.3608723967099987 -0.9034423071678522 -0.4254616827500216 -0.04532356792749953 0.5598866945518504 -0.2984301935029837 -0.11275507530515129 0.3131843183387717 -2.217827088832791 -2.2194802147226973 -0.008179933726190749 0.0 0.0 0.0 0.0 0.0 0.0
6659.1759999999995 3.5561831257524545e-17 -1.5707963267948966 1.5707963267948968 -1.5707963267948966 -1.5707963267948966 0.0 0.0 0.0 0.0 0.0 0.0 0.0 0.0 0.0 0.0 0.0 0.0 0.0 2.072980291448686e-26 -0.620381750820575 -0.8463465614411209 -0.2525548825603051 -1.439250644349618e-11 0.0 2.378952054656901e-25 -7.1458666999402505 -7.145866699940252 -1.0424175499402515 -5.974879480466363e-11 0.0 3.5952674807049334e-05 -1.5707481543170374 1.5708131790161133 -1.5707362333880823 -1.5708864370929163 3.5952674807049334e-05 0.0 0.0 -0.0 0.0 0.0 0.0 0.02243042178452015 -0.7267456650733948 -0.817422091960907 -0.15554013848304749 -0.07497258484363556 0.1186133474111557 0.02467346377670765 -0.7200165390968323 -0.8143720030784607 -0.16001611948013306 -0.07497258484363556 0.11413737386465073 -0.2984275682926658 -0.11275830443171164 0.3131598320820688 -2.2178441150802324 -2.2194969296555747 -0.008418579695358084 0.0 0.0 0.0 0.0 0.0 0.0 -6.747562047538838 0.2593602729813382 -0.8221582928468061 -0.37024237395431053 -0.04084329006898298 0.5496310098004262 -0.2984301935029837 -0.11275507530515129 0.3131843183387717 -2.217827088832791 -2.2194802147226973 -0.008179933726190749 0.0 0.0 0.0 0.0 0.0 0.0
6659.183999999999 3.5561831257524545e-17 -1.5707963267948966 1.5707963267948968 -1.5707963267948966 -1.5707963267948966 0.0 0.0 0.0 0.0 0.0 0.0 0.0 0.0 0.0 0.0 0.0 0.0 0.0 2.072980291448686e-26 -0.620381750820575 -0.8463465614411209 -0.2525548825603051 -1.439250644349618e-11 0.0 2.378952054656901e-25 -7.1458666999402505 -7.145866699940252 -1.0424175499402515 -5.974879480466363e-11 0.0 5.992112710373476e-05 -1.5707481543170374 1.5708613395690918 -1.5707362333880823 -1.5708263556109827 5.992112710373476e-05 0.0 0.0 -0.0 0.0 0.0 0.0 0.01794433780014515 -0.7065582871437073 -0.817422091960907 -0.15777812898159027 -0.09399548172950745 0.11301837861537933 0.02467346377670765 -0.7200165390968323 -0.8143720030784607 -0.16001611948013306 -0.07721057534217834 0.11413737386465073 -0.29842087743685625 -0.11277034983415159 0.31314541286570974 -2.2178981402430025 -2.2195510148766693 -0.00840546745930258 0.0 0.0 0.0 0.0 0.0 0.0 -5.679182957039146 0.38360708262830956 -0.7718813483039707 -0.4690782156395505 0.03257649119702484 0.5240294851886883 -0.2984301935029837 -0.11275507530515129 0.3131843183387717 -2.217827088832791 -2.2194802147226973 -0.008179933726190749 0.0 0.0 0.0 0.0 0.0 0.0
6659.192 3.5561831257524545e-17 -1.5707963267948966 1.5707963267948968 -1.5707963267948966 -1.5707963267948966 0.0 0.0 0.0 0.0 0.0 0.0 0.0 0.0 0.0 0.0 0.0 0.0 0.0 2.072980291448686e-26 -0.620381750820575 -0.8463465614411209 -0.2525548825603051 -1.439250644349618e-11 0.0 2.378952054656901e-25 -7.1458666999402505 -7.145866699940252 -1.0424175499402515 -5.974879480466363e-11 0.0 1.1984225238848012e-05 -1.5707481543170374 1.5708131790161133 -1.5707123915301722 -1.5708745161639612 5.992112710373476e-05 0.0 0.0 -0.0 0.0 0.0 0.0 0.02467346377670765 -0.7379608750343323 -0.8250472545623779 -0.16337309777736664 -0.07832957059144974 0.11749435216188431 0.02467346377670765 -0.7222595810890198 -0.8143720030784607 -0.16001611948013306 -0.08168654888868332 0.11413737386465073 -0.2984283057659538 -0.11275211667041128 0.31315778972240194 -2.2179152275658325 -2.2194615392449943 -0.00843191351454192 0.0 0.0 0.0 0.0 0.0 0.0 -7.045341536656981 0.2252177304708743 -0.9912062721331567 -0.3829347671902554 -0.08721762844919652 0.5441143276176234 -0.2984301935029837 -0.11275507530515129 0.3131843183387717 -2.217827088832791 -2.2194802147226973 -0.008179933726190749 0.0 0.0 0.0 0.0 0.0 0.0
6659.2 3.5561831257524545e-17 -1.5707963267948966 1.5707963267948968 -1.5707963267948966 -1.5707963267948966 0.0 0.0 0.0 0.0 0.0 0.0 0.0 0.0 0.0 0.0 0.0 0.0 0.0 2.072980291448686e-26 -0.620381750820575 -0.8463465614411209 -0.2525548825603051 -1.439250644349618e-11 0.0 2.378952054656901e-25 -7.1458666999402505 -7.145866699940252 -1.0424175499402515 -5.974879480466363e-11 0.0 2.3968450477696024e-05 -1.570676628743307 1.5708250999450684 -1.5707362333880823 -1.5708745161639612 9.58738019107841e-05 0.0 0.0 -0.0 0.0 0.0 0.0 0.02243042178452015 -0.7088013291358948 -0.817422091960907 -0.16561108827590942 -0.08951950818300247 0.11749435216188431 0.02467346377670765 -0.7155304551124573 -0.8143720030784607 -0.16001611948013306 -0.07944856584072113 0.11525636911392212 -0.2984394642981506 -0.11275566988073596 0.31313491205730876 -2.217971183866233 -2.219464823591698 -0.008497946092143119 0.0 0.0 0.0 0.0 0.0 0.0 -5.798308488392275 0.6004812287766006 -0.6015820819900993 -0.4661750671068837 -0.02800307275564146 0.5443865527156436 -0.2984301935029837 -0.11275507530515129 0.3131843183387717 -2.217827088832791 -2.2194802147226973 -0.008179933726190749 0.0 0.0 0.0 0.0 0.0 0.0
6659.208 3.5561831257524545e-17 -1.5707963267948966 1.5707963267948968 -1.5707963267948966 -1.5707963267948966 0.0 0.0 0.0 0.0 0.0 0.0 0.0 0.0 0.0 0.0 0.0 0.0 0.0 2.072980291448686e-26 -0.620381750820575 -0.8463465614411209 -0.2525548825603051 -1.439250644349618e-11 0.0 2.378952054656901e-25 -7.1458666999402505 -7.145866699940252 -1.0424175499402515 -5.974879480466363e-11 0.0 1.1984225238848012e-05 -1.5707123915301722 1.5708489418029785 -1.5707009474383753 -1.5708144346820276 7.190534961409867e-05 0.0 0.0 -0.0 0.0 0.0 0.0 0.0291595496237278 -0.6998291611671448 -0.817422091960907 -0.15554013848304749 -0.06937761604785919 0.11413737386465073 0.02467346377670765 -0.7155304551124573 -0.8143720030784607 -0.16113510727882385 -0.07609158009290695 0.11525636911392212 -0.29843016618380336 -0.112757002539622 0.31313542004215245 -2.2179999052933734 -2.2195197817558183 -0.008457589284999971 0.0 0.0 0.0 0.0 0.0 0.0 -5.325123669847845 1.0196720932341363 -0.8188518401441602 -0.40686666707658486 0.07662219723734078 0.5295491069280112 -0.2984301935029837 -0.11275507530515129 0.3131843183387717 -2.217827088832791 -2.2194802147226973 -0.008179933726190749 0.0 0.0 0.0 0.0 0.0 0.0
6659.215999999999 3.5561831257524545e-17 -1.5707963267948966 1.5707963267948968 -1.5707963267948966 -1.5707963267948966 0.0 0.0 0.0 0.0 0.0 0.0 0.0 0.0 0.0 0.0 0.0 0.0 0.0 2.072980291448686e-26 -0.620381750820575 -0.8463465614411209 -0.2525548825603051 -1.439250644349618e-11 0.0 2.378952054656901e-25 -7.1458666999402505 -7.145866699940252 -1.0424175499402515 -5.974879480466363e-11 0.0 3.5952674807049334e-05 -1.5707243124591272 1.5708489418029785 -1.5707243124591272 -1.5708625952350062 4.793690095539205e-05 0.0 0.0 -0.0 0.0 0.0 0.0 0.02018737979233265 -0.7267456650733948 -0.8189471364021301 -0.16449210047721863 -0.06042566895484924 0.11525636911392212 0.02467346377670765 -0.7177734971046448 -0.8143720030784607 -0.16113510727882385 -0.07721057534217834 0.11413737386465073 -0.29842746989240587 -0.11276020978723161 0.31314100287569235 -2.217904939960406 -2.219531218485017 -0.008471660785059185 0.0 0.0 0.0 0.0 0.0 0.0 -6.688334510544559 0.13196855688166909 -0.6967192939722773 -0.29211886506849366 -0.08799213846174193 0.5338094315001786 -0.2984301935029837 -0.11275507530515129 0.3131843183387717 -2.217827088832791 -2.2194802147226973 -0.008179933726190749 0.0 0.0 0.0 0.0 0.0 0.0
6659.223999999999 3.5561831257524545e-17 -1.5707963267948966 1.5707963267948968 -1.5707963267948966 -1.5707963267948966 0.0 0.0 0.0 0.0 0.0 0.0 0.0 0.0 0.0 0.0 0.0 0.0 0.0 2.072980291448686e-26 -0.620381750820575 -0.8463465614411209 -0.2525548825603051 -1.439250644349618e-11 0.0 2.378952054656901e-25 -7.1458666999402505 -7.145866699940252 -1.0424175499402515 -5.974879480466363e-11 0.0 4.793690095539205e-05 -1.5707362333880823 1.5708613395690918 -1.5707481543170374 -1.5708382765399378 0.00011984225420746952 0.0 0.0 -0.0 0.0 0.0 0.0 0.02018737979233265 -0.7289887070655823 -0.8113219141960144 -0.16001611948013306 -0.07273460179567337 0.11413737386465073 0.02467346377670765 -0.7177734971046448 -0.8143720030784607 -0.16113510727882385 -0.07721057534217834 0.11413737386465073 -0.29842513376855956 -0.11276579575967959 0.3131428790067979 -2.2179718072654047 -2.2194652681414944 -0.008418496322148496 0.0 0.0 0.0 0.0 0.0 0.0 -7.10222713593916 -0.042817345427539996 -0.4563052003352469 -0.335161015787161 -0.12205190828847828 0.5283589090418382 -0.2984301935029837 -0.11275507530515129 0.3131843183387717 -2.217827088832791 -2.2194802147226973 -0.008179933726190749 0.0 0.0 0.0 0.0 0.0 0.0
6659.232 3.5561831257524545e-17 -1.5707963267948966 1.5707963267948968 -1.5707963267948966 -1.5707963267948966 0.0 0.0 0.0 0.0 0.0 0.0 0.0 0.0 0.0 0.0 0.0 0.0 0.0 2.072980291448686e-26 -0.620381750820575 -0.8463465614411209 -0.2525548825603051 -1.439250644349618e-11 0.0 2.378952054656901e-25 -7.1458666999402505 -7.145866699940252 -1.0424175499402515 -5.974879480466363e-11 0.0 5.992112710373476e-05 -1.5707009474383753 1.5708613395690918 -1.5707123915301722 -1.5708382765399378 7.190534961409867e-05 0.0 0.0 -0.0 0.0 0.0 0.0 0.0314025916159153 -0.7491760849952698 -0.8113219141960144 -0.15889713168144226 -0.08280554413795471 0.11525636911392212 0.02467346377670765 -0.7177734971046448 -0.8143720030784607 -0.15777812898159027 -0.07721057534217834 0.11189938336610794 -0.29842652415632537 -0.11276933432332857 0.3131292930592771 -2.2179407686337926 -2.2195671047490184 -0.008497602349526434 0.0 0.0 0.0 0.0 0.0 0.0 -8.170970443032669 0.052142978093301665 -0.48209669482322937 -0.38989148198166995 -0.20284974224812627 0.5329376691404076 -0.2984301935029837 -0.11275507530515129 0.3131843183387717 -2.217827088832791 -2.2194802147226973 -0.008179933726190749 0.0 0.0 0.0 0.0 0.0 0.0
6659.24 3.5561831257524545e-17 -1.5707963267948966 1.5707963267948968 -1.5707963267948966 -1.5707963267948966 0.0 0.0 0.0 0.0 0.0 0.0 0.0 0.0 0.0 0.0 0.0 0.0 0.0 2.072980291448686e-26 -0.620381750820575 -0.8463465614411209 -0.2525548825603051 -1.439250644349618e-11 0.0 2.378952054656901e-25 -7.1458666999402505 -7.145866699940252 -1.0424175499402515 -5.974879480466363e-11 0.0 4.793690095539205e-05 -1.5707243124591272 1.5708131790161133 -1.5707123915301722 -1.570850674306051 7.190534961409867e-05 0.0 0.0 -0.0 0.0 0.0 0.0 0.02467346377670765 -0.7245026230812073 -0.8143720030784607 -0.15665914118289948 -0.09063850343227386 0.11637535691261292 0.02467346377670765 -0.7200165390968323 -0.8143720030784607 -0.15665914118289948 -0.07721057534217834 0.11301837861537933 -0.2984280943790611 -0.11276480078758949 0.31315065732738606 -2.217912314929524 -2.219511952684684 -0.00843185962141077 0.0 0.0 0.0 0.0 0.0 0.0 -6.747133508357831 0.3205466260109471 -0.6623318819386538 -0.4483187629256088 -0.059689073567489044 0.5390250956780855 -0.2984301935029837 -0.11275507530515129 0.3131843183387717 -2.217827088832791 -2.2194802147226973 -0.008179933726190749 0.0 0.0 0.0 0.0 0.0 0.0
6659.248 3.5561831257524545e-17 -1.5707963267948966 1.5707963267948968 -1.5707963267948966 -1.5707963267948966 0.0 0.0 0.0 0.0 0.0 0.0 0.0 0.0 0.0 0.0 0.0 0.0 0.0 2.072980291448686e-26 -0.620381750820575 -0.8463465614411209 -0.2525548825603051 -1.439250644349618e-11 0.0 2.378952054656901e-25 -7.1458666999402505 -7.145866699940252 -1.0424175499402515 -5.974879480466363e-11 0.0 -3.5587941304981996e-05 -1.5707243124591272 1.5708370208740234 -1.5707600752459925 -1.5708864370929163 7.190534961409867e-05 0.0 0.0 -0.0 0.0 0.0 0.0 0.02243042178452015 -0.7245026230812073 -0.8235222101211548 -0.16449210047721863 -0.0850435346364975 0.11525636911392212 0.02467346377670765 -0.7200165390968323 -0.8143720030784607 -0.16001611948013306 -0.07609158009290695 0.11301837861537933 -0.2984394703660024 -0.1127369347598146 0.3131476298210252 -2.217975221239167 -2.2193898125573197 -0.00844514924956211 0.0 0.0 0.0 0.0 0.0 0.0 -6.392323253984437 0.3414997499829071 -0.8982447957491602 -0.4237861104736969 -0.04643090483039957 0.5339550328576889 -0.2984301935029837 -0.11275507530515129 0.3131843183387717 -2.217827088832791 -2.2194802147226973 -0.008179933726190749 0.0 0.0 0.0 0.0 0.0 0.0
6659.255999999999 3.5561831257524545e-17 -1.5707963267948966 1.5707963267948968 -1.5707963267948966 -1.5707963267948966 0.0 0.0 0.0 0.0 0.0 0.0 0.0 0.0 0.0 0.0 0.0 0.0 0.0 2.072980291448686e-26 -0.620381750820575 -0.8463465614411209 -0.2525548825603051 -1.439250644349618e-11 0.0 2.378952054656901e-25 -7.1458666999402505 -7.145866699940252 -1.0424175499402515 -5.974879480466363e-11 0.0 3.5952674807049334e-05 -1.5707481543170374 1.5708613395690918 -1.5707009474383753 -1.5708864370929163 9.58738019107841e-05 0.0 0.0 -0.0 0.0 0.0 0.0 0.02018737979233265 -0.7289887070655823 -0.8097968697547913 -0.16449210047721863 -0.07832957059144974 0.11189938336610794 0.02467346377670765 -0.7222595810890198 -0.8143720030784607 -0.15889713168144226 -0.07721057534217834 0.11301837861537933 -0.2984206766371183 -0.11275822431595718 0.3131424390215979 -2.2179521370765576 -2.219471746443652 -0.00851120839795854 0.0 0.0 0.0 0.0 0.0 0.0 -7.161191323425966 -0.1007191591489707 -0.29166933649337984 -0.3565213107825954 -0.1617031244013215 0.517674924421217 -0.2984301935029837 -0.11275507530515129 0.3131843183387717 -2.217827088832791 -2.2194802147226973 -0.008179933726190749 0.0 0.0 0.0 0.0 0.0 0.0
6659.264 3.5561831257524545e-17 -1.5707963267948966 1.5707963267948968 -1.5707963267948966 -1.5707963267948966 0.0 0.0 0.0 0.0 0.0 0.0 0.0 0.0 0.0 0.0 0.0 0.0 0.0 2.072980291448686e-26 -0.620381750820575 -0.8463465614411209 -0.2525548825603051 -1.439250644349618e-11 0.0 2.378952054656901e-25 -7.1458666999402505 -7.145866699940252 -1.0424175499402515 -5.974879480466363e-11 0.0 3.5952674807049334e-05 -1.5707362333880823 1.5708370208740234 -1.5707362333880823 -1.570850674306051 7.190534961409867e-05 0.0 0.0 -0.0 0.0 0.0 0.0 0.02243042178452015 -0.7155304551124573 -0.806746780872345 -0.15665914118289948 -0.08056755363941193 0.11301837861537933 0.02467346377670765 -0.7177734971046448 -0.8143720030784607 -0.15889713168144226 -0.07721057534217834 0.11301837861537933 -0.29842751573214144 -0.11276121795400214 0.31314913131089234 -2.217919663281667 -2.21949280620041 -0.008418629590463652 0.0 0.0 0.0 0.0 0.0 0.0 -6.56801152422698 0.239315408730163 -0.32426876353791195 -0.39492832309643583 -0.0736323299884727 0.5234223806061241 -0.2984301935029837 -0.11275507530515129 0.3131843183387717 -2.217827088832791 -2.2194802147226973 -0.008179933726190749 0.0 0.0 0.0 0.0 0.0 0.0
6659.272 3.5561831257524545e-17 -1.5707963267948966 1.5707963267948968 -1.5707963267948966 -1.5707963267948966 0.0 0.0 0.0 0.0 0.0 0.0 0.0 0.0 0.0 0.0 0.0 0.0 0.0 2.072980291448686e-26 -0.620381750820575 -0.8463465614411209 -0.2525548825603051 -1.439250644349618e-11 0.0 2.378952054656901e-25 -7.1458666999402505 -7.145866699940252 -1.0424175499402515 -5.974879480466363e-11 0.0 0.0 -1.5707009474383753 1.5708250999450684 -1.5707362333880823 -1.5708382765399378 5.992112710373476e-05 0.0 0.0 -0.0 0.0 0.0 0.0 0.0314025916159153 -0.7222595810890198 -0.8265722990036011 -0.16449210047721863 -0.07944856584072113 0.11189938336610794 0.02467346377670765 -0.7155304551124573 -0.8143720030784607 -0.15889713168144226 -0.07609158009290695 0.11301837861537933 -0.2984382440608926 -0.11275151027618284 0.3131421493874346 -2.217964126417257 -2.2194842827388572 -0.008430993898970474 0.0 0.0 0.0 0.0 0.0 0.0 -6.156733453700891 0.7654481009968852 -1.0326032062626123 -0.43262088836954354 -0.015207353438820676 0.5185619062463792 -0.2984301935029837 -0.11275507530515129 0.3131843183387717 -2.217827088832791 -2.2194802147226973 -0.008179933726190749 0.0 0.0 0.0 0.0 0.0 0.0
6659.28 3.5561831257524545e-17 -1.5707963267948966 1.5707963267948968 -1.5707963267948966 -1.5707963267948966 0.0 0.0 0.0 0.0 0.0 0.0 0.0 0.0 0.0 0.0 0.0 0.0 0.0 2.072980291448686e-26 -0.620381750820575 -0.8463465614411209 -0.2525548825603051 -1.439250644349618e-11 0.0 2.378952054656901e-25 -7.1458666999402505 -7.145866699940252 -1.0424175499402515 -5.974879480466363e-11 0.0 1.1984225238848012e-05 -1.5707362333880823 1.5708131790161133 -1.5707362333880823 -1.5708864370929163 3.5952674807049334e-05 0.0 0.0 -0.0 0.0 0.0 0.0 0.02243042178452015 -0.7155304551124573 -0.8113219141960144 -0.16001611948013306 -0.07832957059144974 0.11525636911392212 0.02467346377670765 -0.7222595810890198 -0.8143720030784607 -0.15777812898159027 -0.07609158009290695 0.11301837861537933 -0.2984321929265601 -0.11275114716674478 0.3131562733413355 -2.2178766674563146 -2.2194763625518754 -0.00843189532713005 0.0 0.0 0.0 0.0 0.0 0.0 -6.390750399976445 0.34154854836441556 -0.45372407697924294 -0.3928225539442072 -0.06348391066217896 0.5338806198275343 -0.2984301935029837 -0.11275507530515129 0.3131843183387717 -2.217827088832791 -2.2194802147226973 -0.008179933726190749 0.0 0.0 0.0 0.0 0.0 0.0
6659.288 3.5561831257524545e-17 -1.5707963267948966 1.5707963267948968 -1.5707963267948966 -1.5707963267948966 0.0 0.0 0.0 0.0 0.0 0.0 0.0 0.0 0.0 0.0 0.0 0.0 0.0 2.072980291448686e-26 -0.620381750820575 -0.8463465614411209 -0.2525548825603051 -1.439250644349618e-11 0.0 2.378952054656901e-25 -7.1458666999402505 -7.145866699940252 -1.0424175499402515 -5.974879480466363e-11 0.0 2.3968450477696024e-05 -1.5707243124591272 1.5708489418029785 -1.5707123915301722 -1.5708625952350062 0.000107858024421148 0.0 0.0 -0.0 0.0 0.0 0.0 0.02467346377670765 -0.7110443711280823 -0.8158970475196838 -0.15889713168144226 -0.07721057534217834 0.1186133474111557 0.02467346377670765 -0.7132874131202698 -0.8143720030784607 -0.15889713168144226 -0.07609158009290695 0.11525636911392212 -0.29842783896858777 -0.11275662502226667 0.3131399855033927 -2.2179906129052633 -2.219457272014619 -0.008484782062091571 0.0 0.0 0.0 0.0 0.0 0.0 -5.976571044941382 0.6479457317526065 -0.6797801978643865 -0.41277184355096597 -0.004854806629308611 0.5497888356900202 -0.2984301935029837 -0.11275507530515129 0.3131843183387717 -2.217827088832791 -2.2194802147226973 -0.008179933726190749 0.0 0.0 0.0 0.0 0.0 0.0
6659.295999999999 3.5561831257524545e-17 -1.5707963267948966 1.5707963267948968 -1.5707963267948966 -1.5707963267948966 0.0 0.0 0.0 0.0 0.0 0.0 0.0 0.0 0.0 0.0 0.0 0.0 0.0 2.072980291448686e-26 -0.620381750820575 -0.8463465614411209 -0.2525548825603051 -1.439250644349618e-11 0.0 2.378952054656901e-25 -7.1458666999402505 -7.145866699940252 -1.0424175499402515 -5.974879480466363e-11 0.0 7.227985770441592e-05 -1.5707600752459925 1.5708250999450684 -1.5707243124591272 -1.570850674306051 1.1984225238848012e-05 0.0 0.0 -0.0 0.0 0.0 0.0 0.0269165076315403 -0.7222595810890198 -0.8113219141960144 -0.1544211506843567 -0.08056755363941193 0.11078038811683655 0.02467346377670765 -0.7222595810890198 -0.8143720030784607 -0.15889713168144226 -0.07609158009290695 0.11078038811683655 -0.29841957917031003 -0.11277207281979883 0.3131587911007891 -2.217801110460157 -2.2195876065490707 -0.00839222829010251 0.0 0.0 0.0 0.0 0.0 0.0 -6.747191408912355 0.3303884444765728 -0.5758712674742112 -0.40230036189435137 -0.05644574956021695 0.5131536407186335 -0.2984301935029837 -0.11275507530515129 0.3131843183387717 -2.217827088832791 -2.2194802147226973 -0.008179933726190749 0.0 0.0 0.0 0.0 0.0 0.0
6659.304 3.5561831257524545e-17 -1.5707963267948966 1.5707963267948968 -1.5707963267948966 -1.5707963267948966 0.0 0.0 0.0 0.0 0.0 0.0 0.0 0.0 0.0 0.0 0.0 0.0 0.0 2.072980291448686e-26 -0.620381750820575 -0.8463465614411209 -0.2525548825603051 -1.439250644349618e-11 0.0 2.378952054656901e-25 -7.1458666999402505 -7.145866699940252 -1.0424175499402515 -5.974879480466363e-11 0.0 4.793690095539205e-05 -1.5707243124591272 1.5708489418029785 -1.5707243124591272 -1.5708382765399378 7.190534961409867e-05 0.0 0.0 -0.0 0.0 0.0 0.0 0.0314025916159153 -0.7065582871437073 -0.8219972252845764 -0.16001611948013306 -0.07497258484363556 0.11301837861537933 0.02467346377670765 -0.7155304551124573 -0.8143720030784607 -0.15889713168144226 -0.07832957059144974 0.11189938336610794 -0.29842611697776744 -0.11276578900081824 0.3131409876638239 -2.2179303714936145 -2.21953009109731 -0.008444631350451197 0.0 0.0 0.0 0.0 0.0 0.0 -5.503894771272879 1.0306732892419859 -0.924964785165149 -0.4337370653170297 0.050235652987622725 0.5241727878336337 -0.2984301935029837 -0.11275507530515129 0.3131843183387717 -2.217827088832791 -2.2194802147226973 -0.008179933726190749 0.0 0.0 0.0 0.0 0.0 0.0
6659.312 3.5561831257524545e-17 -1.5707963267948966 1.5707963267948968 -1.5707963267948966 -1.5707963267948966 0.0 0.0 0.0 0.0 0.0 0.0 0.0 0.0 0.0 0.0 0.0 0.0 0.0 2.072980291448686e-26 -0.620381750820575 -0.8463465614411209 -0.2525548825603051 -1.439250644349618e-11 0.0 2.378952054656901e-25 -7.1458666999402505 -7.145866699940252 -1.0424175499402515 -5.974879480466363e-11 0.0 2.3968450477696024e-05 -1.5707481543170374 1.5708489418029785 -1.5707243124591272 -1.5708382765399378 5.992112710373476e-05 0.0 0.0 -0.0 0.0 0.0 0.0 0.0269165076315403 -0.7110443711280823 -0.8311474323272705 -0.16001611948013306 -0.08056755363941193 0.11749435216188431 0.02467346377670765 -0.7177734971046448 -0.8143720030784607 -0.15665914118289948 -0.07832957059144974 0.11413737386465073 -0.2984249758793068 -0.112758644883591 0.3131481050741746 -2.2179319223304987 -2.219504936466105 -0.008418254306631042 0.0 0.0 0.0 0.0 0.0 0.0 -5.3859397392343675 0.952463873661482 -1.3306064055110856 -0.4530886174472952 0.09437122298635811 0.5452147742042338 -0.2984301935029837 -0.11275507530515129 0.3131843183387717 -2.217827088832791 -2.2194802147226973 -0.008179933726190749 0.0 0.0 0.0 0.0 0.0 0.0
6659.32 3.5561831257524545e-17 -1.5707963267948966 1.5707963267948968 -1.5707963267948966 -1.5707963267948966 0.0 0.0 0.0 0.0 0.0 0.0 0.0 0.0 0.0 0.0 0.0 0.0 0.0 2.072980291448686e-26 -0.620381750820575 -0.8463465614411209 -0.2525548825603051 -1.439250644349618e-11 0.0 2.378952054656901e-25 -7.1458666999402505 -7.145866699940252 -1.0424175499402515 -5.974879480466363e-11 0.0 4.793690095539205e-05 -1.5706647078143519 1.5708489418029785 -1.5707243124591272 -1.5708625952350062 2.3968450477696024e-05 0.0 0.0 -0.0 0.0 0.0 0.0 0.02467346377670765 -0.7245026230812073 -0.806746780872345 -0.16113510727882385 -0.067139632999897 0.11301837861537933 0.02467346377670765 -0.7177734971046448 -0.8143720030784607 -0.15665914118289948 -0.07832957059144974 0.11189938336610794 -0.29843572737090956 -0.11276376461433432 0.31312320894880086 -2.217894603221775 -2.2196009433757844 -0.008537910592249204 0.0 0.0 0.0 0.0 0.0 0.0 -7.042902760816603 0.15517657661558265 -0.22895743820702247 -0.3255905030071854 -0.14160692265827374 0.523020274596328 -0.2984301935029837 -0.11275507530515129 0.3131843183387717 -2.217827088832791 -2.2194802147226973 -0.008179933726190749 0.0 0.0 0.0 0.0 0.0 0.0
6659.3279999999995 3.5561831257524545e-17 -1.5707963267948966 1.5707963267948968 -1.5707963267948966 -1.5707963267948966 0.0 0.0 0.0 0.0 0.0 0.0 0.0 0.0 0.0 0.0 0.0 0.0 0.0 2.072980291448686e-26 -0.620381750820575 -0.8463465614411209 -0.2525548825603051 -1.439250644349618e-11 0.0 2.378952054656901e-25 -7.1458666999402505 -7.145866699940252 -1.0424175499402515 -5.974879480466363e-11 0.0 5.992112710373476e-05 -1.5707123915301722 1.5708131790161133 -1.5707243124591272 -1.5708382765399378 7.190534961409867e-05 0.0 0.0 -0.0 0.0 0.0 0.0 0.02467346377670765 -0.7110443711280823 -0.8082718253135681 -0.16225410997867584 -0.07944856584072113 0.11189938336610794 0.02467346377670765 -0.7200165390968323 -0.8143720030784607 -0.16001611948013306 -0.07721057534217834 0.11301837861537933 -0.2984296463469769 -0.11276940232045714 0.31314810821102984 -2.217905152807998 -2.219531535737895 -0.008418075992873362 0.0 0.0 0.0 0.0 0.0 0.0 -6.271963121786575 0.4301361795414947 -0.26970854955590734 -0.4054625878658857 -0.07965527136537275 0.5181767315221129 -0.2984301935029837 -0.11275507530515129 0.3131843183387717 -2.217827088832791 -2.2194802147226973 -0.008179933726190749 0.0 0.0 0.0 0.0 0.0 0.0
6659.335999999999 3.5561831257524545e-17 -1.5707963267948966 1.5707963267948968 -1.5707963267948966 -1.5707963267948966 0.0 0.0 0.0 0.0 0.0 0.0 0.0 0.0 0.0 0.0 0.0 0.0 0.0 2.072980291448686e-26 -0.620381750820575 -0.8463465614411209 -0.2525548825603051 -1.439250644349618e-11 0.0 2.378952054656901e-25 -7.1458666999402505 -7.145866699940252 -1.0424175499402515 -5.974879480466363e-11 0.0 4.793690095539205e-05 -1.5707481543170374 1.5708131790161133 -1.5707481543170374 -1.5708983580218714 0.000107858024421148 0.0 0.0 -0.0 0.0 0.0 0.0 0.02243042178452015 -0.7289887070655823 -0.8204721808433533 -0.1510641723871231 -0.08951950818300247 0.11413737386465073 0.02467346377670765 -0.7200165390968323 -0.8143720030784607 -0.15889713168144226 -0.07944856584072113 0.11301837861537933 -0.29842719987029964 -0.11276090744187298 0.3131608570342917 -2.2178985053790368 -2.219418439858303 -0.00841825231559363 0.0 0.0 0.0 0.0 0.0 0.0 -6.747803108741177 0.19032296555061962 -1.0548346566229438 -0.43214893750471406 -0.0003104036041657104 0.5290730501556344 -0.2984301935029837 -0.11275507530515129 0.3131843183387717 -2.217827088832791 -2.2194802147226973 -0.008179933726190749 0.0 0.0 0.0 0.0 0.0 0.0
6659.344 3.5561831257524545e-17 -1.5707963267948966 1.5707963267948968 -1.5707963267948966 -1.5707963267948966 0.0 0.0 0.0 0.0 0.0 0.0 0.0 0.0 0.0 0.0 0.0 0.0 0.0 2.072980291448686e-26 -0.620381750820575 -0.8463465614411209 -0.2525548825603051 -1.439250644349618e-11 0.0 2.378952054656901e-25 -7.1458666999402505 -7.145866699940252 -1.0424175499402515 -5.974879480466363e-11 0.0 2.3968450477696024e-05 -1.5707243124591272 1.5708732604980469 -1.5707481543170374 -1.5708263556109827 5.992112710373476e-05 0.0 0.0 -0.0 0.0 0.0 0.0 0.02243042178452015 -0.6975861191749573 -0.8235222101211548 -0.15889713168144226 -0.0839245393872261 0.11078038811683655 0.02467346377670765 -0.7200165390968323 -0.8143720030784607 -0.15665914118289948 -0.08056755363941193 0.11301837861537933 -0.298428771265347 -0.11275960663713469 0.31313575307830865 -2.2179498916273523 -2.219523189020926 -0.008432049028248111 0.0 0.0 0.0 0.0 0.0 0.0 -4.9690741454323675 0.8123724886446674 -1.0166967137789888 -0.4573662658217709 0.10719060872842584 0.514133268280311 -0.2984301935029837 -0.11275507530515129 0.3131843183387717 -2.217827088832791 -2.2194802147226973 -0.008179933726190749 0.0 0.0 0.0 0.0 0.0 0.0
6659.352 3.5561831257524545e-17 -1.5707963267948966 1.5707963267948968 -1.5707963267948966 -1.5707963267948966 0.0 0.0 0.0 0.0 0.0 0.0 0.0 0.0 0.0 0.0 0.0 0.0 0.0 2.072980291448686e-26 -0.620381750820575 -0.8463465614411209 -0.2525548825603051 -1.439250644349618e-11 0.0 2.378952054656901e-25 -7.1458666999402505 -7.145866699940252 -1.0424175499402515 -5.974879480466363e-11 0.0 2.3968450477696024e-05 -1.5707243124591272 1.5708489418029785 -1.5707362333880823 -1.5708382765399378 8.388957940042019e-05 0.0 0.0 -0.0 0.0 0.0 0.0 0.02467346377670765 -0.7222595810890198 -0.8052217364311218 -0.1533021628856659 -0.07049661129713058 0.11637535691261292 0.02467346377670765 -0.7200165390968323 -0.8143720030784607 -0.16001611948013306 -0.07721057534217834 0.11301837861537933 -0.29842980194721047 -0.11275864449199646 0.3131420050478566 -2.217964325104617 -2.21948435726324 -0.008431401583686195 0.0 0.0 0.0 0.0 0.0 0.0 -6.983397769333333 0.23106500138453528 -0.3302532846940767 -0.34739046500800985 -0.09184530014290047 0.5389209599793694 -0.2984301935029837 -0.11275507530515129 0.3131843183387717 -2.217827088832791 -2.2194802147226973 -0.008179933726190749 0.0 0.0 0.0 0.0 0.0 0.0
6659.36 3.5561831257524545e-17 -1.5707963267948966 1.5707963267948968 -1.5707963267948966 -1.5707963267948966 0.0 0.0 0.0 0.0 0.0 0.0 0.0 0.0 0.0 0.0 0.0 0.0 0.0 2.072980291448686e-26 -0.620381750820575 -0.8463465614411209 -0.2525548825603051 -1.439250644349618e-11 0.0 2.378952054656901e-25 -7.1458666999402505 -7.145866699940252 -1.0424175499402515 -5.974879480466363e-11 0.0 3.5952674807049334e-05 -1.5707362333880823 1.5708732604980469 -1.5707009474383753 -1.5708864370929163 5.992112710373476e-05 0.0 0.0 -0.0 0.0 0.0 0.0 0.01794433780014515 -0.7200165390968323 -0.8143720030784607 -0.1533021628856659 -0.07832957059144974 0.11413737386465073 0.02467346377670765 -0.7200165390968323 -0.8143720030784607 -0.15777812898159027 -0.07832957059144974 0.11301837861537933 -0.29842161212376794 -0.112758206260691 0.3131353206359551 -2.2179241496857225 -2.2195235816901158 -0.008537814086481077 0.0 0.0 0.0 0.0 0.0 0.0 -6.509291472092364 0.08674556875721143 -0.7360716444314594 -0.3717635728290986 -0.01825762060390731 0.5289724570566227 -0.2984301935029837 -0.11275507530515129 0.3131843183387717 -2.217827088832791 -2.2194802147226973 -0.008179933726190749 0.0 0.0 0.0 0.0 0.0 0.0
6659.3679999999995 3.5561831257524545e-17 -1.5707963267948966 1.5707963267948968 -1.5707963267948966 -1.5707963267948966 0.0 0.0 0.0 0.0 0.0 0.0 0.0 0.0 0.0 0.0 0.0 0.0 0.0 2.072980291448686e-26 -0.620381750820575 -0.8463465614411209 -0.2525548825603051 -1.439250644349618e-11 0.0 2.378952054656901e-25 -7.1458666999402505 -7.145866699940252 -1.0424175499402515 -5.974879480466363e-11 0.0 2.3968450477696024e-05 -1.5707009474383753 1.5708250999450684 -1.5707123915301722 -1.5708263556109827 8.388957940042019e-05 0.0 0.0 -0.0 0.0 0.0 0.0 0.0269165076315403 -0.7222595810890198 -0.8158970475196838 -0.15889713168144226 -0.0839245393872261 0.11301837861537933 0.02467346377670765 -0.7200165390968323 -0.8143720030784607 -0.15889713168144226 -0.07609158009290695 0.11301837861537933 -0.298433576281132 -0.11275962844026415 0.31314010719114055 -2.217981951853189 -2.219501959134876 -0.008444184430864525 0.0 0.0 0.0 0.0 0.0 0.0 -6.569783752368947 0.43235722908462454 -0.6814836007351432 -0.42626418222139706 -0.05359285246602948 0.5235007882169186 -0.2984301935029837 -0.11275507530515129 0.3131843183387717 -2.217827088832791 -2.2194802147226973 -0.008179933726190749 0.0 0.0 0.0 0.0 0.0 0.0
6659.375999999999 3.5561831257524545e-17 -1.5707963267948966 1.5707963267948968 -1.5707963267948966 -1.5707963267948966 0.0 0.0 0.0 0.0 0.0 0.0 0.0 0.0 0.0 0.0 0.0 0.0 0.0 2.072980291448686e-26 -0.620381750820575 -0.8463465614411209 -0.2525548825603051 -1.439250644349618e-11 0.0 2.378952054656901e-25 -7.1458666999402505 -7.145866699940252 -1.0424175499402515 -5.974879480466363e-11 0.0 5.992112710373476e-05 -1.5707243124591272 1.5708370208740234 -1.5707243124591272 -1.5708745161639612 3.5952674807049334e-05 0.0 0.0 -0.0 0.0 0.0 0.0 0.0291595496237278 -0.7200165390968323 -0.8082718253135681 -0.15665914118289948 -0.08056755363941193 0.11749435216188431 0.02467346377670765 -0.7222595810890198 -0.8143720030784607 -0.1544211506843567 -0.07832957059144974 0.11525636911392212 -0.2984257542060398 -0.11276639457382913 0.3131445701125257 -2.2178531029072426 -2.219559139411311 -0.008471567293754333 0.0 0.0 0.0 0.0 0.0 0.0 -6.74700482997389 0.5309623405545734 -0.39132824765295726 -0.4189356132559459 -0.08265294391253183 0.5440914573096335 -0.2984301935029837 -0.11275507530515129 0.3131843183387717 -2.217827088832791 -2.2194802147226973 -0.008179933726190749 0.0 0.0 0.0 0.0 0.0 0.0
6659.384 3.5561831257524545e-17 -1.5707963267948966 1.5707963267948968 -1.5707963267948966 -1.5707963267948966 0.0 0.0 0.0 0.0 0.0 0.0 0.0 0.0 0.0 0.0 0.0 0.0 0.0 2.072980291448686e-26 -0.620381750820575 -0.8463465614411209 -0.2525548825603051 -1.439250644349618e-11 0.0 2.378952054656901e-25 -7.1458666999402505 -7.145866699940252 -1.0424175499402515 -5.974879480466363e-11 0.0 3.5952674807049334e-05 -1.570688549672262 1.5708250999450684 -1.570688549672262 -1.5708745161639612 9.58738019107841e-05 0.0 0.0 -0.0 0.0 0.0 0.0 0.01794433780014515 -0.7155304551124573 -0.8128469586372375 -0.15665914118289948 -0.07161560654640198 0.11301837861537933 0.02018737979233265 -0.7222595810890198 -0.8143720030784607 -0.1544211506843567 -0.07721057534217834 0.11525636911392212 -0.2984322621076572 -0.11275921739109898 0.31313440148193816 -2.2179758226983766 -2.2194956683782276 -0.008537731430241436 0.0 0.0 0.0 0.0 0.0 0.0 -6.331210499639137 0.13642096805425313 -0.5953223928331662 -0.3446774892828726 -0.031021603186252897 0.5237244333353102 -0.2984301935029837 -0.11275507530515129 0.3131843183387717 -2.217827088832791 -2.2194802147226973 -0.008179933726190749 0.0 0.0 0.0 0.0 0.0 0.0
6659.392 3.5561831257524545e-17 -1.5707963267948966 1.5707963267948968 -1.5707963267948966 -1.5707963267948966 0.0 0.0 0.0 0.0 0.0 0.0 0.0 0.0 0.0 0.0 0.0 0.0 0.0 2.072980291448686e-26 -0.620381750820575 -0.8463465614411209 -0.2525548825603051 -1.439250644349618e-11 0.0 2.378952054656901e-25 -7.1458666999402505 -7.145866699940252 -1.0424175499402515 -5.974879480466363e-11 0.0 0.0 -1.5707481543170374 1.5708131790161133 -1.5707362333880823 -1.5708625952350062 7.190534961409867e-05 0.0 0.0 -0.0 0.0 0.0 0.0 0.02018737979233265 -0.7200165390968323 -0.8113219141960144 -0.1533021628856659 -0.08168654888868332 0.11413737386465073 0.0269165076315403 -0.7222595810890198 -0.8143720030784607 -0.15554013848304749 -0.07721057534217834 0.11301837861537933 -0.2984316206381944 -0.11274953861804934 0.31315981712118524 -2.2179358703216794 -2.2194291820700176 -0.008392186325781117 0.0 0.0 0.0 0.0 0.0 0.0 -6.62769799905153 0.13850681044622798 -0.6002069689594731 -0.39165440388035877 -0.03952805375240727 0.5288530898321735 -0.2984301935029837 -0.11275507530515129 0.3131843183387717 -2.217827088832791 -2.2194802147226973 -0.008179933726190749 0.0 0.0 0.0 0.0 0.0 0.0
6659.4 3.5561831257524545e-17 -1.5707963267948966 1.5707963267948968 -1.5707963267948966 -1.5707963267948966 0.0 0.0 0.0 0.0 0.0 0.0 0.0 0.0 0.0 0.0 0.0 0.0 0.0 2.072980291448686e-26 -0.620381750820575 -0.8463465614411209 -0.2525548825603051 -1.439250644349618e-11 0.0 2.378952054656901e-25 -7.1458666999402505 -7.145866699940252 -1.0424175499402515 -5.974879480466363e-11 0.0 4.793690095539205e-05 -1.5707481543170374 1.5708370208740234 -1.5707243124591272 -1.5708745161639612 4.793690095539205e-05 0.0 0.0 -0.0 0.0 0.0 0.0 0.0269165076315403 -0.7088013291358948 -0.8097968697547913 -0.1533021628856659 -0.07497258484363556 0.11637535691261292 0.02467346377670765 -0.7200165390968323 -0.8143720030784607 -0.15665914118289948 -0.07721057534217834 0.11525636911392212 -0.2984232616830815 -0.11276282679865159 0.31315168754644435 -2.2178678863814887 -2.2195206268022956 -0.008445082166083157 0.0 0.0 0.0 0.0 0.0 0.0 -6.0947054427794765 0.6652892590936875 -0.5305259127221912 -0.403870746850253 -0.0013205718322297994 0.5394585041545531 -0.2984301935029837 -0.11275507530515129 0.3131843183387717 -2.217827088832791 -2.2194802147226973 -0.008179933726190749 0.0 0.0 0.0 0.0 0.0 0.0
6659.407999999999 3.5561831257524545e-17 -1.5707963267948966 1.5707963267948968 -1.5707963267948966 -1.5707963267948966 0.0 0.0 0.0 0.0 0.0 0.0 0.0 0.0 0.0 0.0 0.0 0.0 0.0 2.072980291448686e-26 -0.620381750820575 -0.8463465614411209 -0.2525548825603051 -1.439250644349618e-11 0.0 2.378952054656901e-25 -7.1458666999402505 -7.145866699940252 -1.0424175499402515 -5.974879480466363e-11 0.0 3.5952674807049334e-05 -1.5707243124591272 1.5708489418029785 -1.5707123915301722 -1.570850674306051 4.793690095539205e-05 0.0 0.0 -0.0 0.0 0.0 0.0 0.0269165076315403 -0.7245026230812073 -0.8097968697547913 -0.15889713168144226 -0.06602063775062561 0.10966140031814575 0.02467346377670765 -0.7222595810890198 -0.8143720030784607 -0.15889713168144226 -0.07721057534217834 0.11189938336610794 -0.29842648689873347 -0.1127611832047126 0.3131399780404969 -2.217916887935067 -2.2195431002094246 -0.00847172977761426 0.0 0.0 0.0 0.0 0.0 0.0 -6.9250569606390595 0.2451297746681065 -0.4123087130237115 -0.3276628750429837 -0.10569907065557566 0.5076953333903105 -0.2984301935029837 -0.11275507530515129 0.3131843183387717 -2.217827088832791 -2.2194802147226973 -0.008179933726190749 0.0 0.0 0.0 0.0 0.0 0.0
6659.415999999999 3.5561831257524545e-17 -1.5707963267948966 1.5707963267948968 -1.5707963267948966 -1.5707963267948966 0.0 0.0 0.0 0.0 0.0 0.0 0.0 0.0 0.0 0.0 0.0 0.0 0.0 2.072980291448686e-26 -0.620381750820575 -0.8463465614411209 -0.2525548825603051 -1.439250644349618e-11 0.0 2.378952054656901e-25 -7.1458666999402505 -7.145866699940252 -1.0424175499402515 -5.974879480466363e-11 0.0 4.793690095539205e-05 -1.570676628743307 1.5708613395690918 -1.5707600752459925 -1.5708144346820276 9.58738019107841e-05 0.0 0.0 -0.0 0.0 0.0 0.0 0.0269165076315403 -0.7267456650733948 -0.8158970475196838 -0.16561108827590942 -0.0850435346364975 0.1186133474111557 0.02467346377670765 -0.7222595810890198 -0.8143720030784607 -0.15889713168144226 -0.07609158009290695 0.11525636911392212 -0.2984357234753439 -0.11276774606056743 0.3131260876208565 -2.2179807894731987 -2.2195278296208656 -0.00844512474826914 0.0 0.0 0.0 0.0 0.0 0.0 -6.806935492323315 0.4281317213199872 -0.5362276826083575 -0.4312049417847902 -0.11679740701379045 0.5490370723040315 -0.2984301935029837 -0.11275507530515129 0.3131843183387717 -2.217827088832791 -2.2194802147226973 -0.008179933726190749 0.0 0.0 0.0 0.0 0.0 0.0
6659.424 3.5561831257524545e-17 -1.5707963267948966 1.5707963267948968 -1.5707963267948966 -1.5707963267948966 0.0 0.0 0.0 0.0 0.0 0.0 0.0 0.0 0.0 0.0 0.0 0.0 0.0 2.072980291448686e-26 -0.620381750820575 -0.8463465614411209 -0.2525548825603051 -1.439250644349618e-11 0.0 2.378952054656901e-25 -7.1458666999402505 -7.145866699940252 -1.0424175499402515 -5.974879480466363e-11 0.0 -1.1746083394825746e-05 -1.570688549672262 1.5708613395690918 -1.5707123915301722 -1.5708745161639612 5.992112710373476e-05 0.0 0.0 -0.0 0.0 0.0 0.0 0.02467346377670765 -0.7245026230812073 -0.8219972252845764 -0.16113510727882385 -0.07385359704494476 0.11413737386465073 0.02467346377670765 -0.7222595810890198 -0.8143720030784607 -0.15889713168144226 -0.07609158009290695 0.11301837861537933 -0.29843660596658433 -0.1127449574640356 0.3131256146342907 -2.217995124830994 -2.2194890566329404 -0.008551742734353157 0.0 0.0 0.0 0.0 0.0 0.0 -6.451872723680909 0.39842632657715327 -0.9040310855619246 -0.3764668033206406 -0.03523047572362807 0.5288469273870371 -0.2984301935029837 -0.11275507530515129 0.3131843183387717 -2.217827088832791 -2.2194802147226973 -0.008179933726190749 0.0 0.0 0.0 0.0 0.0 0.0
6659.432 3.5561831257524545e-17 -1.5707963267948966 1.5707963267948968 -1.5707963267948966 -1.5707963267948966 0.0 0.0 0.0 0.0 0.0 0.0 0.0 0.0 0.0 0.0 0.0 0.0 0.0 2.072980291448686e-26 -0.620381750820575 -0.8463465614411209 -0.2525548825603051 -1.439250644349618e-11 0.0 2.378952054656901e-25 -7.1458666999402505 -7.145866699940252 -1.0424175499402515 -5.974879480466363e-11 0.0 5.992112710373476e-05 -1.5707243124591272 1.570777416229248 -1.5706647078143519 -1.5708625952350062 7.190534961409867e-05 0.0 0.0 -0.0 0.0 0.0 0.0 0.02467346377670765 -0.7357178330421448 -0.8128469586372375 -0.1544211506843567 -0.07049661129713058 0.11078038811683655 0.02467346377670765 -0.7222595810890198 -0.8143720030784607 -0.15777812898159027 -0.07609158009290695 0.11413737386465073 -0.2984257733914529 -0.1127674031789386 0.3131572745298494 -2.2178990779484216 -2.2195249794449197 -0.00845832115434268 0.0 0.0 0.0 0.0 0.0 0.0 -7.399611491567016 -0.013599111113041847 -0.6455344852778545 -0.32707348430504307 -0.10438832710462763 0.5129024581464179 -0.2984301935029837 -0.11275507530515129 0.3131843183387717 -2.217827088832791 -2.2194802147226973 -0.008179933726190749 0.0 0.0 0.0 0.0 0.0 0.0
6659.44 3.5561831257524545e-17 -1.5707963267948966 1.5707963267948968 -1.5707963267948966 -1.5707963267948966 0.0 0.0 0.0 0.0 0.0 0.0 0.0 0.0 0.0 0.0 0.0 0.0 0.0 2.072980291448686e-26 -0.620381750820575 -0.8463465614411209 -0.2525548825603051 -1.439250644349618e-11 0.0 2.378952054656901e-25 -7.1458666999402505 -7.145866699940252 -1.0424175499402515 -5.974879480466363e-11 0.0 -1.1746083394825746e-05 -1.5707724730121058 1.5708131790161133 -1.5707009474383753 -1.5708625952350062 9.58738019107841e-05 0.0 0.0 -0.0 0.0 0.0 0.0 0.02243042178452015 -0.7155304551124573 -0.817422091960907 -0.15665914118289948 -0.07273460179567337 0.11637535691261292 0.02018737979233265 -0.7222595810890198 -0.8143720030784607 -0.15777812898159027 -0.07609158009290695 0.11301837861537933 -0.29842611661749324 -0.11274601768032903 0.3131640652145039 -2.217981091390555 -2.2193948039339237 -0.008404399994633058 0.0 0.0 0.0 0.0 0.0 0.0 -6.154534276246905 0.4497786281614707 -0.7965232887504039 -0.37550074892212676 0.0008501607835549929 0.5395120183583477 -0.2984301935029837 -0.11275507530515129 0.3131843183387717 -2.217827088832791 -2.2194802147226973 -0.008179933726190749 0.0 0.0 0.0 0.0 0.0 0.0
6659.447999999999 3.5561831257524545e-17 -1.5707963267948966 1.5707963267948968 -1.5707963267948966 -1.5707963267948966 0.0 0.0 0.0 0.0 0.0 0.0 0.0 0.0 0.0 0.0 0.0 0.0 0.0 2.072980291448686e-26 -0.620381750820575 -0.8463465614411209 -0.2525548825603051 -1.439250644349618e-11 0.0 2.378952054656901e-25 -7.1458666999402505 -7.145866699940252 -1.0424175499402515 -5.974879480466363e-11 0.0 5.992112710373476e-05 -1.5707362333880823 1.5708250999450684 -1.5707243124591272 -1.5708864370929163 4.793690095539205e-05 0.0 0.0 -0.0 0.0 0.0 0.0 0.0269165076315403 -0.7379608750343323 -0.8189471364021301 -0.15554013848304749 -0.07161560654640198 0.1186133474111557 0.02467346377670765 -0.7200165390968323 -0.8143720030784607 -0.15889713168144226 -0.07609158009290695 0.11301837861537933 -0.2984248192694734 -0.11276543084264272 0.3131516961129989 -2.2178485572920774 -2.219527934475981 -0.008458230878566207 0.0 0.0 0.0 0.0 0.0 0.0 -7.282144445892098 0.2497991870690874 -0.890945021958957 -0.35382307728201057 -0.07902642780564091 0.5493849324142714 -0.2984301935029837 -0.11275507530515129 0.3131843183387717 -2.217827088832791 -2.2194802147226973 -0.008179933726190749 0.0 0.0 0.0 0.0 0.0 0.0
6659.456 3.5561831257524545e-17 -1.5707963267948966 1.5707963267948968 -1.5707963267948966 -1.5707963267948966 0.0 0.0 0.0 0.0 0.0 0.0 0.0 0.0 0.0 0.0 0.0 0.0 0.0 2.072980291448686e-26 -0.620381750820575 -0.8463465614411209 -0.2525548825603051 -1.439250644349618e-11 0.0 2.378952054656901e-25 -7.1458666999402505 -7.145866699940252 -1.0424175499402515 -5.974879480466363e-11 0.0 3.5952674807049334e-05 -1.5707123915301722 1.5708489418029785 -1.570676628743307 -1.5708263556109827 3.5952674807049334e-05 0.0 0.0 -0.0 0.0 0.0 0.0 0.0291595496237278 -0.7132874131202698 -0.8143720030784607 -0.16001611948013306 -0.07497258484363556 0.11525636911392212 0.02467346377670765 -0.7177734971046448 -0.8143720030784607 -0.15889713168144226 -0.07609158009290695 0.11525636911392212 -0.29842546036747775 -0.11276315662363373 0.3131333521130359 -2.21793962245333 -2.219592268221105 -0.00849788429792927 0.0 0.0 0.0 0.0 0.0 0.0 -6.154864396118184 0.7210381515188403 -0.5882417063560519 -0.40845279396417106 -0.03240726959192637 0.5340212917324573 -0.2984301935029837 -0.11275507530515129 0.3131843183387717 -2.217827088832791 -2.2194802147226973 -0.008179933726190749 0.0 0.0 0.0 0.0 0.0 0.0
6659.464 3.5561831257524545e-17 -1.5707963267948966 1.5707963267948968 -1.5707963267948966 -1.5707963267948966 0.0 0.0 0.0 0.0 0.0 0.0 0.0 0.0 0.0 0.0 0.0 0.0 0.0 2.072980291448686e-26 -0.620381750820575 -0.8463465614411209 -0.2525548825603051 -1.439250644349618e-11 0.0 2.378952054656901e-25 -7.1458666999402505 -7.145866699940252 -1.0424175499402515 -5.974879480466363e-11 0.0 1.1984225238848012e-05 -1.5707243124591272 1.5708613395690918 -1.5707243124591272 -1.5708382765399378 4.793690095539205e-05 0.0 0.0 -0.0 0.0 0.0 0.0 0.02467346377670765 -0.7312317490577698 -0.8036966919898987 -0.1544211506843567 -0.07721057534217834 0.10966140031814575 0.02467346377670765 -0.7155304551124573 -0.8143720030784607 -0.15889713168144226 -0.07609158009290695 0.11413737386465073 -0.29842914520244984 -0.11275504547149803 0.3131372855235578 -2.217949957249021 -2.2195230816236706 -0.008458595315405494 0.0 0.0 0.0 0.0 0.0 0.0 -7.516813648541534 -0.07605343718445247 -0.24027731315505288 -0.35339707573920476 -0.1486870400062368 0.5073879134542083 -0.2984301935029837 -0.11275507530515129 0.3131843183387717 -2.217827088832791 -2.2194802147226973 -0.008179933726190749 0.0 0.0 0.0 0.0 0.0 0.0
6659.472 3.5561831257524545e-17 -1.5707963267948966 1.5707963267948968 -1.5707963267948966 -1.5707963267948966 0.0 0.0 0.0 0.0 0.0 0.0 0.0 0.0 0.0 0.0 0.0 0.0 0.0 2.072980291448686e-26 -0.620381750820575 -0.8463465614411209 -0.2525548825603051 -1.439250644349618e-11 0.0 2.378952054656901e-25 -7.1458666999402505 -7.145866699940252 -1.0424175499402515 -5.974879480466363e-11 0.0 7.227985770441592e-05 -1.5707243124591272 1.5708489418029785 -1.5707600752459925 -1.5708263556109827 7.190534961409867e-05 0.0 0.0 -0.0 0.0 0.0 0.0 0.02243042178452015 -0.7222595810890198 -0.8158970475196838 -0.16225410997867584 -0.07049661129713058 0.11078038811683655 0.02467346377670765 -0.7177734971046448 -0.8143720030784607 -0.15889713168144226 -0.07609158009290695 0.11078038811683655 -0.2984263177174843 -0.11277406045404233 0.3131440324120751 -2.217891387696591 -2.2195453778488448 -0.008391563846453646 0.0 0.0 0.0 0.0 0.0 0.0 -6.569435274676997 0.20385512597457378 -0.6096084854148993 -0.3449694081730446 -0.07517048274378312 0.5130847241025185 -0.2984301935029837 -0.11275507530515129 0.3131843183387717 -2.217827088832791 -2.2194802147226973 -0.008179933726190749 0.0 0.0 0.0 0.0 0.0 0.0
6659.48 3.5561831257524545e-17 -1.5707963267948966 1.5707963267948968 -1.5707963267948966 -1.5707963267948966 0.0 0.0 0.0 0.0 0.0 0.0 0.0 0.0 0.0 0.0 0.0 0.0 0.0 2.072980291448686e-26 -0.620381750820575 -0.8463465614411209 -0.2525548825603051 -1.439250644349618e-11 0.0 2.378952054656901e-25 -7.1458666999402505 -7.145866699940252 -1.0424175499402515 -5.974879480466363e-11 0.0 3.5952674807049334e-05 -1.5707600752459925 1.5708489418029785 -1.570688549672262 -1.5708864370929163 8.388957940042019e-05 0.0 0.0 -0.0 0.0 0.0 0.0 0.02243042178452015 -0.7132874131202698 -0.817422091960907 -0.15665914118289948 -0.07161560654640198 0.11413737386465073 0.02467346377670765 -0.7177734971046448 -0.8143720030784607 -0.15554013848304749 -0.07609158009290695 0.11301837861537933 -0.29841875890724145 -0.1127582342391136 0.3131486417307533 -2.2179329868027717 -2.2194790478633997 -0.008498014082045674 0.0 0.0 0.0 0.0 0.0 0.0 -6.035953043394447 0.45970837112926144 -0.7967699628831956 -0.37116388924089894 0.01067213302947281 0.5291761073895953 -0.2984301935029837 -0.11275507530515129 0.3131843183387717 -2.217827088832791 -2.2194802147226973 -0.008179933726190749 0.0 0.0 0.0 0.0 0.0 0.0
6659.487999999999 3.5561831257524545e-17 -1.5707963267948966 1.5707963267948968 -1.5707963267948966 -1.5707963267948966 0.0 0.0 0.0 0.0 0.0 0.0 0.0 0.0 0.0 0.0 0.0 0.0 0.0 2.072980291448686e-26 -0.620381750820575 -0.8463465614411209 -0.2525548825603051 -1.439250644349618e-11 0.0 2.378952054656901e-25 -7.1458666999402505 -7.145866699940252 -1.0424175499402515 -5.974879480466363e-11 0.0 3.5952674807049334e-05 -1.5707009474383753 1.570885181427002 -1.5707362333880823 -1.5708625952350062 9.58738019107841e-05 0.0 0.0 -0.0 0.0 0.0 0.0 0.0269165076315403 -0.7155304551124573 -0.8250472545623779 -0.15665914118289948 -0.08168654888868332 0.11749435216188431 0.02467346377670765 -0.7222595810890198 -0.8143720030784607 -0.15889713168144226 -0.07497258484363556 0.11413737386465073 -0.29842922006526934 -0.11276016793330311 0.3131242235151062 -2.2179817005203772 -2.219501800157563 -0.008524499374973274 0.0 0.0 0.0 0.0 0.0 0.0 -5.859474763192875 0.7725514860699481 -1.134337346843554 -0.4436450114065795 0.05398394109502678 0.5449317950067363 -0.2984301935029837 -0.11275507530515129 0.3131843183387717 -2.217827088832791 -2.2194802147226973 -0.008179933726190749 0.0 0.0 0.0 0.0 0.0 0.0
6659.496 3.5561831257524545e-17 -1.5707963267948966 1.5707963267948968 -1.5707963267948966 -1.5707963267948966 0.0 0.0 0.0 0.0 0.0 0.0 0.0 0.0 0.0 0.0 0.0 0.0 0.0 2.072980291448686e-26 -0.620381750820575 -0.8463465614411209 -0.2525548825603051 -1.439250644349618e-11 0.0 2.378952054656901e-25 -7.1458666999402505 -7.145866699940252 -1.0424175499402515 -5.974879480466363e-11 0.0 1.1984225238848012e-05 -1.5707123915301722 1.5708370208740234 -1.5707009474383753 -1.5708382765399378 0.000107858024421148 0.0 0.0 -0.0 0.0 0.0 0.0 0.0291595496237278 -0.7312317490577698 -0.8204721808433533 -0.1533021628856659 -0.07609158009290695 0.11637535691261292 0.02467346377670765 -0.7177734971046448 -0.8143720030784607 -0.15889713168144226 -0.07944856584072113 0.11413737386465073 -0.29843115401518944 -0.11275505270170176 0.3131389946360356 -2.2180218384344306 -2.2194619218440463 -0.008470621462401623 0.0 0.0 0.0 0.0 0.0 0.0 -6.867413505431899 0.46964663163719333 -1.0063052884148658 -0.3927150900059666 -0.024524113891766747 0.5392959695144883 -0.2984301935029837 -0.11275507530515129 0.3131843183387717 -2.217827088832791 -2.2194802147226973 -0.008179933726190749 0.0 0.0 0.0 0.0 0.0 0.0
6659.504 3.5561831257524545e-17 -1.5707963267948966 1.5707963267948968 -1.5707963267948966 -1.5707963267948966 0.0 0.0 0.0 0.0 0.0 0.0 0.0 0.0 0.0 0.0 0.0 0.0 0.0 2.072980291448686e-26 -0.620381750820575 -0.8463465614411209 -0.2525548825603051 -1.439250644349618e-11 0.0 2.378952054656901e-25 -7.1458666999402505 -7.145866699940252 -1.0424175499402515 -5.974879480466363e-11 0.0 0.0 -1.5707362333880823 1.5708732604980469 -1.5707123915301722 -1.5708625952350062 8.388957940042019e-05 0.0 0.0 -0.0 0.0 0.0 0.0 0.02018737979233265 -0.7200165390968323 -0.8113219141960144 -0.15889713168144226 -0.07944856584072113 0.11637535691261292 0.02467346377670765 -0.7155304551124573 -0.8143720030784607 -0.15889713168144226 -0.07385359704494476 0.11301837861537933 -0.2984266074449779 -0.11274944864018813 0.31313628232970886 -2.2179969030750315 -2.219463493524563 -0.008498721773086795 0.0 0.0 0.0 0.0 0.0 0.0 -6.627680763998926 0.1724164749436942 -0.4790983665612647 -0.38413239630941265 -0.07584357726085017 0.5389694020175441 -0.2984301935029837 -0.11275507530515129 0.3131843183387717 -2.217827088832791 -2.2194802147226973 -0.008179933726190749 0.0 0.0 0.0 0.0 0.0 0.0
6659.512 3.5561831257524545e-17 -1.5707963267948966 1.5707963267948968 -1.5707963267948966 -1.5707963267948966 0.0 0.0 0.0 0.0 0.0 0.0 0.0 0.0 0.0 0.0 0.0 0.0 0.0 2.072980291448686e-26 -0.620381750820575 -0.8463465614411209 -0.2525548825603051 -1.439250644349618e-11 0.0 2.378952054656901e-25 -7.1458666999402505 -7.145866699940252 -1.0424175499402515 -5.974879480466363e-11 0.0 5.992112710373476e-05 -1.5707481543170374 1.5708250999450684 -1.5707123915301722 -1.5708625952350062 8.388957940042019e-05 0.0 0.0 -0.0 0.0 0.0 0.0 0.02467346377670765 -0.7110443711280823 -0.8250472545623779 -0.15889713168144226 -0.07832957059144974 0.11301837861537933 0.02467346377670765 -0.7245026230812073 -0.8143720030784607 -0.15889713168144226 -0.07609158009290695 0.11301837861537933 -0.29842191350669967 -0.11276739029485956 0.3131542224502228 -2.217900407609674 -2.2194999084720597 -0.008431751759279458 0.0 0.0 0.0 0.0 0.0 0.0 -5.622075247221782 0.696155979777638 -1.0853092341126411 -0.42171230662578485 0.059163410184205706 0.5242607642156638 -0.2984301935029837 -0.11275507530515129 0.3131843183387717 -2.217827088832791 -2.2194802147226973 -0.008179933726190749 0.0 0.0 0.0 0.0 0.0 0.0
6659.5199999999995 3.5561831257524545e-17 -1.5707963267948966 1.5707963267948968 -1.5707963267948966 -1.5707963267948966 0.0 0.0 0.0 0.0 0.0 0.0 0.0 0.0 0.0 0.0 0.0 0.0 0.0 2.072980291448686e-26 -0.620381750820575 -0.8463465614411209 -0.2525548825603051 -1.439250644349618e-11 0.0 2.378952054656901e-25 -7.1458666999402505 -7.145866699940252 -1.0424175499402515 -5.974879480466363e-11 0.0 3.5952674807049334e-05 -1.5707481543170374 1.5708250999450684 -1.5707009474383753 -1.5708864370929163 5.992112710373476e-05 0.0 0.0 -0.0 0.0 0.0 0.0 0.02243042178452015 -0.7267456650733948 -0.8158970475196838 -0.16001611948013306 -0.09287648648023605 0.11189938336610794 0.02467346377670765 -0.7200165390968323 -0.8143720030784607 -0.15889713168144226 -0.07609158009290695 0.11301837861537933 -0.2984236748548711 -0.11275826600953469 0.3131532606998236 -2.217894266630122 -2.2194936587277323 -0.008471025444675212 0.0 0.0 0.0 0.0 0.0 0.0 -6.806320532331919 0.13159592317833738 -0.6578958828870706 -0.44315428675694896 -0.08046218283814915 0.5181273388163049 -0.2984301935029837 -0.11275507530515129 0.3131843183387717 -2.217827088832791 -2.2194802147226973 -0.008179933726190749 0.0 0.0 0.0 0.0 0.0 0.0
6659.527999999999 3.5561831257524545e-17 -1.5707963267948966 1.5707963267948968 -1.5707963267948966 -1.5707963267948966 0.0 0.0 0.0 0.0 0.0 0.0 0.0 0.0 0.0 0.0 0.0 0.0 0.0 2.072980291448686e-26 -0.620381750820575 -0.8463465614411209 -0.2525548825603051 -1.439250644349618e-11 0.0 2.378952054656901e-25 -7.1458666999402505 -7.145866699940252 -1.0424175499402515 -5.974879480466363e-11 0.0 -1.1746083394825746e-05 -1.5707243124591272 1.5708250999450684 -1.5707481543170374 -1.5708382765399378 7.190534961409867e-05 0.0 0.0 -0.0 0.0 0.0 0.0 0.02243042178452015 -0.6953430771827698 -0.8235222101211548 -0.15665914118289948 -0.07944856584072113 0.11078038811683655 0.02467346377670765 -0.7200165390968323 -0.8143720030784607 -0.15889713168144226 -0.07832957059144974 0.11189938336610794 -0.29843678364432846 -0.11274802177506474 0.31315014202669 -2.2179729110632036 -2.2194403854808455 -0.008391772955672004 0.0 0.0 0.0 0.0 0.0 0.0 -4.850522419873238 0.8580007944041242 -1.0648076881444841 -0.4402263386674775 0.1315202256536209 0.5143329035572689 -0.2984301935029837 -0.11275507530515129 0.3131843183387717 -2.217827088832791 -2.2194802147226973 -0.008179933726190749 0.0 0.0 0.0 0.0 0.0 0.0
6659.536 3.5561831257524545e-17 -1.5707963267948966 1.5707963267948968 -1.5707963267948966 -1.5707963267948966 0.0 0.0 0.0 0.0 0.0 0.0 0.0 0.0 0.0 0.0 0.0 0.0 0.0 2.072980291448686e-26 -0.620381750820575 -0.8463465614411209 -0.2525548825603051 -1.439250644349618e-11 0.0 2.378952054656901e-25 -7.1458666999402505 -7.145866699940252 -1.0424175499402515 -5.974879480466363e-11 0.0 4.793690095539205e-05 -1.5707123915301722 1.5708613395690918 -1.5707243124591272 -1.5708382765399378 5.992112710373476e-05 0.0 0.0 -0.0 0.0 0.0 0.0 0.02243042178452015 -0.7245026230812073 -0.806746780872345 -0.15665914118289948 -0.08056755363941193 0.1197323426604271 0.02467346377670765 -0.7200165390968323 -0.8143720030784607 -0.16001611948013306 -0.07497258484363556 0.11637535691261292 -0.29842701297331187 -0.1127657704075565 0.31313372679624535 -2.2179291750098336 -2.2195555370086266 -0.008471694447009865 0.0 0.0 0.0 0.0 0.0 0.0 -7.042448605360711 0.16340475407808264 -0.3251268686388955 -0.38871874385714694 -0.11293552773682675 0.554298633898894 -0.2984301935029837 -0.11275507530515129 0.3131843183387717 -2.217827088832791 -2.2194802147226973 -0.008179933726190749 0.0 0.0 0.0 0.0 0.0 0.0
6659.544 3.5561831257524545e-17 -1.5707963267948966 1.5707963267948968 -1.5707963267948966 -1.5707963267948966 0.0 0.0 0.0 0.0 0.0 0.0 0.0 0.0 0.0 0.0 0.0 0.0 0.0 2.072980291448686e-26 -0.620381750820575 -0.8463465614411209 -0.2525548825603051 -1.439250644349618e-11 0.0 2.378952054656901e-25 -7.1458666999402505 -7.145866699940252 -1.0424175499402515 -5.974879480466363e-11 0.0 2.3968450477696024e-05 -1.5707009474383753 1.5708370208740234 -1.5707362333880823 -1.5708382765399378 9.58738019107841e-05 0.0 0.0 -0.0 0.0 0.0 0.0 0.02467346377670765 -0.7245026230812073 -0.8097968697547913 -0.16337309777736664 -0.07273460179567337 0.1186133474111557 0.02467346377670765 -0.7200165390968323 -0.8143720030784607 -0.16001611948013306 -0.07609158009290695 0.11413737386465073 -0.29843455515112427 -0.11275864964285119 0.3131385896247639 -2.2179832473463326 -2.2194768083605774 -0.008444067398468572 0.0 0.0 0.0 0.0 0.0 0.0 -6.924620506525919 0.28704930737275025 -0.3144655153854357 -0.36239964827224364 -0.13501666120010836 0.549002100917995 -0.2984301935029837 -0.11275507530515129 0.3131843183387717 -2.217827088832791 -2.2194802147226973 -0.008179933726190749 0.0 0.0 0.0 0.0 0.0 0.0
6659.552 3.5561831257524545e-17 -1.5707963267948966 1.5707963267948968 -1.5707963267948966 -1.5707963267948966 0.0 0.0 0.0 0.0 0.0 0.0 0.0 0.0 0.0 0.0 0.0 0.0 0.0 2.072980291448686e-26 -0.620381750820575 -0.8463465614411209 -0.2525548825603051 -1.439250644349618e-11 0.0 2.378952054656901e-25 -7.1458666999402505 -7.145866699940252 -1.0424175499402515 -5.974879480466363e-11 0.0 0.0 -1.5707481543170374 1.5708489418029785 -1.5707009474383753 -1.5708382765399378 3.5952674807049334e-05 0.0 0.0 -0.0 0.0 0.0 0.0 0.02243042178452015 -0.7110443711280823 -0.817422091960907 -0.16113510727882385 -0.07049661129713058 0.11525636911392212 0.02467346377670765 -0.7200165390968323 -0.8143720030784607 -0.16001611948013306 -0.07609158009290695 0.11189938336610794 -0.2984257532770387 -0.11275147577624223 0.31314611098953654 -2.2179437101536528 -2.219516564231414 -0.008444398974693392 0.0 0.0 0.0 0.0 0.0 0.0 -5.9172951561870315 0.5216402129034525 -0.6993290341392392 -0.3710811773778683 -0.008558700852878203 0.5342417336336324 -0.2984301935029837 -0.11275507530515129 0.3131843183387717 -2.217827088832791 -2.2194802147226973 -0.008179933726190749 0.0 0.0 0.0 0.0 0.0 0.0
6659.5599999999995 3.5561831257524545e-17 -1.5707963267948966 1.5707963267948968 -1.5707963267948966 -1.5707963267948966 0.0 0.0 0.0 0.0 0.0 0.0 0.0 0.0 0.0 0.0 0.0 0.0 0.0 2.072980291448686e-26 -0.620381750820575 -0.8463465614411209 -0.2525548825603051 -1.439250644349618e-11 0.0 2.378952054656901e-25 -7.1458666999402505 -7.145866699940252 -1.0424175499402515 -5.974879480466363e-11 0.0 2.3968450477696024e-05 -1.5707600752459925 1.5708131790161133 -1.5707009474383753 -1.5708625952350062 4.793690095539205e-05 0.0 0.0 -0.0 0.0 0.0 0.0 0.0269165076315403 -0.7132874131202698 -0.8143720030784607 -0.16113510727882385 -0.07161560654640198 0.11413737386465073 0.02467346377670765 -0.7222595810890198 -0.8143720030784607 -0.16001611948013306 -0.07609158009290695 0.11301837861537933 -0.2984240887683829 -0.11275667122022381 0.3131603642083389 -2.2178944294715888 -2.219493799056314 -0.008418209221877146 0.0 0.0 0.0 0.0 0.0 0.0 -6.154646093806213 0.6072245249064695 -0.5638627891885746 -0.38339830232861455 -0.03958458760650454 0.5288523308593135 -0.2984301935029837 -0.11275507530515129 0.3131843183387717 -2.217827088832791 -2.2194802147226973 -0.008179933726190749 0.0 0.0 0.0 0.0 0.0 0.0
6659.567999999999 3.5561831257524545e-17 -1.5707963267948966 1.5707963267948968 -1.5707963267948966 -1.5707963267948966 0.0 0.0 0.0 0.0 0.0 0.0 0.0 0.0 0.0 0.0 0.0 0.0 0.0 2.072980291448686e-26 -0.620381750820575 -0.8463465614411209 -0.2525548825603051 -1.439250644349618e-11 0.0 2.378952054656901e-25 -7.1458666999402505 -7.145866699940252 -1.0424175499402515 -5.974879480466363e-11 0.0 4.793690095539205e-05 -1.5707243124591272 1.5708250999450684 -1.5707600752459925 -1.5708745161639612 4.793690095539205e-05 0.0 0.0 -0.0 0.0 0.0 0.0 0.0269165076315403 -0.7267456650733948 -0.8052217364311218 -0.16113510727882385 -0.06937761604785919 0.11301837861537933 0.02467346377670765 -0.7222595810890198 -0.8143720030784607 -0.16001611948013306 -0.08056755363941193 0.11301837861537933 -0.2984310384680505 -0.11276285696735558 0.31315118214390003 -2.217855865652447 -2.2195089708490596 -0.008418517000758135 0.0 0.0 0.0 0.0 0.0 0.0 -7.220863147502398 0.184300049767009 -0.16084309859168688 -0.338381247562952 -0.1620108264967165 0.5229105127845414 -0.2984301935029837 -0.11275507530515129 0.3131843183387717 -2.217827088832791 -2.2194802147226973 -0.008179933726190749 0.0 0.0 0.0 0.0 0.0 0.0
6659.576 3.5561831257524545e-17 -1.5707963267948966 1.5707963267948968 -1.5707963267948966 -1.5707963267948966 0.0 0.0 0.0 0.0 0.0 0.0 0.0 0.0 0.0 0.0 0.0 0.0 0.0 2.072980291448686e-26 -0.620381750820575 -0.8463465614411209 -0.2525548825603051 -1.439250644349618e-11 0.0 2.378952054656901e-25 -7.1458666999402505 -7.145866699940252 -1.0424175499402515 -5.974879480466363e-11 0.0 7.227985770441592e-05 -1.5707243124591272 1.5708732604980469 -1.5707243124591272 -1.5708382765399378 5.992112710373476e-05 0.0 0.0 -0.0 0.0 0.0 0.0 0.0269165076315403 -0.7200165390968323 -0.8158970475196838 -0.16337309777736664 -0.08168654888868332 0.11637535691261292 0.02467346377670765 -0.7222595810890198 -0.8143720030784607 -0.16001611948013306 -0.07832957059144974 0.11637535691261292 -0.29842135962084454 -0.11277302548972923 0.31313372578529564 -2.2179021398173258 -2.2195824493257494 -0.008471632797072618 0.0 0.0 0.0 0.0 0.0 0.0 -6.451215464532187 0.5286421738077929 -0.5839232445000568 -0.4238469826231367 -0.07291823689323652 0.5389457015423254 -0.2984301935029837 -0.11275507530515129 0.3131843183387717 -2.217827088832791 -2.2194802147226973 -0.008179933726190749 0.0 0.0 0.0 0.0 0.0 0.0
6659.584 3.5561831257524545e-17 -1.5707963267948966 1.5707963267948968 -1.5707963267948966 -1.5707963267948966 0.0 0.0 0.0 0.0 0.0 0.0 0.0 0.0 0.0 0.0 0.0 0.0 0.0 2.072980291448686e-26 -0.620381750820575 -0.8463465614411209 -0.2525548825603051 -1.439250644349618e-11 0.0 2.378952054656901e-25 -7.1458666999402505 -7.145866699940252 -1.0424175499402515 -5.974879480466363e-11 0.0 9.624831000110134e-05 -1.5707009474383753 1.570885181427002 -1.5707009474383753 -1.5708382765399378 5.992112710373476e-05 0.0 0.0 -0.0 0.0 0.0 0.0 0.0291595496237278 -0.7132874131202698 -0.806746780872345 -0.16001611948013306 -0.08056755363941193 0.12085133790969849 0.02467346377670765 -0.7222595810890198 -0.8143720030784607 -0.16001611948013306 -0.07832957059144974 0.11525636911392212 -0.2984195113048402 -0.11278013962525593 0.31312119705382174 -2.2179047035012487 -2.2196381428806427 -0.008536775061197542 0.0 0.0 0.0 0.0 0.0 0.0 -6.450259287458162 0.6947511572442888 -0.25016344675508356 -0.4325638963918058 -0.08586358122362797 0.5595916554082518 -0.2984301935029837 -0.11275507530515129 0.3131843183387717 -2.217827088832791 -2.2194802147226973 -0.008179933726190749 0.0 0.0 0.0 0.0 0.0 0.0
6659.592 3.5561831257524545e-17 -1.5707963267948966 1.5707963267948968 -1.5707963267948966 -1.5707963267948966 0.0 0.0 0.0 0.0 0.0 0.0 0.0 0.0 0.0 0.0 0.0 0.0 0.0 2.072980291448686e-26 -0.620381750820575 -0.8463465614411209 -0.2525548825603051 -1.439250644349618e-11 0.0 2.378952054656901e-25 -7.1458666999402505 -7.145866699940252 -1.0424175499402515 -5.974879480466363e-11 0.0 5.992112710373476e-05 -1.570688549672262 1.5708131790161133 -1.5707243124591272 -1.570850674306051 7.190534961409867e-05 0.0 0.0 -0.0 0.0 0.0 0.0 0.02243042178452015 -0.7469330430030823 -0.817422091960907 -0.16113510727882385 -0.07832957059144974 0.11413737386465073 0.02467346377670765 -0.7222595810890198 -0.8143720030784607 -0.16001611948013306 -0.07832957059144974 0.11413737386465073 -0.2984334909835193 -0.11276837269660757 0.3131409983416211 -2.2179107496296777 -2.219537232845371 -0.008458286059698478 0.0 0.0 0.0 0.0 0.0 0.0 -7.814906543685425 -0.21647811210588977 -0.7042612485516946 -0.34677600346651594 -0.16495169178089253 0.5280570736848147 -0.2984301935029837 -0.11275507530515129 0.3131843183387717 -2.217827088832791 -2.2194802147226973 -0.008179933726190749 0.0 0.0 0.0 0.0 0.0 0.0
6659.599999999999 3.5561831257524545e-17 -1.5707963267948966 1.5707963267948968 -1.5707963267948966 -1.5707963267948966 0.0 0.0 0.0 0.0 0.0 0.0 0.0 0.0 0.0 0.0 0.0 0.0 0.0 2.072980291448686e-26 -0.620381750820575 -0.8463465614411209 -0.2525548825603051 -1.439250644349618e-11 0.0 2.378952054656901e-25 -7.1458666999402505 -7.145866699940252 -1.0424175499402515 -5.974879480466363e-11 0.0 4.793690095539205e-05 -1.5707362333880823 1.5708250999450684 -1.5707481543170374 -1.570850674306051 4.793690095539205e-05 0.0 0.0 -0.0 0.0 0.0 0.0 0.02018737979233265 -0.7289887070655823 -0.8097968697547913 -0.15665914118289948 -0.0850435346364975 0.10966140031814575 0.02467346377670765 -0.7222595810890198 -0.8143720030784607 -0.16001611948013306 -0.07832957059144974 0.11078038811683655 -0.2984281327590474 -0.11276481645450212 0.31315370853921953 -2.2178678846587774 -2.2195208822885863 -0.008392146850102394 0.0 0.0 0.0 0.0 0.0 0.0 -7.161140920607492 -0.1345314412962696 -0.4615550196088948 -0.38488826469054677 -0.1109166194926278 0.507625161122199 -0.2984301935029837 -0.11275507530515129 0.3131843183387717 -2.217827088832791 -2.2194802147226973 -0.008179933726190749 0.0 0.0 0.0 0.0 0.0 0.0
6659.607999999999 3.5561831257524545e-17 -1.5707963267948966 1.5707963267948968 -1.5707963267948966 -1.5707963267948966 0.0 0.0 0.0 0.0 0.0 0.0 0.0 0.0 0.0 0.0 0.0 0.0 0.0 2.072980291448686e-26 -0.620381750820575 -0.8463465614411209 -0.2525548825603051 -1.439250644349618e-11 0.0 2.378952054656901e-25 -7.1458666999402505 -7.145866699940252 -1.0424175499402515 -5.974879480466363e-11 0.0 3.5952674807049334e-05 -1.5707362333880823 1.5708370208740234 -1.5707243124591272 -1.5708745161639612 9.58738019107841e-05 0.0 0.0 -0.0 0.0 0.0 0.0 0.01794433780014515 -0.7312317490577698 -0.817422091960907 -0.16225410997867584 -0.07944856584072113 0.10966140031814575 0.02467346377670765 -0.7222595810890198 -0.8143720030784607 -0.16113510727882385 -0.07721057534217834 0.11189938336610794 -0.2984265350177799 -0.1127592460783519 0.3131481288409409 -2.217940223407143 -2.219460075329613 -0.00845821542654566 0.0 0.0 0.0 0.0 0.0 0.0 -6.984077111432023 -0.16400010976290416 -0.6786035556720078 -0.3562888732434267 -0.10368470036459324 0.5076869593014195 -0.2984301935029837 -0.11275507530515129 0.3131843183387717 -2.217827088832791 -2.2194802147226973 -0.008179933726190749 0.0 0.0 0.0 0.0 0.0 0.0
6659.616 3.5561831257524545e-17 -1.5707963267948966 1.5707963267948968 -1.5707963267948966 -1.5707963267948966 0.0 0.0 0.0 0.0 0.0 0.0 0.0 0.0 0.0 0.0 0.0 0.0 0.0 2.072980291448686e-26 -0.620381750820575 -0.8463465614411209 -0.2525548825603051 -1.439250644349618e-11 0.0 2.378952054656901e-25 -7.1458666999402505 -7.145866699940252 -1.0424175499402515 -5.974879480466363e-11 0.0 3.5952674807049334e-05 -1.5707009474383753 1.5708250999450684 -1.5707362333880823 -1.5708625952350062 0.000107858024421148 0.0 0.0 -0.0 0.0 0.0 0.0 0.0291595496237278 -0.7267456650733948 -0.8128469586372375 -0.15889713168144226 -0.0682586282491684 0.11637535691261292 0.02467346377670765 -0.7245026230812073 -0.8143720030784607 -0.16113510727882385 -0.07609158009290695 0.11301837861537933 -0.2984341916750641 -0.11276023705703993 0.3131421645992393 -2.2179650664352057 -2.2194586024756067 -0.008457661719268246 0.0 0.0 0.0 0.0 0.0 0.0 -6.9257268915266375 0.4461448144706679 -0.546733444503958 -0.3545505125407768 -0.09437585875049385 0.5388946846836484 -0.2984301935029837 -0.11275507530515129 0.3131843183387717 -2.217827088832791 -2.2194802147226973 -0.008179933726190749 0.0 0.0 0.0 0.0 0.0 0.0
6659.624 3.5561831257524545e-17 -1.5707963267948966 1.5707963267948968 -1.5707963267948966 -1.5707963267948966 0.0 0.0 0.0 0.0 0.0 0.0 0.0 0.0 0.0 0.0 0.0 0.0 0.0 2.072980291448686e-26 -0.620381750820575 -0.8463465614411209 -0.2525548825603051 -1.439250644349618e-11 0.0 2.378952054656901e-25 -7.1458666999402505 -7.145866699940252 -1.0424175499402515 -5.974879480466363e-11 0.0 3.5952674807049334e-05 -1.5707009474383753 1.5708613395690918 -1.5707243124591272 -1.570850674306051 7.190534961409867e-05 0.0 0.0 -0.0 0.0 0.0 0.0 0.0269165076315403 -0.7020722031593323 -0.8158970475196838 -0.15889713168144226 -0.07497258484363556 0.11413737386465073 0.02467346377670765 -0.7245026230812073 -0.8143720030784607 -0.16113510727882385 -0.07721057534217834 0.11301837861537933 -0.29843021003719317 -0.11276116878082616 0.3131303181454398 -2.217955226344621 -2.219528448985588 -0.008498132180460263 0.0 0.0 0.0 0.0 0.0 0.0 -5.502440161307414 0.8549273910584916 -0.6790281576135079 -0.4194177497356142 0.03439881717988889 0.5292622438757754 -0.2984301935029837 -0.11275507530515129 0.3131843183387717 -2.217827088832791 -2.2194802147226973 -0.008179933726190749 0.0 0.0 0.0 0.0 0.0 0.0
6659.632 3.5561831257524545e-17 -1.5707963267948966 1.5707963267948968 -1.5707963267948966 -1.5707963267948966 0.0 0.0 0.0 0.0 0.0 0.0 0.0 0.0 0.0 0.0 0.0 0.0 0.0 2.072980291448686e-26 -0.620381750820575 -0.8463465614411209 -0.2525548825603051 -1.439250644349618e-11 0.0 2.378952054656901e-25 -7.1458666999402505 -7.145866699940252 -1.0424175499402515 -5.974879480466363e-11 0.0 5.992112710373476e-05 -1.570688549672262 1.5708489418029785 -1.5707123915301722 -1.5708625952350062 8.388957940042019e-05 0.0 0.0 -0.0 0.0 0.0 0.0 0.0336456336081028 -0.7312317490577698 -0.8158970475196838 -0.15665914118289948 -0.07721057534217834 0.11749435216188431 0.02467346377670765 -0.7245026230812073 -0.8143720030784607 -0.16113510727882385 -0.07832957059144974 0.11301837861537933 -0.2984295502705551 -0.11276734134595236 0.3131293092511138 -2.217941816590105 -2.21954159891003 -0.008524475549799616 0.0 0.0 0.0 0.0 0.0 0.0 -7.045213005388339 0.6117228141785738 -0.7304769939913576 -0.4098046958312419 -0.07824573351110796 0.5441067402176801 -0.2984301935029837 -0.11275507530515129 0.3131843183387717 -2.217827088832791 -2.2194802147226973 -0.008179933726190749 0.0 0.0 0.0 0.0 0.0 0.0
6659.639999999999 3.5561831257524545e-17 -1.5707963267948966 1.5707963267948968 -1.5707963267948966 -1.5707963267948966 0.0 0.0 0.0 0.0 0.0 0.0 0.0 0.0 0.0 0.0 0.0 0.0 0.0 2.072980291448686e-26 -0.620381750820575 -0.8463465614411209 -0.2525548825603051 -1.439250644349618e-11 0.0 2.378952054656901e-25 -7.1458666999402505 -7.145866699940252 -1.0424175499402515 -5.974879480466363e-11 0.0 2.3968450477696024e-05 -1.5707362333880823 1.5708732604980469 -1.5707481543170374 -1.5708263556109827 8.388957940042019e-05 0.0 0.0 -0.0 0.0 0.0 0.0 0.02018737979233265 -0.7267456650733948 -0.8097968697547913 -0.170087069272995 -0.07944856584072113 0.1186133474111557 0.02467346377670765 -0.7245026230812073 -0.8143720030784607 -0.16113510727882385 -0.07944856584072113 0.11301837861537933 -0.298426849431961 -0.11275961100053697 0.3131393117943624 -2.2179705367514204 -2.21949059685864 -0.008418734395417314 0.0 0.0 0.0 0.0 0.0 0.0 -7.042514723306702 0.04788035167053549 -0.16943247675425735 -0.3740052124362188 -0.1883589586027601 0.5486483895928266 -0.2984301935029837 -0.11275507530515129 0.3131843183387717 -2.217827088832791 -2.2194802147226973 -0.008179933726190749 0.0 0.0 0.0 0.0 0.0 0.0
6659.648 3.5561831257524545e-17 -1.5707963267948966 1.5707963267948968 -1.5707963267948966 -1.5707963267948966 0.0 0.0 0.0 0.0 0.0 0.0 0.0 0.0 0.0 0.0 0.0 0.0 0.0 2.072980291448686e-26 -0.620381750820575 -0.8463465614411209 -0.2525548825603051 -1.439250644349618e-11 0.0 2.378952054656901e-25 -7.1458666999402505 -7.145866699940252 -1.0424175499402515 -5.974879480466363e-11 0.0 -1.1746083394825746e-05 -1.5707123915301722 1.5708489418029785 -1.5707481543170374 -1.5708025137530726 7.190534961409867e-05 0.0 0.0 -0.0 0.0 0.0 0.0 0.0314025916159153 -0.7020722031593323 -0.8158970475196838 -0.16337309777736664 -0.07385359704494476 0.11637535691261292 0.02467346377670765 -0.7245026230812073 -0.8143720030784607 -0.16113510727882385 -0.07497258484363556 0.11525636911392212 -0.2984367308760497 -0.11275093530091142 0.3131394413988194 -2.2180086314594774 -2.2194761968510783 -0.008391930979272676 0.0 0.0 0.0 0.0 0.0 0.0 -5.502948254355075 1.0824936716274873 -0.5810958735228122 -0.4329466188118764 0.00539490864586987 0.5394603589379772 -0.2984301935029837 -0.11275507530515129 0.3131843183387717 -2.217827088832791 -2.2194802147226973 -0.008179933726190749 0.0 0.0 0.0 0.0 0.0 0.0
6659.656 3.5561831257524545e-17 -1.5707963267948966 1.5707963267948968 -1.5707963267948966 -1.5707963267948966 0.0 0.0 0.0 0.0 0.0 0.0 0.0 0.0 0.0 0.0 0.0 0.0 0.0 2.072980291448686e-26 -0.620381750820575 -0.8463465614411209 -0.2525548825603051 -1.439250644349618e-11 0.0 2.378952054656901e-25 -7.1458666999402505 -7.145866699940252 -1.0424175499402515 -5.974879480466363e-11 0.0 3.5952674807049334e-05 -1.5707362333880823 1.5708613395690918 -1.5707243124591272 -1.5708144346820276 7.190534961409867e-05 0.0 0.0 -0.0 0.0 0.0 0.0 0.0269165076315403 -0.7312317490577698 -0.8143720030784607 -0.16225410997867584 -0.08728151768445969 0.11525636911392212 0.02467346377670765 -0.7245026230812073 -0.8143720030784607 -0.16113510727882385 -0.07944856584072113 0.11189938336610794 -0.2984245192060318 -0.11276416619256892 0.31314082936162624 -2.2179559187481153 -2.2195290151665796 -0.008418815264688516 0.0 0.0 0.0 0.0 0.0 0.0 -7.103261225684457 0.2639349125435353 -0.5420209217628891 -0.4280868833272709 -0.12517221401396747 0.5334224779999739 -0.2984301935029837 -0.11275507530515129 0.3131843183387717 -2.217827088832791 -2.2194802147226973 -0.008179933726190749 0.0 0.0 0.0 0.0 0.0 0.0
6659.664 3.5561831257524545e-17 -1.5707963267948966 1.5707963267948968 -1.5707963267948966 -1.5707963267948966 0.0 0.0 0.0 0.0 0.0 0.0 0.0 0.0 0.0 0.0 0.0 0.0 0.0 2.072980291448686e-26 -0.620381750820575 -0.8463465614411209 -0.2525548825603051 -1.439250644349618e-11 0.0 2.378952054656901e-25 -7.1458666999402505 -7.145866699940252 -1.0424175499402515 -5.974879480466363e-11 0.0 2.3968450477696024e-05 -1.570688549672262 1.5708613395690918 -1.5707600752459925 -1.5708625952350062 0.000107858024421148 0.0 0.0 -0.0 0.0 0.0 0.0 0.0291595496237278 -0.7334747910499573 -0.8113219141960144 -0.16225410997867584 -0.08280554413795471 0.11525636911392212 0.02467346377670765 -0.7267456650733948 -0.8143720030784607 -0.16225410997867584 -0.07832957059144974 0.11749435216188431 -0.2984365075137747 -0.11275663102120236 0.313129676529946 -2.2179906396076086 -2.219457793577451 -0.008485231260281882 0.0 0.0 0.0 0.0 0.0 0.0 -7.34037969154817 0.27058304222109286 -0.4074379302386319 -0.4078751783762888 -0.1561582168011543 0.5332315540747863 -0.2984301935029837 -0.11275507530515129 0.3131843183387717 -2.217827088832791 -2.2194802147226973 -0.008179933726190749 0.0 0.0 0.0 0.0 0.0 0.0
6659.672 3.5561831257524545e-17 -1.5707963267948966 1.5707963267948968 -1.5707963267948966 -1.5707963267948966 0.0 0.0 0.0 0.0 0.0 0.0 0.0 0.0 0.0 0.0 0.0 0.0 0.0 2.072980291448686e-26 -0.620381750820575 -0.8463465614411209 -0.2525548825603051 -1.439250644349618e-11 0.0 2.378952054656901e-25 -7.1458666999402505 -7.145866699940252 -1.0424175499402515 -5.974879480466363e-11 0.0 4.793690095539205e-05 -1.5707243124591272 1.5708489418029785 -1.5707009474383753 -1.5708745161639612 8.388957940042019e-05 0.0 0.0 -0.0 0.0 0.0 0.0 0.0291595496237278 -0.7379608750343323 -0.8113219141960144 -0.16001611948013306 -0.07385359704494476 0.12085133790969849 0.02467346377670765 -0.7267456650733948 -0.8143720030784607 -0.16225410997867584 -0.07832957059144974 0.11413737386465073 -0.2984241940733846 -0.11276278805421733 0.31313901631161184 -2.217937163054193 -2.21951008809335 -0.008510713828229094 0.0 0.0 0.0 0.0 0.0 0.0 -7.577784898866946 0.26773869636337255 -0.45586121738560553 -0.3659746190356583 -0.16134331624628181 0.5591950686821053 -0.2984301935029837 -0.11275507530515129 0.3131843183387717 -2.217827088832791 -2.2194802147226973 -0.008179933726190749 0.0 0.0 0.0 0.0 0.0 0.0
6659.679999999999 3.5561831257524545e-17 -1.5707963267948966 1.5707963267948968 -1.5707963267948966 -1.5707963267948966 0.0 0.0 0.0 0.0 0.0 0.0 0.0 0.0 0.0 0.0 0.0 0.0 0.0 2.072980291448686e-26 -0.620381750820575 -0.8463465614411209 -0.2525548825603051 -1.439250644349618e-11 0.0 2.378952054656901e-25 -7.1458666999402505 -7.145866699940252 -1.0424175499402515 -5.974879480466363e-11 0.0 5.992112710373476e-05 -1.570688549672262 1.5708131790161133 -1.5707362333880823 -1.5708263556109827 5.992112710373476e-05 0.0 0.0 -0.0 0.0 0.0 0.0 0.02467346377670765 -0.7357178330421448 -0.8097968697547913 -0.16001611948013306 -0.07832957059144974 0.11749435216188431 0.02467346377670765 -0.7267456650733948 -0.8143720030784607 -0.16225410997867584 -0.07609158009290695 0.11413737386465073 -0.2984344716436428 -0.11277038386671016 0.31314200053773306 -2.217903705022176 -2.2195568906102947 -0.008418135273366536 0.0 0.0 0.0 0.0 0.0 0.0 -7.517606252665547 0.04471495685580014 -0.3887418694694192 -0.3684638070235689 -0.16215302908888998 0.5436336383564698 -0.2984301935029837 -0.11275507530515129 0.3131843183387717 -2.217827088832791 -2.2194802147226973 -0.008179933726190749 0.0 0.0 0.0 0.0 0.0 0.0
6659.688 3.5561831257524545e-17 -1.5707963267948966 1.5707963267948968 -1.5707963267948966 -1.5707963267948966 0.0 0.0 0.0 0.0 0.0 0.0 0.0 0.0 0.0 0.0 0.0 0.0 0.0 2.072980291448686e-26 -0.620381750820575 -0.8463465614411209 -0.2525548825603051 -1.439250644349618e-11 0.0 2.378952054656901e-25 -7.1458666999402505 -7.145866699940252 -1.0424175499402515 -5.974879480466363e-11 0.0 4.793690095539205e-05 -1.5707243124591272 1.5708012580871582 -1.5707123915301722 -1.5708625952350062 7.190534961409867e-05 0.0 0.0 -0.0 0.0 0.0 0.0 0.02243042178452015 -0.7222595810890198 -0.8143720030784607 -0.16337309777736664 -0.08056755363941193 0.11749435216188431 0.02467346377670765 -0.7267456650733948 -0.8143720030784607 -0.16225410997867584 -0.07609158009290695 0.11413737386465073 -0.2984290813392625 -0.11276383275006165 0.31315422457608794 -2.2179003998757416 -2.2195000271843615 -0.008431802210988527 0.0 0.0 0.0 0.0 0.0 0.0 -6.628349173016616 0.28559138822840474 -0.5165922420367101 -0.3986150884962829 -0.09337344072182353 0.5440539318770414 -0.2984301935029837 -0.11275507530515129 0.3131843183387717 -2.217827088832791 -2.2194802147226973 -0.008179933726190749 0.0 0.0 0.0 0.0 0.0 0.0
6659.696 3.5561831257524545e-17 -1.5707963267948966 1.5707963267948968 -1.5707963267948966 -1.5707963267948966 0.0 0.0 0.0 0.0 0.0 0.0 0.0 0.0 0.0 0.0 0.0 0.0 0.0 2.072980291448686e-26 -0.620381750820575 -0.8463465614411209 -0.2525548825603051 -1.439250644349618e-11 0.0 2.378952054656901e-25 -7.1458666999402505 -7.145866699940252 -1.0424175499402515 -5.974879480466363e-11 0.0 3.5952674807049334e-05 -1.570688549672262 1.5708732604980469 -1.5707243124591272 -1.570850674306051 3.5952674807049334e-05 0.0 0.0 -0.0 0.0 0.0 0.0 0.01794433780014515 -0.7177734971046448 -0.8204721808433533 -0.15889713168144226 -0.0850435346364975 0.10966140031814575 0.02467346377670765 -0.7267456650733948 -0.8143720030784607 -0.16225410997867584 -0.07721057534217834 0.11189938336610794 -0.29843122210144774 -0.11276115055179556 0.3131230573188684 -2.217927474703035 -2.2195805227291077 -0.008525266362030683 0.0 0.0 0.0 0.0 0.0 0.0 -6.154134274656166 0.1514755016802793 -0.8851461160594231 -0.4082528739380316 -0.0020617509378319738 0.5082619547076641 -0.2984301935029837 -0.11275507530515129 0.3131843183387717 -2.217827088832791 -2.2194802147226973 -0.008179933726190749 0.0 0.0 0.0 0.0 0.0 0.0
6659.704 3.5561831257524545e-17 -1.5707963267948966 1.5707963267948968 -1.5707963267948966 -1.5707963267948966 0.0 0.0 0.0 0.0 0.0 0.0 0.0 0.0 0.0 0.0 0.0 0.0 0.0 2.072980291448686e-26 -0.620381750820575 -0.8463465614411209 -0.2525548825603051 -1.439250644349618e-11 0.0 2.378952054656901e-25 -7.1458666999402505 -7.145866699940252 -1.0424175499402515 -5.974879480466363e-11 0.0 4.793690095539205e-05 -1.5707724730121058 1.5708489418029785 -1.5707362333880823 -1.5708625952350062 7.190534961409867e-05 0.0 0.0 -0.0 0.0 0.0 0.0 0.0269165076315403 -0.7155304551124573 -0.8143720030784607 -0.1521831601858139 -0.08280554413795471 0.11525636911392212 0.02467346377670765 -0.7267456650733948 -0.8143720030784607 -0.15777812898159027 -0.07721057534217834 0.11078038811683655 -0.2984193359913628 -0.11276381200204472 0.3131563973815718 -2.2178883346938822 -2.219487869467942 -0.008404786056477523 0.0 0.0 0.0 0.0 0.0 0.0 -6.273177018452509 0.5805887673280312 -0.7582161761225531 -0.4332174847188047 0.008522488918457865 0.5343107676545528 -0.2984301935029837 -0.11275507530515129 0.3131843183387717 -2.217827088832791 -2.2194802147226973 -0.008179933726190749 0.0 0.0 0.0 0.0 0.0 0.0
6659.7119999999995 3.5561831257524545e-17 -1.5707963267948966 1.5707963267948968 -1.5707963267948966 -1.5707963267948966 0.0 0.0 0.0 0.0 0.0 0.0 0.0 0.0 0.0 0.0 0.0 0.0 0.0 2.072980291448686e-26 -0.620381750820575 -0.8463465614411209 -0.2525548825603051 -1.439250644349618e-11 0.0 2.378952054656901e-25 -7.1458666999402505 -7.145866699940252 -1.0424175499402515 -5.974879480466363e-11 0.0 1.1984225238848012e-05 -1.5707009474383753 1.5708131790161133 -1.5707243124591272 -1.5708983580218714 9.58738019107841e-05 0.0 0.0 -0.0 0.0 0.0 0.0 0.0269165076315403 -0.7245026230812073 -0.8158970475196838 -0.15554013848304749 -0.08056755363941193 0.11078038811683655 0.02467346377670765 -0.7289887070655823 -0.8143720030784607 -0.15665914118289948 -0.07721057534217834 0.11189938336610794 -0.29843690053128835 -0.11275014409505854 0.31314472943629124 -2.21796052471296 -2.2194273502649953 -0.008497371595624671 0.0 0.0 0.0 0.0 0.0 0.0 -6.688469381713727 0.3533002619899493 -0.7548398137873258 -0.404074115326495 -0.041506088484901456 0.5132282209689111 -0.2984301935029837 -0.11275507530515129 0.3131843183387717 -2.217827088832791 -2.2194802147226973 -0.008179933726190749 0.0 0.0 0.0 0.0 0.0 0.0
6659.719999999999 3.5561831257524545e-17 -1.5707963267948966 1.5707963267948968 -1.5707963267948966 -1.5707963267948966 0.0 0.0 0.0 0.0 0.0 0.0 0.0 0.0 0.0 0.0 0.0 0.0 0.0 2.072980291448686e-26 -0.620381750820575 -0.8463465614411209 -0.2525548825603051 -1.439250644349618e-11 0.0 2.378952054656901e-25 -7.1458666999402505 -7.145866699940252 -1.0424175499402515 -5.974879480466363e-11 0.0 3.5952674807049334e-05 -1.5707243124591272 1.5708012580871582 -1.5707243124591272 -1.5708864370929163 7.190534961409867e-05 0.0 0.0 -0.0 0.0 0.0 0.0 0.0269165076315403 -0.7424469590187073 -0.8189471364021301 -0.16225410997867584 -0.08056755363941193 0.11189938336610794 0.02467346377670765 -0.7267456650733948 -0.8143720030784607 -0.16001611948013306 -0.07609158009290695 0.11301837861537933 -0.2984314163976024 -0.1127583011189015 0.3131552569560932 -2.217895794136741 -2.219468882176282 -0.008444965947826552 0.0 0.0 0.0 0.0 0.0 0.0 -7.519149881505418 0.05458736508741785 -0.746267799275028 -0.3794494749679065 -0.1419343770880318 0.517801650437553 -0.2984301935029837 -0.11275507530515129 0.3131843183387717 -2.217827088832791 -2.2194802147226973 -0.008179933726190749 0.0 0.0 0.0 0.0 0.0 0.0
6659.728 3.5561831257524545e-17 -1.5707963267948966 1.5707963267948968 -1.5707963267948966 -1.5707963267948966 0.0 0.0 0.0 0.0 0.0 0.0 0.0 0.0 0.0 0.0 0.0 0.0 0.0 2.072980291448686e-26 -0.620381750820575 -0.8463465614411209 -0.2525548825603051 -1.439250644349618e-11 0.0 2.378952054656901e-25 -7.1458666999402505 -7.145866699940252 -1.0424175499402515 -5.974879480466363e-11 0.0 5.992112710373476e-05 -1.5706647078143519 1.5708250999450684 -1.5707123915301722 -1.570850674306051 7.190534961409867e-05 0.0 0.0 -0.0 0.0 0.0 0.0 0.02467346377670765 -0.7446900010108948 -0.806746780872345 -0.15777812898159027 -0.08168654888868332 0.11189938336610794 0.02467346377670765 -0.7245026230812073 -0.8143720030784607 -0.15889713168144226 -0.07609158009290695 0.11525636911392212 -0.29843536592298653 -0.1127683419986229 0.31312930356744334 -2.217934467659645 -2.219560980824463 -0.00851129263404812 0.0 0.0 0.0 0.0 0.0 0.0 -8.110174864311928 -0.26716836242503383 -0.30421528963110256 -0.35848559428912524 -0.20790897846328604 0.5173642957249072 -0.2984301935029837 -0.11275507530515129 0.3131843183387717 -2.217827088832791 -2.2194802147226973 -0.008179933726190749 0.0 0.0 0.0 0.0 0.0 0.0
6659.736 3.5561831257524545e-17 -1.5707963267948966 1.5707963267948968 -1.5707963267948966 -1.5707963267948966 0.0 0.0 0.0 0.0 0.0 0.0 0.0 0.0 0.0 0.0 0.0 0.0 0.0 2.072980291448686e-26 -0.620381750820575 -0.8463465614411209 -0.2525548825603051 -1.439250644349618e-11 0.0 2.378952054656901e-25 -7.1458666999402505 -7.145866699940252 -1.0424175499402515 -5.974879480466363e-11 0.0 4.793690095539205e-05 -1.5707243124591272 1.5708732604980469 -1.5707362333880823 -1.5708625952350062 5.992112710373476e-05 0.0 0.0 -0.0 0.0 0.0 0.0 0.0269165076315403 -0.7177734971046448 -0.8158970475196838 -0.16449210047721863 -0.08616252988576889 0.1197323426604271 0.02467346377670765 -0.7267456650733948 -0.8143720030784607 -0.15889713168144226 -0.07721057534217834 0.11413737386465073 -0.29842508856930494 -0.11276376655732005 0.3131347583572906 -2.217911033597344 -2.219537383394242 -0.008485360748842777 0.0 0.0 0.0 0.0 0.0 0.0 -6.332512896636856 0.6258323168993942 -0.5589097914632658 -0.4526786834369916 -0.07051855544034108 0.5545065698579799 -0.2984301935029837 -0.11275507530515129 0.3131843183387717 -2.217827088832791 -2.2194802147226973 -0.008179933726190749 0.0 0.0 0.0 0.0 0.0 0.0
