mkrssg/UniversalRobots/plots_simulation/csv/movej_0-90q1_t=10_simulation.csv
timestamp target_q_0 target_q_1 target_q_2 target_q_3 target_q_4 target_q_5 target_qd_0 target_qd_1 target_qd_2 target_qd_3 target_qd_4 target_qd_5 target_qdd_0 target_qdd_1 target_qdd_2 target_qdd_3 target_qdd_4 target_qdd_5 target_current_0 target_current_1 target_current_2 target_current_3 target_current_4 target_current_5 target_moment_0 target_moment_1 target_moment_2 target_moment_3 target_moment_4 target_moment_5 actual_q_0 actual_q_1 actual_q_2 actual_q_3 actual_q_4 actual_q_5 actual_qd_0 actual_qd_1 actual_qd_2 actual_qd_3 actual_qd_4 actual_qd_5 actual_current_0 actual_current_1 actual_current_2 actual_current_3 actual_current_4 actual_current_5 joint_control_output_0 joint_control_output_1 joint_control_output_2 joint_control_output_3 joint_control_output_4 joint_control_output_5 actual_TCP_pose_0 actual_TCP_pose_1 actual_TCP_pose_2 actual_TCP_pose_3 actual_TCP_pose_4 actual_TCP_pose_5 actual_TCP_speed_0 actual_TCP_speed_1 actual_TCP_speed_2 actual_TCP_speed_3 actual_TCP_speed_4 actual_TCP_speed_5 actual_TCP_force_0 actual_TCP_force_1 actual_TCP_force_2 actual_TCP_force_3 actual_TCP_force_4 actual_TCP_force_5 target_TCP_pose_0 target_TCP_pose_1 target_TCP_pose_2 target_TCP_pose_3 target_TCP_pose_4 target_TCP_pose_5 target_TCP_speed_0 target_TCP_speed_1 target_TCP_speed_2 target_TCP_speed_3 target_TCP_speed_4 target_TCP_speed_5
9883.815999999999 6.938893903907228e-16 -1.5707963267948966 1.5707963267948966 -1.5707963267948966 -1.5707963267948966 0.0 0.0 0.0 0.0 0.0 0.0 0.0 0.0 0.0 0.0 0.0 0.0 0.0 -1.1512442590619146e-26 -0.5442396572688689 -0.7673661111166267 -0.229354796466502 -1.3146049461972196e-11 0.0 -1.511583712148294e-25 -7.14586669994025 -7.145866699940251 -1.0424175499402515 -5.974879480466362e-11 0.0 6.938893903907228e-16 -1.570796314870016 1.5707963705062866 -1.570796314870016 -1.570796314870016 0.0 0.0 0.0 0.0 0.0 0.0 0.0 -1.151244268742903e-26 -0.5442396402359009 -0.7673661112785339 -0.22935479879379272 -1.3146049353263134e-11 0.0 -1.151244268742903e-26 -0.5442396402359009 -0.7673661112785339 -0.22935479879379272 -1.3146049353263134e-11 0.0 -0.29859999735544024 -0.11235000099231782 0.3136499823461779 2.2214412195942908 2.2214412191386663 6.515886891884209e-08 0.0 0.0 0.0 0.0 0.0 0.0 9.240738067961094e-07 3.476881827858299e-07 4.2531462932220567e-08 -2.8475662131755543e-08 6.147405365792536e-08 -2.6501511708836367e-15 -0.2985999999832019 -0.1123500000156701 0.31364999997695675 2.221441469306995 2.2214414688513715 4.556249894594308e-10 0.0 0.0 0.0 0.0 0.0 0.0
9883.823999999999 6.938893903907228e-16 -1.5707963267948966 1.5707963267948966 -1.5707963267948966 -1.5707963267948966 0.0 0.0 0.0 0.0 0.0 0.0 0.0 0.0 0.0 0.0 0.0 0.0 0.0 -1.1512442590619146e-26 -0.5442396572688689 -0.7673661111166267 -0.229354796466502 -1.3146049461972196e-11 0.0 -1.511583712148294e-25 -7.14586669994025 -7.145866699940251 -1.0424175499402515 -5.974879480466362e-11 0.0 6.938893903907228e-16 -1.570796314870016 1.5707963705062866 -1.570796314870016 -1.570796314870016 0.0 0.0 0.0 0.0 0.0 0.0 0.0 -1.151244268742903e-26 -0.5442396402359009 -0.7673661112785339 -0.22935479879379272 -1.3146049353263134e-11 0.0 -1.151244268742903e-26 -0.5442396402359009 -0.7673661112785339 -0.22935479879379272 -1.3146049353263134e-11 0.0 -0.29859999735544024 -0.11235000099231782 0.3136499823461779 2.2214412195942908 2.2214412191386663 6.515886891884209e-08 0.0 0.0 0.0 0.0 0.0 0.0 9.240738067961094e-07 3.476881827858299e-07 4.2531462932220567e-08 -2.8475662131755543e-08 6.147405365792536e-08 -2.6501511708836367e-15 -0.2985999999832019 -0.1123500000156701 0.31364999997695675 2.221441469306995 2.2214414688513715 4.556249894594308e-10 0.0 0.0 0.0 0.0 0.0 0.0
9883.832 6.938893903907228e-16 -1.5707963267948966 1.5707963267948966 -1.5707963267948966 -1.5707963267948966 0.0 0.0 0.0 0.0 0.0 0.0 0.0 0.0 0.0 0.0 0.0 0.0 0.0 -1.1512442590619146e-26 -0.5442396572688689 -0.7673661111166267 -0.229354796466502 -1.3146049461972196e-11 0.0 -1.511583712148294e-25 -7.14586669994025 -7.145866699940251 -1.0424175499402515 -5.974879480466362e-11 0.0 6.938893903907228e-16 -1.570796314870016 1.5707963705062866 -1.570796314870016 -1.570796314870016 0.0 0.0 0.0 0.0 0.0 0.0 0.0 -1.151244268742903e-26 -0.5442396402359009 -0.7673661112785339 -0.22935479879379272 -1.3146049353263134e-11 0.0 -1.151244268742903e-26 -0.5442396402359009 -0.7673661112785339 -0.22935479879379272 -1.3146049353263134e-11 0.0 -0.29859999735544024 -0.11235000099231782 0.3136499823461779 2.2214412195942908 2.2214412191386663 6.515886891884209e-08 0.0 0.0 0.0 0.0 0.0 0.0 9.240738067961094e-07 3.476881827858299e-07 4.2531462932220567e-08 -2.8475662131755543e-08 6.147405365792536e-08 -2.6501511708836367e-15 -0.2985999999832019 -0.1123500000156701 0.31364999997695675 2.221441469306995 2.2214414688513715 4.556249894594308e-10 0.0 0.0 0.0 0.0 0.0 0.0
9883.84 6.938893903907228e-16 -1.5707963267948966 1.5707963267948966 -1.5707963267948966 -1.5707963267948966 0.0 0.0 0.0 0.0 0.0 0.0 0.0 0.0 0.0 0.0 0.0 0.0 0.0 -1.1512442590619146e-26 -0.5442396572688689 -0.7673661111166267 -0.229354796466502 -1.3146049461972196e-11 0.0 -1.511583712148294e-25 -7.14586669994025 -7.145866699940251 -1.0424175499402515 -5.974879480466362e-11 0.0 6.938893903907228e-16 -1.570796314870016 1.5707963705062866 -1.570796314870016 -1.570796314870016 0.0 0.0 0.0 0.0 0.0 0.0 0.0 -1.151244268742903e-26 -0.5442396402359009 -0.7673661112785339 -0.22935479879379272 -1.3146049353263134e-11 0.0 -1.151244268742903e-26 -0.5442396402359009 -0.7673661112785339 -0.22935479879379272 -1.3146049353263134e-11 0.0 -0.29859999735544024 -0.11235000099231782 0.3136499823461779 2.2214412195942908 2.2214412191386663 6.515886891884209e-08 0.0 0.0 0.0 0.0 0.0 0.0 9.240738067961094e-07 3.476881827858299e-07 4.2531462932220567e-08 -2.8475662131755543e-08 6.147405365792536e-08 -2.6501511708836367e-15 -0.2985999999832019 -0.1123500000156701 0.31364999997695675 2.221441469306995 2.2214414688513715 4.556249894594308e-10 0.0 0.0 0.0 0.0 0.0 0.0
9883.848 6.938893903907228e-16 -1.5707963267948966 1.5707963267948966 -1.5707963267948966 -1.5707963267948966 0.0 0.0 0.0 0.0 0.0 0.0 0.0 0.0 0.0 0.0 0.0 0.0 0.0 -1.1512442590619146e-26 -0.5442396572688689 -0.7673661111166267 -0.229354796466502 -1.3146049461972196e-11 0.0 -1.511583712148294e-25 -7.14586669994025 -7.145866699940251 -1.0424175499402515 -5.974879480466362e-11 0.0 6.938893903907228e-16 -1.570796314870016 1.5707963705062866 -1.570796314870016 -1.570796314870016 0.0 0.0 0.0 0.0 0.0 0.0 0.0 -1.151244268742903e-26 -0.5442396402359009 -0.7673661112785339 -0.22935479879379272 -1.3146049353263134e-11 0.0 -1.151244268742903e-26 -0.5442396402359009 -0.7673661112785339 -0.22935479879379272 -1.3146049353263134e-11 0.0 -0.29859999735544024 -0.11235000099231782 0.3136499823461779 2.2214412195942908 2.2214412191386663 6.515886891884209e-08 0.0 0.0 0.0 0.0 0.0 0.0 9.240738067961094e-07 3.476881827858299e-07 4.2531462932220567e-08 -2.8475662131755543e-08 6.147405365792536e-08 -2.6501511708836367e-15 -0.2985999999832019 -0.1123500000156701 0.31364999997695675 2.221441469306995 2.2214414688513715 4.556249894594308e-10 0.0 0.0 0.0 0.0 0.0 0.0
9883.856 6.938893903907228e-16 -1.5707963267948966 1.5707963267948966 -1.5707963267948966 -1.5707963267948966 0.0 0.0 0.0 0.0 0.0 0.0 0.0 0.0 0.0 0.0 0.0 0.0 0.0 -1.1512442590619146e-26 -0.5442396572688689 -0.7673661111166267 -0.229354796466502 -1.3146049461972196e-11 0.0 -1.511583712148294e-25 -7.14586669994025 -7.145866699940251 -1.0424175499402515 -5.974879480466362e-11 0.0 6.938893903907228e-16 -1.570796314870016 1.5707963705062866 -1.570796314870016 -1.570796314870016 0.0 0.0 0.0 0.0 0.0 0.0 0.0 -1.151244268742903e-26 -0.5442396402359009 -0.7673661112785339 -0.22935479879379272 -1.3146049353263134e-11 0.0 -1.151244268742903e-26 -0.5442396402359009 -0.7673661112785339 -0.22935479879379272 -1.3146049353263134e-11 0.0 -0.29859999735544024 -0.11235000099231782 0.3136499823461779 2.2214412195942908 2.2214412191386663 6.515886891884209e-08 0.0 0.0 0.0 0.0 0.0 0.0 9.240738067961094e-07 3.476881827858299e-07 4.2531462932220567e-08 -2.8475662131755543e-08 6.147405365792536e-08 -2.6501511708836367e-15 -0.2985999999832019 -0.1123500000156701 0.31364999997695675 2.221441469306995 2.2214414688513715 4.556249894594308e-10 0.0 0.0 0.0 0.0 0.0 0.0
9883.864 6.938893903907228e-16 -1.5707963267948966 1.5707963267948966 -1.5707963267948966 -1.5707963267948966 0.0 0.0 0.0 0.0 0.0 0.0 0.0 0.0 0.0 0.0 0.0 0.0 0.0 -1.1512442590619146e-26 -0.5442396572688689 -0.7673661111166267 -0.229354796466502 -1.3146049461972196e-11 0.0 -1.511583712148294e-25 -7.14586669994025 -7.145866699940251 -1.0424175499402515 -5.974879480466362e-11 0.0 6.938893903907228e-16 -1.570796314870016 1.5707963705062866 -1.570796314870016 -1.570796314870016 0.0 0.0 0.0 0.0 0.0 0.0 0.0 -1.151244268742903e-26 -0.5442396402359009 -0.7673661112785339 -0.22935479879379272 -1.3146049353263134e-11 0.0 -1.151244268742903e-26 -0.5442396402359009 -0.7673661112785339 -0.22935479879379272 -1.3146049353263134e-11 0.0 -0.29859999735544024 -0.11235000099231782 0.3136499823461779 2.2214412195942908 2.2214412191386663 6.515886891884209e-08 0.0 0.0 0.0 0.0 0.0 0.0 9.240738067961094e-07 3.476881827858299e-07 4.2531462932220567e-08 -2.8475662131755543e-08 6.147405365792536e-08 -2.6501511708836367e-15 -0.2985999999832019 -0.1123500000156701 0.31364999997695675 2.221441469306995 2.2214414688513715 4.556249894594308e-10 0.0 0.0 0.0 0.0 0.0 0.0
9883.872 6.938893903907228e-16 -1.5707963267948966 1.5707963267948966 -1.5707963267948966 -1.5707963267948966 0.0 0.0 0.0 0.0 0.0 0.0 0.0 0.0 0.0 0.0 0.0 0.0 0.0 -1.1512442590619146e-26 -0.5442396572688689 -0.7673661111166267 -0.229354796466502 -1.3146049461972196e-11 0.0 -1.511583712148294e-25 -7.14586669994025 -7.145866699940251 -1.0424175499402515 -5.974879480466362e-11 0.0 6.938893903907228e-16 -1.570796314870016 1.5707963705062866 -1.570796314870016 -1.570796314870016 0.0 0.0 0.0 0.0 0.0 0.0 0.0 -1.151244268742903e-26 -0.5442396402359009 -0.7673661112785339 -0.22935479879379272 -1.3146049353263134e-11 0.0 -1.151244268742903e-26 -0.5442396402359009 -0.7673661112785339 -0.22935479879379272 -1.3146049353263134e-11 0.0 -0.29859999735544024 -0.11235000099231782 0.3136499823461779 2.2214412195942908 2.2214412191386663 6.515886891884209e-08 0.0 0.0 0.0 0.0 0.0 0.0 9.240738067961094e-07 3.476881827858299e-07 4.2531462932220567e-08 -2.8475662131755543e-08 6.147405365792536e-08 -2.6501511708836367e-15 -0.2985999999832019 -0.1123500000156701 0.31364999997695675 2.221441469306995 2.2214414688513715 4.556249894594308e-10 0.0 0.0 0.0 0.0 0.0 0.0
9883.88 6.938893903907228e-16 -1.5707963267948966 1.5707963267948966 -1.5707963267948966 -1.5707963267948966 0.0 0.0 0.0 0.0 0.0 0.0 0.0 0.0 0.0 0.0 0.0 0.0 0.0 -1.1512442590619146e-26 -0.5442396572688689 -0.7673661111166267 -0.229354796466502 -1.3146049461972196e-11 0.0 -1.511583712148294e-25 -7.14586669994025 -7.145866699940251 -1.0424175499402515 -5.974879480466362e-11 0.0 6.938893903907228e-16 -1.570796314870016 1.5707963705062866 -1.570796314870016 -1.570796314870016 0.0 0.0 0.0 0.0 0.0 0.0 0.0 -1.151244268742903e-26 -0.5442396402359009 -0.7673661112785339 -0.22935479879379272 -1.3146049353263134e-11 0.0 -1.151244268742903e-26 -0.5442396402359009 -0.7673661112785339 -0.22935479879379272 -1.3146049353263134e-11 0.0 -0.29859999735544024 -0.11235000099231782 0.3136499823461779 2.2214412195942908 2.2214412191386663 6.515886891884209e-08 0.0 0.0 0.0 0.0 0.0 0.0 9.240738067961094e-07 3.476881827858299e-07 4.2531462932220567e-08 -2.8475662131755543e-08 6.147405365792536e-08 -2.6501511708836367e-15 -0.2985999999832019 -0.1123500000156701 0.31364999997695675 2.221441469306995 2.2214414688513715 4.556249894594308e-10 0.0 0.0 0.0 0.0 0.0 0.0
9883.887999999999 6.938893903907228e-16 -1.5707963267948966 1.5707963267948966 -1.5707963267948966 -1.5707963267948966 0.0 0.0 0.0 0.0 0.0 0.0 0.0 0.0 0.0 0.0 0.0 0.0 0.0 -1.1512442590619146e-26 -0.5442396572688689 -0.7673661111166267 -0.229354796466502 -1.3146049461972196e-11 0.0 -1.511583712148294e-25 -7.14586669994025 -7.145866699940251 -1.0424175499402515 -5.974879480466362e-11 0.0 6.938893903907228e-16 -1.570796314870016 1.5707963705062866 -1.570796314870016 -1.570796314870016 0.0 0.0 0.0 0.0 0.0 0.0 0.0 -1.151244268742903e-26 -0.5442396402359009 -0.7673661112785339 -0.22935479879379272 -1.3146049353263134e-11 0.0 -1.151244268742903e-26 -0.5442396402359009 -0.7673661112785339 -0.22935479879379272 -1.3146049353263134e-11 0.0 -0.29859999735544024 -0.11235000099231782 0.3136499823461779 2.2214412195942908 2.2214412191386663 6.515886891884209e-08 0.0 0.0 0.0 0.0 0.0 0.0 9.240738067961094e-07 3.476881827858299e-07 4.2531462932220567e-08 -2.8475662131755543e-08 6.147405365792536e-08 -2.6501511708836367e-15 -0.2985999999832019 -0.1123500000156701 0.31364999997695675 2.221441469306995 2.2214414688513715 4.556249894594308e-10 0.0 0.0 0.0 0.0 0.0 0.0
9883.895999999999 6.938893903907228e-16 -1.5707963267948966 1.5707963267948966 -1.5707963267948966 -1.5707963267948966 0.0 0.0 0.0 0.0 0.0 0.0 0.0 0.0 0.0 0.0 0.0 0.0 0.0 -1.1512442590619146e-26 -0.5442396572688689 -0.7673661111166267 -0.229354796466502 -1.3146049461972196e-11 0.0 -1.511583712148294e-25 -7.14586669994025 -7.145866699940251 -1.0424175499402515 -5.974879480466362e-11 0.0 6.938893903907228e-16 -1.570796314870016 1.5707963705062866 -1.570796314870016 -1.570796314870016 0.0 0.0 0.0 0.0 0.0 0.0 0.0 -1.151244268742903e-26 -0.5442396402359009 -0.7673661112785339 -0.22935479879379272 -1.3146049353263134e-11 0.0 -1.151244268742903e-26 -0.5442396402359009 -0.7673661112785339 -0.22935479879379272 -1.3146049353263134e-11 0.0 -0.29859999735544024 -0.11235000099231782 0.3136499823461779 2.2214412195942908 2.2214412191386663 6.515886891884209e-08 0.0 0.0 0.0 0.0 0.0 0.0 9.240738067961094e-07 3.476881827858299e-07 4.2531462932220567e-08 -2.8475662131755543e-08 6.147405365792536e-08 -2.6501511708836367e-15 -0.2985999999832019 -0.1123500000156701 0.31364999997695675 2.221441469306995 2.2214414688513715 4.556249894594308e-10 0.0 0.0 0.0 0.0 0.0 0.0
9883.904 6.938893903907228e-16 -1.5707963267948966 1.5707963267948966 -1.5707963267948966 -1.5707963267948966 0.0 0.0 0.0 0.0 0.0 0.0 0.0 0.0 0.0 0.0 0.0 0.0 0.0 -1.1512442590619146e-26 -0.5442396572688689 -0.7673661111166267 -0.229354796466502 -1.3146049461972196e-11 0.0 -1.511583712148294e-25 -7.14586669994025 -7.145866699940251 -1.0424175499402515 -5.974879480466362e-11 0.0 6.938893903907228e-16 -1.570796314870016 1.5707963705062866 -1.570796314870016 -1.570796314870016 0.0 0.0 0.0 0.0 0.0 0.0 0.0 -1.151244268742903e-26 -0.5442396402359009 -0.7673661112785339 -0.22935479879379272 -1.3146049353263134e-11 0.0 -1.151244268742903e-26 -0.5442396402359009 -0.7673661112785339 -0.22935479879379272 -1.3146049353263134e-11 0.0 -0.29859999735544024 -0.11235000099231782 0.3136499823461779 2.2214412195942908 2.2214412191386663 6.515886891884209e-08 0.0 0.0 0.0 0.0 0.0 0.0 9.240738067961094e-07 3.476881827858299e-07 4.2531462932220567e-08 -2.8475662131755543e-08 6.147405365792536e-08 -2.6501511708836367e-15 -0.2985999999832019 -0.1123500000156701 0.31364999997695675 2.221441469306995 2.2214414688513715 4.556249894594308e-10 0.0 0.0 0.0 0.0 0.0 0.0
9883.912 6.938893903907228e-16 -1.5707963267948966 1.5707963267948966 -1.5707963267948966 -1.5707963267948966 0.0 0.0 0.0 0.0 0.0 0.0 0.0 0.0 0.0 0.0 0.0 0.0 0.0 -1.1512442590619146e-26 -0.5442396572688689 -0.7673661111166267 -0.229354796466502 -1.3146049461972196e-11 0.0 -1.511583712148294e-25 -7.14586669994025 -7.145866699940251 -1.0424175499402515 -5.974879480466362e-11 0.0 6.938893903907228e-16 -1.570796314870016 1.5707963705062866 -1.570796314870016 -1.570796314870016 0.0 0.0 0.0 0.0 0.0 0.0 0.0 -1.151244268742903e-26 -0.5442396402359009 -0.7673661112785339 -0.22935479879379272 -1.3146049353263134e-11 0.0 -1.151244268742903e-26 -0.5442396402359009 -0.7673661112785339 -0.22935479879379272 -1.3146049353263134e-11 0.0 -0.29859999735544024 -0.11235000099231782 0.3136499823461779 2.2214412195942908 2.2214412191386663 6.515886891884209e-08 0.0 0.0 0.0 0.0 0.0 0.0 9.240738067961094e-07 3.476881827858299e-07 4.2531462932220567e-08 -2.8475662131755543e-08 6.147405365792536e-08 -2.6501511708836367e-15 -0.2985999999832019 -0.1123500000156701 0.31364999997695675 2.221441469306995 2.2214414688513715 4.556249894594308e-10 0.0 0.0 0.0 0.0 0.0 0.0
9883.92 6.938893903907228e-16 -1.5707963267948966 1.5707963267948966 -1.5707963267948966 -1.5707963267948966 0.0 0.0 0.0 0.0 0.0 0.0 0.0 0.0 0.0 0.0 0.0 0.0 0.0 -1.1512442590619146e-26 -0.5442396572688689 -0.7673661111166267 -0.229354796466502 -1.3146049461972196e-11 0.0 -1.511583712148294e-25 -7.14586669994025 -7.145866699940251 -1.0424175499402515 -5.974879480466362e-11 0.0 6.938893903907228e-16 -1.570796314870016 1.5707963705062866 -1.570796314870016 -1.570796314870016 0.0 0.0 0.0 0.0 0.0 0.0 0.0 -1.151244268742903e-26 -0.5442396402359009 -0.7673661112785339 -0.22935479879379272 -1.3146049353263134e-11 0.0 -1.151244268742903e-26 -0.5442396402359009 -0.7673661112785339 -0.22935479879379272 -1.3146049353263134e-11 0.0 -0.29859999735544024 -0.11235000099231782 0.3136499823461779 2.2214412195942908 2.2214412191386663 6.515886891884209e-08 0.0 0.0 0.0 0.0 0.0 0.0 9.240738067961094e-07 3.476881827858299e-07 4.2531462932220567e-08 -2.8475662131755543e-08 6.147405365792536e-08 -2.6501511708836367e-15 -0.2985999999832019 -0.1123500000156701 0.31364999997695675 2.221441469306995 2.2214414688513715 4.556249894594308e-10 0.0 0.0 0.0 0.0 0.0 0.0
9883.928 6.938893903907228e-16 -1.5707963267948966 1.5707963267948966 -1.5707963267948966 -1.5707963267948966 0.0 0.0 0.0 0.0 0.0 0.0 0.0 0.0 0.0 0.0 0.0 0.0 0.0 -1.1512442590619146e-26 -0.5442396572688689 -0.7673661111166267 -0.229354796466502 -1.3146049461972196e-11 0.0 -1.511583712148294e-25 -7.14586669994025 -7.145866699940251 -1.0424175499402515 -5.974879480466362e-11 0.0 6.938893903907228e-16 -1.570796314870016 1.5707963705062866 -1.570796314870016 -1.570796314870016 0.0 0.0 0.0 0.0 0.0 0.0 0.0 -1.151244268742903e-26 -0.5442396402359009 -0.7673661112785339 -0.22935479879379272 -1.3146049353263134e-11 0.0 -1.151244268742903e-26 -0.5442396402359009 -0.7673661112785339 -0.22935479879379272 -1.3146049353263134e-11 0.0 -0.29859999735544024 -0.11235000099231782 0.3136499823461779 2.2214412195942908 2.2214412191386663 6.515886891884209e-08 0.0 0.0 0.0 0.0 0.0 0.0 9.240738067961094e-07 3.476881827858299e-07 4.2531462932220567e-08 -2.8475662131755543e-08 6.147405365792536e-08 -2.6501511708836367e-15 -0.2985999999832019 -0.1123500000156701 0.31364999997695675 2.221441469306995 2.2214414688513715 4.556249894594308e-10 0.0 0.0 0.0 0.0 0.0 0.0
9883.936 6.938893903907228e-16 -1.5707963267948966 1.5707963267948966 -1.5707963267948966 -1.5707963267948966 0.0 0.0 0.0 0.0 0.0 0.0 0.0 0.0 0.0 0.0 0.0 0.0 0.0 -1.1512442590619146e-26 -0.5442396572688689 -0.7673661111166267 -0.229354796466502 -1.3146049461972196e-11 0.0 -1.511583712148294e-25 -7.14586669994025 -7.145866699940251 -1.0424175499402515 -5.974879480466362e-11 0.0 6.938893903907228e-16 -1.570796314870016 1.5707963705062866 -1.570796314870016 -1.570796314870016 0.0 0.0 0.0 0.0 0.0 0.0 0.0 -1.151244268742903e-26 -0.5442396402359009 -0.7673661112785339 -0.22935479879379272 -1.3146049353263134e-11 0.0 -1.151244268742903e-26 -0.5442396402359009 -0.7673661112785339 -0.22935479879379272 -1.3146049353263134e-11 0.0 -0.29859999735544024 -0.11235000099231782 0.3136499823461779 2.2214412195942908 2.2214412191386663 6.515886891884209e-08 0.0 0.0 0.0 0.0 0.0 0.0 9.240738067961094e-07 3.476881827858299e-07 4.2531462932220567e-08 -2.8475662131755543e-08 6.147405365792536e-08 -2.6501511708836367e-15 -0.2985999999832019 -0.1123500000156701 0.31364999997695675 2.221441469306995 2.2214414688513715 4.556249894594308e-10 0.0 0.0 0.0 0.0 0.0 0.0
9883.944 6.938893903907228e-16 -1.5707963267948966 1.5707963267948966 -1.5707963267948966 -1.5707963267948966 0.0 0.0 0.0 0.0 0.0 0.0 0.0 0.0 0.0 0.0 0.0 0.0 0.0 -1.1512442590619146e-26 -0.5442396572688689 -0.7673661111166267 -0.229354796466502 -1.3146049461972196e-11 0.0 -1.511583712148294e-25 -7.14586669994025 -7.145866699940251 -1.0424175499402515 -5.974879480466362e-11 0.0 6.938893903907228e-16 -1.570796314870016 1.5707963705062866 -1.570796314870016 -1.570796314870016 0.0 0.0 0.0 0.0 0.0 0.0 0.0 -1.151244268742903e-26 -0.5442396402359009 -0.7673661112785339 -0.22935479879379272 -1.3146049353263134e-11 0.0 -1.151244268742903e-26 -0.5442396402359009 -0.7673661112785339 -0.22935479879379272 -1.3146049353263134e-11 0.0 -0.29859999735544024 -0.11235000099231782 0.3136499823461779 2.2214412195942908 2.2214412191386663 6.515886891884209e-08 0.0 0.0 0.0 0.0 0.0 0.0 9.240738067961094e-07 3.476881827858299e-07 4.2531462932220567e-08 -2.8475662131755543e-08 6.147405365792536e-08 -2.6501511708836367e-15 -0.2985999999832019 -0.1123500000156701 0.31364999997695675 2.221441469306995 2.2214414688513715 4.556249894594308e-10 0.0 0.0 0.0 0.0 0.0 0.0
9883.952 6.938893903907228e-16 -1.5707963267948966 1.5707963267948966 -1.5707963267948966 -1.5707963267948966 0.0 0.0 0.0 0.0 0.0 0.0 0.0 0.0 0.0 0.0 0.0 0.0 0.0 -1.1512442590619146e-26 -0.5442396572688689 -0.7673661111166267 -0.229354796466502 -1.3146049461972196e-11 0.0 -1.511583712148294e-25 -7.14586669994025 -7.145866699940251 -1.0424175499402515 -5.974879480466362e-11 0.0 6.938893903907228e-16 -1.570796314870016 1.5707963705062866 -1.570796314870016 -1.570796314870016 0.0 0.0 0.0 0.0 0.0 0.0 0.0 -1.151244268742903e-26 -0.5442396402359009 -0.7673661112785339 -0.22935479879379272 -1.3146049353263134e-11 0.0 -1.151244268742903e-26 -0.5442396402359009 -0.7673661112785339 -0.22935479879379272 -1.3146049353263134e-11 0.0 -0.29859999735544024 -0.11235000099231782 0.3136499823461779 2.2214412195942908 2.2214412191386663 6.515886891884209e-08 0.0 0.0 0.0 0.0 0.0 0.0 9.240738067961094e-07 3.476881827858299e-07 4.2531462932220567e-08 -2.8475662131755543e-08 6.147405365792536e-08 -2.6501511708836367e-15 -0.2985999999832019 -0.1123500000156701 0.31364999997695675 2.221441469306995 2.2214414688513715 4.556249894594308e-10 0.0 0.0 0.0 0.0 0.0 0.0
9883.96 6.938893903907228e-16 -1.5707963267948966 1.5707963267948966 -1.5707963267948966 -1.5707963267948966 0.0 0.0 0.0 0.0 0.0 0.0 0.0 0.0 0.0 0.0 0.0 0.0 0.0 -1.1512442590619146e-26 -0.5442396572688689 -0.7673661111166267 -0.229354796466502 -1.3146049461972196e-11 0.0 -1.511583712148294e-25 -7.14586669994025 -7.145866699940251 -1.0424175499402515 -5.974879480466362e-11 0.0 6.938893903907228e-16 -1.570796314870016 1.5707963705062866 -1.570796314870016 -1.570796314870016 0.0 0.0 0.0 0.0 0.0 0.0 0.0 -1.151244268742903e-26 -0.5442396402359009 -0.7673661112785339 -0.22935479879379272 -1.3146049353263134e-11 0.0 -1.151244268742903e-26 -0.5442396402359009 -0.7673661112785339 -0.22935479879379272 -1.3146049353263134e-11 0.0 -0.29859999735544024 -0.11235000099231782 0.3136499823461779 2.2214412195942908 2.2214412191386663 6.515886891884209e-08 0.0 0.0 0.0 0.0 0.0 0.0 9.240738067961094e-07 3.476881827858299e-07 4.2531462932220567e-08 -2.8475662131755543e-08 6.147405365792536e-08 -2.6501511708836367e-15 -0.2985999999832019 -0.1123500000156701 0.31364999997695675 2.221441469306995 2.2214414688513715 4.556249894594308e-10 0.0 0.0 0.0 0.0 0.0 0.0
9883.967999999999 6.938893903907228e-16 -1.5707963267948966 1.5707963267948966 -1.5707963267948966 -1.5707963267948966 0.0 0.0 0.0 0.0 0.0 0.0 0.0 0.0 0.0 0.0 0.0 0.0 0.0 -1.1512442590619146e-26 -0.5442396572688689 -0.7673661111166267 -0.229354796466502 -1.3146049461972196e-11 0.0 -1.511583712148294e-25 -7.14586669994025 -7.145866699940251 -1.0424175499402515 -5.974879480466362e-11 0.0 6.938893903907228e-16 -1.570796314870016 1.5707963705062866 -1.570796314870016 -1.570796314870016 0.0 0.0 0.0 0.0 0.0 0.0 0.0 -1.151244268742903e-26 -0.5442396402359009 -0.7673661112785339 -0.22935479879379272 -1.3146049353263134e-11 0.0 -1.151244268742903e-26 -0.5442396402359009 -0.7673661112785339 -0.22935479879379272 -1.3146049353263134e-11 0.0 -0.29859999735544024 -0.11235000099231782 0.3136499823461779 2.2214412195942908 2.2214412191386663 6.515886891884209e-08 0.0 0.0 0.0 0.0 0.0 0.0 9.240738067961094e-07 3.476881827858299e-07 4.2531462932220567e-08 -2.8475662131755543e-08 6.147405365792536e-08 -2.6501511708836367e-15 -0.2985999999832019 -0.1123500000156701 0.31364999997695675 2.221441469306995 2.2214414688513715 4.556249894594308e-10 0.0 0.0 0.0 0.0 0.0 0.0
9883.975999999999 6.938893903907228e-16 -1.5707963267948966 1.5707963267948966 -1.5707963267948966 -1.5707963267948966 0.0 0.0 0.0 0.0 0.0 0.0 0.0 0.0 0.0 0.0 0.0 0.0 0.0 -1.1512442590619146e-26 -0.5442396572688689 -0.7673661111166267 -0.229354796466502 -1.3146049461972196e-11 0.0 -1.511583712148294e-25 -7.14586669994025 -7.145866699940251 -1.0424175499402515 -5.974879480466362e-11 0.0 6.938893903907228e-16 -1.570796314870016 1.5707963705062866 -1.570796314870016 -1.570796314870016 0.0 0.0 0.0 0.0 0.0 0.0 0.0 -1.151244268742903e-26 -0.5442396402359009 -0.7673661112785339 -0.22935479879379272 -1.3146049353263134e-11 0.0 -1.151244268742903e-26 -0.5442396402359009 -0.7673661112785339 -0.22935479879379272 -1.3146049353263134e-11 0.0 -0.29859999735544024 -0.11235000099231782 0.3136499823461779 2.2214412195942908 2.2214412191386663 6.515886891884209e-08 0.0 0.0 0.0 0.0 0.0 0.0 9.240738067961094e-07 3.476881827858299e-07 4.2531462932220567e-08 -2.8475662131755543e-08 6.147405365792536e-08 -2.6501511708836367e-15 -0.2985999999832019 -0.1123500000156701 0.31364999997695675 2.221441469306995 2.2214414688513715 4.556249894594308e-10 0.0 0.0 0.0 0.0 0.0 0.0
9883.984 6.938893903907228e-16 -1.5707963267948966 1.5707963267948966 -1.5707963267948966 -1.5707963267948966 0.0 0.0 0.0 0.0 0.0 0.0 0.0 0.0 0.0 0.0 0.0 0.0 0.0 -1.1512442590619146e-26 -0.5442396572688689 -0.7673661111166267 -0.229354796466502 -1.3146049461972196e-11 0.0 -1.511583712148294e-25 -7.14586669994025 -7.145866699940251 -1.0424175499402515 -5.974879480466362e-11 0.0 6.938893903907228e-16 -1.570796314870016 1.5707963705062866 -1.570796314870016 -1.570796314870016 0.0 0.0 0.0 0.0 0.0 0.0 0.0 -1.151244268742903e-26 -0.5442396402359009 -0.7673661112785339 -0.22935479879379272 -1.3146049353263134e-11 0.0 -1.151244268742903e-26 -0.5442396402359009 -0.7673661112785339 -0.22935479879379272 -1.3146049353263134e-11 0.0 -0.29859999735544024 -0.11235000099231782 0.3136499823461779 2.2214412195942908 2.2214412191386663 6.515886891884209e-08 0.0 0.0 0.0 0.0 0.0 0.0 9.240738067961094e-07 3.476881827858299e-07 4.2531462932220567e-08 -2.8475662131755543e-08 6.147405365792536e-08 -2.6501511708836367e-15 -0.2985999999832019 -0.1123500000156701 0.31364999997695675 2.221441469306995 2.2214414688513715 4.556249894594308e-10 0.0 0.0 0.0 0.0 0.0 0.0
9883.992 6.938893903907228e-16 -1.5707963267948966 1.5707963267948966 -1.5707963267948966 -1.5707963267948966 0.0 0.0 0.0 0.0 0.0 0.0 0.0 0.0 0.0 0.0 0.0 0.0 0.0 -1.1512442590619146e-26 -0.5442396572688689 -0.7673661111166267 -0.229354796466502 -1.3146049461972196e-11 0.0 -1.511583712148294e-25 -7.14586669994025 -7.145866699940251 -1.0424175499402515 -5.974879480466362e-11 0.0 6.938893903907228e-16 -1.570796314870016 1.5707963705062866 -1.570796314870016 -1.570796314870016 0.0 0.0 0.0 0.0 0.0 0.0 0.0 -1.151244268742903e-26 -0.5442396402359009 -0.7673661112785339 -0.22935479879379272 -1.3146049353263134e-11 0.0 -1.151244268742903e-26 -0.5442396402359009 -0.7673661112785339 -0.22935479879379272 -1.3146049353263134e-11 0.0 -0.29859999735544024 -0.11235000099231782 0.3136499823461779 2.2214412195942908 2.2214412191386663 6.515886891884209e-08 0.0 0.0 0.0 0.0 0.0 0.0 9.240738067961094e-07 3.476881827858299e-07 4.2531462932220567e-08 -2.8475662131755543e-08 6.147405365792536e-08 -2.6501511708836367e-15 -0.2985999999832019 -0.1123500000156701 0.31364999997695675 2.221441469306995 2.2214414688513715 4.556249894594308e-10 0.0 0.0 0.0 0.0 0.0 0.0
9884.0 6.938893903907228e-16 -1.5707963267948966 1.5707963267948966 -1.5707963267948966 -1.5707963267948966 0.0 0.0 0.0 0.0 0.0 0.0 0.0 0.0 0.0 0.0 0.0 0.0 0.0 -1.1512442590619146e-26 -0.5442396572688689 -0.7673661111166267 -0.229354796466502 -1.3146049461972196e-11 0.0 -1.511583712148294e-25 -7.14586669994025 -7.145866699940251 -1.0424175499402515 -5.974879480466362e-11 0.0 6.938893903907228e-16 -1.570796314870016 1.5707963705062866 -1.570796314870016 -1.570796314870016 0.0 0.0 0.0 0.0 0.0 0.0 0.0 -1.151244268742903e-26 -0.5442396402359009 -0.7673661112785339 -0.22935479879379272 -1.3146049353263134e-11 0.0 -1.151244268742903e-26 -0.5442396402359009 -0.7673661112785339 -0.22935479879379272 -1.3146049353263134e-11 0.0 -0.29859999735544024 -0.11235000099231782 0.3136499823461779 2.2214412195942908 2.2214412191386663 6.515886891884209e-08 0.0 0.0 0.0 0.0 0.0 0.0 9.240738067961094e-07 3.476881827858299e-07 4.2531462932220567e-08 -2.8475662131755543e-08 6.147405365792536e-08 -2.6501511708836367e-15 -0.2985999999832019 -0.1123500000156701 0.31364999997695675 2.221441469306995 2.2214414688513715 4.556249894594308e-10 0.0 0.0 0.0 0.0 0.0 0.0
9884.008 6.938893903907228e-16 -1.5707963267948966 1.5707963267948966 -1.5707963267948966 -1.5707963267948966 0.0 0.0 0.0 0.0 0.0 0.0 0.0 0.0 0.0 0.0 0.0 0.0 0.0 -1.1512442590619146e-26 -0.5442396572688689 -0.7673661111166267 -0.229354796466502 -1.3146049461972196e-11 0.0 -1.511583712148294e-25 -7.14586669994025 -7.145866699940251 -1.0424175499402515 -5.974879480466362e-11 0.0 6.938893903907228e-16 -1.570796314870016 1.5707963705062866 -1.570796314870016 -1.570796314870016 0.0 0.0 0.0 0.0 0.0 0.0 0.0 -1.151244268742903e-26 -0.5442396402359009 -0.7673661112785339 -0.22935479879379272 -1.3146049353263134e-11 0.0 -1.151244268742903e-26 -0.5442396402359009 -0.7673661112785339 -0.22935479879379272 -1.3146049353263134e-11 0.0 -0.29859999735544024 -0.11235000099231782 0.3136499823461779 2.2214412195942908 2.2214412191386663 6.515886891884209e-08 0.0 0.0 0.0 0.0 0.0 0.0 9.240738067961094e-07 3.476881827858299e-07 4.2531462932220567e-08 -2.8475662131755543e-08 6.147405365792536e-08 -2.6501511708836367e-15 -0.2985999999832019 -0.1123500000156701 0.31364999997695675 2.221441469306995 2.2214414688513715 4.556249894594308e-10 0.0 0.0 0.0 0.0 0.0 0.0
9884.016 6.938893903907228e-16 -1.5707963267948966 1.5707963267948966 -1.5707963267948966 -1.5707963267948966 0.0 0.0 0.0 0.0 0.0 0.0 0.0 0.0 0.0 0.0 0.0 0.0 0.0 -1.1512442590619146e-26 -0.5442396572688689 -0.7673661111166267 -0.229354796466502 -1.3146049461972196e-11 0.0 -1.511583712148294e-25 -7.14586669994025 -7.145866699940251 -1.0424175499402515 -5.974879480466362e-11 0.0 6.938893903907228e-16 -1.570796314870016 1.5707963705062866 -1.570796314870016 -1.570796314870016 0.0 0.0 0.0 0.0 0.0 0.0 0.0 -1.151244268742903e-26 -0.5442396402359009 -0.7673661112785339 -0.22935479879379272 -1.3146049353263134e-11 0.0 -1.151244268742903e-26 -0.5442396402359009 -0.7673661112785339 -0.22935479879379272 -1.3146049353263134e-11 0.0 -0.29859999735544024 -0.11235000099231782 0.3136499823461779 2.2214412195942908 2.2214412191386663 6.515886891884209e-08 0.0 0.0 0.0 0.0 0.0 0.0 9.240738067961094e-07 3.476881827858299e-07 4.2531462932220567e-08 -2.8475662131755543e-08 6.147405365792536e-08 -2.6501511708836367e-15 -0.2985999999832019 -0.1123500000156701 0.31364999997695675 2.221441469306995 2.2214414688513715 4.556249894594308e-10 0.0 0.0 0.0 0.0 0.0 0.0
9884.024 6.938893903907228e-16 -1.5707963267948966 1.5707963267948966 -1.5707963267948966 -1.5707963267948966 0.0 0.0 0.0 0.0 0.0 0.0 0.0 0.0 0.0 0.0 0.0 0.0 0.0 -1.1512442590619146e-26 -0.5442396572688689 -0.7673661111166267 -0.229354796466502 -1.3146049461972196e-11 0.0 -1.511583712148294e-25 -7.14586669994025 -7.145866699940251 -1.0424175499402515 -5.974879480466362e-11 0.0 6.938893903907228e-16 -1.570796314870016 1.5707963705062866 -1.570796314870016 -1.570796314870016 0.0 0.0 0.0 0.0 0.0 0.0 0.0 -1.151244268742903e-26 -0.5442396402359009 -0.7673661112785339 -0.22935479879379272 -1.3146049353263134e-11 0.0 -1.151244268742903e-26 -0.5442396402359009 -0.7673661112785339 -0.22935479879379272 -1.3146049353263134e-11 0.0 -0.29859999735544024 -0.11235000099231782 0.3136499823461779 2.2214412195942908 2.2214412191386663 6.515886891884209e-08 0.0 0.0 0.0 0.0 0.0 0.0 9.240738067961094e-07 3.476881827858299e-07 4.2531462932220567e-08 -2.8475662131755543e-08 6.147405365792536e-08 -2.6501511708836367e-15 -0.2985999999832019 -0.1123500000156701 0.31364999997695675 2.221441469306995 2.2214414688513715 4.556249894594308e-10 0.0 0.0 0.0 0.0 0.0 0.0
9884.032 6.938893903907228e-16 -1.5707963267948966 1.5707963267948966 -1.5707963267948966 -1.5707963267948966 0.0 0.0 0.0 0.0 0.0 0.0 0.0 0.0 0.0 0.0 0.0 0.0 0.0 -1.1512442590619146e-26 -0.5442396572688689 -0.7673661111166267 -0.229354796466502 -1.3146049461972196e-11 0.0 -1.511583712148294e-25 -7.14586669994025 -7.145866699940251 -1.0424175499402515 -5.974879480466362e-11 0.0 6.938893903907228e-16 -1.570796314870016 1.5707963705062866 -1.570796314870016 -1.570796314870016 0.0 0.0 0.0 0.0 0.0 0.0 0.0 -1.151244268742903e-26 -0.5442396402359009 -0.7673661112785339 -0.22935479879379272 -1.3146049353263134e-11 0.0 -1.151244268742903e-26 -0.5442396402359009 -0.7673661112785339 -0.22935479879379272 -1.3146049353263134e-11 0.0 -0.29859999735544024 -0.11235000099231782 0.3136499823461779 2.2214412195942908 2.2214412191386663 6.515886891884209e-08 0.0 0.0 0.0 0.0 0.0 0.0 9.240738067961094e-07 3.476881827858299e-07 4.2531462932220567e-08 -2.8475662131755543e-08 6.147405365792536e-08 -2.6501511708836367e-15 -0.2985999999832019 -0.1123500000156701 0.31364999997695675 2.221441469306995 2.2214414688513715 4.556249894594308e-10 0.0 0.0 0.0 0.0 0.0 0.0
9884.039999999999 6.938893903907228e-16 -1.5707963267948966 1.5707963267948966 -1.5707963267948966 -1.5707963267948966 0.0 0.0 0.0 0.0 0.0 0.0 0.0 0.0 0.0 0.0 0.0 0.0 0.0 -1.1512442590619146e-26 -0.5442396572688689 -0.7673661111166267 -0.229354796466502 -1.3146049461972196e-11 0.0 -1.511583712148294e-25 -7.14586669994025 -7.145866699940251 -1.0424175499402515 -5.974879480466362e-11 0.0 6.938893903907228e-16 -1.570796314870016 1.5707963705062866 -1.570796314870016 -1.570796314870016 0.0 0.0 0.0 0.0 0.0 0.0 0.0 -1.151244268742903e-26 -0.5442396402359009 -0.7673661112785339 -0.22935479879379272 -1.3146049353263134e-11 0.0 -1.151244268742903e-26 -0.5442396402359009 -0.7673661112785339 -0.22935479879379272 -1.3146049353263134e-11 0.0 -0.29859999735544024 -0.11235000099231782 0.3136499823461779 2.2214412195942908 2.2214412191386663 6.515886891884209e-08 0.0 0.0 0.0 0.0 0.0 0.0 9.240738067961094e-07 3.476881827858299e-07 4.2531462932220567e-08 -2.8475662131755543e-08 6.147405365792536e-08 -2.6501511708836367e-15 -0.2985999999832019 -0.1123500000156701 0.31364999997695675 2.221441469306995 2.2214414688513715 4.556249894594308e-10 0.0 0.0 0.0 0.0 0.0 0.0
9884.047999999999 6.938893903907228e-16 -1.5707963267948966 1.5707963267948966 -1.5707963267948966 -1.5707963267948966 0.0 0.0 0.0 0.0 0.0 0.0 0.0 0.0 0.0 0.0 0.0 0.0 0.0 -1.1512442590619146e-26 -0.5442396572688689 -0.7673661111166267 -0.229354796466502 -1.3146049461972196e-11 0.0 -1.511583712148294e-25 -7.14586669994025 -7.145866699940251 -1.0424175499402515 -5.974879480466362e-11 0.0 6.938893903907228e-16 -1.570796314870016 1.5707963705062866 -1.570796314870016 -1.570796314870016 0.0 0.0 0.0 0.0 0.0 0.0 0.0 -1.151244268742903e-26 -0.5442396402359009 -0.7673661112785339 -0.22935479879379272 -1.3146049353263134e-11 0.0 -1.151244268742903e-26 -0.5442396402359009 -0.7673661112785339 -0.22935479879379272 -1.3146049353263134e-11 0.0 -0.29859999735544024 -0.11235000099231782 0.3136499823461779 2.2214412195942908 2.2214412191386663 6.515886891884209e-08 0.0 0.0 0.0 0.0 0.0 0.0 9.240738067961094e-07 3.476881827858299e-07 4.2531462932220567e-08 -2.8475662131755543e-08 6.147405365792536e-08 -2.6501511708836367e-15 -0.2985999999832019 -0.1123500000156701 0.31364999997695675 2.221441469306995 2.2214414688513715 4.556249894594308e-10 0.0 0.0 0.0 0.0 0.0 0.0
9884.055999999999 6.938893903907228e-16 -1.5707963267948966 1.5707963267948966 -1.5707963267948966 -1.5707963267948966 0.0 0.0 0.0 0.0 0.0 0.0 0.0 0.0 0.0 0.0 0.0 0.0 0.0 -1.1512442590619146e-26 -0.5442396572688689 -0.7673661111166267 -0.229354796466502 -1.3146049461972196e-11 0.0 -1.511583712148294e-25 -7.14586669994025 -7.145866699940251 -1.0424175499402515 -5.974879480466362e-11 0.0 6.938893903907228e-16 -1.570796314870016 1.5707963705062866 -1.570796314870016 -1.570796314870016 0.0 0.0 0.0 0.0 0.0 0.0 0.0 -1.151244268742903e-26 -0.5442396402359009 -0.7673661112785339 -0.22935479879379272 -1.3146049353263134e-11 0.0 -1.151244268742903e-26 -0.5442396402359009 -0.7673661112785339 -0.22935479879379272 -1.3146049353263134e-11 0.0 -0.29859999735544024 -0.11235000099231782 0.3136499823461779 2.2214412195942908 2.2214412191386663 6.515886891884209e-08 0.0 0.0 0.0 0.0 0.0 0.0 9.240738067961094e-07 3.476881827858299e-07 4.2531462932220567e-08 -2.8475662131755543e-08 6.147405365792536e-08 -2.6501511708836367e-15 -0.2985999999832019 -0.1123500000156701 0.31364999997695675 2.221441469306995 2.2214414688513715 4.556249894594308e-10 0.0 0.0 0.0 0.0 0.0 0.0
9884.064 6.938893903907228e-16 -1.5707963267948966 1.5707963267948966 -1.5707963267948966 -1.5707963267948966 0.0 0.0 0.0 0.0 0.0 0.0 0.0 0.0 0.0 0.0 0.0 0.0 0.0 -1.1512442590619146e-26 -0.5442396572688689 -0.7673661111166267 -0.229354796466502 -1.3146049461972196e-11 0.0 -1.511583712148294e-25 -7.14586669994025 -7.145866699940251 -1.0424175499402515 -5.974879480466362e-11 0.0 6.938893903907228e-16 -1.570796314870016 1.5707963705062866 -1.570796314870016 -1.570796314870016 0.0 0.0 0.0 0.0 0.0 0.0 0.0 -1.151244268742903e-26 -0.5442396402359009 -0.7673661112785339 -0.22935479879379272 -1.3146049353263134e-11 0.0 -1.151244268742903e-26 -0.5442396402359009 -0.7673661112785339 -0.22935479879379272 -1.3146049353263134e-11 0.0 -0.29859999735544024 -0.11235000099231782 0.3136499823461779 2.2214412195942908 2.2214412191386663 6.515886891884209e-08 0.0 0.0 0.0 0.0 0.0 0.0 9.240738067961094e-07 3.476881827858299e-07 4.2531462932220567e-08 -2.8475662131755543e-08 6.147405365792536e-08 -2.6501511708836367e-15 -0.2985999999832019 -0.1123500000156701 0.31364999997695675 2.221441469306995 2.2214414688513715 4.556249894594308e-10 0.0 0.0 0.0 0.0 0.0 0.0
9884.072 6.938893903907228e-16 -1.5707963267948966 1.5707963267948966 -1.5707963267948966 -1.5707963267948966 0.0 0.0 0.0 0.0 0.0 0.0 0.0 0.0 0.0 0.0 0.0 0.0 0.0 -1.1512442590619146e-26 -0.5442396572688689 -0.7673661111166267 -0.229354796466502 -1.3146049461972196e-11 0.0 -1.511583712148294e-25 -7.14586669994025 -7.145866699940251 -1.0424175499402515 -5.974879480466362e-11 0.0 6.938893903907228e-16 -1.570796314870016 1.5707963705062866 -1.570796314870016 -1.570796314870016 0.0 0.0 0.0 0.0 0.0 0.0 0.0 -1.151244268742903e-26 -0.5442396402359009 -0.7673661112785339 -0.22935479879379272 -1.3146049353263134e-11 0.0 -1.151244268742903e-26 -0.5442396402359009 -0.7673661112785339 -0.22935479879379272 -1.3146049353263134e-11 0.0 -0.29859999735544024 -0.11235000099231782 0.3136499823461779 2.2214412195942908 2.2214412191386663 6.515886891884209e-08 0.0 0.0 0.0 0.0 0.0 0.0 9.240738067961094e-07 3.476881827858299e-07 4.2531462932220567e-08 -2.8475662131755543e-08 6.147405365792536e-08 -2.6501511708836367e-15 -0.2985999999832019 -0.1123500000156701 0.31364999997695675 2.221441469306995 2.2214414688513715 4.556249894594308e-10 0.0 0.0 0.0 0.0 0.0 0.0
9884.08 6.938893903907228e-16 -1.5707963267948966 1.5707963267948966 -1.5707963267948966 -1.5707963267948966 0.0 0.0 0.0 0.0 0.0 0.0 0.0 0.0 0.0 0.0 0.0 0.0 0.0 -1.1512442590619146e-26 -0.5442396572688689 -0.7673661111166267 -0.229354796466502 -1.3146049461972196e-11 0.0 -1.511583712148294e-25 -7.14586669994025 -7.145866699940251 -1.0424175499402515 -5.974879480466362e-11 0.0 6.938893903907228e-16 -1.570796314870016 1.5707963705062866 -1.570796314870016 -1.570796314870016 0.0 0.0 0.0 0.0 0.0 0.0 0.0 -1.151244268742903e-26 -0.5442396402359009 -0.7673661112785339 -0.22935479879379272 -1.3146049353263134e-11 0.0 -1.151244268742903e-26 -0.5442396402359009 -0.7673661112785339 -0.22935479879379272 -1.3146049353263134e-11 0.0 -0.29859999735544024 -0.11235000099231782 0.3136499823461779 2.2214412195942908 2.2214412191386663 6.515886891884209e-08 0.0 0.0 0.0 0.0 0.0 0.0 9.240738067961094e-07 3.476881827858299e-07 4.2531462932220567e-08 -2.8475662131755543e-08 6.147405365792536e-08 -2.6501511708836367e-15 -0.2985999999832019 -0.1123500000156701 0.31364999997695675 2.221441469306995 2.2214414688513715 4.556249894594308e-10 0.0 0.0 0.0 0.0 0.0 0.0
9884.088 6.938893903907228e-16 -1.5707963267948966 1.5707963267948966 -1.5707963267948966 -1.5707963267948966 0.0 0.0 0.0 0.0 0.0 0.0 0.0 0.0 0.0 0.0 0.0 0.0 0.0 -1.1512442590619146e-26 -0.5442396572688689 -0.7673661111166267 -0.229354796466502 -1.3146049461972196e-11 0.0 -1.511583712148294e-25 -7.14586669994025 -7.145866699940251 -1.0424175499402515 -5.974879480466362e-11 0.0 6.938893903907228e-16 -1.570796314870016 1.5707963705062866 -1.570796314870016 -1.570796314870016 0.0 0.0 0.0 0.0 0.0 0.0 0.0 -1.151244268742903e-26 -0.5442396402359009 -0.7673661112785339 -0.22935479879379272 -1.3146049353263134e-11 0.0 -1.151244268742903e-26 -0.5442396402359009 -0.7673661112785339 -0.22935479879379272 -1.3146049353263134e-11 0.0 -0.29859999735544024 -0.11235000099231782 0.3136499823461779 2.2214412195942908 2.2214412191386663 6.515886891884209e-08 0.0 0.0 0.0 0.0 0.0 0.0 9.240738067961094e-07 3.476881827858299e-07 4.2531462932220567e-08 -2.8475662131755543e-08 6.147405365792536e-08 -2.6501511708836367e-15 -0.2985999999832019 -0.1123500000156701 0.31364999997695675 2.221441469306995 2.2214414688513715 4.556249894594308e-10 0.0 0.0 0.0 0.0 0.0 0.0
9884.096 6.938893903907228e-16 -1.5707963267948966 1.5707963267948966 -1.5707963267948966 -1.5707963267948966 0.0 0.0 0.0 0.0 0.0 0.0 0.0 0.0 0.0 0.0 0.0 0.0 0.0 -1.1512442590619146e-26 -0.5442396572688689 -0.7673661111166267 -0.229354796466502 -1.3146049461972196e-11 0.0 -1.511583712148294e-25 -7.14586669994025 -7.145866699940251 -1.0424175499402515 -5.974879480466362e-11 0.0 6.938893903907228e-16 -1.570796314870016 1.5707963705062866 -1.570796314870016 -1.570796314870016 0.0 0.0 0.0 0.0 0.0 0.0 0.0 -1.151244268742903e-26 -0.5442396402359009 -0.7673661112785339 -0.22935479879379272 -1.3146049353263134e-11 0.0 -1.151244268742903e-26 -0.5442396402359009 -0.7673661112785339 -0.22935479879379272 -1.3146049353263134e-11 0.0 -0.29859999735544024 -0.11235000099231782 0.3136499823461779 2.2214412195942908 2.2214412191386663 6.515886891884209e-08 0.0 0.0 0.0 0.0 0.0 0.0 9.240738067961094e-07 3.476881827858299e-07 4.2531462932220567e-08 -2.8475662131755543e-08 6.147405365792536e-08 -2.6501511708836367e-15 -0.2985999999832019 -0.1123500000156701 0.31364999997695675 2.221441469306995 2.2214414688513715 4.556249894594308e-10 0.0 0.0 0.0 0.0 0.0 0.0
9884.104 6.938893903907228e-16 -1.5707963267948966 1.5707963267948966 -1.5707963267948966 -1.5707963267948966 0.0 0.0 0.0 0.0 0.0 0.0 0.0 0.0 0.0 0.0 0.0 0.0 0.0 -1.1512442590619146e-26 -0.5442396572688689 -0.7673661111166267 -0.229354796466502 -1.3146049461972196e-11 0.0 -1.511583712148294e-25 -7.14586669994025 -7.145866699940251 -1.0424175499402515 -5.974879480466362e-11 0.0 6.938893903907228e-16 -1.570796314870016 1.5707963705062866 -1.570796314870016 -1.570796314870016 0.0 0.0 0.0 0.0 0.0 0.0 0.0 -1.151244268742903e-26 -0.5442396402359009 -0.7673661112785339 -0.22935479879379272 -1.3146049353263134e-11 0.0 -1.151244268742903e-26 -0.5442396402359009 -0.7673661112785339 -0.22935479879379272 -1.3146049353263134e-11 0.0 -0.29859999735544024 -0.11235000099231782 0.3136499823461779 2.2214412195942908 2.2214412191386663 6.515886891884209e-08 0.0 0.0 0.0 0.0 0.0 0.0 9.240738067961094e-07 3.476881827858299e-07 4.2531462932220567e-08 -2.8475662131755543e-08 6.147405365792536e-08 -2.6501511708836367e-15 -0.2985999999832019 -0.1123500000156701 0.31364999997695675 2.221441469306995 2.2214414688513715 4.556249894594308e-10 0.0 0.0 0.0 0.0 0.0 0.0
9884.112 6.938893903907228e-16 -1.5707963267948966 1.5707963267948966 -1.5707963267948966 -1.5707963267948966 0.0 0.0 0.0 0.0 0.0 0.0 0.0 0.0 0.0 0.0 0.0 0.0 0.0 -1.1512442590619146e-26 -0.5442396572688689 -0.7673661111166267 -0.229354796466502 -1.3146049461972196e-11 0.0 -1.511583712148294e-25 -7.14586669994025 -7.145866699940251 -1.0424175499402515 -5.974879480466362e-11 0.0 6.938893903907228e-16 -1.570796314870016 1.5707963705062866 -1.570796314870016 -1.570796314870016 0.0 0.0 0.0 0.0 0.0 0.0 0.0 -1.151244268742903e-26 -0.5442396402359009 -0.7673661112785339 -0.22935479879379272 -1.3146049353263134e-11 0.0 -1.151244268742903e-26 -0.5442396402359009 -0.7673661112785339 -0.22935479879379272 -1.3146049353263134e-11 0.0 -0.29859999735544024 -0.11235000099231782 0.3136499823461779 2.2214412195942908 2.2214412191386663 6.515886891884209e-08 0.0 0.0 0.0 0.0 0.0 0.0 9.240738067961094e-07 3.476881827858299e-07 4.2531462932220567e-08 -2.8475662131755543e-08 6.147405365792536e-08 -2.6501511708836367e-15 -0.2985999999832019 -0.1123500000156701 0.31364999997695675 2.221441469306995 2.2214414688513715 4.556249894594308e-10 0.0 0.0 0.0 0.0 0.0 0.0
9884.119999999999 6.938893903907228e-16 -1.5707963267948966 1.5707963267948966 -1.5707963267948966 -1.5707963267948966 0.0 0.0 0.0 0.0 0.0 0.0 0.0 0.0 0.0 0.0 0.0 0.0 0.0 -1.1512442590619146e-26 -0.5442396572688689 -0.7673661111166267 -0.229354796466502 -1.3146049461972196e-11 0.0 -1.511583712148294e-25 -7.14586669994025 -7.145866699940251 -1.0424175499402515 -5.974879480466362e-11 0.0 6.938893903907228e-16 -1.570796314870016 1.5707963705062866 -1.570796314870016 -1.570796314870016 0.0 0.0 0.0 0.0 0.0 0.0 0.0 -1.151244268742903e-26 -0.5442396402359009 -0.7673661112785339 -0.22935479879379272 -1.3146049353263134e-11 0.0 -1.151244268742903e-26 -0.5442396402359009 -0.7673661112785339 -0.22935479879379272 -1.3146049353263134e-11 0.0 -0.29859999735544024 -0.11235000099231782 0.3136499823461779 2.2214412195942908 2.2214412191386663 6.515886891884209e-08 0.0 0.0 0.0 0.0 0.0 0.0 9.240738067961094e-07 3.476881827858299e-07 4.2531462932220567e-08 -2.8475662131755543e-08 6.147405365792536e-08 -2.6501511708836367e-15 -0.2985999999832019 -0.1123500000156701 0.31364999997695675 2.221441469306995 2.2214414688513715 4.556249894594308e-10 0.0 0.0 0.0 0.0 0.0 0.0
9884.127999999999 6.938893903907228e-16 -1.5707963267948966 1.5707963267948966 -1.5707963267948966 -1.5707963267948966 0.0 0.0 0.0 0.0 0.0 0.0 0.0 0.0 0.0 0.0 0.0 0.0 0.0 -1.1512442590619146e-26 -0.5442396572688689 -0.7673661111166267 -0.229354796466502 -1.3146049461972196e-11 0.0 -1.511583712148294e-25 -7.14586669994025 -7.145866699940251 -1.0424175499402515 -5.974879480466362e-11 0.0 6.938893903907228e-16 -1.570796314870016 1.5707963705062866 -1.570796314870016 -1.570796314870016 0.0 0.0 0.0 0.0 0.0 0.0 0.0 -1.151244268742903e-26 -0.5442396402359009 -0.7673661112785339 -0.22935479879379272 -1.3146049353263134e-11 0.0 -1.151244268742903e-26 -0.5442396402359009 -0.7673661112785339 -0.22935479879379272 -1.3146049353263134e-11 0.0 -0.29859999735544024 -0.11235000099231782 0.3136499823461779 2.2214412195942908 2.2214412191386663 6.515886891884209e-08 0.0 0.0 0.0 0.0 0.0 0.0 9.240738067961094e-07 3.476881827858299e-07 4.2531462932220567e-08 -2.8475662131755543e-08 6.147405365792536e-08 -2.6501511708836367e-15 -0.2985999999832019 -0.1123500000156701 0.31364999997695675 2.221441469306995 2.2214414688513715 4.556249894594308e-10 0.0 0.0 0.0 0.0 0.0 0.0
9884.136 6.938893903907228e-16 -1.5707963267948966 1.5707963267948966 -1.5707963267948966 -1.5707963267948966 0.0 0.0 0.0 0.0 0.0 0.0 0.0 0.0 0.0 0.0 0.0 0.0 0.0 -1.1512442590619146e-26 -0.5442396572688689 -0.7673661111166267 -0.229354796466502 -1.3146049461972196e-11 0.0 -1.511583712148294e-25 -7.14586669994025 -7.145866699940251 -1.0424175499402515 -5.974879480466362e-11 0.0 6.938893903907228e-16 -1.570796314870016 1.5707963705062866 -1.570796314870016 -1.570796314870016 0.0 0.0 0.0 0.0 0.0 0.0 0.0 -1.151244268742903e-26 -0.5442396402359009 -0.7673661112785339 -0.22935479879379272 -1.3146049353263134e-11 0.0 -1.151244268742903e-26 -0.5442396402359009 -0.7673661112785339 -0.22935479879379272 -1.3146049353263134e-11 0.0 -0.29859999735544024 -0.11235000099231782 0.3136499823461779 2.2214412195942908 2.2214412191386663 6.515886891884209e-08 0.0 0.0 0.0 0.0 0.0 0.0 9.240738067961094e-07 3.476881827858299e-07 4.2531462932220567e-08 -2.8475662131755543e-08 6.147405365792536e-08 -2.6501511708836367e-15 -0.2985999999832019 -0.1123500000156701 0.31364999997695675 2.221441469306995 2.2214414688513715 4.556249894594308e-10 0.0 0.0 0.0 0.0 0.0 0.0
9884.144 6.938893903907228e-16 -1.5707963267948966 1.5707963267948966 -1.5707963267948966 -1.5707963267948966 0.0 0.0 0.0 0.0 0.0 0.0 0.0 0.0 0.0 0.0 0.0 0.0 0.0 -1.1512442590619146e-26 -0.5442396572688689 -0.7673661111166267 -0.229354796466502 -1.3146049461972196e-11 0.0 -1.511583712148294e-25 -7.14586669994025 -7.145866699940251 -1.0424175499402515 -5.974879480466362e-11 0.0 6.938893903907228e-16 -1.570796314870016 1.5707963705062866 -1.570796314870016 -1.570796314870016 0.0 0.0 0.0 0.0 0.0 0.0 0.0 -1.151244268742903e-26 -0.5442396402359009 -0.7673661112785339 -0.22935479879379272 -1.3146049353263134e-11 0.0 -1.151244268742903e-26 -0.5442396402359009 -0.7673661112785339 -0.22935479879379272 -1.3146049353263134e-11 0.0 -0.29859999735544024 -0.11235000099231782 0.3136499823461779 2.2214412195942908 2.2214412191386663 6.515886891884209e-08 0.0 0.0 0.0 0.0 0.0 0.0 9.240738067961094e-07 3.476881827858299e-07 4.2531462932220567e-08 -2.8475662131755543e-08 6.147405365792536e-08 -2.6501511708836367e-15 -0.2985999999832019 -0.1123500000156701 0.31364999997695675 2.221441469306995 2.2214414688513715 4.556249894594308e-10 0.0 0.0 0.0 0.0 0.0 0.0
9884.152 6.938893903907228e-16 -1.5707963267948966 1.5707963267948966 -1.5707963267948966 -1.5707963267948966 0.0 0.0 0.0 0.0 0.0 0.0 0.0 0.0 0.0 0.0 0.0 0.0 0.0 -1.1512442590619146e-26 -0.5442396572688689 -0.7673661111166267 -0.229354796466502 -1.3146049461972196e-11 0.0 -1.511583712148294e-25 -7.14586669994025 -7.145866699940251 -1.0424175499402515 -5.974879480466362e-11 0.0 6.938893903907228e-16 -1.570796314870016 1.5707963705062866 -1.570796314870016 -1.570796314870016 0.0 0.0 0.0 0.0 0.0 0.0 0.0 -1.151244268742903e-26 -0.5442396402359009 -0.7673661112785339 -0.22935479879379272 -1.3146049353263134e-11 0.0 -1.151244268742903e-26 -0.5442396402359009 -0.7673661112785339 -0.22935479879379272 -1.3146049353263134e-11 0.0 -0.29859999735544024 -0.11235000099231782 0.3136499823461779 2.2214412195942908 2.2214412191386663 6.515886891884209e-08 0.0 0.0 0.0 0.0 0.0 0.0 9.240738067961094e-07 3.476881827858299e-07 4.2531462932220567e-08 -2.8475662131755543e-08 6.147405365792536e-08 -2.6501511708836367e-15 -0.2985999999832019 -0.1123500000156701 0.31364999997695675 2.221441469306995 2.2214414688513715 4.556249894594308e-10 0.0 0.0 0.0 0.0 0.0 0.0
9884.16 6.938893903907228e-16 -1.5707963267948966 1.5707963267948966 -1.5707963267948966 -1.5707963267948966 0.0 0.0 0.0 0.0 0.0 0.0 0.0 0.0 0.0 0.0 0.0 0.0 0.0 -1.1512442590619146e-26 -0.5442396572688689 -0.7673661111166267 -0.229354796466502 -1.3146049461972196e-11 0.0 -1.511583712148294e-25 -7.14586669994025 -7.145866699940251 -1.0424175499402515 -5.974879480466362e-11 0.0 6.938893903907228e-16 -1.570796314870016 1.5707963705062866 -1.570796314870016 -1.570796314870016 0.0 0.0 0.0 0.0 0.0 0.0 0.0 -1.151244268742903e-26 -0.5442396402359009 -0.7673661112785339 -0.22935479879379272 -1.3146049353263134e-11 0.0 -1.151244268742903e-26 -0.5442396402359009 -0.7673661112785339 -0.22935479879379272 -1.3146049353263134e-11 0.0 -0.29859999735544024 -0.11235000099231782 0.3136499823461779 2.2214412195942908 2.2214412191386663 6.515886891884209e-08 0.0 0.0 0.0 0.0 0.0 0.0 9.240738067961094e-07 3.476881827858299e-07 4.2531462932220567e-08 -2.8475662131755543e-08 6.147405365792536e-08 -2.6501511708836367e-15 -0.2985999999832019 -0.1123500000156701 0.31364999997695675 2.221441469306995 2.2214414688513715 4.556249894594308e-10 0.0 0.0 0.0 0.0 0.0 0.0
9884.168 6.938893903907228e-16 -1.5707963267948966 1.5707963267948966 -1.5707963267948966 -1.5707963267948966 0.0 0.0 0.0 0.0 0.0 0.0 0.0 0.0 0.0 0.0 0.0 0.0 0.0 -1.1512442590619146e-26 -0.5442396572688689 -0.7673661111166267 -0.229354796466502 -1.3146049461972196e-11 0.0 -1.511583712148294e-25 -7.14586669994025 -7.145866699940251 -1.0424175499402515 -5.974879480466362e-11 0.0 6.938893903907228e-16 -1.570796314870016 1.5707963705062866 -1.570796314870016 -1.570796314870016 0.0 0.0 0.0 0.0 0.0 0.0 0.0 -1.151244268742903e-26 -0.5442396402359009 -0.7673661112785339 -0.22935479879379272 -1.3146049353263134e-11 0.0 -1.151244268742903e-26 -0.5442396402359009 -0.7673661112785339 -0.22935479879379272 -1.3146049353263134e-11 0.0 -0.29859999735544024 -0.11235000099231782 0.3136499823461779 2.2214412195942908 2.2214412191386663 6.515886891884209e-08 0.0 0.0 0.0 0.0 0.0 0.0 9.240738067961094e-07 3.476881827858299e-07 4.2531462932220567e-08 -2.8475662131755543e-08 6.147405365792536e-08 -2.6501511708836367e-15 -0.2985999999832019 -0.1123500000156701 0.31364999997695675 2.221441469306995 2.2214414688513715 4.556249894594308e-10 0.0 0.0 0.0 0.0 0.0 0.0
9884.176 6.938893903907228e-16 -1.5707963267948966 1.5707963267948966 -1.5707963267948966 -1.5707963267948966 0.0 0.0 0.0 0.0 0.0 0.0 0.0 0.0 0.0 0.0 0.0 0.0 0.0 -1.1512442590619146e-26 -0.5442396572688689 -0.7673661111166267 -0.229354796466502 -1.3146049461972196e-11 0.0 -1.511583712148294e-25 -7.14586669994025 -7.145866699940251 -1.0424175499402515 -5.974879480466362e-11 0.0 6.938893903907228e-16 -1.570796314870016 1.5707963705062866 -1.570796314870016 -1.570796314870016 0.0 0.0 0.0 0.0 0.0 0.0 0.0 -1.151244268742903e-26 -0.5442396402359009 -0.7673661112785339 -0.22935479879379272 -1.3146049353263134e-11 0.0 -1.151244268742903e-26 -0.5442396402359009 -0.7673661112785339 -0.22935479879379272 -1.3146049353263134e-11 0.0 -0.29859999735544024 -0.11235000099231782 0.3136499823461779 2.2214412195942908 2.2214412191386663 6.515886891884209e-08 0.0 0.0 0.0 0.0 0.0 0.0 9.240738067961094e-07 3.476881827858299e-07 4.2531462932220567e-08 -2.8475662131755543e-08 6.147405365792536e-08 -2.6501511708836367e-15 -0.2985999999832019 -0.1123500000156701 0.31364999997695675 2.221441469306995 2.2214414688513715 4.556249894594308e-10 0.0 0.0 0.0 0.0 0.0 0.0
9884.184 6.938893903907228e-16 -1.5707963267948966 1.5707963267948966 -1.5707963267948966 -1.5707963267948966 0.0 0.0 0.0 0.0 0.0 0.0 0.0 0.0 0.0 0.0 0.0 0.0 0.0 -1.1512442590619146e-26 -0.5442396572688689 -0.7673661111166267 -0.229354796466502 -1.3146049461972196e-11 0.0 -1.511583712148294e-25 -7.14586669994025 -7.145866699940251 -1.0424175499402515 -5.974879480466362e-11 0.0 6.938893903907228e-16 -1.570796314870016 1.5707963705062866 -1.570796314870016 -1.570796314870016 0.0 0.0 0.0 0.0 0.0 0.0 0.0 -1.151244268742903e-26 -0.5442396402359009 -0.7673661112785339 -0.22935479879379272 -1.3146049353263134e-11 0.0 -1.151244268742903e-26 -0.5442396402359009 -0.7673661112785339 -0.22935479879379272 -1.3146049353263134e-11 0.0 -0.29859999735544024 -0.11235000099231782 0.3136499823461779 2.2214412195942908 2.2214412191386663 6.515886891884209e-08 0.0 0.0 0.0 0.0 0.0 0.0 9.240738067961094e-07 3.476881827858299e-07 4.2531462932220567e-08 -2.8475662131755543e-08 6.147405365792536e-08 -2.6501511708836367e-15 -0.2985999999832019 -0.1123500000156701 0.31364999997695675 2.221441469306995 2.2214414688513715 4.556249894594308e-10 0.0 0.0 0.0 0.0 0.0 0.0
9884.192 6.938893903907228e-16 -1.5707963267948966 1.5707963267948966 -1.5707963267948966 -1.5707963267948966 0.0 0.0 0.0 0.0 0.0 0.0 0.0 0.0 0.0 0.0 0.0 0.0 0.0 -1.1512442590619146e-26 -0.5442396572688689 -0.7673661111166267 -0.229354796466502 -1.3146049461972196e-11 0.0 -1.511583712148294e-25 -7.14586669994025 -7.145866699940251 -1.0424175499402515 -5.974879480466362e-11 0.0 6.938893903907228e-16 -1.570796314870016 1.5707963705062866 -1.570796314870016 -1.570796314870016 0.0 0.0 0.0 0.0 0.0 0.0 0.0 -1.151244268742903e-26 -0.5442396402359009 -0.7673661112785339 -0.22935479879379272 -1.3146049353263134e-11 0.0 -1.151244268742903e-26 -0.5442396402359009 -0.7673661112785339 -0.22935479879379272 -1.3146049353263134e-11 0.0 -0.29859999735544024 -0.11235000099231782 0.3136499823461779 2.2214412195942908 2.2214412191386663 6.515886891884209e-08 0.0 0.0 0.0 0.0 0.0 0.0 9.240738067961094e-07 3.476881827858299e-07 4.2531462932220567e-08 -2.8475662131755543e-08 6.147405365792536e-08 -2.6501511708836367e-15 -0.2985999999832019 -0.1123500000156701 0.31364999997695675 2.221441469306995 2.2214414688513715 4.556249894594308e-10 0.0 0.0 0.0 0.0 0.0 0.0
9884.199999999999 6.938893903907228e-16 -1.5707963267948966 1.5707963267948966 -1.5707963267948966 -1.5707963267948966 0.0 0.0 0.0 0.0 0.0 0.0 0.0 0.0 0.0 0.0 0.0 0.0 0.0 -1.1512442590619146e-26 -0.5442396572688689 -0.7673661111166267 -0.229354796466502 -1.3146049461972196e-11 0.0 -1.511583712148294e-25 -7.14586669994025 -7.145866699940251 -1.0424175499402515 -5.974879480466362e-11 0.0 6.938893903907228e-16 -1.570796314870016 1.5707963705062866 -1.570796314870016 -1.570796314870016 0.0 0.0 0.0 0.0 0.0 0.0 0.0 -1.151244268742903e-26 -0.5442396402359009 -0.7673661112785339 -0.22935479879379272 -1.3146049353263134e-11 0.0 -1.151244268742903e-26 -0.5442396402359009 -0.7673661112785339 -0.22935479879379272 -1.3146049353263134e-11 0.0 -0.29859999735544024 -0.11235000099231782 0.3136499823461779 2.2214412195942908 2.2214412191386663 6.515886891884209e-08 0.0 0.0 0.0 0.0 0.0 0.0 9.240738067961094e-07 3.476881827858299e-07 4.2531462932220567e-08 -2.8475662131755543e-08 6.147405365792536e-08 -2.6501511708836367e-15 -0.2985999999832019 -0.1123500000156701 0.31364999997695675 2.221441469306995 2.2214414688513715 4.556249894594308e-10 0.0 0.0 0.0 0.0 0.0 0.0
9884.207999999999 6.938893903907228e-16 -1.5707963267948966 1.5707963267948966 -1.5707963267948966 -1.5707963267948966 0.0 0.0 0.0 0.0 0.0 0.0 0.0 0.0 0.0 0.0 0.0 0.0 0.0 -1.1512442590619146e-26 -0.5442396572688689 -0.7673661111166267 -0.229354796466502 -1.3146049461972196e-11 0.0 -1.511583712148294e-25 -7.14586669994025 -7.145866699940251 -1.0424175499402515 -5.974879480466362e-11 0.0 6.938893903907228e-16 -1.570796314870016 1.5707963705062866 -1.570796314870016 -1.570796314870016 0.0 0.0 0.0 0.0 0.0 0.0 0.0 -1.151244268742903e-26 -0.5442396402359009 -0.7673661112785339 -0.22935479879379272 -1.3146049353263134e-11 0.0 -1.151244268742903e-26 -0.5442396402359009 -0.7673661112785339 -0.22935479879379272 -1.3146049353263134e-11 0.0 -0.29859999735544024 -0.11235000099231782 0.3136499823461779 2.2214412195942908 2.2214412191386663 6.515886891884209e-08 0.0 0.0 0.0 0.0 0.0 0.0 9.240738067961094e-07 3.476881827858299e-07 4.2531462932220567e-08 -2.8475662131755543e-08 6.147405365792536e-08 -2.6501511708836367e-15 -0.2985999999832019 -0.1123500000156701 0.31364999997695675 2.221441469306995 2.2214414688513715 4.556249894594308e-10 0.0 0.0 0.0 0.0 0.0 0.0
9884.216 6.938893903907228e-16 -1.5707963267948966 1.5707963267948966 -1.5707963267948966 -1.5707963267948966 0.0 0.0 0.0 0.0 0.0 0.0 0.0 0.0 0.0 0.0 0.0 0.0 0.0 -1.1512442590619146e-26 -0.5442396572688689 -0.7673661111166267 -0.229354796466502 -1.3146049461972196e-11 0.0 -1.511583712148294e-25 -7.14586669994025 -7.145866699940251 -1.0424175499402515 -5.974879480466362e-11 0.0 6.938893903907228e-16 -1.570796314870016 1.5707963705062866 -1.570796314870016 -1.570796314870016 0.0 0.0 0.0 0.0 0.0 0.0 0.0 -1.151244268742903e-26 -0.5442396402359009 -0.7673661112785339 -0.22935479879379272 -1.3146049353263134e-11 0.0 -1.151244268742903e-26 -0.5442396402359009 -0.7673661112785339 -0.22935479879379272 -1.3146049353263134e-11 0.0 -0.29859999735544024 -0.11235000099231782 0.3136499823461779 2.2214412195942908 2.2214412191386663 6.515886891884209e-08 0.0 0.0 0.0 0.0 0.0 0.0 9.240738067961094e-07 3.476881827858299e-07 4.2531462932220567e-08 -2.8475662131755543e-08 6.147405365792536e-08 -2.6501511708836367e-15 -0.2985999999832019 -0.1123500000156701 0.31364999997695675 2.221441469306995 2.2214414688513715 4.556249894594308e-10 0.0 0.0 0.0 0.0 0.0 0.0
9884.224 6.938893903907228e-16 -1.5707963267948966 1.5707963267948966 -1.5707963267948966 -1.5707963267948966 0.0 0.0 0.0 0.0 0.0 0.0 0.0 0.0 0.0 0.0 0.0 0.0 0.0 -1.1512442590619146e-26 -0.5442396572688689 -0.7673661111166267 -0.229354796466502 -1.3146049461972196e-11 0.0 -1.511583712148294e-25 -7.14586669994025 -7.145866699940251 -1.0424175499402515 -5.974879480466362e-11 0.0 6.938893903907228e-16 -1.570796314870016 1.5707963705062866 -1.570796314870016 -1.570796314870016 0.0 0.0 0.0 0.0 0.0 0.0 0.0 -1.151244268742903e-26 -0.5442396402359009 -0.7673661112785339 -0.22935479879379272 -1.3146049353263134e-11 0.0 -1.151244268742903e-26 -0.5442396402359009 -0.7673661112785339 -0.22935479879379272 -1.3146049353263134e-11 0.0 -0.29859999735544024 -0.11235000099231782 0.3136499823461779 2.2214412195942908 2.2214412191386663 6.515886891884209e-08 0.0 0.0 0.0 0.0 0.0 0.0 9.240738067961094e-07 3.476881827858299e-07 4.2531462932220567e-08 -2.8475662131755543e-08 6.147405365792536e-08 -2.6501511708836367e-15 -0.2985999999832019 -0.1123500000156701 0.31364999997695675 2.221441469306995 2.2214414688513715 4.556249894594308e-10 0.0 0.0 0.0 0.0 0.0 0.0
9884.232 6.938893903907228e-16 -1.5707963267948966 1.5707963267948966 -1.5707963267948966 -1.5707963267948966 0.0 0.0 0.0 0.0 0.0 0.0 0.0 0.0 0.0 0.0 0.0 0.0 0.0 -1.1512442590619146e-26 -0.5442396572688689 -0.7673661111166267 -0.229354796466502 -1.3146049461972196e-11 0.0 -1.511583712148294e-25 -7.14586669994025 -7.145866699940251 -1.0424175499402515 -5.974879480466362e-11 0.0 6.938893903907228e-16 -1.570796314870016 1.5707963705062866 -1.570796314870016 -1.570796314870016 0.0 0.0 0.0 0.0 0.0 0.0 0.0 -1.151244268742903e-26 -0.5442396402359009 -0.7673661112785339 -0.22935479879379272 -1.3146049353263134e-11 0.0 -1.151244268742903e-26 -0.5442396402359009 -0.7673661112785339 -0.22935479879379272 -1.3146049353263134e-11 0.0 -0.29859999735544024 -0.11235000099231782 0.3136499823461779 2.2214412195942908 2.2214412191386663 6.515886891884209e-08 0.0 0.0 0.0 0.0 0.0 0.0 9.240738067961094e-07 3.476881827858299e-07 4.2531462932220567e-08 -2.8475662131755543e-08 6.147405365792536e-08 -2.6501511708836367e-15 -0.2985999999832019 -0.1123500000156701 0.31364999997695675 2.221441469306995 2.2214414688513715 4.556249894594308e-10 0.0 0.0 0.0 0.0 0.0 0.0
9884.24 6.938893903907228e-16 -1.5707963267948966 1.5707963267948966 -1.5707963267948966 -1.5707963267948966 0.0 0.0 0.0 0.0 0.0 0.0 0.0 0.0 0.0 0.0 0.0 0.0 0.0 -1.1512442590619146e-26 -0.5442396572688689 -0.7673661111166267 -0.229354796466502 -1.3146049461972196e-11 0.0 -1.511583712148294e-25 -7.14586669994025 -7.145866699940251 -1.0424175499402515 -5.974879480466362e-11 0.0 6.938893903907228e-16 -1.570796314870016 1.5707963705062866 -1.570796314870016 -1.570796314870016 0.0 0.0 0.0 0.0 0.0 0.0 0.0 -1.151244268742903e-26 -0.5442396402359009 -0.7673661112785339 -0.22935479879379272 -1.3146049353263134e-11 0.0 -1.151244268742903e-26 -0.5442396402359009 -0.7673661112785339 -0.22935479879379272 -1.3146049353263134e-11 0.0 -0.29859999735544024 -0.11235000099231782 0.3136499823461779 2.2214412195942908 2.2214412191386663 6.515886891884209e-08 0.0 0.0 0.0 0.0 0.0 0.0 9.240738067961094e-07 3.476881827858299e-07 4.2531462932220567e-08 -2.8475662131755543e-08 6.147405365792536e-08 -2.6501511708836367e-15 -0.2985999999832019 -0.1123500000156701 0.31364999997695675 2.221441469306995 2.2214414688513715 4.556249894594308e-10 0.0 0.0 0.0 0.0 0.0 0.0
9884.248 6.938893903907228e-16 -1.5707963267948966 1.5707963267948966 -1.5707963267948966 -1.5707963267948966 0.0 0.0 0.0 0.0 0.0 0.0 0.0 0.0 0.0 0.0 0.0 0.0 0.0 -1.1512442590619146e-26 -0.5442396572688689 -0.7673661111166267 -0.229354796466502 -1.3146049461972196e-11 0.0 -1.511583712148294e-25 -7.14586669994025 -7.145866699940251 -1.0424175499402515 -5.974879480466362e-11 0.0 6.938893903907228e-16 -1.570796314870016 1.5707963705062866 -1.570796314870016 -1.570796314870016 0.0 0.0 0.0 0.0 0.0 0.0 0.0 -1.151244268742903e-26 -0.5442396402359009 -0.7673661112785339 -0.22935479879379272 -1.3146049353263134e-11 0.0 -1.151244268742903e-26 -0.5442396402359009 -0.7673661112785339 -0.22935479879379272 -1.3146049353263134e-11 0.0 -0.29859999735544024 -0.11235000099231782 0.3136499823461779 2.2214412195942908 2.2214412191386663 6.515886891884209e-08 0.0 0.0 0.0 0.0 0.0 0.0 9.240738067961094e-07 3.476881827858299e-07 4.2531462932220567e-08 -2.8475662131755543e-08 6.147405365792536e-08 -2.6501511708836367e-15 -0.2985999999832019 -0.1123500000156701 0.31364999997695675 2.221441469306995 2.2214414688513715 4.556249894594308e-10 0.0 0.0 0.0 0.0 0.0 0.0
9884.256 6.938893903907228e-16 -1.5707963267948966 1.5707963267948966 -1.5707963267948966 -1.5707963267948966 0.0 0.0 0.0 0.0 0.0 0.0 0.0 0.0 0.0 0.0 0.0 0.0 0.0 -1.1512442590619146e-26 -0.5442396572688689 -0.7673661111166267 -0.229354796466502 -1.3146049461972196e-11 0.0 -1.511583712148294e-25 -7.14586669994025 -7.145866699940251 -1.0424175499402515 -5.974879480466362e-11 0.0 6.938893903907228e-16 -1.570796314870016 1.5707963705062866 -1.570796314870016 -1.570796314870016 0.0 0.0 0.0 0.0 0.0 0.0 0.0 -1.151244268742903e-26 -0.5442396402359009 -0.7673661112785339 -0.22935479879379272 -1.3146049353263134e-11 0.0 -1.151244268742903e-26 -0.5442396402359009 -0.7673661112785339 -0.22935479879379272 -1.3146049353263134e-11 0.0 -0.29859999735544024 -0.11235000099231782 0.3136499823461779 2.2214412195942908 2.2214412191386663 6.515886891884209e-08 0.0 0.0 0.0 0.0 0.0 0.0 9.240738067961094e-07 3.476881827858299e-07 4.2531462932220567e-08 -2.8475662131755543e-08 6.147405365792536e-08 -2.6501511708836367e-15 -0.2985999999832019 -0.1123500000156701 0.31364999997695675 2.221441469306995 2.2214414688513715 4.556249894594308e-10 0.0 0.0 0.0 0.0 0.0 0.0
9884.264 6.938893903907228e-16 -1.5707963267948966 1.5707963267948966 -1.5707963267948966 -1.5707963267948966 0.0 0.0 0.0 0.0 0.0 0.0 0.0 0.0 0.0 0.0 0.0 0.0 0.0 -1.1512442590619146e-26 -0.5442396572688689 -0.7673661111166267 -0.229354796466502 -1.3146049461972196e-11 0.0 -1.511583712148294e-25 -7.14586669994025 -7.145866699940251 -1.0424175499402515 -5.974879480466362e-11 0.0 6.938893903907228e-16 -1.570796314870016 1.5707963705062866 -1.570796314870016 -1.570796314870016 0.0 0.0 0.0 0.0 0.0 0.0 0.0 -1.151244268742903e-26 -0.5442396402359009 -0.7673661112785339 -0.22935479879379272 -1.3146049353263134e-11 0.0 -1.151244268742903e-26 -0.5442396402359009 -0.7673661112785339 -0.22935479879379272 -1.3146049353263134e-11 0.0 -0.29859999735544024 -0.11235000099231782 0.3136499823461779 2.2214412195942908 2.2214412191386663 6.515886891884209e-08 0.0 0.0 0.0 0.0 0.0 0.0 9.240738067961094e-07 3.476881827858299e-07 4.2531462932220567e-08 -2.8475662131755543e-08 6.147405365792536e-08 -2.6501511708836367e-15 -0.2985999999832019 -0.1123500000156701 0.31364999997695675 2.221441469306995 2.2214414688513715 4.556249894594308e-10 0.0 0.0 0.0 0.0 0.0 0.0
9884.271999999999 6.938893903907228e-16 -1.5707963267948966 1.5707963267948966 -1.5707963267948966 -1.5707963267948966 0.0 0.0 0.0 0.0 0.0 0.0 0.0 0.0 0.0 0.0 0.0 0.0 0.0 -1.1512442590619146e-26 -0.5442396572688689 -0.7673661111166267 -0.229354796466502 -1.3146049461972196e-11 0.0 -1.511583712148294e-25 -7.14586669994025 -7.145866699940251 -1.0424175499402515 -5.974879480466362e-11 0.0 6.938893903907228e-16 -1.570796314870016 1.5707963705062866 -1.570796314870016 -1.570796314870016 0.0 0.0 0.0 0.0 0.0 0.0 0.0 -1.151244268742903e-26 -0.5442396402359009 -0.7673661112785339 -0.22935479879379272 -1.3146049353263134e-11 0.0 -1.151244268742903e-26 -0.5442396402359009 -0.7673661112785339 -0.22935479879379272 -1.3146049353263134e-11 0.0 -0.29859999735544024 -0.11235000099231782 0.3136499823461779 2.2214412195942908 2.2214412191386663 6.515886891884209e-08 0.0 0.0 0.0 0.0 0.0 0.0 9.240738067961094e-07 3.476881827858299e-07 4.2531462932220567e-08 -2.8475662131755543e-08 6.147405365792536e-08 -2.6501511708836367e-15 -0.2985999999832019 -0.1123500000156701 0.31364999997695675 2.221441469306995 2.2214414688513715 4.556249894594308e-10 0.0 0.0 0.0 0.0 0.0 0.0
9884.279999999999 6.938893903907228e-16 -1.5707963267948966 1.5707963267948966 -1.5707963267948966 -1.5707963267948966 0.0 0.0 0.0 0.0 0.0 0.0 0.0 0.0 0.0 0.0 0.0 0.0 0.0 -1.1512442590619146e-26 -0.5442396572688689 -0.7673661111166267 -0.229354796466502 -1.3146049461972196e-11 0.0 -1.511583712148294e-25 -7.14586669994025 -7.145866699940251 -1.0424175499402515 -5.974879480466362e-11 0.0 6.938893903907228e-16 -1.570796314870016 1.5707963705062866 -1.570796314870016 -1.570796314870016 0.0 0.0 0.0 0.0 0.0 0.0 0.0 -1.151244268742903e-26 -0.5442396402359009 -0.7673661112785339 -0.22935479879379272 -1.3146049353263134e-11 0.0 -1.151244268742903e-26 -0.5442396402359009 -0.7673661112785339 -0.22935479879379272 -1.3146049353263134e-11 0.0 -0.29859999735544024 -0.11235000099231782 0.3136499823461779 2.2214412195942908 2.2214412191386663 6.515886891884209e-08 0.0 0.0 0.0 0.0 0.0 0.0 9.240738067961094e-07 3.476881827858299e-07 4.2531462932220567e-08 -2.8475662131755543e-08 6.147405365792536e-08 -2.6501511708836367e-15 -0.2985999999832019 -0.1123500000156701 0.31364999997695675 2.221441469306995 2.2214414688513715 4.556249894594308e-10 0.0 0.0 0.0 0.0 0.0 0.0
9884.287999999999 6.938893903907228e-16 -1.5707963267948966 1.5707963267948966 -1.5707963267948966 -1.5707963267948966 0.0 0.0 0.0 0.0 0.0 0.0 0.0 0.0 0.0 0.0 0.0 0.0 0.0 -1.1512442590619146e-26 -0.5442396572688689 -0.7673661111166267 -0.229354796466502 -1.3146049461972196e-11 0.0 -1.511583712148294e-25 -7.14586669994025 -7.145866699940251 -1.0424175499402515 -5.974879480466362e-11 0.0 6.938893903907228e-16 -1.570796314870016 1.5707963705062866 -1.570796314870016 -1.570796314870016 0.0 0.0 0.0 0.0 0.0 0.0 0.0 -1.151244268742903e-26 -0.5442396402359009 -0.7673661112785339 -0.22935479879379272 -1.3146049353263134e-11 0.0 -1.151244268742903e-26 -0.5442396402359009 -0.7673661112785339 -0.22935479879379272 -1.3146049353263134e-11 0.0 -0.29859999735544024 -0.11235000099231782 0.3136499823461779 2.2214412195942908 2.2214412191386663 6.515886891884209e-08 0.0 0.0 0.0 0.0 0.0 0.0 9.240738067961094e-07 3.476881827858299e-07 4.2531462932220567e-08 -2.8475662131755543e-08 6.147405365792536e-08 -2.6501511708836367e-15 -0.2985999999832019 -0.1123500000156701 0.31364999997695675 2.221441469306995 2.2214414688513715 4.556249894594308e-10 0.0 0.0 0.0 0.0 0.0 0.0
9884.296 6.938893903907228e-16 -1.5707963267948966 1.5707963267948966 -1.5707963267948966 -1.5707963267948966 0.0 0.0 0.0 0.0 0.0 0.0 0.0 0.0 0.0 0.0 0.0 0.0 0.0 -1.1512442590619146e-26 -0.5442396572688689 -0.7673661111166267 -0.229354796466502 -1.3146049461972196e-11 0.0 -1.511583712148294e-25 -7.14586669994025 -7.145866699940251 -1.0424175499402515 -5.974879480466362e-11 0.0 6.938893903907228e-16 -1.570796314870016 1.5707963705062866 -1.570796314870016 -1.570796314870016 0.0 0.0 0.0 0.0 0.0 0.0 0.0 -1.151244268742903e-26 -0.5442396402359009 -0.7673661112785339 -0.22935479879379272 -1.3146049353263134e-11 0.0 -1.151244268742903e-26 -0.5442396402359009 -0.7673661112785339 -0.22935479879379272 -1.3146049353263134e-11 0.0 -0.29859999735544024 -0.11235000099231782 0.3136499823461779 2.2214412195942908 2.2214412191386663 6.515886891884209e-08 0.0 0.0 0.0 0.0 0.0 0.0 9.240738067961094e-07 3.476881827858299e-07 4.2531462932220567e-08 -2.8475662131755543e-08 6.147405365792536e-08 -2.6501511708836367e-15 -0.2985999999832019 -0.1123500000156701 0.31364999997695675 2.221441469306995 2.2214414688513715 4.556249894594308e-10 0.0 0.0 0.0 0.0 0.0 0.0
9884.304 6.938893903907228e-16 -1.5707963267948966 1.5707963267948966 -1.5707963267948966 -1.5707963267948966 0.0 0.0 0.0 0.0 0.0 0.0 0.0 0.0 0.0 0.0 0.0 0.0 0.0 -1.1512442590619146e-26 -0.5442396572688689 -0.7673661111166267 -0.229354796466502 -1.3146049461972196e-11 0.0 -1.511583712148294e-25 -7.14586669994025 -7.145866699940251 -1.0424175499402515 -5.974879480466362e-11 0.0 6.938893903907228e-16 -1.570796314870016 1.5707963705062866 -1.570796314870016 -1.570796314870016 0.0 0.0 0.0 0.0 0.0 0.0 0.0 -1.151244268742903e-26 -0.5442396402359009 -0.7673661112785339 -0.22935479879379272 -1.3146049353263134e-11 0.0 -1.151244268742903e-26 -0.5442396402359009 -0.7673661112785339 -0.22935479879379272 -1.3146049353263134e-11 0.0 -0.29859999735544024 -0.11235000099231782 0.3136499823461779 2.2214412195942908 2.2214412191386663 6.515886891884209e-08 0.0 0.0 0.0 0.0 0.0 0.0 9.240738067961094e-07 3.476881827858299e-07 4.2531462932220567e-08 -2.8475662131755543e-08 6.147405365792536e-08 -2.6501511708836367e-15 -0.2985999999832019 -0.1123500000156701 0.31364999997695675 2.221441469306995 2.2214414688513715 4.556249894594308e-10 0.0 0.0 0.0 0.0 0.0 0.0
9884.312 6.938893903907228e-16 -1.5707963267948966 1.5707963267948966 -1.5707963267948966 -1.5707963267948966 0.0 0.0 0.0 0.0 0.0 0.0 0.0 0.0 0.0 0.0 0.0 0.0 0.0 -1.1512442590619146e-26 -0.5442396572688689 -0.7673661111166267 -0.229354796466502 -1.3146049461972196e-11 0.0 -1.511583712148294e-25 -7.14586669994025 -7.145866699940251 -1.0424175499402515 -5.974879480466362e-11 0.0 6.938893903907228e-16 -1.570796314870016 1.5707963705062866 -1.570796314870016 -1.570796314870016 0.0 0.0 0.0 0.0 0.0 0.0 0.0 -1.151244268742903e-26 -0.5442396402359009 -0.7673661112785339 -0.22935479879379272 -1.3146049353263134e-11 0.0 -1.151244268742903e-26 -0.5442396402359009 -0.7673661112785339 -0.22935479879379272 -1.3146049353263134e-11 0.0 -0.29859999735544024 -0.11235000099231782 0.3136499823461779 2.2214412195942908 2.2214412191386663 6.515886891884209e-08 0.0 0.0 0.0 0.0 0.0 0.0 9.240738067961094e-07 3.476881827858299e-07 4.2531462932220567e-08 -2.8475662131755543e-08 6.147405365792536e-08 -2.6501511708836367e-15 -0.2985999999832019 -0.1123500000156701 0.31364999997695675 2.221441469306995 2.2214414688513715 4.556249894594308e-10 0.0 0.0 0.0 0.0 0.0 0.0
9884.32 6.938893903907228e-16 -1.5707963267948966 1.5707963267948966 -1.5707963267948966 -1.5707963267948966 0.0 0.0 0.0 0.0 0.0 0.0 0.0 0.0 0.0 0.0 0.0 0.0 0.0 -1.1512442590619146e-26 -0.5442396572688689 -0.7673661111166267 -0.229354796466502 -1.3146049461972196e-11 0.0 -1.511583712148294e-25 -7.14586669994025 -7.145866699940251 -1.0424175499402515 -5.974879480466362e-11 0.0 6.938893903907228e-16 -1.570796314870016 1.5707963705062866 -1.570796314870016 -1.570796314870016 0.0 0.0 0.0 0.0 0.0 0.0 0.0 -1.151244268742903e-26 -0.5442396402359009 -0.7673661112785339 -0.22935479879379272 -1.3146049353263134e-11 0.0 -1.151244268742903e-26 -0.5442396402359009 -0.7673661112785339 -0.22935479879379272 -1.3146049353263134e-11 0.0 -0.29859999735544024 -0.11235000099231782 0.3136499823461779 2.2214412195942908 2.2214412191386663 6.515886891884209e-08 0.0 0.0 0.0 0.0 0.0 0.0 9.240738067961094e-07 3.476881827858299e-07 4.2531462932220567e-08 -2.8475662131755543e-08 6.147405365792536e-08 -2.6501511708836367e-15 -0.2985999999832019 -0.1123500000156701 0.31364999997695675 2.221441469306995 2.2214414688513715 4.556249894594308e-10 0.0 0.0 0.0 0.0 0.0 0.0
9884.328 6.938893903907228e-16 -1.5707963267948966 1.5707963267948966 -1.5707963267948966 -1.5707963267948966 0.0 0.0 0.0 0.0 0.0 0.0 0.0 0.0 0.0 0.0 0.0 0.0 0.0 -1.1512442590619146e-26 -0.5442396572688689 -0.7673661111166267 -0.229354796466502 -1.3146049461972196e-11 0.0 -1.511583712148294e-25 -7.14586669994025 -7.145866699940251 -1.0424175499402515 -5.974879480466362e-11 0.0 6.938893903907228e-16 -1.570796314870016 1.5707963705062866 -1.570796314870016 -1.570796314870016 0.0 0.0 0.0 0.0 0.0 0.0 0.0 -1.151244268742903e-26 -0.5442396402359009 -0.7673661112785339 -0.22935479879379272 -1.3146049353263134e-11 0.0 -1.151244268742903e-26 -0.5442396402359009 -0.7673661112785339 -0.22935479879379272 -1.3146049353263134e-11 0.0 -0.29859999735544024 -0.11235000099231782 0.3136499823461779 2.2214412195942908 2.2214412191386663 6.515886891884209e-08 0.0 0.0 0.0 0.0 0.0 0.0 9.240738067961094e-07 3.476881827858299e-07 4.2531462932220567e-08 -2.8475662131755543e-08 6.147405365792536e-08 -2.6501511708836367e-15 -0.2985999999832019 -0.1123500000156701 0.31364999997695675 2.221441469306995 2.2214414688513715 4.556249894594308e-10 0.0 0.0 0.0 0.0 0.0 0.0
9884.336 6.938893903907228e-16 -1.5707963267948966 1.5707963267948966 -1.5707963267948966 -1.5707963267948966 0.0 0.0 0.0 0.0 0.0 0.0 0.0 0.0 0.0 0.0 0.0 0.0 0.0 -1.1512442590619146e-26 -0.5442396572688689 -0.7673661111166267 -0.229354796466502 -1.3146049461972196e-11 0.0 -1.511583712148294e-25 -7.14586669994025 -7.145866699940251 -1.0424175499402515 -5.974879480466362e-11 0.0 6.938893903907228e-16 -1.570796314870016 1.5707963705062866 -1.570796314870016 -1.570796314870016 0.0 0.0 0.0 0.0 0.0 0.0 0.0 -1.151244268742903e-26 -0.5442396402359009 -0.7673661112785339 -0.22935479879379272 -1.3146049353263134e-11 0.0 -1.151244268742903e-26 -0.5442396402359009 -0.7673661112785339 -0.22935479879379272 -1.3146049353263134e-11 0.0 -0.29859999735544024 -0.11235000099231782 0.3136499823461779 2.2214412195942908 2.2214412191386663 6.515886891884209e-08 0.0 0.0 0.0 0.0 0.0 0.0 9.240738067961094e-07 3.476881827858299e-07 4.2531462932220567e-08 -2.8475662131755543e-08 6.147405365792536e-08 -2.6501511708836367e-15 -0.2985999999832019 -0.1123500000156701 0.31364999997695675 2.221441469306995 2.2214414688513715 4.556249894594308e-10 0.0 0.0 0.0 0.0 0.0 0.0
9884.344 6.938893903907228e-16 -1.5707963267948966 1.5707963267948966 -1.5707963267948966 -1.5707963267948966 0.0 0.0 0.0 0.0 0.0 0.0 0.0 0.0 0.0 0.0 0.0 0.0 0.0 -1.1512442590619146e-26 -0.5442396572688689 -0.7673661111166267 -0.229354796466502 -1.3146049461972196e-11 0.0 -1.511583712148294e-25 -7.14586669994025 -7.145866699940251 -1.0424175499402515 -5.974879480466362e-11 0.0 6.938893903907228e-16 -1.570796314870016 1.5707963705062866 -1.570796314870016 -1.570796314870016 0.0 0.0 0.0 0.0 0.0 0.0 0.0 -1.151244268742903e-26 -0.5442396402359009 -0.7673661112785339 -0.22935479879379272 -1.3146049353263134e-11 0.0 -1.151244268742903e-26 -0.5442396402359009 -0.7673661112785339 -0.22935479879379272 -1.3146049353263134e-11 0.0 -0.29859999735544024 -0.11235000099231782 0.3136499823461779 2.2214412195942908 2.2214412191386663 6.515886891884209e-08 0.0 0.0 0.0 0.0 0.0 0.0 9.240738067961094e-07 3.476881827858299e-07 4.2531462932220567e-08 -2.8475662131755543e-08 6.147405365792536e-08 -2.6501511708836367e-15 -0.2985999999832019 -0.1123500000156701 0.31364999997695675 2.221441469306995 2.2214414688513715 4.556249894594308e-10 0.0 0.0 0.0 0.0 0.0 0.0
9884.351999999999 6.938893903907228e-16 -1.5707963267948966 1.5707963267948966 -1.5707963267948966 -1.5707963267948966 0.0 0.0 0.0 0.0 0.0 0.0 0.0 0.0 0.0 0.0 0.0 0.0 0.0 -1.1512442590619146e-26 -0.5442396572688689 -0.7673661111166267 -0.229354796466502 -1.3146049461972196e-11 0.0 -1.511583712148294e-25 -7.14586669994025 -7.145866699940251 -1.0424175499402515 -5.974879480466362e-11 0.0 6.938893903907228e-16 -1.570796314870016 1.5707963705062866 -1.570796314870016 -1.570796314870016 0.0 0.0 0.0 0.0 0.0 0.0 0.0 -1.151244268742903e-26 -0.5442396402359009 -0.7673661112785339 -0.22935479879379272 -1.3146049353263134e-11 0.0 -1.151244268742903e-26 -0.5442396402359009 -0.7673661112785339 -0.22935479879379272 -1.3146049353263134e-11 0.0 -0.29859999735544024 -0.11235000099231782 0.3136499823461779 2.2214412195942908 2.2214412191386663 6.515886891884209e-08 0.0 0.0 0.0 0.0 0.0 0.0 9.240738067961094e-07 3.476881827858299e-07 4.2531462932220567e-08 -2.8475662131755543e-08 6.147405365792536e-08 -2.6501511708836367e-15 -0.2985999999832019 -0.1123500000156701 0.31364999997695675 2.221441469306995 2.2214414688513715 4.556249894594308e-10 0.0 0.0 0.0 0.0 0.0 0.0
9884.359999999999 6.938893903907228e-16 -1.5707963267948966 1.5707963267948966 -1.5707963267948966 -1.5707963267948966 0.0 0.0 0.0 0.0 0.0 0.0 0.0 0.0 0.0 0.0 0.0 0.0 0.0 -1.1512442590619146e-26 -0.5442396572688689 -0.7673661111166267 -0.229354796466502 -1.3146049461972196e-11 0.0 -1.511583712148294e-25 -7.14586669994025 -7.145866699940251 -1.0424175499402515 -5.974879480466362e-11 0.0 6.938893903907228e-16 -1.570796314870016 1.5707963705062866 -1.570796314870016 -1.570796314870016 0.0 0.0 0.0 0.0 0.0 0.0 0.0 -1.151244268742903e-26 -0.5442396402359009 -0.7673661112785339 -0.22935479879379272 -1.3146049353263134e-11 0.0 -1.151244268742903e-26 -0.5442396402359009 -0.7673661112785339 -0.22935479879379272 -1.3146049353263134e-11 0.0 -0.29859999735544024 -0.11235000099231782 0.3136499823461779 2.2214412195942908 2.2214412191386663 6.515886891884209e-08 0.0 0.0 0.0 0.0 0.0 0.0 9.240738067961094e-07 3.476881827858299e-07 4.2531462932220567e-08 -2.8475662131755543e-08 6.147405365792536e-08 -2.6501511708836367e-15 -0.2985999999832019 -0.1123500000156701 0.31364999997695675 2.221441469306995 2.2214414688513715 4.556249894594308e-10 0.0 0.0 0.0 0.0 0.0 0.0
9884.368 6.938893903907228e-16 -1.5707963267948966 1.5707963267948966 -1.5707963267948966 -1.5707963267948966 0.0 0.0 0.0 0.0 0.0 0.0 0.0 0.0 0.0 0.0 0.0 0.0 0.0 -1.1512442590619146e-26 -0.5442396572688689 -0.7673661111166267 -0.229354796466502 -1.3146049461972196e-11 0.0 -1.511583712148294e-25 -7.14586669994025 -7.145866699940251 -1.0424175499402515 -5.974879480466362e-11 0.0 6.938893903907228e-16 -1.570796314870016 1.5707963705062866 -1.570796314870016 -1.570796314870016 0.0 0.0 0.0 0.0 0.0 0.0 0.0 -1.151244268742903e-26 -0.5442396402359009 -0.7673661112785339 -0.22935479879379272 -1.3146049353263134e-11 0.0 -1.151244268742903e-26 -0.5442396402359009 -0.7673661112785339 -0.22935479879379272 -1.3146049353263134e-11 0.0 -0.29859999735544024 -0.11235000099231782 0.3136499823461779 2.2214412195942908 2.2214412191386663 6.515886891884209e-08 0.0 0.0 0.0 0.0 0.0 0.0 9.240738067961094e-07 3.476881827858299e-07 4.2531462932220567e-08 -2.8475662131755543e-08 6.147405365792536e-08 -2.6501511708836367e-15 -0.2985999999832019 -0.1123500000156701 0.31364999997695675 2.221441469306995 2.2214414688513715 4.556249894594308e-10 0.0 0.0 0.0 0.0 0.0 0.0
9884.376 6.938893903907228e-16 -1.5707963267948966 1.5707963267948966 -1.5707963267948966 -1.5707963267948966 0.0 0.0 0.0 0.0 0.0 0.0 0.0 0.0 0.0 0.0 0.0 0.0 0.0 -1.1512442590619146e-26 -0.5442396572688689 -0.7673661111166267 -0.229354796466502 -1.3146049461972196e-11 0.0 -1.511583712148294e-25 -7.14586669994025 -7.145866699940251 -1.0424175499402515 -5.974879480466362e-11 0.0 6.938893903907228e-16 -1.570796314870016 1.5707963705062866 -1.570796314870016 -1.570796314870016 0.0 0.0 0.0 0.0 0.0 0.0 0.0 -1.151244268742903e-26 -0.5442396402359009 -0.7673661112785339 -0.22935479879379272 -1.3146049353263134e-11 0.0 -1.151244268742903e-26 -0.5442396402359009 -0.7673661112785339 -0.22935479879379272 -1.3146049353263134e-11 0.0 -0.29859999735544024 -0.11235000099231782 0.3136499823461779 2.2214412195942908 2.2214412191386663 6.515886891884209e-08 0.0 0.0 0.0 0.0 0.0 0.0 9.240738067961094e-07 3.476881827858299e-07 4.2531462932220567e-08 -2.8475662131755543e-08 6.147405365792536e-08 -2.6501511708836367e-15 -0.2985999999832019 -0.1123500000156701 0.31364999997695675 2.221441469306995 2.2214414688513715 4.556249894594308e-10 0.0 0.0 0.0 0.0 0.0 0.0
9884.384 6.938893903907228e-16 -1.5707963267948966 1.5707963267948966 -1.5707963267948966 -1.5707963267948966 0.0 0.0 0.0 0.0 0.0 0.0 0.0 0.0 0.0 0.0 0.0 0.0 0.0 -1.1512442590619146e-26 -0.5442396572688689 -0.7673661111166267 -0.229354796466502 -1.3146049461972196e-11 0.0 -1.511583712148294e-25 -7.14586669994025 -7.145866699940251 -1.0424175499402515 -5.974879480466362e-11 0.0 6.938893903907228e-16 -1.570796314870016 1.5707963705062866 -1.570796314870016 -1.570796314870016 0.0 0.0 0.0 0.0 0.0 0.0 0.0 -1.151244268742903e-26 -0.5442396402359009 -0.7673661112785339 -0.22935479879379272 -1.3146049353263134e-11 0.0 -1.151244268742903e-26 -0.5442396402359009 -0.7673661112785339 -0.22935479879379272 -1.3146049353263134e-11 0.0 -0.29859999735544024 -0.11235000099231782 0.3136499823461779 2.2214412195942908 2.2214412191386663 6.515886891884209e-08 0.0 0.0 0.0 0.0 0.0 0.0 9.240738067961094e-07 3.476881827858299e-07 4.2531462932220567e-08 -2.8475662131755543e-08 6.147405365792536e-08 -2.6501511708836367e-15 -0.2985999999832019 -0.1123500000156701 0.31364999997695675 2.221441469306995 2.2214414688513715 4.556249894594308e-10 0.0 0.0 0.0 0.0 0.0 0.0
9884.392 6.938893903907228e-16 -1.5707963267948966 1.5707963267948966 -1.5707963267948966 -1.5707963267948966 0.0 0.0 0.0 0.0 0.0 0.0 0.0 0.0 0.0 0.0 0.0 0.0 0.0 -1.1512442590619146e-26 -0.5442396572688689 -0.7673661111166267 -0.229354796466502 -1.3146049461972196e-11 0.0 -1.511583712148294e-25 -7.14586669994025 -7.145866699940251 -1.0424175499402515 -5.974879480466362e-11 0.0 6.938893903907228e-16 -1.570796314870016 1.5707963705062866 -1.570796314870016 -1.570796314870016 0.0 0.0 0.0 0.0 0.0 0.0 0.0 -1.151244268742903e-26 -0.5442396402359009 -0.7673661112785339 -0.22935479879379272 -1.3146049353263134e-11 0.0 -1.151244268742903e-26 -0.5442396402359009 -0.7673661112785339 -0.22935479879379272 -1.3146049353263134e-11 0.0 -0.29859999735544024 -0.11235000099231782 0.3136499823461779 2.2214412195942908 2.2214412191386663 6.515886891884209e-08 0.0 0.0 0.0 0.0 0.0 0.0 9.240738067961094e-07 3.476881827858299e-07 4.2531462932220567e-08 -2.8475662131755543e-08 6.147405365792536e-08 -2.6501511708836367e-15 -0.2985999999832019 -0.1123500000156701 0.31364999997695675 2.221441469306995 2.2214414688513715 4.556249894594308e-10 0.0 0.0 0.0 0.0 0.0 0.0
9884.4 6.938893903907228e-16 -1.5707963267948966 1.5707963267948966 -1.5707963267948966 -1.5707963267948966 0.0 0.0 0.0 0.0 0.0 0.0 0.0 0.0 0.0 0.0 0.0 0.0 0.0 -1.1512442590619146e-26 -0.5442396572688689 -0.7673661111166267 -0.229354796466502 -1.3146049461972196e-11 0.0 -1.511583712148294e-25 -7.14586669994025 -7.145866699940251 -1.0424175499402515 -5.974879480466362e-11 0.0 6.938893903907228e-16 -1.570796314870016 1.5707963705062866 -1.570796314870016 -1.570796314870016 0.0 0.0 0.0 0.0 0.0 0.0 0.0 -1.151244268742903e-26 -0.5442396402359009 -0.7673661112785339 -0.22935479879379272 -1.3146049353263134e-11 0.0 -1.151244268742903e-26 -0.5442396402359009 -0.7673661112785339 -0.22935479879379272 -1.3146049353263134e-11 0.0 -0.29859999735544024 -0.11235000099231782 0.3136499823461779 2.2214412195942908 2.2214412191386663 6.515886891884209e-08 0.0 0.0 0.0 0.0 0.0 0.0 9.240738067961094e-07 3.476881827858299e-07 4.2531462932220567e-08 -2.8475662131755543e-08 6.147405365792536e-08 -2.6501511708836367e-15 -0.2985999999832019 -0.1123500000156701 0.31364999997695675 2.221441469306995 2.2214414688513715 4.556249894594308e-10 0.0 0.0 0.0 0.0 0.0 0.0
9884.408 6.938893903907228e-16 -1.5707963267948966 1.5707963267948966 -1.5707963267948966 -1.5707963267948966 0.0 0.0 0.0 0.0 0.0 0.0 0.0 0.0 0.0 0.0 0.0 0.0 0.0 -1.1512442590619146e-26 -0.5442396572688689 -0.7673661111166267 -0.229354796466502 -1.3146049461972196e-11 0.0 -1.511583712148294e-25 -7.14586669994025 -7.145866699940251 -1.0424175499402515 -5.974879480466362e-11 0.0 6.938893903907228e-16 -1.570796314870016 1.5707963705062866 -1.570796314870016 -1.570796314870016 0.0 0.0 0.0 0.0 0.0 0.0 0.0 -1.151244268742903e-26 -0.5442396402359009 -0.7673661112785339 -0.22935479879379272 -1.3146049353263134e-11 0.0 -1.151244268742903e-26 -0.5442396402359009 -0.7673661112785339 -0.22935479879379272 -1.3146049353263134e-11 0.0 -0.29859999735544024 -0.11235000099231782 0.3136499823461779 2.2214412195942908 2.2214412191386663 6.515886891884209e-08 0.0 0.0 0.0 0.0 0.0 0.0 9.240738067961094e-07 3.476881827858299e-07 4.2531462932220567e-08 -2.8475662131755543e-08 6.147405365792536e-08 -2.6501511708836367e-15 -0.2985999999832019 -0.1123500000156701 0.31364999997695675 2.221441469306995 2.2214414688513715 4.556249894594308e-10 0.0 0.0 0.0 0.0 0.0 0.0
9884.416 6.938893903907228e-16 -1.5707963267948966 1.5707963267948966 -1.5707963267948966 -1.5707963267948966 0.0 0.0 0.0 0.0 0.0 0.0 0.0 0.0 0.0 0.0 0.0 0.0 0.0 -1.1512442590619146e-26 -0.5442396572688689 -0.7673661111166267 -0.229354796466502 -1.3146049461972196e-11 0.0 -1.511583712148294e-25 -7.14586669994025 -7.145866699940251 -1.0424175499402515 -5.974879480466362e-11 0.0 6.938893903907228e-16 -1.570796314870016 1.5707963705062866 -1.570796314870016 -1.570796314870016 0.0 0.0 0.0 0.0 0.0 0.0 0.0 -1.151244268742903e-26 -0.5442396402359009 -0.7673661112785339 -0.22935479879379272 -1.3146049353263134e-11 0.0 -1.151244268742903e-26 -0.5442396402359009 -0.7673661112785339 -0.22935479879379272 -1.3146049353263134e-11 0.0 -0.29859999735544024 -0.11235000099231782 0.3136499823461779 2.2214412195942908 2.2214412191386663 6.515886891884209e-08 0.0 0.0 0.0 0.0 0.0 0.0 9.240738067961094e-07 3.476881827858299e-07 4.2531462932220567e-08 -2.8475662131755543e-08 6.147405365792536e-08 -2.6501511708836367e-15 -0.2985999999832019 -0.1123500000156701 0.31364999997695675 2.221441469306995 2.2214414688513715 4.556249894594308e-10 0.0 0.0 0.0 0.0 0.0 0.0
9884.423999999999 6.938893903907228e-16 -1.5707963267948966 1.5707963267948966 -1.5707963267948966 -1.5707963267948966 0.0 0.0 0.0 0.0 0.0 0.0 0.0 0.0 0.0 0.0 0.0 0.0 0.0 -1.1512442590619146e-26 -0.5442396572688689 -0.7673661111166267 -0.229354796466502 -1.3146049461972196e-11 0.0 -1.511583712148294e-25 -7.14586669994025 -7.145866699940251 -1.0424175499402515 -5.974879480466362e-11 0.0 6.938893903907228e-16 -1.570796314870016 1.5707963705062866 -1.570796314870016 -1.570796314870016 0.0 0.0 0.0 0.0 0.0 0.0 0.0 -1.151244268742903e-26 -0.5442396402359009 -0.7673661112785339 -0.22935479879379272 -1.3146049353263134e-11 0.0 -1.151244268742903e-26 -0.5442396402359009 -0.7673661112785339 -0.22935479879379272 -1.3146049353263134e-11 0.0 -0.29859999735544024 -0.11235000099231782 0.3136499823461779 2.2214412195942908 2.2214412191386663 6.515886891884209e-08 0.0 0.0 0.0 0.0 0.0 0.0 9.240738067961094e-07 3.476881827858299e-07 4.2531462932220567e-08 -2.8475662131755543e-08 6.147405365792536e-08 -2.6501511708836367e-15 -0.2985999999832019 -0.1123500000156701 0.31364999997695675 2.221441469306995 2.2214414688513715 4.556249894594308e-10 0.0 0.0 0.0 0.0 0.0 0.0
9884.431999999999 6.938893903907228e-16 -1.5707963267948966 1.5707963267948966 -1.5707963267948966 -1.5707963267948966 0.0 0.0 0.0 0.0 0.0 0.0 0.0 0.0 0.0 0.0 0.0 0.0 0.0 -1.1512442590619146e-26 -0.5442396572688689 -0.7673661111166267 -0.229354796466502 -1.3146049461972196e-11 0.0 -1.511583712148294e-25 -7.14586669994025 -7.145866699940251 -1.0424175499402515 -5.974879480466362e-11 0.0 6.938893903907228e-16 -1.570796314870016 1.5707963705062866 -1.570796314870016 -1.570796314870016 0.0 0.0 0.0 0.0 0.0 0.0 0.0 -1.151244268742903e-26 -0.5442396402359009 -0.7673661112785339 -0.22935479879379272 -1.3146049353263134e-11 0.0 -1.151244268742903e-26 -0.5442396402359009 -0.7673661112785339 -0.22935479879379272 -1.3146049353263134e-11 0.0 -0.29859999735544024 -0.11235000099231782 0.3136499823461779 2.2214412195942908 2.2214412191386663 6.515886891884209e-08 0.0 0.0 0.0 0.0 0.0 0.0 9.240738067961094e-07 3.476881827858299e-07 4.2531462932220567e-08 -2.8475662131755543e-08 6.147405365792536e-08 -2.6501511708836367e-15 -0.2985999999832019 -0.1123500000156701 0.31364999997695675 2.221441469306995 2.2214414688513715 4.556249894594308e-10 0.0 0.0 0.0 0.0 0.0 0.0
9884.439999999999 6.938893903907228e-16 -1.5707963267948966 1.5707963267948966 -1.5707963267948966 -1.5707963267948966 0.0 0.0 0.0 0.0 0.0 0.0 0.0 0.0 0.0 0.0 0.0 0.0 0.0 -1.1512442590619146e-26 -0.5442396572688689 -0.7673661111166267 -0.229354796466502 -1.3146049461972196e-11 0.0 -1.511583712148294e-25 -7.14586669994025 -7.145866699940251 -1.0424175499402515 -5.974879480466362e-11 0.0 6.938893903907228e-16 -1.570796314870016 1.5707963705062866 -1.570796314870016 -1.570796314870016 0.0 0.0 0.0 0.0 0.0 0.0 0.0 -1.151244268742903e-26 -0.5442396402359009 -0.7673661112785339 -0.22935479879379272 -1.3146049353263134e-11 0.0 -1.151244268742903e-26 -0.5442396402359009 -0.7673661112785339 -0.22935479879379272 -1.3146049353263134e-11 0.0 -0.29859999735544024 -0.11235000099231782 0.3136499823461779 2.2214412195942908 2.2214412191386663 6.515886891884209e-08 0.0 0.0 0.0 0.0 0.0 0.0 9.240738067961094e-07 3.476881827858299e-07 4.2531462932220567e-08 -2.8475662131755543e-08 6.147405365792536e-08 -2.6501511708836367e-15 -0.2985999999832019 -0.1123500000156701 0.31364999997695675 2.221441469306995 2.2214414688513715 4.556249894594308e-10 0.0 0.0 0.0 0.0 0.0 0.0
9884.448 6.938893903907228e-16 -1.5707963267948966 1.5707963267948966 -1.5707963267948966 -1.5707963267948966 0.0 0.0 0.0 0.0 0.0 0.0 0.0 0.0 0.0 0.0 0.0 0.0 0.0 -1.1512442590619146e-26 -0.5442396572688689 -0.7673661111166267 -0.229354796466502 -1.3146049461972196e-11 0.0 -1.511583712148294e-25 -7.14586669994025 -7.145866699940251 -1.0424175499402515 -5.974879480466362e-11 0.0 6.938893903907228e-16 -1.570796314870016 1.5707963705062866 -1.570796314870016 -1.570796314870016 0.0 0.0 0.0 0.0 0.0 0.0 0.0 -1.151244268742903e-26 -0.5442396402359009 -0.7673661112785339 -0.22935479879379272 -1.3146049353263134e-11 0.0 -1.151244268742903e-26 -0.5442396402359009 -0.7673661112785339 -0.22935479879379272 -1.3146049353263134e-11 0.0 -0.29859999735544024 -0.11235000099231782 0.3136499823461779 2.2214412195942908 2.2214412191386663 6.515886891884209e-08 0.0 0.0 0.0 0.0 0.0 0.0 9.240738067961094e-07 3.476881827858299e-07 4.2531462932220567e-08 -2.8475662131755543e-08 6.147405365792536e-08 -2.6501511708836367e-15 -0.2985999999832019 -0.1123500000156701 0.31364999997695675 2.221441469306995 2.2214414688513715 4.556249894594308e-10 0.0 0.0 0.0 0.0 0.0 0.0
9884.456 6.938893903907228e-16 -1.5707963267948966 1.5707963267948966 -1.5707963267948966 -1.5707963267948966 0.0 0.0 0.0 0.0 0.0 0.0 0.0 0.0 0.0 0.0 0.0 0.0 0.0 -1.1512442590619146e-26 -0.5442396572688689 -0.7673661111166267 -0.229354796466502 -1.3146049461972196e-11 0.0 -1.511583712148294e-25 -7.14586669994025 -7.145866699940251 -1.0424175499402515 -5.974879480466362e-11 0.0 6.938893903907228e-16 -1.570796314870016 1.5707963705062866 -1.570796314870016 -1.570796314870016 0.0 0.0 0.0 0.0 0.0 0.0 0.0 -1.151244268742903e-26 -0.5442396402359009 -0.7673661112785339 -0.22935479879379272 -1.3146049353263134e-11 0.0 -1.151244268742903e-26 -0.5442396402359009 -0.7673661112785339 -0.22935479879379272 -1.3146049353263134e-11 0.0 -0.29859999735544024 -0.11235000099231782 0.3136499823461779 2.2214412195942908 2.2214412191386663 6.515886891884209e-08 0.0 0.0 0.0 0.0 0.0 0.0 9.240738067961094e-07 3.476881827858299e-07 4.2531462932220567e-08 -2.8475662131755543e-08 6.147405365792536e-08 -2.6501511708836367e-15 -0.2985999999832019 -0.1123500000156701 0.31364999997695675 2.221441469306995 2.2214414688513715 4.556249894594308e-10 0.0 0.0 0.0 0.0 0.0 0.0
9884.464 6.938893903907228e-16 -1.5707963267948966 1.5707963267948966 -1.5707963267948966 -1.5707963267948966 0.0 0.0 0.0 0.0 0.0 0.0 0.0 0.0 0.0 0.0 0.0 0.0 0.0 -1.1512442590619146e-26 -0.5442396572688689 -0.7673661111166267 -0.229354796466502 -1.3146049461972196e-11 0.0 -1.511583712148294e-25 -7.14586669994025 -7.145866699940251 -1.0424175499402515 -5.974879480466362e-11 0.0 6.938893903907228e-16 -1.570796314870016 1.5707963705062866 -1.570796314870016 -1.570796314870016 0.0 0.0 0.0 0.0 0.0 0.0 0.0 -1.151244268742903e-26 -0.5442396402359009 -0.7673661112785339 -0.22935479879379272 -1.3146049353263134e-11 0.0 -1.151244268742903e-26 -0.5442396402359009 -0.7673661112785339 -0.22935479879379272 -1.3146049353263134e-11 0.0 -0.29859999735544024 -0.11235000099231782 0.3136499823461779 2.2214412195942908 2.2214412191386663 6.515886891884209e-08 0.0 0.0 0.0 0.0 0.0 0.0 9.240738067961094e-07 3.476881827858299e-07 4.2531462932220567e-08 -2.8475662131755543e-08 6.147405365792536e-08 -2.6501511708836367e-15 -0.2985999999832019 -0.1123500000156701 0.31364999997695675 2.221441469306995 2.2214414688513715 4.556249894594308e-10 0.0 0.0 0.0 0.0 0.0 0.0
9884.472 6.938893903907228e-16 -1.5707963267948966 1.5707963267948966 -1.5707963267948966 -1.5707963267948966 0.0 0.0 0.0 0.0 0.0 0.0 0.0 0.0 0.0 0.0 0.0 0.0 0.0 -1.1512442590619146e-26 -0.5442396572688689 -0.7673661111166267 -0.229354796466502 -1.3146049461972196e-11 0.0 -1.511583712148294e-25 -7.14586669994025 -7.145866699940251 -1.0424175499402515 -5.974879480466362e-11 0.0 6.938893903907228e-16 -1.570796314870016 1.5707963705062866 -1.570796314870016 -1.570796314870016 0.0 0.0 0.0 0.0 0.0 0.0 0.0 -1.151244268742903e-26 -0.5442396402359009 -0.7673661112785339 -0.22935479879379272 -1.3146049353263134e-11 0.0 -1.151244268742903e-26 -0.5442396402359009 -0.7673661112785339 -0.22935479879379272 -1.3146049353263134e-11 0.0 -0.29859999735544024 -0.11235000099231782 0.3136499823461779 2.2214412195942908 2.2214412191386663 6.515886891884209e-08 0.0 0.0 0.0 0.0 0.0 0.0 9.240738067961094e-07 3.476881827858299e-07 4.2531462932220567e-08 -2.8475662131755543e-08 6.147405365792536e-08 -2.6501511708836367e-15 -0.2985999999832019 -0.1123500000156701 0.31364999997695675 2.221441469306995 2.2214414688513715 4.556249894594308e-10 0.0 0.0 0.0 0.0 0.0 0.0
9884.48 6.938893903907228e-16 -1.5707963267948966 1.5707963267948966 -1.5707963267948966 -1.5707963267948966 0.0 0.0 0.0 0.0 0.0 0.0 0.0 0.0 0.0 0.0 0.0 0.0 0.0 -1.1512442590619146e-26 -0.5442396572688689 -0.7673661111166267 -0.229354796466502 -1.3146049461972196e-11 0.0 -1.511583712148294e-25 -7.14586669994025 -7.145866699940251 -1.0424175499402515 -5.974879480466362e-11 0.0 6.938893903907228e-16 -1.570796314870016 1.5707963705062866 -1.570796314870016 -1.570796314870016 0.0 0.0 0.0 0.0 0.0 0.0 0.0 -1.151244268742903e-26 -0.5442396402359009 -0.7673661112785339 -0.22935479879379272 -1.3146049353263134e-11 0.0 -1.151244268742903e-26 -0.5442396402359009 -0.7673661112785339 -0.22935479879379272 -1.3146049353263134e-11 0.0 -0.29859999735544024 -0.11235000099231782 0.3136499823461779 2.2214412195942908 2.2214412191386663 6.515886891884209e-08 0.0 0.0 0.0 0.0 0.0 0.0 9.240738067961094e-07 3.476881827858299e-07 4.2531462932220567e-08 -2.8475662131755543e-08 6.147405365792536e-08 -2.6501511708836367e-15 -0.2985999999832019 -0.1123500000156701 0.31364999997695675 2.221441469306995 2.2214414688513715 4.556249894594308e-10 0.0 0.0 0.0 0.0 0.0 0.0
9884.488 6.938893903907228e-16 -1.5707963267948966 1.5707963267948966 -1.5707963267948966 -1.5707963267948966 0.0 0.0 0.0 0.0 0.0 0.0 0.0 0.0 0.0 0.0 0.0 0.0 0.0 -1.1512442590619146e-26 -0.5442396572688689 -0.7673661111166267 -0.229354796466502 -1.3146049461972196e-11 0.0 -1.511583712148294e-25 -7.14586669994025 -7.145866699940251 -1.0424175499402515 -5.974879480466362e-11 0.0 6.938893903907228e-16 -1.570796314870016 1.5707963705062866 -1.570796314870016 -1.570796314870016 0.0 0.0 0.0 0.0 0.0 0.0 0.0 -1.151244268742903e-26 -0.5442396402359009 -0.7673661112785339 -0.22935479879379272 -1.3146049353263134e-11 0.0 -1.151244268742903e-26 -0.5442396402359009 -0.7673661112785339 -0.22935479879379272 -1.3146049353263134e-11 0.0 -0.29859999735544024 -0.11235000099231782 0.3136499823461779 2.2214412195942908 2.2214412191386663 6.515886891884209e-08 0.0 0.0 0.0 0.0 0.0 0.0 9.240738067961094e-07 3.476881827858299e-07 4.2531462932220567e-08 -2.8475662131755543e-08 6.147405365792536e-08 -2.6501511708836367e-15 -0.2985999999832019 -0.1123500000156701 0.31364999997695675 2.221441469306995 2.2214414688513715 4.556249894594308e-10 0.0 0.0 0.0 0.0 0.0 0.0
