mkrssg/UniversalRobots/roboter/movej_0-90q1_t=10.csv
timestamp target_q_0 target_q_1 target_q_2 target_q_3 target_q_4 target_q_5 target_qd_0 target_qd_1 target_qd_2 target_qd_3 target_qd_4 target_qd_5 target_qdd_0 target_qdd_1 target_qdd_2 target_qdd_3 target_qdd_4 target_qdd_5 target_current_0 target_current_1 target_current_2 target_current_3 target_current_4 target_current_5 target_moment_0 target_moment_1 target_moment_2 target_moment_3 target_moment_4 target_moment_5 actual_q_0 actual_q_1 actual_q_2 actual_q_3 actual_q_4 actual_q_5 actual_qd_0 actual_qd_1 actual_qd_2 actual_qd_3 actual_qd_4 actual_qd_5 actual_current_0 actual_current_1 actual_current_2 actual_current_3 actual_current_4 actual_current_5 joint_control_output_0 joint_control_output_1 joint_control_output_2 joint_control_output_3 joint_control_output_4 joint_control_output_5 actual_TCP_pose_0 actual_TCP_pose_1 actual_TCP_pose_2 actual_TCP_pose_3 actual_TCP_pose_4 actual_TCP_pose_5 actual_TCP_speed_0 actual_TCP_speed_1 actual_TCP_speed_2 actual_TCP_speed_3 actual_TCP_speed_4 actual_TCP_speed_5 actual_TCP_force_0 actual_TCP_force_1 actual_TCP_force_2 actual_TCP_force_3 actual_TCP_force_4 actual_TCP_force_5 target_TCP_pose_0 target_TCP_pose_1 target_TCP_pose_2 target_TCP_pose_3 target_TCP_pose_4 target_TCP_pose_5 target_TCP_speed_0 target_TCP_speed_1 target_TCP_speed_2 target_TCP_speed_3 target_TCP_speed_4 target_TCP_speed_5
4211.552 7.768107283938919e-17 -1.5707963267948966 1.5707963267948966 -1.5707963267948966 -1.5707963267948966 0.0 0.0 0.0 0.0 0.0 0.0 0.0 0.0 0.0 0.0 0.0 0.0 0.0 2.7100081908582143e-27 -0.620381750820575 -0.8463465614411209 -0.2525548825603051 -1.4392506443496177e-11 0.0 3.110005232743317e-26 -7.1458666999402505 -7.145866699940252 -1.0424175499402515 -5.974879480466362e-11 0.0 2.3968450477696024e-05 -1.5707600752459925 1.5708012580871582 -1.5707724730121058 -1.570742432271139 8.388957940042019e-05 0.0 0.0 -0.0 0.0 0.0 0.0 0.0538330152630806 -0.5652466416358948 -0.8082718253135681 -0.22715574502944946 -0.05818767845630646 0.0850435346364975 0.0471038855612278 -0.5742188096046448 -0.8006466031074524 -0.23498870432376862 -0.0503547228872776 0.09063850343227386 -0.29843096029485244 -0.11276663112471966 0.3131699541619013 -2.217952787306208 -2.2194730503586735 -0.008192230015052714 0.0 0.0 0.0 0.0 0.0 0.0 1.4342956868847523 4.185984920493496 1.1578940152215333 -0.6163154868928918 0.13615847170679918 0.3948158054762503 -0.2984301935029837 -0.1127550753051513 0.3131843183387717 -2.217827088832791 -2.219480214722697 -0.008179933726190747 0.0 0.0 0.0 0.0 0.0 0.0
4211.5599999999995 7.768107283938919e-17 -1.5707963267948966 1.5707963267948966 -1.5707963267948966 -1.5707963267948966 0.0 0.0 0.0 0.0 0.0 0.0 0.0 0.0 0.0 0.0 0.0 0.0 0.0 2.7100081908582143e-27 -0.620381750820575 -0.8463465614411209 -0.2525548825603051 -1.4392506443496177e-11 0.0 3.110005232743317e-26 -7.1458666999402505 -7.145866699940252 -1.0424175499402515 -5.974879480466362e-11 0.0 -1.1746083394825746e-05 -1.5707600752459925 1.5707893371582031 -1.5707243124591272 -1.5707548300372522 8.388957940042019e-05 0.0 0.0 -0.0 0.0 0.0 0.0 0.0403747595846653 -0.5831909775733948 -0.8036966919898987 -0.22491776943206787 -0.044759754091501236 0.09063850343227386 0.0471038855612278 -0.5742188096046448 -0.8006466031074524 -0.23498870432376862 -0.04699774086475372 0.09063850343227386 -0.2984320064516851 -0.11275493182896182 0.3131694110227088 -2.2180044473350655 -2.2194451239433692 -0.00824640057272633 0.0 0.0 0.0 0.0 0.0 0.0 0.3097252702445147 3.2660768853523687 1.3085130121070616 -0.4781606966636101 0.0404548657365281 0.420275599245999 -0.2984301935029837 -0.1127550753051513 0.3131843183387717 -2.217827088832791 -2.219480214722697 -0.008179933726190747 0.0 0.0 0.0 0.0 0.0 0.0
4211.568 7.768107283938919e-17 -1.5707963267948966 1.5707963267948966 -1.5707963267948966 -1.5707963267948966 0.0 0.0 0.0 0.0 0.0 0.0 0.0 0.0 0.0 0.0 0.0 0.0 0.0 2.7100081908582143e-27 -0.620381750820575 -0.8463465614411209 -0.2525548825603051 -1.4392506443496177e-11 0.0 3.110005232743317e-26 -7.1458666999402505 -7.145866699940252 -1.0424175499402515 -5.974879480466362e-11 0.0 2.3968450477696024e-05 -1.5707481543170374 1.570777416229248 -1.5707243124591272 -1.5707786718951624 9.58738019107841e-05 0.0 0.0 -0.0 0.0 0.0 0.0 0.0493469275534153 -0.5809479355812073 -0.8006466031074524 -0.24058367311954498 -0.051473718136548996 0.09287648648023605 0.0471038855612278 -0.5742188096046448 -0.8006466031074524 -0.23498870432376862 -0.04923573136329651 0.09063850343227386 -0.2984308889545659 -0.1127636359268161 0.313169426887034 -2.2179660392891942 -2.219459397986374 -0.008272639721397353 0.0 0.0 0.0 0.0 0.0 0.0 0.30913998657065395 3.6848448991500455 1.7851387198358237 -0.5441138316224339 -0.07266778081368121 0.4298634119384488 -0.2984301935029837 -0.1127550753051513 0.3131843183387717 -2.217827088832791 -2.219480214722697 -0.008179933726190747 0.0 0.0 0.0 0.0 0.0 0.0
4211.576 7.768107283938919e-17 -1.5707963267948966 1.5707963267948966 -1.5707963267948966 -1.5707963267948966 0.0 0.0 0.0 0.0 0.0 0.0 0.0 0.0 0.0 0.0 0.0 0.0 0.0 2.7100081908582143e-27 -0.620381750820575 -0.8463465614411209 -0.2525548825603051 -1.4392506443496177e-11 0.0 3.110005232743317e-26 -7.1458666999402505 -7.145866699940252 -1.0424175499402515 -5.974879480466362e-11 0.0 -3.5587941304981996e-05 -1.5707724730121058 1.5707530975341797 -1.5707481543170374 -1.570742432271139 9.58738019107841e-05 0.0 0.0 -0.0 0.0 0.0 0.0 0.0515899695456028 -0.5809479355812073 -0.8006466031074524 -0.2361077070236206 -0.04699774086475372 0.09511447697877884 0.0471038855612278 -0.5742188096046448 -0.8006466031074524 -0.23498870432376862 -0.051473718136548996 0.08840051293373108 -0.29843765609685363 -0.11274890034985233 0.3131859615255547 -2.2180143111679937 -2.2193756464479133 -0.008152121277144984 0.0 0.0 0.0 0.0 0.0 0.0 0.3090156462350671 3.8169915144535658 1.688375945308697 -0.5340926897656838 -0.043662512476194 0.44048316079880306 -0.2984301935029837 -0.1127550753051513 0.3131843183387717 -2.217827088832791 -2.219480214722697 -0.008179933726190747 0.0 0.0 0.0 0.0 0.0 0.0
4211.584 7.768107283938919e-17 -1.5707963267948966 1.5707963267948966 -1.5707963267948966 -1.5707963267948966 0.0 0.0 0.0 0.0 0.0 0.0 0.0 0.0 0.0 0.0 0.0 0.0 0.0 2.7100081908582143e-27 -0.620381750820575 -0.8463465614411209 -0.2525548825603051 -1.4392506443496177e-11 0.0 3.110005232743317e-26 -7.1458666999402505 -7.145866699940252 -1.0424175499402515 -5.974879480466362e-11 0.0 0.0 -1.5707600752459925 1.5707530975341797 -1.5707243124591272 -1.5707905928241175 9.58738019107841e-05 0.0 0.0 -0.0 0.0 0.0 0.0 0.0403747595846653 -0.5988922715187073 -0.8021716475486755 -0.22939373552799225 -0.05259270966053009 0.08728151768445969 0.0471038855612278 -0.5742188096046448 -0.8036966919898987 -0.23498870432376862 -0.04923573136329651 0.08951950818300247 -0.29843368137806237 -0.112755533519526 0.31318025516384185 -2.2179686837411796 -2.2194088034601855 -0.008245630674779672 0.0 0.0 0.0 0.0 0.0 0.0 -0.5795199573623527 2.875605075096286 1.4709855384933381 -0.4825260737130118 -0.0675710801826337 0.40401826358497966 -0.2984301935029837 -0.1127550753051513 0.3131843183387717 -2.217827088832791 -2.219480214722697 -0.008179933726190747 0.0 0.0 0.0 0.0 0.0 0.0
4211.592 7.768107283938919e-17 -1.5707963267948966 1.5707963267948966 -1.5707963267948966 -1.5707963267948966 0.0 0.0 0.0 0.0 0.0 0.0 0.0 0.0 0.0 0.0 0.0 0.0 0.0 2.7100081908582143e-27 -0.620381750820575 -0.8463465614411209 -0.2525548825603051 -1.4392506443496177e-11 0.0 3.110005232743317e-26 -7.1458666999402505 -7.145866699940252 -1.0424175499402515 -5.974879480466362e-11 0.0 -4.7985707418263246e-05 -1.5707600752459925 1.5707893371582031 -1.5707243124591272 -1.5707667509662073 5.992112710373476e-05 0.0 0.0 -0.0 0.0 0.0 0.0 0.0538330152630806 -0.5674896836280823 -0.8113219141960144 -0.23051273822784424 -0.04923573136329651 0.09399548172950745 0.0471038855612278 -0.5742188096046448 -0.8006466031074524 -0.23498870432376862 -0.04923573136329651 0.09175749868154526 -0.29843609311690655 -0.11274313492607528 0.3131694183915169 -2.2180121971748257 -2.2194256316749703 -0.008259779679151268 0.0 0.0 0.0 0.0 0.0 0.0 1.4340523870769288 4.324682417473934 1.0960599735208456 -0.5860426311521079 0.1257851497448316 0.43629076139536943 -0.2984301935029837 -0.1127550753051513 0.3131843183387717 -2.217827088832791 -2.219480214722697 -0.008179933726190747 0.0 0.0 0.0 0.0 0.0 0.0
4211.599999999999 7.768107283938919e-17 -1.5707963267948966 1.5707963267948966 -1.5707963267948966 -1.5707963267948966 0.0 0.0 0.0 0.0 0.0 0.0 0.0 0.0 0.0 0.0 0.0 0.0 0.0 2.7100081908582143e-27 -0.620381750820575 -0.8463465614411209 -0.2525548825603051 -1.4392506443496177e-11 0.0 3.110005232743317e-26 -7.1458666999402505 -7.145866699940252 -1.0424175499402515 -5.974879480466362e-11 0.0 -4.7985707418263246e-05 -1.5707600752459925 1.570777416229248 -1.5707123915301722 -1.5707305113421839 4.793690095539205e-05 0.0 0.0 -0.0 0.0 0.0 0.0 0.0426178015768528 -0.5742188096046448 -0.7975965142250061 -0.23275071382522583 -0.04923573136329651 0.09287648648023605 0.0471038855612278 -0.5742188096046448 -0.8006466031074524 -0.23498870432376862 -0.04699774086475372 0.09175749868154526 -0.29843609493649537 -0.1127461248600342 0.3131719384051293 -2.2180171295995468 -2.219457125705746 -0.008219706043003096 0.0 0.0 0.0 0.0 0.0 0.0 0.5478164067101275 3.4861687215048525 1.750379999403689 -0.5173398673352803 -0.013864406075843331 0.43026988766743585 -0.2984301935029837 -0.1127550753051513 0.3131843183387717 -2.217827088832791 -2.219480214722697 -0.008179933726190747 0.0 0.0 0.0 0.0 0.0 0.0
4211.608 7.768107283938919e-17 -1.5707963267948966 1.5707963267948966 -1.5707963267948966 -1.5707963267948966 0.0 0.0 0.0 0.0 0.0 0.0 0.0 0.0 0.0 0.0 0.0 0.0 0.0 2.7100081908582143e-27 -0.620381750820575 -0.8463465614411209 -0.2525548825603051 -1.4392506443496177e-11 0.0 3.110005232743317e-26 -7.1458666999402505 -7.145866699940252 -1.0424175499402515 -5.974879480466362e-11 0.0 2.3968450477696024e-05 -1.5707481543170374 1.570765495300293 -1.5707481543170374 -1.5707305113421839 8.388957940042019e-05 0.0 0.0 -0.0 0.0 0.0 0.0 0.0515899695456028 -0.5674896836280823 -0.7930214405059814 -0.23498870432376862 -0.05371170490980148 0.09399548172950745 0.0471038855612278 -0.5742188096046448 -0.8006466031074524 -0.23498870432376862 -0.0503547228872776 0.09063850343227386 -0.29843383619805497 -0.11276763263216927 0.31317499198871995 -2.2179590439600543 -2.219479230744608 -0.008179575834277444 0.0 0.0 0.0 0.0 0.0 0.0 0.7250804039087859 3.9569480478803363 2.0036040284197267 -0.5770578970359517 -0.031063250978067978 0.43531191913616796 -0.2984301935029837 -0.1127550753051513 0.3131843183387717 -2.217827088832791 -2.219480214722697 -0.008179933726190747 0.0 0.0 0.0 0.0 0.0 0.0
4211.616 7.768107283938919e-17 -1.5707963267948966 1.5707963267948966 -1.5707963267948966 -1.5707963267948966 0.0 0.0 0.0 0.0 0.0 0.0 0.0 0.0 0.0 0.0 0.0 0.0 0.0 2.7100081908582143e-27 -0.620381750820575 -0.8463465614411209 -0.2525548825603051 -1.4392506443496177e-11 0.0 3.110005232743317e-26 -7.1458666999402505 -7.145866699940252 -1.0424175499402515 -5.974879480466362e-11 0.0 0.0 -1.5707724730121058 1.5707530975341797 -1.5707362333880823 -1.5707548300372522 5.992112710373476e-05 0.0 0.0 -0.0 0.0 0.0 0.0 0.0448608435690403 -0.5854340195655823 -0.8006466031074524 -0.2383456975221634 -0.05371170490980148 0.08840051293373108 0.0471038855612278 -0.5742188096046448 -0.8006466031074524 -0.23498870432376862 -0.04923573136329651 0.08951950818300247 -0.2984326620712471 -0.11275849171241879 0.31318495163942367 -2.2179346743342054 -2.219454635722357 -0.008179112350238169 0.0 0.0 0.0 0.0 0.0 0.0 0.07262228018176518 3.3325210100139695 1.7351102697136962 -0.5254672723116822 -0.07760896610994 0.40911853503803086 -0.2984301935029837 -0.1127550753051513 0.3131843183387717 -2.217827088832791 -2.219480214722697 -0.008179933726190747 0.0 0.0 0.0 0.0 0.0 0.0
4211.624 7.768107283938919e-17 -1.5707963267948966 1.5707963267948966 -1.5707963267948966 -1.5707963267948966 0.0 0.0 0.0 0.0 0.0 0.0 0.0 0.0 0.0 0.0 0.0 0.0 0.0 2.7100081908582143e-27 -0.620381750820575 -0.8463465614411209 -0.2525548825603051 -1.4392506443496177e-11 0.0 3.110005232743317e-26 -7.1458666999402505 -7.145866699940252 -1.0424175499402515 -5.974879480466362e-11 0.0 1.1984225238848012e-05 -1.5707724730121058 1.5707893371582031 -1.5707362333880823 -1.5707305113421839 7.190534961409867e-05 0.0 0.0 -0.0 0.0 0.0 0.0 0.0538330152630806 -0.5787048935890198 -0.806746780872345 -0.23275071382522583 -0.0503547228872776 0.09847146272659302 0.0471038855612278 -0.5742188096046448 -0.8006466031074524 -0.2361077070236206 -0.0503547228872776 0.09287648648023605 -0.29842831218164884 -0.1127640293674167 0.313174114570993 -2.217964874030661 -2.219484848933856 -0.008192405816937231 0.0 0.0 0.0 0.0 0.0 0.0 0.6635311435124537 4.1013564230026365 1.346279282732104 -0.572976436766415 0.030305408621587128 0.4564674281391261 -0.2984301935029837 -0.1127550753051513 0.3131843183387717 -2.217827088832791 -2.219480214722697 -0.008179933726190747 0.0 0.0 0.0 0.0 0.0 0.0
4211.632 7.768107283938919e-17 -1.5707963267948966 1.5707963267948966 -1.5707963267948966 -1.5707963267948966 0.0 0.0 0.0 0.0 0.0 0.0 0.0 0.0 0.0 0.0 0.0 0.0 0.0 2.7100081908582143e-27 -0.620381750820575 -0.8463465614411209 -0.2525548825603051 -1.4392506443496177e-11 0.0 3.110005232743317e-26 -7.1458666999402505 -7.145866699940252 -1.0424175499402515 -5.974879480466362e-11 0.0 -2.366701234990387e-05 -1.5707724730121058 1.5708131790161133 -1.570688549672262 -1.5707667509662073 5.992112710373476e-05 0.0 0.0 -0.0 0.0 0.0 0.0 0.0515899695456028 -0.5719757676124573 -0.7975965142250061 -0.24170267581939697 -0.04699774086475372 0.08728151768445969 0.0471038855612278 -0.5742188096046448 -0.8006466031074524 -0.23498870432376862 -0.048116736114025116 0.09063850343227386 -0.2984264336232741 -0.11275034492428157 0.31316294741478634 -2.218008798550434 -2.219475868562781 -0.008312235657206816 0.0 0.0 0.0 0.0 0.0 0.0 0.665293816134285 3.829360648279383 1.9452712469663669 -0.5352886144134142 -0.06186519981829618 0.4039606682658115 -0.2984301935029837 -0.1127550753051513 0.3131843183387717 -2.217827088832791 -2.219480214722697 -0.008179933726190747 0.0 0.0 0.0 0.0 0.0 0.0
4211.639999999999 7.768107283938919e-17 -1.5707963267948966 1.5707963267948966 -1.5707963267948966 -1.5707963267948966 0.0 0.0 0.0 0.0 0.0 0.0 0.0 0.0 0.0 0.0 0.0 0.0 0.0 2.7100081908582143e-27 -0.620381750820575 -0.8463465614411209 -0.2525548825603051 -1.4392506443496177e-11 0.0 3.110005232743317e-26 -7.1458666999402505 -7.145866699940252 -1.0424175499402515 -5.974879480466362e-11 0.0 -3.5587941304981996e-05 -1.5707362333880823 1.5708012580871582 -1.5707009474383753 -1.570742432271139 5.992112710373476e-05 0.0 0.0 -0.0 0.0 0.0 0.0 0.0493469275534153 -0.5652466416358948 -0.7945464849472046 -0.23275071382522583 -0.048116736114025116 0.09287648648023605 0.0471038855612278 -0.5742188096046448 -0.8006466031074524 -0.2361077070236206 -0.04923573136329651 0.09063850343227386 -0.29843562708984744 -0.11274879883651051 0.3131567319149063 -2.2180400700748453 -2.219480986407861 -0.008298554826786975 0.0 0.0 0.0 0.0 0.0 0.0 0.9031621982526183 3.9107284013503305 1.8873650031376183 -0.547199621147677 0.003975070658660118 0.43032185174901705 -0.2984301935029837 -0.1127550753051513 0.3131843183387717 -2.217827088832791 -2.219480214722697 -0.008179933726190747 0.0 0.0 0.0 0.0 0.0 0.0
4211.648 7.768107283938919e-17 -1.5707963267948966 1.5707963267948966 -1.5707963267948966 -1.5707963267948966 0.0 0.0 0.0 0.0 0.0 0.0 0.0 0.0 0.0 0.0 0.0 0.0 0.0 2.7100081908582143e-27 -0.620381750820575 -0.8463465614411209 -0.2525548825603051 -1.4392506443496177e-11 0.0 3.110005232743317e-26 -7.1458666999402505 -7.145866699940252 -1.0424175499402515 -5.974879480466362e-11 0.0 -2.366701234990387e-05 -1.5707600752459925 1.570777416229248 -1.5707123915301722 -1.5707305113421839 5.992112710373476e-05 0.0 0.0 -0.0 0.0 0.0 0.0 0.0448608435690403 -0.5854340195655823 -0.7930214405059814 -0.2383456975221634 -0.048116736114025116 0.0850435346364975 0.0471038855612278 -0.5742188096046448 -0.8006466031074524 -0.23498870432376862 -0.04923573136329651 0.09063850343227386 -0.29843335300961765 -0.11275338240308252 0.3131719384051293 -2.2180033746238106 -2.2194707376298277 -0.00821959719132944 0.0 0.0 0.0 0.0 0.0 0.0 -0.22284653100332155 3.1675869627093927 2.072406679084318 -0.48605170880729137 -0.13067139321731183 0.3932144957475456 -0.2984301935029837 -0.1127550753051513 0.3131843183387717 -2.217827088832791 -2.219480214722697 -0.008179933726190747 0.0 0.0 0.0 0.0 0.0 0.0
4211.656 7.768107283938919e-17 -1.5707963267948966 1.5707963267948966 -1.5707963267948966 -1.5707963267948966 0.0 0.0 0.0 0.0 0.0 0.0 0.0 0.0 0.0 0.0 0.0 0.0 0.0 2.7100081908582143e-27 -0.620381750820575 -0.8463465614411209 -0.2525548825603051 -1.4392506443496177e-11 0.0 3.110005232743317e-26 -7.1458666999402505 -7.145866699940252 -1.0424175499402515 -5.974879480466362e-11 0.0 -2.366701234990387e-05 -1.5707600752459925 1.5708131790161133 -1.5707481543170374 -1.5707786718951624 0.00011984225420746952 0.0 0.0 -0.0 0.0 0.0 0.0 0.0426178015768528 -0.5764618515968323 -0.7991215586662292 -0.2394646853208542 -0.05371170490980148 0.09511447697877884 0.0471038855612278 -0.5742188096046448 -0.8006466031074524 -0.23498870432376862 -0.0503547228872776 0.08951950818300247 -0.29843334417959944 -0.11274939996854572 0.3131643410150836 -2.2180455038858535 -2.219380083621843 -0.008272698835640453 0.0 0.0 0.0 0.0 0.0 0.0 0.48833746985170645 3.4975272165203593 1.8285586801788047 -0.5391369106937484 -0.05660969877229014 0.44035447200048294 -0.2984301935029837 -0.1127550753051513 0.3131843183387717 -2.217827088832791 -2.219480214722697 -0.008179933726190747 0.0 0.0 0.0 0.0 0.0 0.0
4211.664 7.768107283938919e-17 -1.5707963267948966 1.5707963267948966 -1.5707963267948966 -1.5707963267948966 0.0 0.0 0.0 0.0 0.0 0.0 0.0 0.0 0.0 0.0 0.0 0.0 0.0 2.7100081908582143e-27 -0.620381750820575 -0.8463465614411209 -0.2525548825603051 -1.4392506443496177e-11 0.0 3.110005232743317e-26 -7.1458666999402505 -7.145866699940252 -1.0424175499402515 -5.974879480466362e-11 0.0 1.1984225238848012e-05 -1.5707724730121058 1.5707530975341797 -1.5707009474383753 -1.5707548300372522 8.388957940042019e-05 0.0 0.0 -0.0 0.0 0.0 0.0 0.0493469275534153 -0.5988922715187073 -0.8021716475486755 -0.24282166361808777 -0.048116736114025116 0.08951950818300247 0.0471038855612278 -0.5742188096046448 -0.8006466031074524 -0.2361077070236206 -0.0503547228872776 0.08951950818300247 -0.2984284037121745 -0.11276204355051322 0.3131819397977547 -2.217965576092828 -2.219458702374765 -0.008218267029031901 0.0 0.0 0.0 0.0 0.0 0.0 -0.5806142144797831 3.2949361034738507 1.7634494796966738 -0.4963437075967499 -0.1545649195739295 0.41382538895400706 -0.2984301935029837 -0.1127550753051513 0.3131843183387717 -2.217827088832791 -2.219480214722697 -0.008179933726190747 0.0 0.0 0.0 0.0 0.0 0.0
4211.672 7.768107283938919e-17 -1.5707963267948966 1.5707963267948966 -1.5707963267948966 -1.5707963267948966 0.0 0.0 0.0 0.0 0.0 0.0 0.0 0.0 0.0 0.0 0.0 0.0 0.0 2.7100081908582143e-27 -0.620381750820575 -0.8463465614411209 -0.2525548825603051 -1.4392506443496177e-11 0.0 3.110005232743317e-26 -7.1458666999402505 -7.145866699940252 -1.0424175499402515 -5.974879480466362e-11 0.0 -1.1746083394825746e-05 -1.5707243124591272 1.5708370208740234 -1.5707123915301722 -1.5707305113421839 7.190534961409867e-05 0.0 0.0 -0.0 0.0 0.0 0.0 0.0448608435690403 -0.5876770615577698 -0.7975965142250061 -0.22379876673221588 -0.048116736114025116 0.08168654888868332 0.0471038855612278 -0.5742188096046448 -0.8006466031074524 -0.23275071382522583 -0.04699774086475372 0.08951950818300247 -0.29843284439209955 -0.11275685836171659 0.31314346321862113 -2.2180508126886815 -2.2195181685449863 -0.008325519014431374 0.0 0.0 0.0 0.0 0.0 0.0 -0.16442099037578475 3.139832432780089 1.5534662823402239 -0.4835601046387487 -0.014152932731889944 0.37834291554183785 -0.2984301935029837 -0.1127550753051513 0.3131843183387717 -2.217827088832791 -2.219480214722697 -0.008179933726190747 0.0 0.0 0.0 0.0 0.0 0.0
4211.679999999999 7.768107283938919e-17 -1.5707963267948966 1.5707963267948966 -1.5707963267948966 -1.5707963267948966 0.0 0.0 0.0 0.0 0.0 0.0 0.0 0.0 0.0 0.0 0.0 0.0 0.0 2.7100081908582143e-27 -0.620381750820575 -0.8463465614411209 -0.2525548825603051 -1.4392506443496177e-11 0.0 3.110005232743317e-26 -7.1458666999402505 -7.145866699940252 -1.0424175499402515 -5.974879480466362e-11 0.0 -2.366701234990387e-05 -1.570796314870016 1.5707893371582031 -1.5707123915301722 -1.5707305113421839 7.190534961409867e-05 0.0 0.0 -0.0 0.0 0.0 0.0 0.0471038855612278 -0.5719757676124573 -0.8052217364311218 -0.23386971652507782 -0.04587874934077263 0.09063850343227386 0.0471038855612278 -0.5742188096046448 -0.8006466031074524 -0.23498870432376862 -0.048116736114025116 0.08951950818300247 -0.2984265233323827 -0.11275338228972369 0.31317919692192364 -2.2180046215959432 -2.2194452171127104 -0.008192559268830267 0.0 0.0 0.0 0.0 0.0 0.0 0.9612298787364485 3.8023312237201012 1.4373637848323597 -0.5275629744147207 0.041992352862989586 0.4202474773228432 -0.2984301935029837 -0.1127550753051513 0.3131843183387717 -2.217827088832791 -2.219480214722697 -0.008179933726190747 0.0 0.0 0.0 0.0 0.0 0.0
4211.688 7.768107283938919e-17 -1.5707963267948966 1.5707963267948966 -1.5707963267948966 -1.5707963267948966 0.0 0.0 0.0 0.0 0.0 0.0 0.0 0.0 0.0 0.0 0.0 0.0 0.0 2.7100081908582143e-27 -0.620381750820575 -0.8463465614411209 -0.2525548825603051 -1.4392506443496177e-11 0.0 3.110005232743317e-26 -7.1458666999402505 -7.145866699940252 -1.0424175499402515 -5.974879480466362e-11 0.0 -3.5587941304981996e-05 -1.5707724730121058 1.5708131790161133 -1.5707362333880823 -1.570742432271139 7.190534961409867e-05 0.0 0.0 -0.0 0.0 0.0 0.0 0.0493469275534153 -0.5764618515968323 -0.8006466031074524 -0.23051273822784424 -0.05594969168305397 0.0839245393872261 0.0471038855612278 -0.5742188096046448 -0.8006466031074524 -0.23498870432376862 -0.0503547228872776 0.08951950818300247 -0.2984317049790257 -0.11274882330393593 0.3131670021907114 -2.2180236481644844 -2.219438043380619 -0.008232252588565844 0.0 0.0 0.0 0.0 0.0 0.0 0.5466041557014365 3.63715206541304 1.566383243351934 -0.5609283668185798 0.012394976001793484 0.3888641387022858 -0.2984301935029837 -0.1127550753051513 0.3131843183387717 -2.217827088832791 -2.219480214722697 -0.008179933726190747 0.0 0.0 0.0 0.0 0.0 0.0
4211.696 7.768107283938919e-17 -1.5707963267948966 1.5707963267948966 -1.5707963267948966 -1.5707963267948966 0.0 0.0 0.0 0.0 0.0 0.0 0.0 0.0 0.0 0.0 0.0 0.0 0.0 2.7100081908582143e-27 -0.620381750820575 -0.8463465614411209 -0.2525548825603051 -1.4392506443496177e-11 0.0 3.110005232743317e-26 -7.1458666999402505 -7.145866699940252 -1.0424175499402515 -5.974879480466362e-11 0.0 2.3968450477696024e-05 -1.570808235798971 1.5708131790161133 -1.5707362333880823 -1.5708025137530726 3.5952674807049334e-05 0.0 0.0 -0.0 0.0 0.0 0.0 0.0538330152630806 -0.5764618515968323 -0.8006466031074524 -0.23386971652507782 -0.05371170490980148 0.09063850343227386 0.0471038855612278 -0.5742188096046448 -0.8006466031074524 -0.23498870432376862 -0.04923573136329651 0.09175749868154526 -0.29841922649718644 -0.11276166161381507 0.3131777153316064 -2.2178697514371706 -2.2194958002146437 -0.008258971022472477 0.0 0.0 0.0 0.0 0.0 0.0 0.5458741686498013 3.9344052619678367 1.6403149756218232 -0.5750139982339959 -0.009551697002725538 0.41987749523419854 -0.2984301935029837 -0.1127550753051513 0.3131843183387717 -2.217827088832791 -2.219480214722697 -0.008179933726190747 0.0 0.0 0.0 0.0 0.0 0.0
4211.704 7.768107283938919e-17 -1.5707963267948966 1.5707963267948966 -1.5707963267948966 -1.5707963267948966 0.0 0.0 0.0 0.0 0.0 0.0 0.0 0.0 0.0 0.0 0.0 0.0 0.0 2.7100081908582143e-27 -0.620381750820575 -0.8463465614411209 -0.2525548825603051 -1.4392506443496177e-11 0.0 3.110005232743317e-26 -7.1458666999402505 -7.145866699940252 -1.0424175499402515 -5.974879480466362e-11 0.0 -1.1746083394825746e-05 -1.5707839171039026 1.5708131790161133 -1.5707009474383753 -1.5707185904132288 9.58738019107841e-05 0.0 0.0 -0.0 0.0 0.0 0.0 0.0515899695456028 -0.5809479355812073 -0.8082718253135681 -0.23386971652507782 -0.048116736114025116 0.09175749868154526 0.0471038855612278 -0.5742188096046448 -0.8006466031074524 -0.23498870432376862 -0.048116736114025116 0.09175749868154526 -0.29842426287359985 -0.11275788165495354 0.31316739213672257 -2.2180476547628993 -2.2194614993113895 -0.00823226642806108 0.0 0.0 0.0 0.0 0.0 0.0 0.6043657897068735 3.877830934772592 1.3017700573353947 -0.5441412350368108 0.02416105684306142 0.42528216625349147 -0.2984301935029837 -0.1127550753051513 0.3131843183387717 -2.217827088832791 -2.219480214722697 -0.008179933726190747 0.0 0.0 0.0 0.0 0.0 0.0
4211.7119999999995 7.768107283938919e-17 -1.5707963267948966 1.5707963267948966 -1.5707963267948966 -1.5707963267948966 0.0 0.0 0.0 0.0 0.0 0.0 0.0 0.0 0.0 0.0 0.0 0.0 0.0 2.7100081908582143e-27 -0.620381750820575 -0.8463465614411209 -0.2525548825603051 -1.4392506443496177e-11 0.0 3.110005232743317e-26 -7.1458666999402505 -7.145866699940252 -1.0424175499402515 -5.974879480466362e-11 0.0 -4.7985707418263246e-05 -1.5707481543170374 1.5707893371582031 -1.5707243124591272 -1.5707667509662073 0.00011984225420746952 0.0 0.0 -0.0 0.0 0.0 0.0 0.0448608435690403 -0.5607605576515198 -0.8052217364311218 -0.24170267581939697 -0.05818767845630646 0.09623347222805023 0.0471038855612278 -0.5742188096046448 -0.8006466031074524 -0.23498870432376862 -0.0503547228872776 0.09175749868154526 -0.2984380153089448 -0.11274313042434336 0.31316585966198357 -2.2180844901470738 -2.2193650325889434 -0.00827284081844689 0.0 0.0 0.0 0.0 0.0 0.0 1.5548711033721472 4.01632177177005 1.6094065370583073 -0.6025731769341606 0.039835370293447726 0.4460962601978385 -0.2984301935029837 -0.1127550753051513 0.3131843183387717 -2.217827088832791 -2.219480214722697 -0.008179933726190747 0.0 0.0 0.0 0.0 0.0 0.0
4211.72 7.768107283938919e-17 -1.5707963267948966 1.5707963267948966 -1.5707963267948966 -1.5707963267948966 0.0 0.0 0.0 0.0 0.0 0.0 0.0 0.0 0.0 0.0 0.0 0.0 0.0 2.7100081908582143e-27 -0.620381750820575 -0.8463465614411209 -0.2525548825603051 -1.4392506443496177e-11 0.0 3.110005232743317e-26 -7.1458666999402505 -7.145866699940252 -1.0424175499402515 -5.974879480466362e-11 0.0 -2.366701234990387e-05 -1.5707724730121058 1.570777416229248 -1.5707600752459925 -1.5707185904132288 8.388957940042019e-05 0.0 0.0 -0.0 0.0 0.0 0.0 0.0515899695456028 -0.5944061875343323 -0.8158970475196838 -0.23498870432376862 -0.0503547228872776 0.09175749868154526 0.0471038855612278 -0.5742188096046448 -0.8006466031074524 -0.23498870432376862 -0.04923573136329651 0.08840051293373108 -0.2984352815913172 -0.1127544019563098 0.3131797021565331 -2.218005882728962 -2.2194203585593115 -0.008139497205329695 0.0 0.0 0.0 0.0 0.0 0.0 0.18819645923395342 3.720333416140738 0.9866037545567677 -0.5413734365277608 0.011483568614815342 0.42524910563593904 -0.2984301935029837 -0.1127550753051513 0.3131843183387717 -2.217827088832791 -2.219480214722697 -0.008179933726190747 0.0 0.0 0.0 0.0 0.0 0.0
4211.728 7.768107283938919e-17 -1.5707963267948966 1.5707963267948966 -1.5707963267948966 -1.5707963267948966 0.0 0.0 0.0 0.0 0.0 0.0 0.0 0.0 0.0 0.0 0.0 0.0 0.0 2.7100081908582143e-27 -0.620381750820575 -0.8463465614411209 -0.2525548825603051 -1.4392506443496177e-11 0.0 3.110005232743317e-26 -7.1458666999402505 -7.145866699940252 -1.0424175499402515 -5.974879480466362e-11 0.0 -3.5587941304981996e-05 -1.570796314870016 1.570777416229248 -1.5707243124591272 -1.5707667509662073 7.190534961409867e-05 0.0 0.0 -0.0 0.0 0.0 0.0 0.0515899695456028 -0.5876770615577698 -0.7975965142250061 -0.2361077070236206 -0.04699774086475372 0.09735246747732162 0.0471038855612278 -0.5742188096046448 -0.8006466031074524 -0.23498870432376862 -0.048116736114025116 0.08951950818300247 -0.29842983745551 -0.11274686211552634 0.313183796680614 -2.217987790404121 -2.219401977345751 -0.008206198794238945 0.0 0.0 0.0 0.0 0.0 0.0 -0.1649533911352668 3.6717129479405455 1.822849924169877 -0.5222173150993761 -0.0943314174802625 0.4505370096706149 -0.2984301935029837 -0.1127550753051513 0.3131843183387717 -2.217827088832791 -2.219480214722697 -0.008179933726190747 0.0 0.0 0.0 0.0 0.0 0.0
4211.736 7.768107283938919e-17 -1.5707963267948966 1.5707963267948966 -1.5707963267948966 -1.5707963267948966 0.0 0.0 0.0 0.0 0.0 0.0 0.0 0.0 0.0 0.0 0.0 0.0 0.0 2.7100081908582143e-27 -0.620381750820575 -0.8463465614411209 -0.2525548825603051 -1.4392506443496177e-11 0.0 3.110005232743317e-26 -7.1458666999402505 -7.145866699940252 -1.0424175499402515 -5.974879480466362e-11 0.0 -2.366701234990387e-05 -1.5707600752459925 1.5707893371582031 -1.5707243124591272 -1.5707305113421839 4.793690095539205e-05 0.0 0.0 -0.0 0.0 0.0 0.0 0.0515899695456028 -0.5988922715187073 -0.7975965142250061 -0.23163172602653503 -0.0503547228872776 0.09287648648023605 0.0471038855612278 -0.5742188096046448 -0.8006466031074524 -0.23498870432376862 -0.04923573136329651 0.09175749868154526 -0.2984333491690079 -0.11275337703533782 0.3131693960266305 -2.2179900646336796 -2.2194840938691933 -0.008219621284527585 0.0 0.0 0.0 0.0 0.0 0.0 -0.7581157939648485 3.3775101833473307 1.7238784500335456 -0.5135869664406278 -0.1140902556909077 0.4296321260097441 -0.2984301935029837 -0.1127550753051513 0.3131843183387717 -2.217827088832791 -2.219480214722697 -0.008179933726190747 0.0 0.0 0.0 0.0 0.0 0.0
4211.744 7.768107283938919e-17 -1.5707963267948966 1.5707963267948966 -1.5707963267948966 -1.5707963267948966 0.0 0.0 0.0 0.0 0.0 0.0 0.0 0.0 0.0 0.0 0.0 0.0 0.0 2.7100081908582143e-27 -0.620381750820575 -0.8463465614411209 -0.2525548825603051 -1.4392506443496177e-11 0.0 3.110005232743317e-26 -7.1458666999402505 -7.145866699940252 -1.0424175499402515 -5.974879480466362e-11 0.0 -2.366701234990387e-05 -1.5707243124591272 1.570765495300293 -1.5707243124591272 -1.5707185904132288 0.00011984225420746952 0.0 0.0 -0.0 0.0 0.0 0.0 0.0493469275534153 -0.5787048935890198 -0.8097968697547913 -0.23386971652507782 -0.04923573136329651 0.08951950818300247 0.0471038855612278 -0.5742188096046448 -0.8006466031074524 -0.23498870432376862 -0.04923573136329651 0.09175749868154526 -0.2984410870968737 -0.11275437274826924 0.3131658320900084 -2.2180815634215176 -2.2194162511749993 -0.008219428045719753 0.0 0.0 0.0 0.0 0.0 0.0 0.7823325969852599 3.813805869247526 1.2340797995628374 -0.5440340506714794 0.044624599031893204 0.41503657026256163 -0.2984301935029837 -0.1127550753051513 0.3131843183387717 -2.217827088832791 -2.219480214722697 -0.008179933726190747 0.0 0.0 0.0 0.0 0.0 0.0
4211.7519999999995 7.768107283938919e-17 -1.5707963267948966 1.5707963267948966 -1.5707963267948966 -1.5707963267948966 0.0 0.0 0.0 0.0 0.0 0.0 0.0 0.0 0.0 0.0 0.0 0.0 0.0 2.7100081908582143e-27 -0.620381750820575 -0.8463465614411209 -0.2525548825603051 -1.4392506443496177e-11 0.0 3.110005232743317e-26 -7.1458666999402505 -7.145866699940252 -1.0424175499402515 -5.974879480466362e-11 0.0 -3.5587941304981996e-05 -1.5707362333880823 1.5708012580871582 -1.5707600752459925 -1.570742432271139 2.3968450477696024e-05 0.0 0.0 -0.0 0.0 0.0 0.0 0.0560760572552681 -0.5630035996437073 -0.8006466031074524 -0.24170267581939697 -0.05706868693232536 0.09399548172950745 0.0471038855612278 -0.5742188096046448 -0.8006466031074524 -0.23498870432376862 -0.04923573136329651 0.09063850343227386 -0.29844049867110384 -0.11274883988956454 0.31316177843171455 -2.2179706308894365 -2.2194917298451644 -0.008232869035932738 0.0 0.0 0.0 0.0 0.0 0.0 1.2575175923913025 4.351776347460151 1.8127251561200444 -0.6250950534466037 -0.001759973681119468 0.43543036434473786 -0.2984301935029837 -0.1127550753051513 0.3131843183387717 -2.217827088832791 -2.219480214722697 -0.008179933726190747 0.0 0.0 0.0 0.0 0.0 0.0
4211.76 7.768107283938919e-17 -1.5707963267948966 1.5707963267948966 -1.5707963267948966 -1.5707963267948966 0.0 0.0 0.0 0.0 0.0 0.0 0.0 0.0 0.0 0.0 0.0 0.0 0.0 2.7100081908582143e-27 -0.620381750820575 -0.8463465614411209 -0.2525548825603051 -1.4392506443496177e-11 0.0 3.110005232743317e-26 -7.1458666999402505 -7.145866699940252 -1.0424175499402515 -5.974879480466362e-11 0.0 -2.366701234990387e-05 -1.5707600752459925 1.570777416229248 -1.570688549672262 -1.5707305113421839 8.388957940042019e-05 0.0 0.0 -0.0 0.0 0.0 0.0 0.0493469275534153 -0.5697327256202698 -0.7991215586662292 -0.2372266948223114 -0.04699774086475372 0.08840051293373108 0.0471038855612278 -0.5742188096046448 -0.8006466031074524 -0.23498870432376862 -0.04923573136329651 0.09063850343227386 -0.2984313886984126 -0.11275336582610392 0.31316990348463875 -2.218041867651215 -2.219455883839561 -0.00824605535179303 0.0 0.0 0.0 0.0 0.0 0.0 0.8432103969051621 3.8183211675735733 1.7807480474707167 -0.5342877272283193 -0.012496491896147063 0.4094837001063776 -0.2984301935029837 -0.1127550753051513 0.3131843183387717 -2.217827088832791 -2.219480214722697 -0.008179933726190747 0.0 0.0 0.0 0.0 0.0 0.0
4211.768 7.768107283938919e-17 -1.5707963267948966 1.5707963267948966 -1.5707963267948966 -1.5707963267948966 0.0 0.0 0.0 0.0 0.0 0.0 0.0 0.0 0.0 0.0 0.0 0.0 0.0 2.7100081908582143e-27 -0.620381750820575 -0.8463465614411209 -0.2525548825603051 -1.4392506443496177e-11 0.0 3.110005232743317e-26 -7.1458666999402505 -7.145866699940252 -1.0424175499402515 -5.974879480466362e-11 0.0 1.1984225238848012e-05 -1.5707243124591272 1.570777416229248 -1.5707362333880823 -1.570742432271139 7.190534961409867e-05 0.0 0.0 -0.0 0.0 0.0 0.0 0.0493469275534153 -0.5764618515968323 -0.7914963960647583 -0.24282166361808777 -0.04587874934077263 0.08728151768445969 0.0471038855612278 -0.5742188096046448 -0.8006466031074524 -0.23498870432376862 -0.04923573136329651 0.09063850343227386 -0.298437064620996 -0.11276304357223274 0.3131633043896962 -2.217976834330959 -2.219497027651994 -0.008245847806975612 0.0 0.0 0.0 0.0 0.0 0.0 0.19176086876583795 3.552294041257044 2.2388990530642223 -0.5073983023727645 -0.1312784066918845 0.4035642890647931 -0.2984301935029837 -0.1127550753051513 0.3131843183387717 -2.217827088832791 -2.219480214722697 -0.008179933726190747 0.0 0.0 0.0 0.0 0.0 0.0
4211.776 7.768107283938919e-17 -1.5707963267948966 1.5707963267948966 -1.5707963267948966 -1.5707963267948966 0.0 0.0 0.0 0.0 0.0 0.0 0.0 0.0 0.0 0.0 0.0 0.0 0.0 2.7100081908582143e-27 -0.620381750820575 -0.8463465614411209 -0.2525548825603051 -1.4392506443496177e-11 0.0 3.110005232743317e-26 -7.1458666999402505 -7.145866699940252 -1.0424175499402515 -5.974879480466362e-11 0.0 -3.5587941304981996e-05 -1.5707243124591272 1.5708131790161133 -1.5707481543170374 -1.5707548300372522 5.992112710373476e-05 0.0 0.0 -0.0 0.0 0.0 0.0 0.0471038855612278 -0.5719757676124573 -0.7991215586662292 -0.2361077070236206 -0.04699774086475372 0.09063850343227386 0.0471038855612278 -0.5742188096046448 -0.8006466031074524 -0.23498870432376862 -0.04923573136329651 0.09063850343227386 -0.29844045314874124 -0.11274779245428258 0.3131536500087721 -2.218022059583624 -2.2194633391127527 -0.008286246222203657 0.0 0.0 0.0 0.0 0.0 0.0 0.7248491667211439 3.711508867761157 1.7562187931095419 -0.5254910568593277 -0.015098019281650766 0.4198521546054218 -0.2984301935029837 -0.1127550753051513 0.3131843183387717 -2.217827088832791 -2.219480214722697 -0.008179933726190747 0.0 0.0 0.0 0.0 0.0 0.0
4211.784 7.768107283938919e-17 -1.5707963267948966 1.5707963267948966 -1.5707963267948966 -1.5707963267948966 0.0 0.0 0.0 0.0 0.0 0.0 0.0 0.0 0.0 0.0 0.0 0.0 0.0 2.7100081908582143e-27 -0.620381750820575 -0.8463465614411209 -0.2525548825603051 -1.4392506443496177e-11 0.0 3.110005232743317e-26 -7.1458666999402505 -7.145866699940252 -1.0424175499402515 -5.974879480466362e-11 0.0 -2.366701234990387e-05 -1.5707123915301722 1.5708250999450684 -1.5707009474383753 -1.5707548300372522 5.992112710373476e-05 0.0 0.0 -0.0 0.0 0.0 0.0 0.0493469275534153 -0.5697327256202698 -0.7930214405059814 -0.23163172602653503 -0.04364075884222984 0.09063850343227386 0.0471038855612278 -0.5742188096046448 -0.8006466031074524 -0.23498870432376862 -0.04923573136329651 0.09063850343227386 -0.29843615519926353 -0.11275129920025705 0.31314250254796383 -2.218044291260062 -2.2195117410137732 -0.008365236331254182 0.0 0.0 0.0 0.0 0.0 0.0 0.6066719323214926 3.7634668657192796 1.9297552958680337 -0.5142851026126323 -0.018864327327169163 0.419803154988985 -0.2984301935029837 -0.1127550753051513 0.3131843183387717 -2.217827088832791 -2.219480214722697 -0.008179933726190747 0.0 0.0 0.0 0.0 0.0 0.0
4211.7919999999995 7.768107283938919e-17 -1.5707963267948966 1.5707963267948966 -1.5707963267948966 -1.5707963267948966 0.0 0.0 0.0 0.0 0.0 0.0 0.0 0.0 0.0 0.0 0.0 0.0 0.0 2.7100081908582143e-27 -0.620381750820575 -0.8463465614411209 -0.2525548825603051 -1.4392506443496177e-11 0.0 3.110005232743317e-26 -7.1458666999402505 -7.145866699940252 -1.0424175499402515 -5.974879480466362e-11 0.0 0.0 -1.5707600752459925 1.5707893371582031 -1.5707362333880823 -1.5707185904132288 4.793690095539205e-05 0.0 0.0 -0.0 0.0 0.0 0.0 0.0493469275534153 -0.5787048935890198 -0.7945464849472046 -0.22827474772930145 -0.04923573136329651 0.09959045052528381 0.0471038855612278 -0.5742188096046448 -0.8006466031074524 -0.23498870432376862 -0.04699774086475372 0.09063850343227386 -0.2984316619751219 -0.11276143010673646 0.31317040617122005 -2.2179637661101377 -2.2195104057298636 -0.008193087754509037 0.0 0.0 0.0 0.0 0.0 0.0 0.19137728527018 3.7457634424284993 1.789165831296661 -0.5387471407432974 -0.025898533552471608 0.4613260550340566 -0.2984301935029837 -0.1127550753051513 0.3131843183387717 -2.217827088832791 -2.219480214722697 -0.008179933726190747 0.0 0.0 0.0 0.0 0.0 0.0
4211.8 7.768107283938919e-17 -1.5707963267948966 1.5707963267948966 -1.5707963267948966 -1.5707963267948966 0.0 0.0 0.0 0.0 0.0 0.0 0.0 0.0 0.0 0.0 0.0 0.0 0.0 2.7100081908582143e-27 -0.620381750820575 -0.8463465614411209 -0.2525548825603051 -1.4392506443496177e-11 0.0 3.110005232743317e-26 -7.1458666999402505 -7.145866699940252 -1.0424175499402515 -5.974879480466362e-11 0.0 -5.990663637334137e-05 -1.5707839171039026 1.570765495300293 -1.5707362333880823 -1.5707667509662073 7.190534961409867e-05 0.0 0.0 -0.0 0.0 0.0 0.0 0.0471038855612278 -0.5719757676124573 -0.7945464849472046 -0.23163172602653503 -0.04699774086475372 0.09511447697877884 0.0471038855612278 -0.5742188096046448 -0.8006466031074524 -0.23498870432376862 -0.0503547228872776 0.09063850343227386 -0.2984365464210808 -0.11273962182614669 0.3131846730778124 -2.218009061918772 -2.219369441790701 -0.00819352699696611 0.0 0.0 0.0 0.0 0.0 0.0 0.5477513196521102 3.714316034617937 1.862121181378778 -0.5257587504578027 -0.018161349045877635 0.44064728271081427 -0.2984301935029837 -0.1127550753051513 0.3131843183387717 -2.217827088832791 -2.219480214722697 -0.008179933726190747 0.0 0.0 0.0 0.0 0.0 0.0
4211.808 7.768107283938919e-17 -1.5707963267948966 1.5707963267948966 -1.5707963267948966 -1.5707963267948966 0.0 0.0 0.0 0.0 0.0 0.0 0.0 0.0 0.0 0.0 0.0 0.0 0.0 2.7100081908582143e-27 -0.620381750820575 -0.8463465614411209 -0.2525548825603051 -1.4392506443496177e-11 0.0 3.110005232743317e-26 -7.1458666999402505 -7.145866699940252 -1.0424175499402515 -5.974879480466362e-11 0.0 -1.1746083394825746e-05 -1.5707724730121058 1.570777416229248 -1.570688549672262 -1.5707786718951624 9.58738019107841e-05 0.0 0.0 -0.0 0.0 0.0 0.0 0.0471038855612278 -0.5787048935890198 -0.806746780872345 -0.23386971652507782 -0.05371170490980148 0.08840051293373108 0.0471038855612278 -0.5742188096046448 -0.8006466031074524 -0.23498870432376862 -0.04923573136329651 0.09063850343227386 -0.2984280482507872 -0.11275296167550157 0.31317363426028494 -2.218011589887463 -2.219425344019252 -0.008285529296601372 0.0 0.0 0.0 0.0 0.0 0.0 0.6645243989271038 3.6548750446401717 1.368889467784001 -0.5518593311708389 0.023319705724457546 0.4097030417431554 -0.2984301935029837 -0.1127550753051513 0.3131843183387717 -2.217827088832791 -2.219480214722697 -0.008179933726190747 0.0 0.0 0.0 0.0 0.0 0.0
4211.816 7.768107283938919e-17 -1.5707963267948966 1.5707963267948966 -1.5707963267948966 -1.5707963267948966 0.0 0.0 0.0 0.0 0.0 0.0 0.0 0.0 0.0 0.0 0.0 0.0 0.0 2.7100081908582143e-27 -0.620381750820575 -0.8463465614411209 -0.2525548825603051 -1.4392506443496177e-11 0.0 3.110005232743317e-26 -7.1458666999402505 -7.145866699940252 -1.0424175499402515 -5.974879480466362e-11 0.0 1.1984225238848012e-05 -1.5707362333880823 1.570765495300293 -1.570676628743307 -1.5707548300372522 9.58738019107841e-05 0.0 0.0 -0.0 0.0 0.0 0.0 0.0403747595846653 -0.5944061875343323 -0.7899713516235352 -0.2361077070236206 -0.054830700159072876 0.08616252988576889 0.0471038855612278 -0.5742188096046448 -0.8006466031074524 -0.23498870432376862 -0.04923573136329651 0.09063850343227386 -0.29843121841290393 -0.11276199899676863 0.31316534342403873 -2.2180151687570624 -2.2194817007178753 -0.008299332201574748 0.0 0.0 0.0 0.0 0.0 0.0 -0.81497710544395 2.7667700577934973 2.157546685985791 -0.484366567493763 -0.1766784006676697 0.39808577981906546 -0.2984301935029837 -0.1127550753051513 0.3131843183387717 -2.217827088832791 -2.219480214722697 -0.008179933726190747 0.0 0.0 0.0 0.0 0.0 0.0
4211.824 7.768107283938919e-17 -1.5707963267948966 1.5707963267948966 -1.5707963267948966 -1.5707963267948966 0.0 0.0 0.0 0.0 0.0 0.0 0.0 0.0 0.0 0.0 0.0 0.0 0.0 2.7100081908582143e-27 -0.620381750820575 -0.8463465614411209 -0.2525548825603051 -1.4392506443496177e-11 0.0 3.110005232743317e-26 -7.1458666999402505 -7.145866699940252 -1.0424175499402515 -5.974879480466362e-11 0.0 -3.5587941304981996e-05 -1.5707362333880823 1.570777416229248 -1.5707123915301722 -1.5707305113421839 7.190534961409867e-05 0.0 0.0 -0.0 0.0 0.0 0.0 0.0471038855612278 -0.5921631455421448 -0.7975965142250061 -0.2372266948223114 -0.05371170490980148 0.09399548172950745 0.0471038855612278 -0.5742188096046448 -0.8006466031074524 -0.23498870432376862 -0.04699774086475372 0.09063850343227386 -0.2984385415154072 -0.11274981583645616 0.3131648209231098 -2.2180417230539144 -2.2194561588629917 -0.008246080643476879 0.0 0.0 0.0 0.0 0.0 0.0 -0.40162113981997616 3.3358896977635313 1.8458546137751555 -0.5258458635098041 -0.1211000676334132 0.43475367526289616 -0.2984301935029837 -0.1127550753051513 0.3131843183387717 -2.217827088832791 -2.219480214722697 -0.008179933726190747 0.0 0.0 0.0 0.0 0.0 0.0
4211.831999999999 7.768107283938919e-17 -1.5707963267948966 1.5707963267948966 -1.5707963267948966 -1.5707963267948966 0.0 0.0 0.0 0.0 0.0 0.0 0.0 0.0 0.0 0.0 0.0 0.0 0.0 2.7100081908582143e-27 -0.620381750820575 -0.8463465614411209 -0.2525548825603051 -1.4392506443496177e-11 0.0 3.110005232743317e-26 -7.1458666999402505 -7.145866699940252 -1.0424175499402515 -5.974879480466362e-11 0.0 -3.5587941304981996e-05 -1.570796314870016 1.5708012580871582 -1.5707362333880823 -1.5707548300372522 7.190534961409867e-05 0.0 0.0 -0.0 0.0 0.0 0.0 0.0493469275534153 -0.5831909775733948 -0.7945464849472046 -0.2383456975221634 -0.04923573136329651 0.09735246747732162 0.0471038855612278 -0.5742188096046448 -0.8006466031074524 -0.2383456975221634 -0.0503547228872776 0.09063850343227386 -0.29842884715089757 -0.11274782486834074 0.31317768704113447 -2.2179996731288596 -2.2194139460443365 -0.008206242048890722 0.0 0.0 0.0 0.0 0.0 0.0 -0.04555981538632188 3.619733385580432 2.006887623866929 -0.5284526530143339 -0.11060526800344606 0.4504212532600716 -0.2984301935029837 -0.1127550753051513 0.3131843183387717 -2.217827088832791 -2.219480214722697 -0.008179933726190747 0.0 0.0 0.0 0.0 0.0 0.0
4211.84 7.768107283938919e-17 -1.5707963267948966 1.5707963267948966 -1.5707963267948966 -1.5707963267948966 0.0 0.0 0.0 0.0 0.0 0.0 0.0 0.0 0.0 0.0 0.0 0.0 0.0 2.7100081908582143e-27 -0.620381750820575 -0.8463465614411209 -0.2525548825603051 -1.4392506443496177e-11 0.0 3.110005232743317e-26 -7.1458666999402505 -7.145866699940252 -1.0424175499402515 -5.974879480466362e-11 0.0 -4.7985707418263246e-05 -1.5707362333880823 1.5708131790161133 -1.5707243124591272 -1.5707548300372522 7.190534961409867e-05 0.0 0.0 -0.0 0.0 0.0 0.0 0.0448608435690403 -0.5652466416358948 -0.8006466031074524 -0.22827474772930145 -0.04923573136329651 0.08951950818300247 0.0471038855612278 -0.5742188096046448 -0.8006466031074524 -0.23498870432376862 -0.04923573136329651 0.08840051293373108 -0.2984379645399875 -0.11274408042317444 0.31315517391042097 -2.218055146166478 -2.2194421054686715 -0.008299535453721266 0.0 0.0 0.0 0.0 0.0 0.0 1.1400948149607728 3.756182831862378 1.5192815687343066 -0.5394845237045189 0.0756311719630385 0.41522281466229366 -0.2984301935029837 -0.1127550753051513 0.3131843183387717 -2.217827088832791 -2.219480214722697 -0.008179933726190747 0.0 0.0 0.0 0.0 0.0 0.0
4211.848 7.768107283938919e-17 -1.5707963267948966 1.5707963267948966 -1.5707963267948966 -1.5707963267948966 0.0 0.0 0.0 0.0 0.0 0.0 0.0 0.0 0.0 0.0 0.0 0.0 0.0 2.7100081908582143e-27 -0.620381750820575 -0.8463465614411209 -0.2525548825603051 -1.4392506443496177e-11 0.0 3.110005232743317e-26 -7.1458666999402505 -7.145866699940252 -1.0424175499402515 -5.974879480466362e-11 0.0 0.0 -1.570796314870016 1.570777416229248 -1.5707481543170374 -1.5707667509662073 5.992112710373476e-05 0.0 0.0 -0.0 0.0 0.0 0.0 0.0493469275534153 -0.5809479355812073 -0.8052217364311218 -0.24394066631793976 -0.054830700159072876 0.09399548172950745 0.0471038855612278 -0.5742188096046448 -0.8006466031074524 -0.23498870432376862 -0.04923573136329651 0.09287648648023605 -0.29842778900203304 -0.11275749917155749 0.31318583174246245 -2.2179230171186504 -2.219442917716311 -0.008179597746226999 0.0 0.0 0.0 0.0 0.0 0.0 0.4866522019150992 3.769625275621543 1.6554925678340553 -0.5666074894631996 -0.06253350816940917 0.4351388730371111 -0.2984301935029837 -0.1127550753051513 0.3131843183387717 -2.217827088832791 -2.219480214722697 -0.008179933726190747 0.0 0.0 0.0 0.0 0.0 0.0
4211.856 7.768107283938919e-17 -1.5707963267948966 1.5707963267948966 -1.5707963267948966 -1.5707963267948966 0.0 0.0 0.0 0.0 0.0 0.0 0.0 0.0 0.0 0.0 0.0 0.0 0.0 2.7100081908582143e-27 -0.620381750820575 -0.8463465614411209 -0.2525548825603051 -1.4392506443496177e-11 0.0 3.110005232743317e-26 -7.1458666999402505 -7.145866699940252 -1.0424175499402515 -5.974879480466362e-11 0.0 -3.5587941304981996e-05 -1.570796314870016 1.5708370208740234 -1.5707009474383753 -1.570742432271139 0.000107858024421148 0.0 0.0 -0.0 0.0 0.0 0.0 0.0515899695456028 -0.5607605576515198 -0.8021716475486755 -0.24058367311954498 -0.05706868693232536 0.09175749868154526 0.0471038855612278 -0.5742188096046448 -0.8006466031074524 -0.23498870432376862 -0.04923573136329651 0.09175749868154526 -0.2984229813574231 -0.11274878047113977 0.3131639881174827 -2.218081201036897 -2.219415453031255 -0.008271431696998302 0.0 0.0 0.0 0.0 0.0 0.0 1.435864809315253 4.191766030515954 1.7204581108053518 -0.6118835708229446 0.025974863411938713 0.4252176439952095 -0.2984301935029837 -0.1127550753051513 0.3131843183387717 -2.217827088832791 -2.219480214722697 -0.008179933726190747 0.0 0.0 0.0 0.0 0.0 0.0
4211.864 7.768107283938919e-17 -1.5707963267948966 1.5707963267948966 -1.5707963267948966 -1.5707963267948966 0.0 0.0 0.0 0.0 0.0 0.0 0.0 0.0 0.0 0.0 0.0 0.0 0.0 2.7100081908582143e-27 -0.620381750820575 -0.8463465614411209 -0.2525548825603051 -1.4392506443496177e-11 0.0 3.110005232743317e-26 -7.1458666999402505 -7.145866699940252 -1.0424175499402515 -5.974879480466362e-11 0.0 -5.990663637334137e-05 -1.5707600752459925 1.5708250999450684 -1.5707243124591272 -1.570742432271139 9.58738019107841e-05 0.0 0.0 -0.0 0.0 0.0 0.0 0.0493469275534153 -0.5674896836280823 -0.7991215586662292 -0.2372266948223114 -0.048116736114025116 0.09511447697877884 0.0471038855612278 -0.5742188096046448 -0.8006466031074524 -0.23498870432376862 -0.04923573136329651 0.09063850343227386 -0.2984344775761562 -0.11274153922189968 0.31315872387317506 -2.218095286100137 -2.2194025122803276 -0.008272543105401393 0.0 0.0 0.0 0.0 0.0 0.0 0.9619901752367999 3.967614026707422 1.7817837966104713 -0.551804166797962 -0.0029163151929404935 0.44066818813319214 -0.2984301935029837 -0.1127550753051513 0.3131843183387717 -2.217827088832791 -2.219480214722697 -0.008179933726190747 0.0 0.0 0.0 0.0 0.0 0.0
4211.871999999999 7.768107283938919e-17 -1.5707963267948966 1.5707963267948966 -1.5707963267948966 -1.5707963267948966 0.0 0.0 0.0 0.0 0.0 0.0 0.0 0.0 0.0 0.0 0.0 0.0 0.0 2.7100081908582143e-27 -0.620381750820575 -0.8463465614411209 -0.2525548825603051 -1.4392506443496177e-11 0.0 3.110005232743317e-26 -7.1458666999402505 -7.145866699940252 -1.0424175499402515 -5.974879480466362e-11 0.0 0.0 -1.5707600752459925 1.5708012580871582 -1.5707362333880823 -1.5707548300372522 5.992112710373476e-05 0.0 0.0 -0.0 0.0 0.0 0.0 0.0471038855612278 -0.5787048935890198 -0.7991215586662292 -0.23275071382522583 -0.048116736114025116 0.09399548172950745 0.0471038855612278 -0.5742188096046448 -0.8006466031074524 -0.23498870432376862 -0.04923573136329651 0.09063850343227386 -0.29843067813154384 -0.11275843186058766 0.31316686864423426 -2.2179648036378397 -2.2194847973543435 -0.00824642554541995 0.0 0.0 0.0 0.0 0.0 0.0 0.36893352215672043 3.6292670037168797 1.6828264522563408 -0.52387985342401 -0.022792554523932244 0.4353971572758145 -0.2984301935029837 -0.1127550753051513 0.3131843183387717 -2.217827088832791 -2.219480214722697 -0.008179933726190747 0.0 0.0 0.0 0.0 0.0 0.0
4211.88 7.768107283938919e-17 -1.5707963267948966 1.5707963267948966 -1.5707963267948966 -1.5707963267948966 0.0 0.0 0.0 0.0 0.0 0.0 0.0 0.0 0.0 0.0 0.0 0.0 0.0 2.7100081908582143e-27 -0.620381750820575 -0.8463465614411209 -0.2525548825603051 -1.4392506443496177e-11 0.0 3.110005232743317e-26 -7.1458666999402505 -7.145866699940252 -1.0424175499402515 -5.974879480466362e-11 0.0 -1.1746083394825746e-05 -1.5707839171039026 1.570777416229248 -1.5707009474383753 -1.5707548300372522 3.5952674807049334e-05 0.0 0.0 -0.0 0.0 0.0 0.0 0.0471038855612278 -0.5719757676124573 -0.7930214405059814 -0.2383456975221634 -0.051473718136548996 0.09511447697877884 0.0471038855612278 -0.5742188096046448 -0.8006466031074524 -0.23498870432376862 -0.04923573136329651 0.09063850343227386 -0.29842722288010654 -0.11275493809255197 0.31317809400148844 -2.2179452822911165 -2.219492048435034 -0.008232807616963739 0.0 0.0 0.0 0.0 0.0 0.0 0.48862086002009386 3.6908065636484575 2.0754515348826423 -0.5447689403250958 -0.07236101444591554 0.4402556478103259 -0.2984301935029837 -0.1127550753051513 0.3131843183387717 -2.217827088832791 -2.219480214722697 -0.008179933726190747 0.0 0.0 0.0 0.0 0.0 0.0
4211.888 7.768107283938919e-17 -1.5707963267948966 1.5707963267948966 -1.5707963267948966 -1.5707963267948966 0.0 0.0 0.0 0.0 0.0 0.0 0.0 0.0 0.0 0.0 0.0 0.0 0.0 2.7100081908582143e-27 -0.620381750820575 -0.8463465614411209 -0.2525548825603051 -1.4392506443496177e-11 0.0 3.110005232743317e-26 -7.1458666999402505 -7.145866699940252 -1.0424175499402515 -5.974879480466362e-11 0.0 0.0 -1.5707243124591272 1.5708131790161133 -1.5707009474383753 -1.5707305113421839 4.793690095539205e-05 0.0 0.0 -0.0 0.0 0.0 0.0 0.0448608435690403 -0.5854340195655823 -0.8113219141960144 -0.2383456975221634 -0.05371170490980148 0.08951950818300247 0.0471038855612278 -0.5742188096046448 -0.8006466031074524 -0.23498870432376862 -0.04923573136329651 0.09063850343227386 -0.29843254951837467 -0.11276038315096626 0.3131496060547556 -2.218005058412103 -2.219551590918478 -0.008311782693840591 0.0 0.0 0.0 0.0 0.0 0.0 0.4861630671548026 3.5074709863122377 1.2624162916189376 -0.539669871617925 -0.0031091739265511177 0.4146977724698767 -0.2984301935029837 -0.1127550753051513 0.3131843183387717 -2.217827088832791 -2.219480214722697 -0.008179933726190747 0.0 0.0 0.0 0.0 0.0 0.0
4211.896 7.768107283938919e-17 -1.5707963267948966 1.5707963267948966 -1.5707963267948966 -1.5707963267948966 0.0 0.0 0.0 0.0 0.0 0.0 0.0 0.0 0.0 0.0 0.0 0.0 0.0 2.7100081908582143e-27 -0.620381750820575 -0.8463465614411209 -0.2525548825603051 -1.4392506443496177e-11 0.0 3.110005232743317e-26 -7.1458666999402505 -7.145866699940252 -1.0424175499402515 -5.974879480466362e-11 0.0 -4.7985707418263246e-05 -1.5707724730121058 1.570777416229248 -1.5707243124591272 -1.570742432271139 3.5952674807049334e-05 0.0 0.0 -0.0 0.0 0.0 0.0 0.0471038855612278 -0.5585175156593323 -0.7899713516235352 -0.23498870432376862 -0.04923573136329651 0.09511447697877884 0.0471038855612278 -0.5742188096046448 -0.8006466031074524 -0.23498870432376862 -0.04923573136329651 0.09063850343227386 -0.2984350785702104 -0.11274515604118356 0.3131766642944802 -2.2179857573310167 -2.2194523520049754 -0.008205904629828596 0.0 0.0 0.0 0.0 0.0 0.0 1.0821765099590173 3.9161994595691563 2.1393970445527235 -0.5529576925671401 -0.01323520853995982 0.4406340435890471 -0.2984301935029837 -0.1127550753051513 0.3131843183387717 -2.217827088832791 -2.219480214722697 -0.008179933726190747 0.0 0.0 0.0 0.0 0.0 0.0
4211.9039999999995 7.768107283938919e-17 -1.5707963267948966 1.5707963267948966 -1.5707963267948966 -1.5707963267948966 0.0 0.0 0.0 0.0 0.0 0.0 0.0 0.0 0.0 0.0 0.0 0.0 0.0 2.7100081908582143e-27 -0.620381750820575 -0.8463465614411209 -0.2525548825603051 -1.4392506443496177e-11 0.0 3.110005232743317e-26 -7.1458666999402505 -7.145866699940252 -1.0424175499402515 -5.974879480466362e-11 0.0 -3.5587941304981996e-05 -1.5707600752459925 1.5707893371582031 -1.5707123915301722 -1.5707305113421839 7.190534961409867e-05 0.0 0.0 -0.0 0.0 0.0 0.0 0.0448608435690403 -0.5809479355812073 -0.7930214405059814 -0.23498870432376862 -0.05259270966053009 0.09175749868154526 0.0471038855612278 -0.5742188096046448 -0.8006466031074524 -0.23498870432376862 -0.04923573136329651 0.08951950818300247 -0.29843371112316347 -0.11274981114772892 0.3131683785605313 -2.218035839475338 -2.219450156056545 -0.008232849983134465 0.0 0.0 0.0 0.0 0.0 0.0 0.014468020984515977 3.3623513867163783 2.0009089940872524 -0.5229044093095493 -0.08960705307254836 0.4245819331934104 -0.2984301935029837 -0.1127550753051513 0.3131843183387717 -2.217827088832791 -2.219480214722697 -0.008179933726190747 0.0 0.0 0.0 0.0 0.0 0.0
4211.912 7.768107283938919e-17 -1.5707963267948966 1.5707963267948966 -1.5707963267948966 -1.5707963267948966 0.0 0.0 0.0 0.0 0.0 0.0 0.0 0.0 0.0 0.0 0.0 0.0 0.0 2.7100081908582143e-27 -0.620381750820575 -0.8463465614411209 -0.2525548825603051 -1.4392506443496177e-11 0.0 3.110005232743317e-26 -7.1458666999402505 -7.145866699940252 -1.0424175499402515 -5.974879480466362e-11 0.0 2.3968450477696024e-05 -1.5707243124591272 1.5708370208740234 -1.5707243124591272 -1.5707548300372522 5.992112710373476e-05 0.0 0.0 -0.0 0.0 0.0 0.0 0.0403747595846653 -0.5787048935890198 -0.7975965142250061 -0.23498870432376862 -0.04699774086475372 0.09063850343227386 0.0471038855612278 -0.5742188096046448 -0.8006466031074524 -0.23498870432376862 -0.04923573136329651 0.09175749868154526 -0.2984298008784038 -0.11276552221382741 0.31314449559879376 -2.2179796655032873 -2.2195529067965616 -0.008339106150139745 0.0 0.0 0.0 0.0 0.0 0.0 0.3105454975581979 3.264348500704801 1.7978854295675604 -0.4887068511399776 -0.04786324015433908 0.41965682071669613 -0.2984301935029837 -0.1127550753051513 0.3131843183387717 -2.217827088832791 -2.219480214722697 -0.008179933726190747 0.0 0.0 0.0 0.0 0.0 0.0
4211.92 7.768107283938919e-17 -1.5707963267948966 1.5707963267948966 -1.5707963267948966 -1.5707963267948966 0.0 0.0 0.0 0.0 0.0 0.0 0.0 0.0 0.0 0.0 0.0 0.0 0.0 2.7100081908582143e-27 -0.620381750820575 -0.8463465614411209 -0.2525548825603051 -1.4392506443496177e-11 0.0 3.110005232743317e-26 -7.1458666999402505 -7.145866699940252 -1.0424175499402515 -5.974879480466362e-11 0.0 -1.1746083394825746e-05 -1.5707481543170374 1.570777416229248 -1.5707362333880823 -1.5707786718951624 4.793690095539205e-05 0.0 0.0 -0.0 0.0 0.0 0.0 0.0471038855612278 -0.5674896836280823 -0.7930214405059814 -0.24505965411663055 -0.04364075884222984 0.09623347222805023 0.0471038855612278 -0.5742188096046448 -0.8006466031074524 -0.23498870432376862 -0.0503547228872776 0.08840051293373108 -0.29843589820219335 -0.11275298583513606 0.3131704443647938 -2.2179466622413835 -2.21946722159159 -0.008259628042517722 0.0 0.0 0.0 0.0 0.0 0.0 0.7257026297603337 3.7972321727986857 2.221693973868656 -0.5171386418314093 -0.09629338465643296 0.4453181654929021 -0.2984301935029837 -0.1127550753051513 0.3131843183387717 -2.217827088832791 -2.219480214722697 -0.008179933726190747 0.0 0.0 0.0 0.0 0.0 0.0
4211.928 7.768107283938919e-17 -1.5707963267948966 1.5707963267948966 -1.5707963267948966 -1.5707963267948966 0.0 0.0 0.0 0.0 0.0 0.0 0.0 0.0 0.0 0.0 0.0 0.0 0.0 2.7100081908582143e-27 -0.620381750820575 -0.8463465614411209 -0.2525548825603051 -1.4392506443496177e-11 0.0 3.110005232743317e-26 -7.1458666999402505 -7.145866699940252 -1.0424175499402515 -5.974879480466362e-11 0.0 3.5952674807049334e-05 -1.5707600752459925 1.5707893371582031 -1.570688549672262 -1.5707786718951624 8.388957940042019e-05 0.0 0.0 -0.0 0.0 0.0 0.0 0.0515899695456028 -0.5854340195655823 -0.7945464849472046 -0.23498870432376862 -0.048116736114025116 0.09175749868154526 0.0471038855612278 -0.5742188096046448 -0.8006466031074524 -0.23498870432376862 -0.04587874934077263 0.09287648648023605 -0.2984236828531157 -0.11276717796559754 0.3131663734089976 -2.2179573728336597 -2.2195035997547548 -0.008312447244574597 0.0 0.0 0.0 0.0 0.0 0.0 -0.16483090259169733 3.584612206722708 1.9334021813694466 -0.5203493937869794 -0.0984713513475167 0.42451102624482095 -0.2984301935029837 -0.1127550753051513 0.3131843183387717 -2.217827088832791 -2.219480214722697 -0.008179933726190747 0.0 0.0 0.0 0.0 0.0 0.0
4211.936 7.768107283938919e-17 -1.5707963267948966 1.5707963267948966 -1.5707963267948966 -1.5707963267948966 0.0 0.0 0.0 0.0 0.0 0.0 0.0 0.0 0.0 0.0 0.0 0.0 0.0 2.7100081908582143e-27 -0.620381750820575 -0.8463465614411209 -0.2525548825603051 -1.4392506443496177e-11 0.0 3.110005232743317e-26 -7.1458666999402505 -7.145866699940252 -1.0424175499402515 -5.974879480466362e-11 0.0 -2.366701234990387e-05 -1.570796314870016 1.5707893371582031 -1.5707123915301722 -1.5707548300372522 7.190534961409867e-05 0.0 0.0 -0.0 0.0 0.0 0.0 0.0538330152630806 -0.5674896836280823 -0.7930214405059814 -0.24505965411663055 -0.04364075884222984 0.09287648648023605 0.0471038855612278 -0.5742188096046448 -0.8006466031074524 -0.23498870432376862 -0.048116736114025116 0.09063850343227386 -0.29842652473695563 -0.11275137948859314 0.31317921191808024 -2.21799242443263 -2.21943298685825 -0.008219482430252133 0.0 0.0 0.0 0.0 0.0 0.0 0.7250177657662886 4.035004156619004 2.222040530800907 -0.5367127088501832 -0.09614663212624565 0.4297345130354272 -0.2984301935029837 -0.1127550753051513 0.3131843183387717 -2.217827088832791 -2.219480214722697 -0.008179933726190747 0.0 0.0 0.0 0.0 0.0 0.0
4211.9439999999995 7.768107283938919e-17 -1.5707963267948966 1.5707963267948966 -1.5707963267948966 -1.5707963267948966 0.0 0.0 0.0 0.0 0.0 0.0 0.0 0.0 0.0 0.0 0.0 0.0 0.0 2.7100081908582143e-27 -0.620381750820575 -0.8463465614411209 -0.2525548825603051 -1.4392506443496177e-11 0.0 3.110005232743317e-26 -7.1458666999402505 -7.145866699940252 -1.0424175499402515 -5.974879480466362e-11 0.0 0.0 -1.5707839171039026 1.570765495300293 -1.5707243124591272 -1.570742432271139 4.793690095539205e-05 0.0 0.0 -0.0 0.0 0.0 0.0 0.0493469275534153 -0.5764618515968323 -0.7930214405059814 -0.23498870432376862 -0.0503547228872776 0.09287648648023605 0.0471038855612278 -0.5742188096046448 -0.8006466031074524 -0.23498870432376862 -0.0503547228872776 0.09175749868154526 -0.2984288084934622 -0.11275949444248823 0.3131836405332255 -2.2179340845302113 -2.2194805086945326 -0.00817975885529459 0.0 0.0 0.0 0.0 0.0 0.0 0.2510236303491363 3.663080114896862 2.002021887778781 -0.5372285968827311 -0.07008145285586506 0.42991495837495447 -0.2984301935029837 -0.1127550753051513 0.3131843183387717 -2.217827088832791 -2.219480214722697 -0.008179933726190747 0.0 0.0 0.0 0.0 0.0 0.0
4211.952 7.768107283938919e-17 -1.5707963267948966 1.5707963267948966 -1.5707963267948966 -1.5707963267948966 0.0 0.0 0.0 0.0 0.0 0.0 0.0 0.0 0.0 0.0 0.0 0.0 0.0 2.7100081908582143e-27 -0.620381750820575 -0.8463465614411209 -0.2525548825603051 -1.4392506443496177e-11 0.0 3.110005232743317e-26 -7.1458666999402505 -7.145866699940252 -1.0424175499402515 -5.974879480466362e-11 0.0 3.5952674807049334e-05 -1.5707839171039026 1.5708012580871582 -1.5707123915301722 -1.5707667509662073 9.58738019107841e-05 0.0 0.0 -0.0 0.0 0.0 0.0 0.0538330152630806 -0.6033783555030823 -0.796071469783783 -0.23275071382522583 -0.04252176731824875 0.09399548172950745 0.0471038855612278 -0.5742188096046448 -0.8006466031074524 -0.23498870432376862 -0.048116736114025116 0.09063850343227386 -0.29842081600563386 -0.11276817139016855 0.31317195843601175 -2.2179588096465332 -2.219478508016685 -0.008259451997849426 0.0 0.0 0.0 0.0 0.0 0.0 -1.0549817338690468 3.3788454203017917 1.815334955995144 -0.47728678292147036 -0.15151518614806736 0.4346151669821119 -0.2984301935029837 -0.1127550753051513 0.3131843183387717 -2.217827088832791 -2.219480214722697 -0.008179933726190747 0.0 0.0 0.0 0.0 0.0 0.0
4211.96 7.768107283938919e-17 -1.5707963267948966 1.5707963267948966 -1.5707963267948966 -1.5707963267948966 0.0 0.0 0.0 0.0 0.0 0.0 0.0 0.0 0.0 0.0 0.0 0.0 0.0 2.7100081908582143e-27 -0.620381750820575 -0.8463465614411209 -0.2525548825603051 -1.4392506443496177e-11 0.0 3.110005232743317e-26 -7.1458666999402505 -7.145866699940252 -1.0424175499402515 -5.974879480466362e-11 0.0 2.3968450477696024e-05 -1.5707481543170374 1.570765495300293 -1.5707481543170374 -1.5707905928241175 7.190534961409867e-05 0.0 0.0 -0.0 0.0 0.0 0.0 0.0426178015768528 -0.5674896836280823 -0.7991215586662292 -0.22603675723075867 -0.048116736114025116 0.09287648648023605 0.0471038855612278 -0.5742188096046448 -0.8006466031074524 -0.23498870432376862 -0.04699774086475372 0.09063850343227386 -0.2984338399047432 -0.1127626845360912 0.3131750291261594 -2.217915632680294 -2.2194623251587964 -0.008246125919841755 0.0 0.0 0.0 0.0 0.0 0.0 0.9623903570323603 3.644713270903888 1.5379917422715668 -0.52508258890206 0.06956166793215587 0.4308195416800858 -0.2984301935029837 -0.1127550753051513 0.3131843183387717 -2.217827088832791 -2.219480214722697 -0.008179933726190747 0.0 0.0 0.0 0.0 0.0 0.0
4211.968 7.768107283938919e-17 -1.5707963267948966 1.5707963267948966 -1.5707963267948966 -1.5707963267948966 0.0 0.0 0.0 0.0 0.0 0.0 0.0 0.0 0.0 0.0 0.0 0.0 0.0 2.7100081908582143e-27 -0.620381750820575 -0.8463465614411209 -0.2525548825603051 -1.4392506443496177e-11 0.0 3.110005232743317e-26 -7.1458666999402505 -7.145866699940252 -1.0424175499402515 -5.974879480466362e-11 0.0 0.0 -1.5707724730121058 1.5708012580871582 -1.5707009474383753 -1.5707667509662073 2.3968450477696024e-05 0.0 0.0 -0.0 0.0 0.0 0.0 0.0493469275534153 -0.5742188096046448 -0.7975965142250061 -0.2383456975221634 -0.04699774086475372 0.09287648648023605 0.0471038855612278 -0.5764618515968323 -0.8006466031074524 -0.23498870432376862 -0.04923573136329651 0.08951950818300247 -0.2984257725903246 -0.11275743007846797 0.3131675653657636 -2.217930514624612 -2.2195299574620884 -0.008285223840051346 0.0 0.0 0.0 0.0 0.0 0.0 0.5468435646730303 3.7752096745774386 1.8724582601306863 -0.5307888355015057 -0.05008388939908254 0.43001081074023445 -0.2984301935029837 -0.1127550753051513 0.3131843183387717 -2.217827088832791 -2.219480214722697 -0.008179933726190747 0.0 0.0 0.0 0.0 0.0 0.0
4211.976 7.768107283938919e-17 -1.5707963267948966 1.5707963267948966 -1.5707963267948966 -1.5707963267948966 0.0 0.0 0.0 0.0 0.0 0.0 0.0 0.0 0.0 0.0 0.0 0.0 0.0 2.7100081908582143e-27 -0.620381750820575 -0.8463465614411209 -0.2525548825603051 -1.4392506443496177e-11 0.0 3.110005232743317e-26 -7.1458666999402505 -7.145866699940252 -1.0424175499402515 -5.974879480466362e-11 0.0 0.0 -1.5707724730121058 1.5707893371582031 -1.5707724730121058 -1.5707548300372522 7.190534961409867e-05 0.0 0.0 -0.0 0.0 0.0 0.0 0.0471038855612278 -0.5674896836280823 -0.788446307182312 -0.2394646853208542 -0.0503547228872776 0.09287648648023605 0.0471038855612278 -0.5742188096046448 -0.8006466031074524 -0.23498870432376862 -0.04923573136329651 0.09175749868154526 -0.29843265058618634 -0.11275847539448007 0.31317722280843663 -2.217947851924661 -2.219441456121385 -0.00817903985539884 0.0 0.0 0.0 0.0 0.0 0.0 0.5485116883375557 3.6782692437790696 2.302721833001223 -0.5386280823947104 -0.09194800947645126 0.42977920793298574 -0.2984301935029837 -0.1127550753051513 0.3131843183387717 -2.217827088832791 -2.219480214722697 -0.008179933726190747 0.0 0.0 0.0 0.0 0.0 0.0
4211.9839999999995 7.768107283938919e-17 -1.5707963267948966 1.5707963267948966 -1.5707963267948966 -1.5707963267948966 0.0 0.0 0.0 0.0 0.0 0.0 0.0 0.0 0.0 0.0 0.0 0.0 0.0 2.7100081908582143e-27 -0.620381750820575 -0.8463465614411209 -0.2525548825603051 -1.4392506443496177e-11 0.0 3.110005232743317e-26 -7.1458666999402505 -7.145866699940252 -1.0424175499402515 -5.974879480466362e-11 0.0 -2.366701234990387e-05 -1.5707481543170374 1.5707530975341797 -1.570688549672262 -1.5707905928241175 4.793690095539205e-05 0.0 0.0 -0.0 0.0 0.0 0.0 0.0493469275534153 -0.5831909775733948 -0.796071469783783 -0.23498870432376862 -0.05259270966053009 0.09287648648023605 0.0471038855612278 -0.5742188096046448 -0.8006466031074524 -0.23498870432376862 -0.04923573136329651 0.09063850343227386 -0.298435325791798 -0.11274844113359542 0.31317364396391073 -2.217965700007612 -2.2194594765586166 -0.008298884702335174 0.0 0.0 0.0 0.0 0.0 0.0 0.01340986308020871 3.5729193709086458 1.8661104886892281 -0.5401793283516316 -0.0781089222496783 0.4298250372483151 -0.2984301935029837 -0.1127550753051513 0.3131843183387717 -2.217827088832791 -2.219480214722697 -0.008179933726190747 0.0 0.0 0.0 0.0 0.0 0.0
4211.992 7.768107283938919e-17 -1.5707963267948966 1.5707963267948966 -1.5707963267948966 -1.5707963267948966 0.0 0.0 0.0 0.0 0.0 0.0 0.0 0.0 0.0 0.0 0.0 0.0 0.0 2.7100081908582143e-27 -0.620381750820575 -0.8463465614411209 -0.2525548825603051 -1.4392506443496177e-11 0.0 3.110005232743317e-26 -7.1458666999402505 -7.145866699940252 -1.0424175499402515 -5.974879480466362e-11 0.0 -1.1746083394825746e-05 -1.570796314870016 1.5707530975341797 -1.5707362333880823 -1.5707905928241175 5.992112710373476e-05 0.0 0.0 -0.0 0.0 0.0 0.0 0.0448608435690403 -0.5585175156593323 -0.7991215586662292 -0.24058367311954498 -0.044759754091501236 0.08951950818300247 0.0471038855612278 -0.5742188096046448 -0.8006466031074524 -0.23498870432376862 -0.04923573136329651 0.09063850343227386 -0.29843014373943816 -0.11275204985873254 0.31319209121850217 -2.217917975416184 -2.2194117112561056 -0.008192257678911867 0.0 0.0 0.0 0.0 0.0 0.0 1.4368458681647203 3.867391161728332 1.8545452117726708 -0.5279055066022367 0.014557485506435238 0.4149129807138052 -0.2984301935029837 -0.1127550753051513 0.3131843183387717 -2.217827088832791 -2.219480214722697 -0.008179933726190747 0.0 0.0 0.0 0.0 0.0 0.0
4212.0 7.768107283938919e-17 -1.5707963267948966 1.5707963267948966 -1.5707963267948966 -1.5707963267948966 0.0 0.0 0.0 0.0 0.0 0.0 0.0 0.0 0.0 0.0 0.0 0.0 0.0 2.7100081908582143e-27 -0.620381750820575 -0.8463465614411209 -0.2525548825603051 -1.4392506443496177e-11 0.0 3.110005232743317e-26 -7.1458666999402505 -7.145866699940252 -1.0424175499402515 -5.974879480466362e-11 0.0 -4.7985707418263246e-05 -1.5707481543170374 1.5707893371582031 -1.5707123915301722 -1.5707305113421839 5.992112710373476e-05 0.0 0.0 -0.0 0.0 0.0 0.0 0.0448608435690403 -0.5764618515968323 -0.7991215586662292 -0.23051273822784424 -0.04923573136329651 0.09175749868154526 0.0471038855612278 -0.5742188096046448 -0.8006466031074524 -0.23498870432376862 -0.051473718136548996 0.09063850343227386 -0.2984370311257022 -0.11274610672601108 0.3131648198427328 -2.218042253691975 -2.219455708776952 -0.008246164626689156 0.0 0.0 0.0 0.0 0.0 0.0 0.48797449183806824 3.543136814983408 1.6341157247093485 -0.5219836241242024 0.0015549843073488895 0.42516020518868936 -0.2984301935029837 -0.1127550753051513 0.3131843183387717 -2.217827088832791 -2.219480214722697 -0.008179933726190747 0.0 0.0 0.0 0.0 0.0 0.0
4212.008 7.768107283938919e-17 -1.5707963267948966 1.5707963267948966 -1.5707963267948966 -1.5707963267948966 0.0 0.0 0.0 0.0 0.0 0.0 0.0 0.0 0.0 0.0 0.0 0.0 0.0 2.7100081908582143e-27 -0.620381750820575 -0.8463465614411209 -0.2525548825603051 -1.4392506443496177e-11 0.0 3.110005232743317e-26 -7.1458666999402505 -7.145866699940252 -1.0424175499402515 -5.974879480466362e-11 0.0 -4.7985707418263246e-05 -1.5707724730121058 1.5707893371582031 -1.5707600752459925 -1.5707185904132288 3.5952674807049334e-05 0.0 0.0 -0.0 0.0 0.0 0.0 0.0493469275534153 -0.6033783555030823 -0.7975965142250061 -0.23498870432376862 -0.04699774086475372 0.09511447697877884 0.0471038855612278 -0.5742188096046448 -0.8006466031074524 -0.23498870432376862 -0.048116736114025116 0.09063850343227386 -0.2984370376451178 -0.11274713073390351 0.31317614225287943 -2.217985742428214 -2.2194526131805263 -0.008152968081480578 0.0 0.0 0.0 0.0 0.0 0.0 -0.9949872262739579 3.2253704268473604 1.7960750387715776 -0.4854404085827361 -0.15542568286153233 0.4398035722972415 -0.2984301935029837 -0.1127550753051513 0.3131843183387717 -2.217827088832791 -2.219480214722697 -0.008179933726190747 0.0 0.0 0.0 0.0 0.0 0.0
4212.016 7.768107283938919e-17 -1.5707963267948966 1.5707963267948966 -1.5707963267948966 -1.5707963267948966 0.0 0.0 0.0 0.0 0.0 0.0 0.0 0.0 0.0 0.0 0.0 0.0 0.0 2.7100081908582143e-27 -0.620381750820575 -0.8463465614411209 -0.2525548825603051 -1.4392506443496177e-11 0.0 3.110005232743317e-26 -7.1458666999402505 -7.145866699940252 -1.0424175499402515 -5.974879480466362e-11 0.0 0.0 -1.5707481543170374 1.5708131790161133 -1.5707481543170374 -1.5707667509662073 3.5952674807049334e-05 0.0 0.0 -0.0 0.0 0.0 0.0 0.0493469275534153 -0.5585175156593323 -0.796071469783783 -0.22715574502944946 -0.048116736114025116 0.08616252988576889 0.0471038855612278 -0.5742188096046448 -0.8006466031074524 -0.23498870432376862 -0.0503547228872776 0.09063850343227386 -0.29843259707418307 -0.1127574403181447 0.31316077490515276 -2.217938146826138 -2.219511437011028 -0.008272925278454775 0.0 0.0 0.0 0.0 0.0 0.0 1.3179172043703262 3.964851004113974 1.6986240959027123 -0.5515497773985529 0.08036010201900284 0.3996874335753543 -0.2984301935029837 -0.1127550753051513 0.3131843183387717 -2.217827088832791 -2.219480214722697 -0.008179933726190747 0.0 0.0 0.0 0.0 0.0 0.0
4212.023999999999 7.768107283938919e-17 -1.5707963267948966 1.5707963267948966 -1.5707963267948966 -1.5707963267948966 0.0 0.0 0.0 0.0 0.0 0.0 0.0 0.0 0.0 0.0 0.0 0.0 0.0 2.7100081908582143e-27 -0.620381750820575 -0.8463465614411209 -0.2525548825603051 -1.4392506443496177e-11 0.0 3.110005232743317e-26 -7.1458666999402505 -7.145866699940252 -1.0424175499402515 -5.974879480466362e-11 0.0 -4.7985707418263246e-05 -1.5707724730121058 1.5707893371582031 -1.5707009474383753 -1.5707548300372522 8.388957940042019e-05 0.0 0.0 -0.0 0.0 0.0 0.0 0.0493469275534153 -0.5674896836280823 -0.7914963960647583 -0.22603675723075867 -0.048116736114025116 0.09511447697877884 0.0471038855612278 -0.5742188096046448 -0.8006466031074524 -0.23498870432376862 -0.04923573136329651 0.09175749868154526 -0.2984321683272782 -0.11274410517427878 0.31317111783074814 -2.218050283484177 -2.219410332527832 -0.008258737317192802 0.0 0.0 0.0 0.0 0.0 0.0 0.6664333127815641 3.8564868525698928 1.8766720600284403 -0.5427301658059116 0.01634829836336495 0.44081492795166355 -0.2984301935029837 -0.1127550753051513 0.3131843183387717 -2.217827088832791 -2.219480214722697 -0.008179933726190747 0.0 0.0 0.0 0.0 0.0 0.0
4212.032 7.768107283938919e-17 -1.5707963267948966 1.5707963267948966 -1.5707963267948966 -1.5707963267948966 0.0 0.0 0.0 0.0 0.0 0.0 0.0 0.0 0.0 0.0 0.0 0.0 0.0 2.7100081908582143e-27 -0.620381750820575 -0.8463465614411209 -0.2525548825603051 -1.4392506443496177e-11 0.0 3.110005232743317e-26 -7.1458666999402505 -7.145866699940252 -1.0424175499402515 -5.974879480466362e-11 0.0 -1.1746083394825746e-05 -1.5707839171039026 1.5708250999450684 -1.5707009474383753 -1.5707786718951624 5.992112710373476e-05 0.0 0.0 -0.0 0.0 0.0 0.0 0.0448608435690403 -0.5787048935890198 -0.7930214405059814 -0.24170267581939697 -0.048116736114025116 0.09063850343227386 0.0471038855612278 -0.5742188096046448 -0.8006466031074524 -0.23498870432376862 -0.04699774086475372 0.09063850343227386 -0.2984232803597242 -0.11275291989029271 0.31316386939396684 -2.2179836228433993 -2.2194771519693988 -0.008312142595754947 0.0 0.0 0.0 0.0 0.0 0.0 0.1330361301249227 3.389154240316099 2.146685717407458 -0.5043525308335631 -0.1232679481486763 0.4191765113069216 -0.2984301935029837 -0.1127550753051513 0.3131843183387717 -2.217827088832791 -2.219480214722697 -0.008179933726190747 0.0 0.0 0.0 0.0 0.0 0.0
4212.04 7.768107283938919e-17 -1.5707963267948966 1.5707963267948966 -1.5707963267948966 -1.5707963267948966 0.0 0.0 0.0 0.0 0.0 0.0 0.0 0.0 0.0 0.0 0.0 0.0 0.0 2.7100081908582143e-27 -0.620381750820575 -0.8463465614411209 -0.2525548825603051 -1.4392506443496177e-11 0.0 3.110005232743317e-26 -7.1458666999402505 -7.145866699940252 -1.0424175499402515 -5.974879480466362e-11 0.0 -1.1746083394825746e-05 -1.570796314870016 1.5708131790161133 -1.5707481543170374 -1.570742432271139 3.5952674807049334e-05 0.0 0.0 -0.0 0.0 0.0 0.0 0.0448608435690403 -0.5697327256202698 -0.8052217364311218 -0.23386971652507782 -0.05930667370557785 0.08280554413795471 0.0471038855612278 -0.5742188096046448 -0.8006466031074524 -0.23498870432376862 -0.05259270966053009 0.08840051293373108 -0.298426154411215 -0.11275595560249319 0.3131751370114155 -2.2179395251293905 -2.2194865582962606 -0.00819254126538728 0.0 0.0 0.0 0.0 0.0 0.0 1.0802887802112378 3.628926269662847 1.4369120542246676 -0.5757784852099153 0.0518675177224125 0.3839317149471615 -0.2984301935029837 -0.1127550753051513 0.3131843183387717 -2.217827088832791 -2.219480214722697 -0.008179933726190747 0.0 0.0 0.0 0.0 0.0 0.0
4212.048 7.768107283938919e-17 -1.5707963267948966 1.5707963267948966 -1.5707963267948966 -1.5707963267948966 0.0 0.0 0.0 0.0 0.0 0.0 0.0 0.0 0.0 0.0 0.0 0.0 0.0 2.7100081908582143e-27 -0.620381750820575 -0.8463465614411209 -0.2525548825603051 -1.4392506443496177e-11 0.0 3.110005232743317e-26 -7.1458666999402505 -7.145866699940252 -1.0424175499402515 -5.974879480466362e-11 0.0 -2.366701234990387e-05 -1.5707600752459925 1.5707893371582031 -1.5707123915301722 -1.5707786718951624 9.58738019107841e-05 0.0 0.0 -0.0 0.0 0.0 0.0 0.0538330152630806 -0.5876770615577698 -0.8082718253135681 -0.22715574502944946 -0.0503547228872776 0.08951950818300247 0.0471038855612278 -0.5742188096046448 -0.8006466031074524 -0.23498870432376862 -0.04923573136329651 0.09175749868154526 -0.2984323698019784 -0.11274940241550169 0.3131684083059768 -2.2180249851559215 -2.2194125083176015 -0.00828606009065597 0.0 0.0 0.0 0.0 0.0 0.0 0.2482408194590485 3.805400700209543 1.1552673840154497 -0.5485339004037596 0.038405417645498374 0.41499474348081816 -0.2984301935029837 -0.1127550753051513 0.3131843183387717 -2.217827088832791 -2.219480214722697 -0.008179933726190747 0.0 0.0 0.0 0.0 0.0 0.0
4212.056 7.768107283938919e-17 -1.5707963267948966 1.5707963267948966 -1.5707963267948966 -1.5707963267948966 0.0 0.0 0.0 0.0 0.0 0.0 0.0 0.0 0.0 0.0 0.0 0.0 0.0 2.7100081908582143e-27 -0.620381750820575 -0.8463465614411209 -0.2525548825603051 -1.4392506443496177e-11 0.0 3.110005232743317e-26 -7.1458666999402505 -7.145866699940252 -1.0424175499402515 -5.974879480466362e-11 0.0 -5.990663637334137e-05 -1.5707600752459925 1.5707530975341797 -1.5707009474383753 -1.5707185904132288 7.190534961409867e-05 0.0 0.0 -0.0 0.0 0.0 0.0 0.0448608435690403 -0.5899201035499573 -0.8082718253135681 -0.23275071382522583 -0.05259270966053009 0.09175749868154526 0.0471038855612278 -0.5742188096046448 -0.8006466031074524 -0.23498870432376862 -0.04923573136329651 0.09175749868154526 -0.29843850675026534 -0.1127435688450387 0.3131782164006967 -2.2180565330946522 -2.2194168505416294 -0.008192170342562631 0.0 0.0 0.0 0.0 0.0 0.0 0.13094905720761688 3.4080895545725585 1.2756976975521321 -0.5262632913032075 -0.007728399992625038 0.42511569088054413 -0.2984301935029837 -0.1127550753051513 0.3131843183387717 -2.217827088832791 -2.219480214722697 -0.008179933726190747 0.0 0.0 0.0 0.0 0.0 0.0
4212.063999999999 7.768107283938919e-17 -1.5707963267948966 1.5707963267948966 -1.5707963267948966 -1.5707963267948966 0.0 0.0 0.0 0.0 0.0 0.0 0.0 0.0 0.0 0.0 0.0 0.0 0.0 2.7100081908582143e-27 -0.620381750820575 -0.8463465614411209 -0.2525548825603051 -1.4392506443496177e-11 0.0 3.110005232743317e-26 -7.1458666999402505 -7.145866699940252 -1.0424175499402515 -5.974879480466362e-11 0.0 -8.374849428349762e-05 -1.5707123915301722 1.5708012580871582 -1.5707243124591272 -1.5707305113421839 4.793690095539205e-05 0.0 0.0 -0.0 0.0 0.0 0.0 0.0426178015768528 -0.5876770615577698 -0.796071469783783 -0.24058367311954498 -0.051473718136548996 0.08616252988576889 0.0471038855612278 -0.5742188096046448 -0.8006466031074524 -0.23498870432376862 -0.0503547228872776 0.09063850343227386 -0.29844682534139916 -0.11273541463497018 0.3131516011735908 -2.2180864279837635 -2.2194473684776184 -0.008286019887502265 0.0 0.0 0.0 0.0 0.0 0.0 -0.2228438061859059 3.0879532381045682 1.9855088645889567 -0.4950940213699507 -0.13369244331509045 0.39834771472728603 -0.2984301935029837 -0.1127550753051513 0.3131843183387717 -2.217827088832791 -2.219480214722697 -0.008179933726190747 0.0 0.0 0.0 0.0 0.0 0.0
4212.072 7.768107283938919e-17 -1.5707963267948966 1.5707963267948966 -1.5707963267948966 -1.5707963267948966 0.0 0.0 0.0 0.0 0.0 0.0 0.0 0.0 0.0 0.0 0.0 0.0 0.0 2.7100081908582143e-27 -0.620381750820575 -0.8463465614411209 -0.2525548825603051 -1.4392506443496177e-11 0.0 3.110005232743317e-26 -7.1458666999402505 -7.145866699940252 -1.0424175499402515 -5.974879480466362e-11 0.0 0.0 -1.5707839171039026 1.5707893371582031 -1.5707243124591272 -1.570742432271139 8.388957940042019e-05 0.0 0.0 -0.0 0.0 0.0 0.0 0.0426178015768528 -0.5876770615577698 -0.806746780872345 -0.23163172602653503 -0.0503547228872776 0.09287648648023605 0.0471038855612278 -0.5742188096046448 -0.8006466031074524 -0.23498870432376862 -0.04923573136329651 0.09063850343227386 -0.29842683675034953 -0.11275946708311396 0.31317652076185004 -2.217985789342396 -2.219452431229048 -0.008206155958442575 0.0 0.0 0.0 0.0 0.0 0.0 0.19053609656326426 3.3516335753326194 1.3190886536118163 -0.5112215010100712 -0.0014077472061581298 0.43036814224729036 -0.2984301935029837 -0.1127550753051513 0.3131843183387717 -2.217827088832791 -2.219480214722697 -0.008179933726190747 0.0 0.0 0.0 0.0 0.0 0.0
4212.08 7.768107283938919e-17 -1.5707963267948966 1.5707963267948966 -1.5707963267948966 -1.5707963267948966 0.0 0.0 0.0 0.0 0.0 0.0 0.0 0.0 0.0 0.0 0.0 0.0 0.0 2.7100081908582143e-27 -0.620381750820575 -0.8463465614411209 -0.2525548825603051 -1.4392506443496177e-11 0.0 3.110005232743317e-26 -7.1458666999402505 -7.145866699940252 -1.0424175499402515 -5.974879480466362e-11 0.0 -2.366701234990387e-05 -1.5707839171039026 1.5708131790161133 -1.5707009474383753 -1.570742432271139 5.992112710373476e-05 0.0 0.0 -0.0 0.0 0.0 0.0 0.0538330152630806 -0.5764618515968323 -0.7975965142250061 -0.23498870432376862 -0.04587874934077263 0.08840051293373108 0.0471038855612278 -0.5742188096046448 -0.8006466031074524 -0.23498870432376862 -0.04923573136329651 0.09063850343227386 -0.2984256084084784 -0.1127523606218136 0.3131674068149705 -2.218009115629136 -2.219476249457382 -0.008258804602895537 0.0 0.0 0.0 0.0 0.0 0.0 0.42773309025984635 3.8543004107534986 1.7993252635918457 -0.5320615626590257 -0.0379271629384889 0.40932302794562037 -0.2984301935029837 -0.1127550753051513 0.3131843183387717 -2.217827088832791 -2.219480214722697 -0.008179933726190747 0.0 0.0 0.0 0.0 0.0 0.0
4212.088 7.768107283938919e-17 -1.5707963267948966 1.5707963267948966 -1.5707963267948966 -1.5707963267948966 0.0 0.0 0.0 0.0 0.0 0.0 0.0 0.0 0.0 0.0 0.0 0.0 0.0 2.7100081908582143e-27 -0.620381750820575 -0.8463465614411209 -0.2525548825603051 -1.4392506443496177e-11 0.0 3.110005232743317e-26 -7.1458666999402505 -7.145866699940252 -1.0424175499402515 -5.974879480466362e-11 0.0 -2.366701234990387e-05 -1.5707243124591272 1.5708250999450684 -1.5707724730121058 -1.5707786718951624 9.58738019107841e-05 0.0 0.0 -0.0 0.0 0.0 0.0 0.0471038855612278 -0.5742188096046448 -0.8097968697547913 -0.23275071382522583 -0.051473718136548996 0.09511447697877884 0.0471038855612278 -0.5742188096046448 -0.8006466031074524 -0.23498870432376862 -0.04923573136329651 0.09063850343227386 -0.2984401278852727 -0.11274938985596958 0.31315218052032034 -2.2180304391085164 -2.2194185304156555 -0.008298689968772859 0.0 0.0 0.0 0.0 0.0 0.0 1.0198680358013257 3.8943166521883437 1.210816319745669 -0.561084673793673 0.07121889530062725 0.44114377058998083 -0.2984301935029837 -0.1127550753051513 0.3131843183387717 -2.217827088832791 -2.219480214722697 -0.008179933726190747 0.0 0.0 0.0 0.0 0.0 0.0
4212.096 7.768107283938919e-17 -1.5707963267948966 1.5707963267948966 -1.5707963267948966 -1.5707963267948966 0.0 0.0 0.0 0.0 0.0 0.0 0.0 0.0 0.0 0.0 0.0 0.0 0.0 2.7100081908582143e-27 -0.620381750820575 -0.8463465614411209 -0.2525548825603051 -1.4392506443496177e-11 0.0 3.110005232743317e-26 -7.1458666999402505 -7.145866699940252 -1.0424175499402515 -5.974879480466362e-11 0.0 -2.366701234990387e-05 -1.5707600752459925 1.5708250999450684 -1.5707123915301722 -1.5707548300372522 7.190534961409867e-05 0.0 0.0 -0.0 0.0 0.0 0.0 0.0381317175924778 -0.5854340195655823 -0.7975965142250061 -0.23386971652507782 -0.05594969168305397 0.09623347222805023 0.0471038855612278 -0.5742188096046448 -0.8006466031074524 -0.23498870432376862 -0.04923573136329651 0.09063850343227386 -0.2984294101997119 -0.1127513249768603 0.3131577140933738 -2.2180281995734843 -2.219468913141968 -0.008299497080258247 0.0 0.0 0.0 0.0 0.0 0.0 -0.04465753347452633 3.1198762597823455 1.7732095091275795 -0.518456906512172 -0.07015978863416548 0.44545608876319753 -0.2984301935029837 -0.1127550753051513 0.3131843183387717 -2.217827088832791 -2.219480214722697 -0.008179933726190747 0.0 0.0 0.0 0.0 0.0 0.0
4212.103999999999 7.768107283938919e-17 -1.5707963267948966 1.5707963267948966 -1.5707963267948966 -1.5707963267948966 0.0 0.0 0.0 0.0 0.0 0.0 0.0 0.0 0.0 0.0 0.0 0.0 0.0 2.7100081908582143e-27 -0.620381750820575 -0.8463465614411209 -0.2525548825603051 -1.4392506443496177e-11 0.0 3.110005232743317e-26 -7.1458666999402505 -7.145866699940252 -1.0424175499402515 -5.974879480466362e-11 0.0 -3.5587941304981996e-05 -1.5707481543170374 1.570777416229248 -1.5707481543170374 -1.5707548300372522 8.388957940042019e-05 0.0 0.0 -0.0 0.0 0.0 0.0 0.0493469275534153 -0.5697327256202698 -0.7914963960647583 -0.23386971652507782 -0.0503547228872776 0.08951950818300247 0.0471038855612278 -0.5742188096046448 -0.8006466031074524 -0.23498870432376862 -0.04923573136329651 0.09063850343227386 -0.29843956712931097 -0.11274784234395079 0.3131714471050083 -2.218018984014515 -2.2194069919221473 -0.008219931597736674 0.0 0.0 0.0 0.0 0.0 0.0 0.5478232239217253 3.72338010448004 2.045834348160427 -0.5422378986584577 -0.044043370750755845 0.4144896820773054 -0.2984301935029837 -0.1127550753051513 0.3131843183387717 -2.217827088832791 -2.219480214722697 -0.008179933726190747 0.0 0.0 0.0 0.0 0.0 0.0
4212.112 7.768107283938919e-17 -1.5707963267948966 1.5707963267948966 -1.5707963267948966 -1.5707963267948966 0.0 0.0 0.0 0.0 0.0 0.0 0.0 0.0 0.0 0.0 0.0 0.0 0.0 2.7100081908582143e-27 -0.620381750820575 -0.8463465614411209 -0.2525548825603051 -1.4392506443496177e-11 0.0 3.110005232743317e-26 -7.1458666999402505 -7.145866699940252 -1.0424175499402515 -5.974879480466362e-11 0.0 -1.1746083394825746e-05 -1.5707839171039026 1.5708012580871582 -1.5707243124591272 -1.5707185904132288 0.000107858024421148 0.0 0.0 -0.0 0.0 0.0 0.0 0.0471038855612278 -0.5585175156593323 -0.8021716475486755 -0.23498870432376862 -0.04923573136329651 0.08840051293373108 0.0471038855612278 -0.5742188096046448 -0.8006466031074524 -0.23498870432376862 -0.04923573136329651 0.09063850343227386 -0.29842717387583473 -0.11275791159140695 0.31317294621559205 -2.21804329495936 -2.219430721058733 -0.008192977534204523 0.0 0.0 0.0 0.0 0.0 0.0 1.5547350206464534 3.992313685736658 1.5983419772185024 -0.5589231422342851 0.07211672552427145 0.41001912610943686 -0.2984301935029837 -0.1127550753051513 0.3131843183387717 -2.217827088832791 -2.219480214722697 -0.008179933726190747 0.0 0.0 0.0 0.0 0.0 0.0
4212.12 7.768107283938919e-17 -1.5707963267948966 1.5707963267948966 -1.5707963267948966 -1.5707963267948966 0.0 0.0 0.0 0.0 0.0 0.0 0.0 0.0 0.0 0.0 0.0 0.0 0.0 2.7100081908582143e-27 -0.620381750820575 -0.8463465614411209 -0.2525548825603051 -1.4392506443496177e-11 0.0 3.110005232743317e-26 -7.1458666999402505 -7.145866699940252 -1.0424175499402515 -5.974879480466362e-11 0.0 -3.5587941304981996e-05 -1.5707600752459925 1.5708131790161133 -1.5707600752459925 -1.5707548300372522 7.190534961409867e-05 0.0 0.0 -0.0 0.0 0.0 0.0 0.0538330152630806 -0.5719757676124573 -0.8082718253135681 -0.22827474772930145 -0.048116736114025116 0.09511447697877884 0.0471038855612278 -0.5742188096046448 -0.8006466031074524 -0.23498870432376862 -0.04923573136329651 0.09063850343227386 -0.29843566901927926 -0.1127478141649467 0.31316534374358923 -2.2180116375355565 -2.21942624133055 -0.008233220045422264 0.0 0.0 0.0 0.0 0.0 0.0 1.0785602230643545 4.2073025315268495 1.1821306154317255 -0.5712164159363295 0.0994125721561871 0.44133283668726553 -0.2984301935029837 -0.1127550753051513 0.3131843183387717 -2.217827088832791 -2.219480214722697 -0.008179933726190747 0.0 0.0 0.0 0.0 0.0 0.0
4212.128 7.768107283938919e-17 -1.5707963267948966 1.5707963267948966 -1.5707963267948966 -1.5707963267948966 0.0 0.0 0.0 0.0 0.0 0.0 0.0 0.0 0.0 0.0 0.0 0.0 0.0 2.7100081908582143e-27 -0.620381750820575 -0.8463465614411209 -0.2525548825603051 -1.4392506443496177e-11 0.0 3.110005232743317e-26 -7.1458666999402505 -7.145866699940252 -1.0424175499402515 -5.974879480466362e-11 0.0 -2.366701234990387e-05 -1.5707362333880823 1.570765495300293 -1.5707481543170374 -1.5707066694842737 3.5952674807049334e-05 0.0 0.0 -0.0 0.0 0.0 0.0 0.0493469275534153 -0.5562744736671448 -0.7975965142250061 -0.24729764461517334 -0.04699774086475372 0.08168654888868332 0.0471038855612278 -0.5742188096046448 -0.8006466031074524 -0.23498870432376862 -0.04587874934077263 0.08951950818300247 -0.29844112847894544 -0.11275537554612475 0.3131714185347066 -2.217976752669119 -2.2194976975599126 -0.00816670968987797 0.0 0.0 0.0 0.0 0.0 0.0 1.495834959420776 3.9600869787328365 2.0679004385267477 -0.5460657612295071 -0.029574181165212723 0.37824101612477684 -0.2984301935029837 -0.1127550753051513 0.3131843183387717 -2.217827088832791 -2.219480214722697 -0.008179933726190747 0.0 0.0 0.0 0.0 0.0 0.0
4212.1359999999995 7.768107283938919e-17 -1.5707963267948966 1.5707963267948966 -1.5707963267948966 -1.5707963267948966 0.0 0.0 0.0 0.0 0.0 0.0 0.0 0.0 0.0 0.0 0.0 0.0 0.0 2.7100081908582143e-27 -0.620381750820575 -0.8463465614411209 -0.2525548825603051 -1.4392506443496177e-11 0.0 3.110005232743317e-26 -7.1458666999402505 -7.145866699940252 -1.0424175499402515 -5.974879480466362e-11 0.0 -2.366701234990387e-05 -1.5707362333880823 1.5708131790161133 -1.5707362333880823 -1.5707786718951624 5.992112710373476e-05 0.0 0.0 -0.0 0.0 0.0 0.0 0.0426178015768528 -0.5674896836280823 -0.8052217364311218 -0.23386971652507782 -0.048116736114025116 0.08616252988576889 0.0471038855612278 -0.5742188096046448 -0.8006466031074524 -0.23498870432376862 -0.048116736114025116 0.09063850343227386 -0.2984362062266387 -0.11274938277001269 0.3131562060906371 -2.2179969084279088 -2.219464466846712 -0.008312628716801279 0.0 0.0 0.0 0.0 0.0 0.0 1.198959417855605 3.6293511426755227 1.4371543917767196 -0.5237627439041419 0.06162992976282297 0.3995833368779723 -0.2984301935029837 -0.1127550753051513 0.3131843183387717 -2.217827088832791 -2.219480214722697 -0.008179933726190747 0.0 0.0 0.0 0.0 0.0 0.0
4212.144 7.768107283938919e-17 -1.5707963267948966 1.5707963267948966 -1.5707963267948966 -1.5707963267948966 0.0 0.0 0.0 0.0 0.0 0.0 0.0 0.0 0.0 0.0 0.0 0.0 0.0 2.7100081908582143e-27 -0.620381750820575 -0.8463465614411209 -0.2525548825603051 -1.4392506443496177e-11 0.0 3.110005232743317e-26 -7.1458666999402505 -7.145866699940252 -1.0424175499402515 -5.974879480466362e-11 0.0 -1.1746083394825746e-05 -1.5707481543170374 1.5708131790161133 -1.5707243124591272 -1.5707667509662073 7.190534961409867e-05 0.0 0.0 -0.0 0.0 0.0 0.0 0.0515899695456028 -0.5764618515968323 -0.7975965142250061 -0.2361077070236206 -0.0503547228872776 0.09511447697877884 0.0471038855612278 -0.5742188096046448 -0.8006466031074524 -0.23498870432376862 -0.04923573136329651 0.09175749868154526 -0.2984319571766985 -0.1127539182956995 0.3131587400081507 -2.2180029730435136 -2.2194702669301574 -0.008299382539826948 0.0 0.0 0.0 0.0 0.0 0.0 0.42798786533689276 3.8617171101224423 1.8241504669559763 -0.5535265739491156 -0.045437638764248556 0.4403928206244427 -0.2984301935029837 -0.1127550753051513 0.3131843183387717 -2.217827088832791 -2.219480214722697 -0.008179933726190747 0.0 0.0 0.0 0.0 0.0 0.0
4212.152 7.768107283938919e-17 -1.5707963267948966 1.5707963267948966 -1.5707963267948966 -1.5707963267948966 0.0 0.0 0.0 0.0 0.0 0.0 0.0 0.0 0.0 0.0 0.0 0.0 0.0 2.7100081908582143e-27 -0.620381750820575 -0.8463465614411209 -0.2525548825603051 -1.4392506443496177e-11 0.0 3.110005232743317e-26 -7.1458666999402505 -7.145866699940252 -1.0424175499402515 -5.974879480466362e-11 0.0 -1.1746083394825746e-05 -1.5707481543170374 1.5708012580871582 -1.5707243124591272 -1.5707667509662073 9.58738019107841e-05 0.0 0.0 -0.0 0.0 0.0 0.0 0.0426178015768528 -0.5787048935890198 -0.8006466031074524 -0.2383456975221634 -0.04923573136329651 0.09847146272659302 0.0471038855612278 -0.5742188096046448 -0.8006466031074524 -0.23498870432376862 -0.0503547228872776 0.09063850343227386 -0.2984329432817262 -0.1127539319637406 0.3131622998291895 -2.218023590684652 -2.219437711560561 -0.008286057222678743 0.0 0.0 0.0 0.0 0.0 0.0 0.42866949523078995 3.5273779363643163 1.7366881608995666 -0.5207226987602201 -0.04855371130961098 0.4559870936391231 -0.2984301935029837 -0.1127550753051513 0.3131843183387717 -2.217827088832791 -2.219480214722697 -0.008179933726190747 0.0 0.0 0.0 0.0 0.0 0.0
4212.16 7.768107283938919e-17 -1.5707963267948966 1.5707963267948966 -1.5707963267948966 -1.5707963267948966 0.0 0.0 0.0 0.0 0.0 0.0 0.0 0.0 0.0 0.0 0.0 0.0 0.0 2.7100081908582143e-27 -0.620381750820575 -0.8463465614411209 -0.2525548825603051 -1.4392506443496177e-11 0.0 3.110005232743317e-26 -7.1458666999402505 -7.145866699940252 -1.0424175499402515 -5.974879480466362e-11 0.0 1.1984225238848012e-05 -1.570808235798971 1.5708012580871582 -1.5707481543170374 -1.5707548300372522 4.793690095539205e-05 0.0 0.0 -0.0 0.0 0.0 0.0 0.0471038855612278 -0.5988922715187073 -0.7991215586662292 -0.24505965411663055 -0.0503547228872776 0.09399548172950745 0.0471038855612278 -0.5742188096046448 -0.8006466031074524 -0.23498870432376862 -0.04699774086475372 0.09175749868154526 -0.2984225429096811 -0.11276203435759853 0.31318226320311837 -2.2179083601085954 -2.21948138667398 -0.008179664207459596 0.0 0.0 0.0 0.0 0.0 0.0 -0.6983780539352284 3.2226423957627777 1.9473650166127126 -0.5008863670571401 -0.1905180924314237 0.4343725783998556 -0.2984301935029837 -0.1127550753051513 0.3131843183387717 -2.217827088832791 -2.219480214722697 -0.008179933726190747 0.0 0.0 0.0 0.0 0.0 0.0
4212.168 7.768107283938919e-17 -1.5707963267948966 1.5707963267948966 -1.5707963267948966 -1.5707963267948966 0.0 0.0 0.0 0.0 0.0 0.0 0.0 0.0 0.0 0.0 0.0 0.0 0.0 2.7100081908582143e-27 -0.620381750820575 -0.8463465614411209 -0.2525548825603051 -1.4392506443496177e-11 0.0 3.110005232743317e-26 -7.1458666999402505 -7.145866699940252 -1.0424175499402515 -5.974879480466362e-11 0.0 1.1984225238848012e-05 -1.5707362333880823 1.5707893371582031 -1.570676628743307 -1.5707305113421839 4.793690095539205e-05 0.0 0.0 -0.0 0.0 0.0 0.0 0.0493469275534153 -0.5742188096046448 -0.7930214405059814 -0.23498870432376862 -0.05371170490980148 0.08951950818300247 0.0471038855612278 -0.5742188096046448 -0.8006466031074524 -0.23498870432376862 -0.0503547228872776 0.09063850343227386 -0.2984292447568855 -0.11276397441522061 0.3131582088442235 -2.2179861308122635 -2.2195590411281705 -0.008299059241239895 0.0 0.0 0.0 0.0 0.0 0.0 0.3695502116365667 3.6556238003139123 2.0020596764998735 -0.5522862920250426 -0.06022942795368686 0.41432472115432883 -0.2984301935029837 -0.1127550753051513 0.3131843183387717 -2.217827088832791 -2.219480214722697 -0.008179933726190747 0.0 0.0 0.0 0.0 0.0 0.0
4212.1759999999995 7.768107283938919e-17 -1.5707963267948966 1.5707963267948966 -1.5707963267948966 -1.5707963267948966 0.0 0.0 0.0 0.0 0.0 0.0 0.0 0.0 0.0 0.0 0.0 0.0 0.0 2.7100081908582143e-27 -0.620381750820575 -0.8463465614411209 -0.2525548825603051 -1.4392506443496177e-11 0.0 3.110005232743317e-26 -7.1458666999402505 -7.145866699940252 -1.0424175499402515 -5.974879480466362e-11 0.0 -3.5587941304981996e-05 -1.570796314870016 1.5707530975341797 -1.5707243124591272 -1.5707667509662073 9.58738019107841e-05 0.0 0.0 -0.0 0.0 0.0 0.0 0.0403747595846653 -0.5742188096046448 -0.8097968697547913 -0.23386971652507782 -0.051473718136548996 0.09175749868154526 0.0448608435690403 -0.5742188096046448 -0.8006466031074524 -0.23498870432376862 -0.0503547228872776 0.09063850343227386 -0.2984318484559481 -0.11274688995057276 0.3131910588967988 -2.2180022332289733 -2.2193632554200318 -0.00817909020493873 0.0 0.0 0.0 0.0 0.0 0.0 1.0208382997832088 3.552577742687106 1.2339003227852545 -0.5329066640181622 0.06404641663159578 0.42560277194752527 -0.2984301935029837 -0.1127550753051513 0.3131843183387717 -2.217827088832791 -2.219480214722697 -0.008179933726190747 0.0 0.0 0.0 0.0 0.0 0.0
4212.184 7.768107283938919e-17 -1.5707963267948966 1.5707963267948966 -1.5707963267948966 -1.5707963267948966 0.0 0.0 0.0 0.0 0.0 0.0 0.0 0.0 0.0 0.0 0.0 0.0 0.0 2.7100081908582143e-27 -0.620381750820575 -0.8463465614411209 -0.2525548825603051 -1.4392506443496177e-11 0.0 3.110005232743317e-26 -7.1458666999402505 -7.145866699940252 -1.0424175499402515 -5.974879480466362e-11 0.0 -2.366701234990387e-05 -1.5707600752459925 1.570777416229248 -1.5707123915301722 -1.5707667509662073 9.58738019107841e-05 0.0 0.0 -0.0 0.0 0.0 0.0 0.0515899695456028 -0.5787048935890198 -0.7991215586662292 -0.24058367311954498 -0.051473718136548996 0.09735246747732162 0.0493469275534153 -0.5742188096046448 -0.8006466031074524 -0.23498870432376862 -0.04923573136329651 0.09063850343227386 -0.2984333551032472 -0.11275039783682499 0.31317196077004794 -2.2180250284543597 -2.2194125739865753 -0.008259609583774278 0.0 0.0 0.0 0.0 0.0 0.0 0.3685879034501152 3.873479730330011 1.853662845094137 -0.5596914101933795 -0.07363741635553954 0.4506074532825708 -0.2984301935029837 -0.1127550753051513 0.3131843183387717 -2.217827088832791 -2.219480214722697 -0.008179933726190747 0.0 0.0 0.0 0.0 0.0 0.0
4212.192 7.768107283938919e-17 -1.5707963267948966 1.5707963267948966 -1.5707963267948966 -1.5707963267948966 0.0 0.0 0.0 0.0 0.0 0.0 0.0 0.0 0.0 0.0 0.0 0.0 0.0 2.7100081908582143e-27 -0.620381750820575 -0.8463465614411209 -0.2525548825603051 -1.4392506443496177e-11 0.0 3.110005232743317e-26 -7.1458666999402505 -7.145866699940252 -1.0424175499402515 -5.974879480466362e-11 0.0 -2.366701234990387e-05 -1.5707724730121058 1.5707893371582031 -1.5707123915301722 -1.570742432271139 9.58738019107841e-05 0.0 0.0 -0.0 0.0 0.0 0.0 0.0471038855612278 -0.5697327256202698 -0.8036966919898987 -0.23051273822784424 -0.0503547228872776 0.09063850343227386 0.0471038855612278 -0.5742188096046448 -0.8006466031074524 -0.23498870432376862 -0.04923573136329651 0.09063850343227386 -0.29843036859614347 -0.11275239161462661 0.31317208694768783 -2.2180370166382457 -2.2194245288664516 -0.008232168409095164 0.0 0.0 0.0 0.0 0.0 0.0 1.0207652634224629 3.8251035744620863 1.4324704402358528 -0.5502917533030358 0.06283207261078576 0.4203462545724959 -0.2984301935029837 -0.1127550753051513 0.3131843183387717 -2.217827088832791 -2.219480214722697 -0.008179933726190747 0.0 0.0 0.0 0.0 0.0 0.0
4212.2 7.768107283938919e-17 -1.5707963267948966 1.5707963267948966 -1.5707963267948966 -1.5707963267948966 0.0 0.0 0.0 0.0 0.0 0.0 0.0 0.0 0.0 0.0 0.0 0.0 0.0 2.7100081908582143e-27 -0.620381750820575 -0.8463465614411209 -0.2525548825603051 -1.4392506443496177e-11 0.0 3.110005232743317e-26 -7.1458666999402505 -7.145866699940252 -1.0424175499402515 -5.974879480466362e-11 0.0 -1.1746083394825746e-05 -1.5707600752459925 1.5707893371582031 -1.570688549672262 -1.5707305113421839 9.58738019107841e-05 0.0 0.0 -0.0 0.0 0.0 0.0 0.0448608435690403 -0.5674896836280823 -0.788446307182312 -0.23051273822784424 -0.04364075884222984 0.0850435346364975 0.0471038855612278 -0.5742188096046448 -0.8006466031074524 -0.23498870432376862 -0.04587874934077263 0.09063850343227386 -0.29842905853810114 -0.11275690972949769 0.3131663436634573 -2.2180478301278783 -2.219461698675086 -0.008259237423472236 0.0 0.0 0.0 0.0 0.0 0.0 0.5486156614986174 3.4611267393767613 2.107320932560457 -0.48945094816673096 -0.033640749213887794 0.39381478508267637 -0.2984301935029837 -0.1127550753051513 0.3131843183387717 -2.217827088832791 -2.219480214722697 -0.008179933726190747 0.0 0.0 0.0 0.0 0.0 0.0
4212.208 7.768107283938919e-17 -1.5707963267948966 1.5707963267948966 -1.5707963267948966 -1.5707963267948966 0.0 0.0 0.0 0.0 0.0 0.0 0.0 0.0 0.0 0.0 0.0 0.0 0.0 2.7100081908582143e-27 -0.620381750820575 -0.8463465614411209 -0.2525548825603051 -1.4392506443496177e-11 0.0 3.110005232743317e-26 -7.1458666999402505 -7.145866699940252 -1.0424175499402515 -5.974879480466362e-11 0.0 0.0 -1.5707724730121058 1.570765495300293 -1.5707481543170374 -1.5707786718951624 7.190534961409867e-05 0.0 0.0 -0.0 0.0 0.0 0.0 0.0515899695456028 -0.5854340195655823 -0.806746780872345 -0.2383456975221634 -0.051473718136548996 0.09399548172950745 0.0471038855612278 -0.5742188096046448 -0.8006466031074524 -0.23498870432376862 -0.0503547228872776 0.09175749868154526 -0.29843262031393747 -0.11275652226735258 0.313182281613658 -2.2179361987535473 -2.2194296132240243 -0.008205988779909905 0.0 0.0 0.0 0.0 0.0 0.0 0.30809066060260415 3.7994154295978997 1.4661414438554614 -0.5533555266458617 -0.03514403385153941 0.4353206050711137 -0.2984301935029837 -0.1127550753051513 0.3131843183387717 -2.217827088832791 -2.219480214722697 -0.008179933726190747 0.0 0.0 0.0 0.0 0.0 0.0
