mkrssg/UniversalRobots/rtde_client_3.5/examples/simulation/csv_long/movej_3_Achsen_sync_simu.csv
timestamp target_q_0 target_q_1 target_q_2 target_q_3 target_q_4 target_q_5 target_qd_0 target_qd_1 target_qd_2 target_qd_3 target_qd_4 target_qd_5 target_qdd_0 target_qdd_1 target_qdd_2 target_qdd_3 target_qdd_4 target_qdd_5 target_current_0 target_current_1 target_current_2 target_current_3 target_current_4 target_current_5 target_moment_0 target_moment_1 target_moment_2 target_moment_3 target_moment_4 target_moment_5 actual_q_0 actual_q_1 actual_q_2 actual_q_3 actual_q_4 actual_q_5 actual_qd_0 actual_qd_1 actual_qd_2 actual_qd_3 actual_qd_4 actual_qd_5 actual_current_0 actual_current_1 actual_current_2 actual_current_3 actual_current_4 actual_current_5 joint_control_output_0 joint_control_output_1 joint_control_output_2 joint_control_output_3 joint_control_output_4 joint_control_output_5 actual_TCP_pose_0 actual_TCP_pose_1 actual_TCP_pose_2 actual_TCP_pose_3 actual_TCP_pose_4 actual_TCP_pose_5 actual_TCP_speed_0 actual_TCP_speed_1 actual_TCP_speed_2 actual_TCP_speed_3 actual_TCP_speed_4 actual_TCP_speed_5 actual_TCP_force_0 actual_TCP_force_1 actual_TCP_force_2 actual_TCP_force_3 actual_TCP_force_4 actual_TCP_force_5 target_TCP_pose_0 target_TCP_pose_1 target_TCP_pose_2 target_TCP_pose_3 target_TCP_pose_4 target_TCP_pose_5 target_TCP_speed_0 target_TCP_speed_1 target_TCP_speed_2 target_TCP_speed_3 target_TCP_speed_4 target_TCP_speed_5

479.0 0.5235987755982989 -1.5707963267948966 1.5707963267948966 -1.5707963267948966 -1.5707963267948966 0.0 0.0 0.0 0.0 0.0 0.0 0.0 0.0 0.0 0.0 0.0 0.0 0.0 -1.1512442590619146e-26 -0.5442396572688689 -0.7673661111166267 -0.229354796466502 -1.3146049461972196e-11 0.0 -1.511583712148294e-25 -7.14586669994025 -7.145866699940251 -1.0424175499402515 -5.974879480466362e-11 0.0 0.5235987901687622 -1.570796314870016 1.5707963705062866 -1.570796314870016 -1.570796314870016 0.0 0.0 0.0 0.0 0.0 0.0 0.0 -1.151244268742903e-26 -0.5442396402359009 -0.7673661112785339 -0.22935479879379272 -1.3146049353263134e-11 0.0 -1.151244268742903e-26 -0.5442396402359009 -0.7673661112785339 -0.22935479879379272 -1.3146049353263134e-11 0.0 -0.20242017919057226 -0.2465979566016299 0.3136499823461779 1.5707961689200318 2.720698818034143 8.713184816023728e-08 0.0 0.0 0.0 0.0 0.0 0.0 6.264272891449523e-07 7.631437114135668e-07 4.253146293222041e-08 -5.5397674192897393e-08 3.900026026832363e-08 -2.6501511131949763e-15 -0.20242018554765093 -0.2465979541203532 0.31364999997695675 1.570796327073909 2.720699046190239 4.400997683934631e-10 0.0 0.0 0.0 0.0 0.0 0.0

479.008 0.5235987755982989 -1.5707963267948966 1.5707963267948966 -1.5707963267948966 -1.5707963267948966 0.0 0.0 0.0 0.0 0.0 0.0 0.0 0.0 0.0 0.0 0.0 0.0 0.0 -1.1512442590619146e-26 -0.5442396572688689 -0.7673661111166267 -0.229354796466502 -1.3146049461972196e-11 0.0 -1.511583712148294e-25 -7.14586669994025 -7.145866699940251 -1.0424175499402515 -5.974879480466362e-11 0.0 0.5235987901687622 -1.570796314870016 1.5707963705062866 -1.570796314870016 -1.570796314870016 0.0 0.0 0.0 0.0 0.0 0.0 0.0 -1.151244268742903e-26 -0.5442396402359009 -0.7673661112785339 -0.22935479879379272 -1.3146049353263134e-11 0.0 -1.151244268742903e-26 -0.5442396402359009 -0.7673661112785339 -0.22935479879379272 -1.3146049353263134e-11 0.0 -0.20242017919057226 -0.2465979566016299 0.3136499823461779 1.5707961689200318 2.720698818034143 8.713184816023728e-08 0.0 0.0 0.0 0.0 0.0 0.0 6.264272891449523e-07 7.631437114135668e-07 4.253146293222041e-08 -5.5397674192897393e-08 3.900026026832363e-08 -2.6501511131949763e-15 -0.20242018554765093 -0.2465979541203532 0.31364999997695675 1.570796327073909 2.720699046190239 4.400997683934631e-10 0.0 0.0 0.0 0.0 0.0 0.0

479.01599999999996 0.5235987755982989 -1.5707963267948966 1.5707963267948966 -1.5707963267948966 -1.5707963267948966 0.0 0.0 0.0 0.0 0.0 0.0 0.0 0.0 0.0 0.0 0.0 0.0 0.0 -1.1512442590619146e-26 -0.5442396572688689 -0.7673661111166267 -0.229354796466502 -1.3146049461972196e-11 0.0 -1.511583712148294e-25 -7.14586669994025 -7.145866699940251 -1.0424175499402515 -5.974879480466362e-11 0.0 0.5235987901687622 -1.570796314870016 1.5707963705062866 -1.570796314870016 -1.570796314870016 0.0 0.0 0.0 0.0 0.0 0.0 0.0 -1.151244268742903e-26 -0.5442396402359009 -0.7673661112785339 -0.22935479879379272 -1.3146049353263134e-11 0.0 -1.151244268742903e-26 -0.5442396402359009 -0.7673661112785339 -0.22935479879379272 -1.3146049353263134e-11 0.0 -0.20242017919057226 -0.2465979566016299 0.3136499823461779 1.5707961689200318 2.720698818034143 8.713184816023728e-08 0.0 0.0 0.0 0.0 0.0 0.0 6.264272891449523e-07 7.631437114135668e-07 4.253146293222041e-08 -5.5397674192897393e-08 3.900026026832363e-08 -2.6501511131949763e-15 -0.20242018554765093 -0.2465979541203532 0.31364999997695675 1.570796327073909 2.720699046190239 4.400997683934631e-10 0.0 0.0 0.0 0.0 0.0 0.0

479.024 0.5235987755982989 -1.5707963267948966 1.5707963267948966 -1.5707963267948966 -1.5707963267948966 0.0 0.0 0.0 0.0 0.0 0.0 0.0 0.0 0.0 0.0 0.0 0.0 0.0 -1.1512442590619146e-26 -0.5442396572688689 -0.7673661111166267 -0.229354796466502 -1.3146049461972196e-11 0.0 -1.511583712148294e-25 -7.14586669994025 -7.145866699940251 -1.0424175499402515 -5.974879480466362e-11 0.0 0.5235987901687622 -1.570796314870016 1.5707963705062866 -1.570796314870016 -1.570796314870016 0.0 0.0 0.0 0.0 0.0 0.0 0.0 -1.151244268742903e-26 -0.5442396402359009 -0.7673661112785339 -0.22935479879379272 -1.3146049353263134e-11 0.0 -1.151244268742903e-26 -0.5442396402359009 -0.7673661112785339 -0.22935479879379272 -1.3146049353263134e-11 0.0 -0.20242017919057226 -0.2465979566016299 0.3136499823461779 1.5707961689200318 2.720698818034143 8.713184816023728e-08 0.0 0.0 0.0 0.0 0.0 0.0 6.264272891449523e-07 7.631437114135668e-07 4.253146293222041e-08 -5.5397674192897393e-08 3.900026026832363e-08 -2.6501511131949763e-15 -0.20242018554765093 -0.2465979541203532 0.31364999997695675 1.570796327073909 2.720699046190239 4.400997683934631e-10 0.0 0.0 0.0 0.0 0.0 0.0

479.032 0.5235987755982989 -1.5707963267948966 1.5707963267948966 -1.5707963267948966 -1.5707963267948966 0.0 0.0 0.0 0.0 0.0 0.0 0.0 0.0 0.0 0.0 0.0 0.0 0.0 -1.1512442590619146e-26 -0.5442396572688689 -0.7673661111166267 -0.229354796466502 -1.3146049461972196e-11 0.0 -1.511583712148294e-25 -7.14586669994025 -7.145866699940251 -1.0424175499402515 -5.974879480466362e-11 0.0 0.5235987901687622 -1.570796314870016 1.5707963705062866 -1.570796314870016 -1.570796314870016 0.0 0.0 0.0 0.0 0.0 0.0 0.0 -1.151244268742903e-26 -0.5442396402359009 -0.7673661112785339 -0.22935479879379272 -1.3146049353263134e-11 0.0 -1.151244268742903e-26 -0.5442396402359009 -0.7673661112785339 -0.22935479879379272 -1.3146049353263134e-11 0.0 -0.20242017919057226 -0.2465979566016299 0.3136499823461779 1.5707961689200318 2.720698818034143 8.713184816023728e-08 0.0 0.0 0.0 0.0 0.0 0.0 6.264272891449523e-07 7.631437114135668e-07 4.253146293222041e-08 -5.5397674192897393e-08 3.900026026832363e-08 -2.6501511131949763e-15 -0.20242018554765093 -0.2465979541203532 0.31364999997695675 1.570796327073909 2.720699046190239 4.400997683934631e-10 0.0 0.0 0.0 0.0 0.0 0.0

479.03999999999996 0.5235987755982989 -1.5707963267948966 1.5707963267948966 -1.5707963267948966 -1.5707963267948966 0.0 0.0 0.0 0.0 0.0 0.0 0.0 0.0 0.0 0.0 0.0 0.0 0.0 -1.1512442590619146e-26 -0.5442396572688689 -0.7673661111166267 -0.229354796466502 -1.3146049461972196e-11 0.0 -1.511583712148294e-25 -7.14586669994025 -7.145866699940251 -1.0424175499402515 -5.974879480466362e-11 0.0 0.5235987901687622 -1.570796314870016 1.5707963705062866 -1.570796314870016 -1.570796314870016 0.0 0.0 0.0 0.0 0.0 0.0 0.0 -1.151244268742903e-26 -0.5442396402359009 -0.7673661112785339 -0.22935479879379272 -1.3146049353263134e-11 0.0 -1.151244268742903e-26 -0.5442396402359009 -0.7673661112785339 -0.22935479879379272 -1.3146049353263134e-11 0.0 -0.20242017919057226 -0.2465979566016299 0.3136499823461779 1.5707961689200318 2.720698818034143 8.713184816023728e-08 0.0 0.0 0.0 0.0 0.0 0.0 6.264272891449523e-07 7.631437114135668e-07 4.253146293222041e-08 -5.5397674192897393e-08 3.900026026832363e-08 -2.6501511131949763e-15 -0.20242018554765093 -0.2465979541203532 0.31364999997695675 1.570796327073909 2.720699046190239 4.400997683934631e-10 0.0 0.0 0.0 0.0 0.0 0.0

479.048 0.5235987755982989 -1.5707963267948966 1.5707963267948966 -1.5707963267948966 -1.5707963267948966 0.0 0.0 0.0 0.0 0.0 0.0 0.0 0.0 0.0 0.0 0.0 0.0 0.0 -1.1512442590619146e-26 -0.5442396572688689 -0.7673661111166267 -0.229354796466502 -1.3146049461972196e-11 0.0 -1.511583712148294e-25 -7.14586669994025 -7.145866699940251 -1.0424175499402515 -5.974879480466362e-11 0.0 0.5235987901687622 -1.570796314870016 1.5707963705062866 -1.570796314870016 -1.570796314870016 0.0 0.0 0.0 0.0 0.0 0.0 0.0 -1.151244268742903e-26 -0.5442396402359009 -0.7673661112785339 -0.22935479879379272 -1.3146049353263134e-11 0.0 -1.151244268742903e-26 -0.5442396402359009 -0.7673661112785339 -0.22935479879379272 -1.3146049353263134e-11 0.0 -0.20242017919057226 -0.2465979566016299 0.3136499823461779 1.5707961689200318 2.720698818034143 8.713184816023728e-08 0.0 0.0 0.0 0.0 0.0 0.0 6.264272891449523e-07 7.631437114135668e-07 4.253146293222041e-08 -5.5397674192897393e-08 3.900026026832363e-08 -2.6501511131949763e-15 -0.20242018554765093 -0.2465979541203532 0.31364999997695675 1.570796327073909 2.720699046190239 4.400997683934631e-10 0.0 0.0 0.0 0.0 0.0 0.0

479.056 0.5235987755982989 -1.5707963267948966 1.5707963267948966 -1.5707963267948966 -1.5707963267948966 0.0 0.0 0.0 0.0 0.0 0.0 0.0 0.0 0.0 0.0 0.0 0.0 0.0 -1.1512442590619146e-26 -0.5442396572688689 -0.7673661111166267 -0.229354796466502 -1.3146049461972196e-11 0.0 -1.511583712148294e-25 -7.14586669994025 -7.145866699940251 -1.0424175499402515 -5.974879480466362e-11 0.0 0.5235987901687622 -1.570796314870016 1.5707963705062866 -1.570796314870016 -1.570796314870016 0.0 0.0 0.0 0.0 0.0 0.0 0.0 -1.151244268742903e-26 -0.5442396402359009 -0.7673661112785339 -0.22935479879379272 -1.3146049353263134e-11 0.0 -1.151244268742903e-26 -0.5442396402359009 -0.7673661112785339 -0.22935479879379272 -1.3146049353263134e-11 0.0 -0.20242017919057226 -0.2465979566016299 0.3136499823461779 1.5707961689200318 2.720698818034143 8.713184816023728e-08 0.0 0.0 0.0 0.0 0.0 0.0 6.264272891449523e-07 7.631437114135668e-07 4.253146293222041e-08 -5.5397674192897393e-08 3.900026026832363e-08 -2.6501511131949763e-15 -0.20242018554765093 -0.2465979541203532 0.31364999997695675 1.570796327073909 2.720699046190239 4.400997683934631e-10 0.0 0.0 0.0 0.0 0.0 0.0

479.06399999999996 0.5235987755982989 -1.5707963267948966 1.5707963267948966 -1.5707963267948966 -1.5707963267948966 0.0 0.0 0.0 0.0 0.0 0.0 0.0 0.0 0.0 0.0 0.0 0.0 0.0 -1.1512442590619146e-26 -0.5442396572688689 -0.7673661111166267 -0.229354796466502 -1.3146049461972196e-11 0.0 -1.511583712148294e-25 -7.14586669994025 -7.145866699940251 -1.0424175499402515 -5.974879480466362e-11 0.0 0.5235987901687622 -1.570796314870016 1.5707963705062866 -1.570796314870016 -1.570796314870016 0.0 0.0 0.0 0.0 0.0 0.0 0.0 -1.151244268742903e-26 -0.5442396402359009 -0.7673661112785339 -0.22935479879379272 -1.3146049353263134e-11 0.0 -1.151244268742903e-26 -0.5442396402359009 -0.7673661112785339 -0.22935479879379272 -1.3146049353263134e-11 0.0 -0.20242017919057226 -0.2465979566016299 0.3136499823461779 1.5707961689200318 2.720698818034143 8.713184816023728e-08 0.0 0.0 0.0 0.0 0.0 0.0 6.264272891449523e-07 7.631437114135668e-07 4.253146293222041e-08 -5.5397674192897393e-08 3.900026026832363e-08 -2.6501511131949763e-15 -0.20242018554765093 -0.2465979541203532 0.31364999997695675 1.570796327073909 2.720699046190239 4.400997683934631e-10 0.0 0.0 0.0 0.0 0.0 0.0

479.072 0.5235987755982989 -1.5707963267948966 1.5707963267948966 -1.5707963267948966 -1.5707963267948966 0.0 0.0 0.0 0.0 0.0 0.0 0.0 0.0 0.0 0.0 0.0 0.0 0.0 -1.1512442590619146e-26 -0.5442396572688689 -0.7673661111166267 -0.229354796466502 -1.3146049461972196e-11 0.0 -1.511583712148294e-25 -7.14586669994025 -7.145866699940251 -1.0424175499402515 -5.974879480466362e-11 0.0 0.5235987901687622 -1.570796314870016 1.5707963705062866 -1.570796314870016 -1.570796314870016 0.0 0.0 0.0 0.0 0.0 0.0 0.0 -1.151244268742903e-26 -0.5442396402359009 -0.7673661112785339 -0.22935479879379272 -1.3146049353263134e-11 0.0 -1.151244268742903e-26 -0.5442396402359009 -0.7673661112785339 -0.22935479879379272 -1.3146049353263134e-11 0.0 -0.20242017919057226 -0.2465979566016299 0.3136499823461779 1.5707961689200318 2.720698818034143 8.713184816023728e-08 0.0 0.0 0.0 0.0 0.0 0.0 6.264272891449523e-07 7.631437114135668e-07 4.253146293222041e-08 -5.5397674192897393e-08 3.900026026832363e-08 -2.6501511131949763e-15 -0.20242018554765093 -0.2465979541203532 0.31364999997695675 1.570796327073909 2.720699046190239 4.400997683934631e-10 0.0 0.0 0.0 0.0 0.0 0.0

479.08 0.5235987755982989 -1.5707963267948966 1.5707963267948966 -1.5707963267948966 -1.5707963267948966 0.0 0.0 0.0 0.0 0.0 0.0 0.0 0.0 0.0 0.0 0.0 0.0 0.0 -1.1512442590619146e-26 -0.5442396572688689 -0.7673661111166267 -0.229354796466502 -1.3146049461972196e-11 0.0 -1.511583712148294e-25 -7.14586669994025 -7.145866699940251 -1.0424175499402515 -5.974879480466362e-11 0.0 0.5235987901687622 -1.570796314870016 1.5707963705062866 -1.570796314870016 -1.570796314870016 0.0 0.0 0.0 0.0 0.0 0.0 0.0 -1.151244268742903e-26 -0.5442396402359009 -0.7673661112785339 -0.22935479879379272 -1.3146049353263134e-11 0.0 -1.151244268742903e-26 -0.5442396402359009 -0.7673661112785339 -0.22935479879379272 -1.3146049353263134e-11 0.0 -0.20242017919057226 -0.2465979566016299 0.3136499823461779 1.5707961689200318 2.720698818034143 8.713184816023728e-08 0.0 0.0 0.0 0.0 0.0 0.0 6.264272891449523e-07 7.631437114135668e-07 4.253146293222041e-08 -5.5397674192897393e-08 3.900026026832363e-08 -2.6501511131949763e-15 -0.20242018554765093 -0.2465979541203532 0.31364999997695675 1.570796327073909 2.720699046190239 4.400997683934631e-10 0.0 0.0 0.0 0.0 0.0 0.0

479.08799999999997 0.5235987755982989 -1.5707963267948966 1.5707963267948966 -1.5707963267948966 -1.5707963267948966 0.0 0.0 0.0 0.0 0.0 0.0 0.0 0.0 0.0 0.0 0.0 0.0 0.0 -1.1512442590619146e-26 -0.5442396572688689 -0.7673661111166267 -0.229354796466502 -1.3146049461972196e-11 0.0 -1.511583712148294e-25 -7.14586669994025 -7.145866699940251 -1.0424175499402515 -5.974879480466362e-11 0.0 0.5235987901687622 -1.570796314870016 1.5707963705062866 -1.570796314870016 -1.570796314870016 0.0 0.0 0.0 0.0 0.0 0.0 0.0 -1.151244268742903e-26 -0.5442396402359009 -0.7673661112785339 -0.22935479879379272 -1.3146049353263134e-11 0.0 -1.151244268742903e-26 -0.5442396402359009 -0.7673661112785339 -0.22935479879379272 -1.3146049353263134e-11 0.0 -0.20242017919057226 -0.2465979566016299 0.3136499823461779 1.5707961689200318 2.720698818034143 8.713184816023728e-08 0.0 0.0 0.0 0.0 0.0 0.0 6.264272891449523e-07 7.631437114135668e-07 4.253146293222041e-08 -5.5397674192897393e-08 3.900026026832363e-08 -2.6501511131949763e-15 -0.20242018554765093 -0.2465979541203532 0.31364999997695675 1.570796327073909 2.720699046190239 4.400997683934631e-10 0.0 0.0 0.0 0.0 0.0 0.0

479.096 0.5235987755982989 -1.5707963267948966 1.5707963267948966 -1.5707963267948966 -1.5707963267948966 0.0 0.0 0.0 0.0 0.0 0.0 0.0 0.0 0.0 0.0 0.0 0.0 0.0 -1.1512442590619146e-26 -0.5442396572688689 -0.7673661111166267 -0.229354796466502 -1.3146049461972196e-11 0.0 -1.511583712148294e-25 -7.14586669994025 -7.145866699940251 -1.0424175499402515 -5.974879480466362e-11 0.0 0.5235987901687622 -1.570796314870016 1.5707963705062866 -1.570796314870016 -1.570796314870016 0.0 0.0 0.0 0.0 0.0 0.0 0.0 -1.151244268742903e-26 -0.5442396402359009 -0.7673661112785339 -0.22935479879379272 -1.3146049353263134e-11 0.0 -1.151244268742903e-26 -0.5442396402359009 -0.7673661112785339 -0.22935479879379272 -1.3146049353263134e-11 0.0 -0.20242017919057226 -0.2465979566016299 0.3136499823461779 1.5707961689200318 2.720698818034143 8.713184816023728e-08 0.0 0.0 0.0 0.0 0.0 0.0 6.264272891449523e-07 7.631437114135668e-07 4.253146293222041e-08 -5.5397674192897393e-08 3.900026026832363e-08 -2.6501511131949763e-15 -0.20242018554765093 -0.2465979541203532 0.31364999997695675 1.570796327073909 2.720699046190239 4.400997683934631e-10 0.0 0.0 0.0 0.0 0.0 0.0

479.104 0.5235987755982989 -1.5707963267948966 1.5707963267948966 -1.5707963267948966 -1.5707963267948966 0.0 0.0 0.0 0.0 0.0 0.0 0.0 0.0 0.0 0.0 0.0 0.0 0.0 -1.1512442590619146e-26 -0.5442396572688689 -0.7673661111166267 -0.229354796466502 -1.3146049461972196e-11 0.0 -1.511583712148294e-25 -7.14586669994025 -7.145866699940251 -1.0424175499402515 -5.974879480466362e-11 0.0 0.5235987901687622 -1.570796314870016 1.5707963705062866 -1.570796314870016 -1.570796314870016 0.0 0.0 0.0 0.0 0.0 0.0 0.0 -1.151244268742903e-26 -0.5442396402359009 -0.7673661112785339 -0.22935479879379272 -1.3146049353263134e-11 0.0 -1.151244268742903e-26 -0.5442396402359009 -0.7673661112785339 -0.22935479879379272 -1.3146049353263134e-11 0.0 -0.20242017919057226 -0.2465979566016299 0.3136499823461779 1.5707961689200318 2.720698818034143 8.713184816023728e-08 0.0 0.0 0.0 0.0 0.0 0.0 6.264272891449523e-07 7.631437114135668e-07 4.253146293222041e-08 -5.5397674192897393e-08 3.900026026832363e-08 -2.6501511131949763e-15 -0.20242018554765093 -0.2465979541203532 0.31364999997695675 1.570796327073909 2.720699046190239 4.400997683934631e-10 0.0 0.0 0.0 0.0 0.0 0.0

479.11199999999997 0.5235987755982989 -1.5707963267948966 1.5707963267948966 -1.5707963267948966 -1.5707963267948966 0.0 0.0 0.0 0.0 0.0 0.0 0.0 0.0 0.0 0.0 0.0 0.0 0.0 -1.1512442590619146e-26 -0.5442396572688689 -0.7673661111166267 -0.229354796466502 -1.3146049461972196e-11 0.0 -1.511583712148294e-25 -7.14586669994025 -7.145866699940251 -1.0424175499402515 -5.974879480466362e-11 0.0 0.5235987901687622 -1.570796314870016 1.5707963705062866 -1.570796314870016 -1.570796314870016 0.0 0.0 0.0 0.0 0.0 0.0 0.0 -1.151244268742903e-26 -0.5442396402359009 -0.7673661112785339 -0.22935479879379272 -1.3146049353263134e-11 0.0 -1.151244268742903e-26 -0.5442396402359009 -0.7673661112785339 -0.22935479879379272 -1.3146049353263134e-11 0.0 -0.20242017919057226 -0.2465979566016299 0.3136499823461779 1.5707961689200318 2.720698818034143 8.713184816023728e-08 0.0 0.0 0.0 0.0 0.0 0.0 6.264272891449523e-07 7.631437114135668e-07 4.253146293222041e-08 -5.5397674192897393e-08 3.900026026832363e-08 -2.6501511131949763e-15 -0.20242018554765093 -0.2465979541203532 0.31364999997695675 1.570796327073909 2.720699046190239 4.400997683934631e-10 0.0 0.0 0.0 0.0 0.0 0.0

479.12 0.5235987755982989 -1.5707963267948966 1.5707963267948966 -1.5707963267948966 -1.5707963267948966 0.0 0.0 0.0 0.0 0.0 0.0 0.0 0.0 0.0 0.0 0.0 0.0 0.0 -1.1512442590619146e-26 -0.5442396572688689 -0.7673661111166267 -0.229354796466502 -1.3146049461972196e-11 0.0 -1.511583712148294e-25 -7.14586669994025 -7.145866699940251 -1.0424175499402515 -5.974879480466362e-11 0.0 0.5235987901687622 -1.570796314870016 1.5707963705062866 -1.570796314870016 -1.570796314870016 0.0 0.0 0.0 0.0 0.0 0.0 0.0 -1.151244268742903e-26 -0.5442396402359009 -0.7673661112785339 -0.22935479879379272 -1.3146049353263134e-11 0.0 -1.151244268742903e-26 -0.5442396402359009 -0.7673661112785339 -0.22935479879379272 -1.3146049353263134e-11 0.0 -0.20242017919057226 -0.2465979566016299 0.3136499823461779 1.5707961689200318 2.720698818034143 8.713184816023728e-08 0.0 0.0 0.0 0.0 0.0 0.0 6.264272891449523e-07 7.631437114135668e-07 4.253146293222041e-08 -5.5397674192897393e-08 3.900026026832363e-08 -2.6501511131949763e-15 -0.20242018554765093 -0.2465979541203532 0.31364999997695675 1.570796327073909 2.720699046190239 4.400997683934631e-10 0.0 0.0 0.0 0.0 0.0 0.0

479.128 0.5235987755982989 -1.5707963267948966 1.5707963267948966 -1.5707963267948966 -1.5707963267948966 0.0 0.0 0.0 0.0 0.0 0.0 0.0 0.0 0.0 0.0 0.0 0.0 0.0 -1.1512442590619146e-26 -0.5442396572688689 -0.7673661111166267 -0.229354796466502 -1.3146049461972196e-11 0.0 -1.511583712148294e-25 -7.14586669994025 -7.145866699940251 -1.0424175499402515 -5.974879480466362e-11 0.0 0.5235987901687622 -1.570796314870016 1.5707963705062866 -1.570796314870016 -1.570796314870016 0.0 0.0 0.0 0.0 0.0 0.0 0.0 -1.151244268742903e-26 -0.5442396402359009 -0.7673661112785339 -0.22935479879379272 -1.3146049353263134e-11 0.0 -1.151244268742903e-26 -0.5442396402359009 -0.7673661112785339 -0.22935479879379272 -1.3146049353263134e-11 0.0 -0.20242017919057226 -0.2465979566016299 0.3136499823461779 1.5707961689200318 2.720698818034143 8.713184816023728e-08 0.0 0.0 0.0 0.0 0.0 0.0 6.264272891449523e-07 7.631437114135668e-07 4.253146293222041e-08 -5.5397674192897393e-08 3.900026026832363e-08 -2.6501511131949763e-15 -0.20242018554765093 -0.2465979541203532 0.31364999997695675 1.570796327073909 2.720699046190239 4.400997683934631e-10 0.0 0.0 0.0 0.0 0.0 0.0

479.13599999999997 0.5235987755982989 -1.5707963267948966 1.5707963267948966 -1.5707963267948966 -1.5707963267948966 0.0 0.0 0.0 0.0 0.0 0.0 0.0 0.0 0.0 0.0 0.0 0.0 0.0 -1.1512442590619146e-26 -0.5442396572688689 -0.7673661111166267 -0.229354796466502 -1.3146049461972196e-11 0.0 -1.511583712148294e-25 -7.14586669994025 -7.145866699940251 -1.0424175499402515 -5.974879480466362e-11 0.0 0.5235987901687622 -1.570796314870016 1.5707963705062866 -1.570796314870016 -1.570796314870016 0.0 0.0 0.0 0.0 0.0 0.0 0.0 -1.151244268742903e-26 -0.5442396402359009 -0.7673661112785339 -0.22935479879379272 -1.3146049353263134e-11 0.0 -1.151244268742903e-26 -0.5442396402359009 -0.7673661112785339 -0.22935479879379272 -1.3146049353263134e-11 0.0 -0.20242017919057226 -0.2465979566016299 0.3136499823461779 1.5707961689200318 2.720698818034143 8.713184816023728e-08 0.0 0.0 0.0 0.0 0.0 0.0 6.264272891449523e-07 7.631437114135668e-07 4.253146293222041e-08 -5.5397674192897393e-08 3.900026026832363e-08 -2.6501511131949763e-15 -0.20242018554765093 -0.2465979541203532 0.31364999997695675 1.570796327073909 2.720699046190239 4.400997683934631e-10 0.0 0.0 0.0 0.0 0.0 0.0

479.144 0.5235987755982989 -1.5707963267948966 1.5707963267948966 -1.5707963267948966 -1.5707963267948966 0.0 0.0 0.0 0.0 0.0 0.0 0.0 0.0 0.0 0.0 0.0 0.0 0.0 -1.1512442590619146e-26 -0.5442396572688689 -0.7673661111166267 -0.229354796466502 -1.3146049461972196e-11 0.0 -1.511583712148294e-25 -7.14586669994025 -7.145866699940251 -1.0424175499402515 -5.974879480466362e-11 0.0 0.5235987901687622 -1.570796314870016 1.5707963705062866 -1.570796314870016 -1.570796314870016 0.0 0.0 0.0 0.0 0.0 0.0 0.0 -1.151244268742903e-26 -0.5442396402359009 -0.7673661112785339 -0.22935479879379272 -1.3146049353263134e-11 0.0 -1.151244268742903e-26 -0.5442396402359009 -0.7673661112785339 -0.22935479879379272 -1.3146049353263134e-11 0.0 -0.20242017919057226 -0.2465979566016299 0.3136499823461779 1.5707961689200318 2.720698818034143 8.713184816023728e-08 0.0 0.0 0.0 0.0 0.0 0.0 6.264272891449523e-07 7.631437114135668e-07 4.253146293222041e-08 -5.5397674192897393e-08 3.900026026832363e-08 -2.6501511131949763e-15 -0.20242018554765093 -0.2465979541203532 0.31364999997695675 1.570796327073909 2.720699046190239 4.400997683934631e-10 0.0 0.0 0.0 0.0 0.0 0.0

479.152 0.5235987755982989 -1.5707963267948966 1.5707963267948966 -1.5707963267948966 -1.5707963267948966 0.0 0.0 0.0 0.0 0.0 0.0 0.0 0.0 0.0 0.0 0.0 0.0 0.0 -1.1512442590619146e-26 -0.5442396572688689 -0.7673661111166267 -0.229354796466502 -1.3146049461972196e-11 0.0 -1.511583712148294e-25 -7.14586669994025 -7.145866699940251 -1.0424175499402515 -5.974879480466362e-11 0.0 0.5235987901687622 -1.570796314870016 1.5707963705062866 -1.570796314870016 -1.570796314870016 0.0 0.0 0.0 0.0 0.0 0.0 0.0 -1.151244268742903e-26 -0.5442396402359009 -0.7673661112785339 -0.22935479879379272 -1.3146049353263134e-11 0.0 -1.151244268742903e-26 -0.5442396402359009 -0.7673661112785339 -0.22935479879379272 -1.3146049353263134e-11 0.0 -0.20242017919057226 -0.2465979566016299 0.3136499823461779 1.5707961689200318 2.720698818034143 8.713184816023728e-08 0.0 0.0 0.0 0.0 0.0 0.0 6.264272891449523e-07 7.631437114135668e-07 4.253146293222041e-08 -5.5397674192897393e-08 3.900026026832363e-08 -2.6501511131949763e-15 -0.20242018554765093 -0.2465979541203532 0.31364999997695675 1.570796327073909 2.720699046190239 4.400997683934631e-10 0.0 0.0 0.0 0.0 0.0 0.0

479.15999999999997 0.5235987755982989 -1.5707963267948966 1.5707963267948966 -1.5707963267948966 -1.5707963267948966 0.0 0.0 0.0 0.0 0.0 0.0 0.0 0.0 0.0 0.0 0.0 0.0 0.0 -1.1512442590619146e-26 -0.5442396572688689 -0.7673661111166267 -0.229354796466502 -1.3146049461972196e-11 0.0 -1.511583712148294e-25 -7.14586669994025 -7.145866699940251 -1.0424175499402515 -5.974879480466362e-11 0.0 0.5235987901687622 -1.570796314870016 1.5707963705062866 -1.570796314870016 -1.570796314870016 0.0 0.0 0.0 0.0 0.0 0.0 0.0 -1.151244268742903e-26 -0.5442396402359009 -0.7673661112785339 -0.22935479879379272 -1.3146049353263134e-11 0.0 -1.151244268742903e-26 -0.5442396402359009 -0.7673661112785339 -0.22935479879379272 -1.3146049353263134e-11 0.0 -0.20242017919057226 -0.2465979566016299 0.3136499823461779 1.5707961689200318 2.720698818034143 8.713184816023728e-08 0.0 0.0 0.0 0.0 0.0 0.0 6.264272891449523e-07 7.631437114135668e-07 4.253146293222041e-08 -5.5397674192897393e-08 3.900026026832363e-08 -2.6501511131949763e-15 -0.20242018554765093 -0.2465979541203532 0.31364999997695675 1.570796327073909 2.720699046190239 4.400997683934631e-10 0.0 0.0 0.0 0.0 0.0 0.0

479.168 0.5235987755982989 -1.5707963267948966 1.5707963267948966 -1.5707963267948966 -1.5707963267948966 0.0 0.0 0.0 0.0 0.0 0.0 0.0 0.0 0.0 0.0 0.0 0.0 0.0 -1.1512442590619146e-26 -0.5442396572688689 -0.7673661111166267 -0.229354796466502 -1.3146049461972196e-11 0.0 -1.511583712148294e-25 -7.14586669994025 -7.145866699940251 -1.0424175499402515 -5.974879480466362e-11 0.0 0.5235987901687622 -1.570796314870016 1.5707963705062866 -1.570796314870016 -1.570796314870016 0.0 0.0 0.0 0.0 0.0 0.0 0.0 -1.151244268742903e-26 -0.5442396402359009 -0.7673661112785339 -0.22935479879379272 -1.3146049353263134e-11 0.0 -1.151244268742903e-26 -0.5442396402359009 -0.7673661112785339 -0.22935479879379272 -1.3146049353263134e-11 0.0 -0.20242017919057226 -0.2465979566016299 0.3136499823461779 1.5707961689200318 2.720698818034143 8.713184816023728e-08 0.0 0.0 0.0 0.0 0.0 0.0 6.264272891449523e-07 7.631437114135668e-07 4.253146293222041e-08 -5.5397674192897393e-08 3.900026026832363e-08 -2.6501511131949763e-15 -0.20242018554765093 -0.2465979541203532 0.31364999997695675 1.570796327073909 2.720699046190239 4.400997683934631e-10 0.0 0.0 0.0 0.0 0.0 0.0

479.176 0.5235987755982989 -1.5707963267948966 1.5707963267948966 -1.5707963267948966 -1.5707963267948966 0.0 0.0 0.0 0.0 0.0 0.0 0.0 0.0 0.0 0.0 0.0 0.0 0.0 -1.1512442590619146e-26 -0.5442396572688689 -0.7673661111166267 -0.229354796466502 -1.3146049461972196e-11 0.0 -1.511583712148294e-25 -7.14586669994025 -7.145866699940251 -1.0424175499402515 -5.974879480466362e-11 0.0 0.5235987901687622 -1.570796314870016 1.5707963705062866 -1.570796314870016 -1.570796314870016 0.0 0.0 0.0 0.0 0.0 0.0 0.0 -1.151244268742903e-26 -0.5442396402359009 -0.7673661112785339 -0.22935479879379272 -1.3146049353263134e-11 0.0 -1.151244268742903e-26 -0.5442396402359009 -0.7673661112785339 -0.22935479879379272 -1.3146049353263134e-11 0.0 -0.20242017919057226 -0.2465979566016299 0.3136499823461779 1.5707961689200318 2.720698818034143 8.713184816023728e-08 0.0 0.0 0.0 0.0 0.0 0.0 6.264272891449523e-07 7.631437114135668e-07 4.253146293222041e-08 -5.5397674192897393e-08 3.900026026832363e-08 -2.6501511131949763e-15 -0.20242018554765093 -0.2465979541203532 0.31364999997695675 1.570796327073909 2.720699046190239 4.400997683934631e-10 0.0 0.0 0.0 0.0 0.0 0.0

479.18399999999997 0.5235987755982989 -1.5707963267948966 1.5707963267948966 -1.5707963267948966 -1.5707963267948966 0.0 0.0 0.0 0.0 0.0 0.0 0.0 0.0 0.0 0.0 0.0 0.0 0.0 -1.1512442590619146e-26 -0.5442396572688689 -0.7673661111166267 -0.229354796466502 -1.3146049461972196e-11 0.0 -1.511583712148294e-25 -7.14586669994025 -7.145866699940251 -1.0424175499402515 -5.974879480466362e-11 0.0 0.5235987901687622 -1.570796314870016 1.5707963705062866 -1.570796314870016 -1.570796314870016 0.0 0.0 0.0 0.0 0.0 0.0 0.0 -1.151244268742903e-26 -0.5442396402359009 -0.7673661112785339 -0.22935479879379272 -1.3146049353263134e-11 0.0 -1.151244268742903e-26 -0.5442396402359009 -0.7673661112785339 -0.22935479879379272 -1.3146049353263134e-11 0.0 -0.20242017919057226 -0.2465979566016299 0.3136499823461779 1.5707961689200318 2.720698818034143 8.713184816023728e-08 0.0 0.0 0.0 0.0 0.0 0.0 6.264272891449523e-07 7.631437114135668e-07 4.253146293222041e-08 -5.5397674192897393e-08 3.900026026832363e-08 -2.6501511131949763e-15 -0.20242018554765093 -0.2465979541203532 0.31364999997695675 1.570796327073909 2.720699046190239 4.400997683934631e-10 0.0 0.0 0.0 0.0 0.0 0.0

479.19199999999995 0.5235987755982989 -1.5707963267948966 1.5707963267948966 -1.5707963267948966 -1.5707963267948966 0.0 0.0 0.0 0.0 0.0 0.0 0.0 0.0 0.0 0.0 0.0 0.0 0.0 -1.1512442590619146e-26 -0.5442396572688689 -0.7673661111166267 -0.229354796466502 -1.3146049461972196e-11 0.0 -1.511583712148294e-25 -7.14586669994025 -7.145866699940251 -1.0424175499402515 -5.974879480466362e-11 0.0 0.5235987901687622 -1.570796314870016 1.5707963705062866 -1.570796314870016 -1.570796314870016 0.0 0.0 0.0 0.0 0.0 0.0 0.0 -1.151244268742903e-26 -0.5442396402359009 -0.7673661112785339 -0.22935479879379272 -1.3146049353263134e-11 0.0 -1.151244268742903e-26 -0.5442396402359009 -0.7673661112785339 -0.22935479879379272 -1.3146049353263134e-11 0.0 -0.20242017919057226 -0.2465979566016299 0.3136499823461779 1.5707961689200318 2.720698818034143 8.713184816023728e-08 0.0 0.0 0.0 0.0 0.0 0.0 6.264272891449523e-07 7.631437114135668e-07 4.253146293222041e-08 -5.5397674192897393e-08 3.900026026832363e-08 -2.6501511131949763e-15 -0.20242018554765093 -0.2465979541203532 0.31364999997695675 1.570796327073909 2.720699046190239 4.400997683934631e-10 0.0 0.0 0.0 0.0 0.0 0.0

479.2 0.5235987755982989 -1.5707963267948966 1.5707963267948966 -1.5707963267948966 -1.5707963267948966 0.0 0.0 0.0 0.0 0.0 0.0 0.0 0.0 0.0 0.0 0.0 0.0 0.0 -1.1512442590619146e-26 -0.5442396572688689 -0.7673661111166267 -0.229354796466502 -1.3146049461972196e-11 0.0 -1.511583712148294e-25 -7.14586669994025 -7.145866699940251 -1.0424175499402515 -5.974879480466362e-11 0.0 0.5235987901687622 -1.570796314870016 1.5707963705062866 -1.570796314870016 -1.570796314870016 0.0 0.0 0.0 0.0 0.0 0.0 0.0 -1.151244268742903e-26 -0.5442396402359009 -0.7673661112785339 -0.22935479879379272 -1.3146049353263134e-11 0.0 -1.151244268742903e-26 -0.5442396402359009 -0.7673661112785339 -0.22935479879379272 -1.3146049353263134e-11 0.0 -0.20242017919057226 -0.2465979566016299 0.3136499823461779 1.5707961689200318 2.720698818034143 8.713184816023728e-08 0.0 0.0 0.0 0.0 0.0 0.0 6.264272891449523e-07 7.631437114135668e-07 4.253146293222041e-08 -5.5397674192897393e-08 3.900026026832363e-08 -2.6501511131949763e-15 -0.20242018554765093 -0.2465979541203532 0.31364999997695675 1.570796327073909 2.720699046190239 4.400997683934631e-10 0.0 0.0 0.0 0.0 0.0 0.0

479.20799999999997 0.5235987755982989 -1.5707963267948966 1.5707963267948966 -1.5707963267948966 -1.5707963267948966 0.0 0.0 0.0 0.0 0.0 0.0 0.0 0.0 0.0 0.0 0.0 0.0 0.0 -1.1512442590619146e-26 -0.5442396572688689 -0.7673661111166267 -0.229354796466502 -1.3146049461972196e-11 0.0 -1.511583712148294e-25 -7.14586669994025 -7.145866699940251 -1.0424175499402515 -5.974879480466362e-11 0.0 0.5235987901687622 -1.570796314870016 1.5707963705062866 -1.570796314870016 -1.570796314870016 0.0 0.0 0.0 0.0 0.0 0.0 0.0 -1.151244268742903e-26 -0.5442396402359009 -0.7673661112785339 -0.22935479879379272 -1.3146049353263134e-11 0.0 -1.151244268742903e-26 -0.5442396402359009 -0.7673661112785339 -0.22935479879379272 -1.3146049353263134e-11 0.0 -0.20242017919057226 -0.2465979566016299 0.3136499823461779 1.5707961689200318 2.720698818034143 8.713184816023728e-08 0.0 0.0 0.0 0.0 0.0 0.0 6.264272891449523e-07 7.631437114135668e-07 4.253146293222041e-08 -5.5397674192897393e-08 3.900026026832363e-08 -2.6501511131949763e-15 -0.20242018554765093 -0.2465979541203532 0.31364999997695675 1.570796327073909 2.720699046190239 4.400997683934631e-10 0.0 0.0 0.0 0.0 0.0 0.0

479.21599999999995 0.5235987755982989 -1.5707963267948966 1.5707963267948966 -1.5707963267948966 -1.5707963267948966 0.0 0.0 0.0 0.0 0.0 0.0 0.0 0.0 0.0 0.0 0.0 0.0 0.0 -1.1512442590619146e-26 -0.5442396572688689 -0.7673661111166267 -0.229354796466502 -1.3146049461972196e-11 0.0 -1.511583712148294e-25 -7.14586669994025 -7.145866699940251 -1.0424175499402515 -5.974879480466362e-11 0.0 0.5235987901687622 -1.570796314870016 1.5707963705062866 -1.570796314870016 -1.570796314870016 0.0 0.0 0.0 0.0 0.0 0.0 0.0 -1.151244268742903e-26 -0.5442396402359009 -0.7673661112785339 -0.22935479879379272 -1.3146049353263134e-11 0.0 -1.151244268742903e-26 -0.5442396402359009 -0.7673661112785339 -0.22935479879379272 -1.3146049353263134e-11 0.0 -0.20242017919057226 -0.2465979566016299 0.3136499823461779 1.5707961689200318 2.720698818034143 8.713184816023728e-08 0.0 0.0 0.0 0.0 0.0 0.0 6.264272891449523e-07 7.631437114135668e-07 4.253146293222041e-08 -5.5397674192897393e-08 3.900026026832363e-08 -2.6501511131949763e-15 -0.20242018554765093 -0.2465979541203532 0.31364999997695675 1.570796327073909 2.720699046190239 4.400997683934631e-10 0.0 0.0 0.0 0.0 0.0 0.0

479.224 0.5235987755982989 -1.5707963267948966 1.5707963267948966 -1.5707963267948966 -1.5707963267948966 0.0 0.0 0.0 0.0 0.0 0.0 0.0 0.0 0.0 0.0 0.0 0.0 0.0 -1.1512442590619146e-26 -0.5442396572688689 -0.7673661111166267 -0.229354796466502 -1.3146049461972196e-11 0.0 -1.511583712148294e-25 -7.14586669994025 -7.145866699940251 -1.0424175499402515 -5.974879480466362e-11 0.0 0.5235987901687622 -1.570796314870016 1.5707963705062866 -1.570796314870016 -1.570796314870016 0.0 0.0 0.0 0.0 0.0 0.0 0.0 -1.151244268742903e-26 -0.5442396402359009 -0.7673661112785339 -0.22935479879379272 -1.3146049353263134e-11 0.0 -1.151244268742903e-26 -0.5442396402359009 -0.7673661112785339 -0.22935479879379272 -1.3146049353263134e-11 0.0 -0.20242017919057226 -0.2465979566016299 0.3136499823461779 1.5707961689200318 2.720698818034143 8.713184816023728e-08 0.0 0.0 0.0 0.0 0.0 0.0 6.264272891449523e-07 7.631437114135668e-07 4.253146293222041e-08 -5.5397674192897393e-08 3.900026026832363e-08 -2.6501511131949763e-15 -0.20242018554765093 -0.2465979541203532 0.31364999997695675 1.570796327073909 2.720699046190239 4.400997683934631e-10 0.0 0.0 0.0 0.0 0.0 0.0

479.23199999999997 0.5235987755982989 -1.5707963267948966 1.5707963267948966 -1.5707963267948966 -1.5707963267948966 0.0 0.0 0.0 0.0 0.0 0.0 0.0 0.0 0.0 0.0 0.0 0.0 0.0 -1.1512442590619146e-26 -0.5442396572688689 -0.7673661111166267 -0.229354796466502 -1.3146049461972196e-11 0.0 -1.511583712148294e-25 -7.14586669994025 -7.145866699940251 -1.0424175499402515 -5.974879480466362e-11 0.0 0.5235987901687622 -1.570796314870016 1.5707963705062866 -1.570796314870016 -1.570796314870016 0.0 0.0 0.0 0.0 0.0 0.0 0.0 -1.151244268742903e-26 -0.5442396402359009 -0.7673661112785339 -0.22935479879379272 -1.3146049353263134e-11 0.0 -1.151244268742903e-26 -0.5442396402359009 -0.7673661112785339 -0.22935479879379272 -1.3146049353263134e-11 0.0 -0.20242017919057226 -0.2465979566016299 0.3136499823461779 1.5707961689200318 2.720698818034143 8.713184816023728e-08 0.0 0.0 0.0 0.0 0.0 0.0 6.264272891449523e-07 7.631437114135668e-07 4.253146293222041e-08 -5.5397674192897393e-08 3.900026026832363e-08 -2.6501511131949763e-15 -0.20242018554765093 -0.2465979541203532 0.31364999997695675 1.570796327073909 2.720699046190239 4.400997683934631e-10 0.0 0.0 0.0 0.0 0.0 0.0

479.23999999999995 0.5235987755982989 -1.5707963267948966 1.5707963267948966 -1.5707963267948966 -1.5707963267948966 0.0 0.0 0.0 0.0 0.0 0.0 0.0 0.0 0.0 0.0 0.0 0.0 0.0 -1.1512442590619146e-26 -0.5442396572688689 -0.7673661111166267 -0.229354796466502 -1.3146049461972196e-11 0.0 -1.511583712148294e-25 -7.14586669994025 -7.145866699940251 -1.0424175499402515 -5.974879480466362e-11 0.0 0.5235987901687622 -1.570796314870016 1.5707963705062866 -1.570796314870016 -1.570796314870016 0.0 0.0 0.0 0.0 0.0 0.0 0.0 -1.151244268742903e-26 -0.5442396402359009 -0.7673661112785339 -0.22935479879379272 -1.3146049353263134e-11 0.0 -1.151244268742903e-26 -0.5442396402359009 -0.7673661112785339 -0.22935479879379272 -1.3146049353263134e-11 0.0 -0.20242017919057226 -0.2465979566016299 0.3136499823461779 1.5707961689200318 2.720698818034143 8.713184816023728e-08 0.0 0.0 0.0 0.0 0.0 0.0 6.264272891449523e-07 7.631437114135668e-07 4.253146293222041e-08 -5.5397674192897393e-08 3.900026026832363e-08 -2.6501511131949763e-15 -0.20242018554765093 -0.2465979541203532 0.31364999997695675 1.570796327073909 2.720699046190239 4.400997683934631e-10 0.0 0.0 0.0 0.0 0.0 0.0

479.248 0.5235987755982989 -1.5707963267948966 1.5707963267948966 -1.5707963267948966 -1.5707963267948966 0.0 0.0 0.0 0.0 0.0 0.0 0.0 0.0 0.0 0.0 0.0 0.0 0.0 -1.1512442590619146e-26 -0.5442396572688689 -0.7673661111166267 -0.229354796466502 -1.3146049461972196e-11 0.0 -1.511583712148294e-25 -7.14586669994025 -7.145866699940251 -1.0424175499402515 -5.974879480466362e-11 0.0 0.5235987901687622 -1.570796314870016 1.5707963705062866 -1.570796314870016 -1.570796314870016 0.0 0.0 0.0 0.0 0.0 0.0 0.0 -1.151244268742903e-26 -0.5442396402359009 -0.7673661112785339 -0.22935479879379272 -1.3146049353263134e-11 0.0 -1.151244268742903e-26 -0.5442396402359009 -0.7673661112785339 -0.22935479879379272 -1.3146049353263134e-11 0.0 -0.20242017919057226 -0.2465979566016299 0.3136499823461779 1.5707961689200318 2.720698818034143 8.713184816023728e-08 0.0 0.0 0.0 0.0 0.0 0.0 6.264272891449523e-07 7.631437114135668e-07 4.253146293222041e-08 -5.5397674192897393e-08 3.900026026832363e-08 -2.6501511131949763e-15 -0.20242018554765093 -0.2465979541203532 0.31364999997695675 1.570796327073909 2.720699046190239 4.400997683934631e-10 0.0 0.0 0.0 0.0 0.0 0.0

479.256 0.5235987755982989 -1.5707963267948966 1.5707963267948966 -1.5707963267948966 -1.5707963267948966 0.0 0.0 0.0 0.0 0.0 0.0 0.0 0.0 0.0 0.0 0.0 0.0 0.0 -1.1512442590619146e-26 -0.5442396572688689 -0.7673661111166267 -0.229354796466502 -1.3146049461972196e-11 0.0 -1.511583712148294e-25 -7.14586669994025 -7.145866699940251 -1.0424175499402515 -5.974879480466362e-11 0.0 0.5235987901687622 -1.570796314870016 1.5707963705062866 -1.570796314870016 -1.570796314870016 0.0 0.0 0.0 0.0 0.0 0.0 0.0 -1.151244268742903e-26 -0.5442396402359009 -0.7673661112785339 -0.22935479879379272 -1.3146049353263134e-11 0.0 -1.151244268742903e-26 -0.5442396402359009 -0.7673661112785339 -0.22935479879379272 -1.3146049353263134e-11 0.0 -0.20242017919057226 -0.2465979566016299 0.3136499823461779 1.5707961689200318 2.720698818034143 8.713184816023728e-08 0.0 0.0 0.0 0.0 0.0 0.0 6.264272891449523e-07 7.631437114135668e-07 4.253146293222041e-08 -5.5397674192897393e-08 3.900026026832363e-08 -2.6501511131949763e-15 -0.20242018554765093 -0.2465979541203532 0.31364999997695675 1.570796327073909 2.720699046190239 4.400997683934631e-10 0.0 0.0 0.0 0.0 0.0 0.0

479.26399999999995 0.5235987755982989 -1.5707963267948966 1.5707963267948966 -1.5707963267948966 -1.5707963267948966 0.0 0.0 0.0 0.0 0.0 0.0 0.0 0.0 0.0 0.0 0.0 0.0 0.0 -1.1512442590619146e-26 -0.5442396572688689 -0.7673661111166267 -0.229354796466502 -1.3146049461972196e-11 0.0 -1.511583712148294e-25 -7.14586669994025 -7.145866699940251 -1.0424175499402515 -5.974879480466362e-11 0.0 0.5235987901687622 -1.570796314870016 1.5707963705062866 -1.570796314870016 -1.570796314870016 0.0 0.0 0.0 0.0 0.0 0.0 0.0 -1.151244268742903e-26 -0.5442396402359009 -0.7673661112785339 -0.22935479879379272 -1.3146049353263134e-11 0.0 -1.151244268742903e-26 -0.5442396402359009 -0.7673661112785339 -0.22935479879379272 -1.3146049353263134e-11 0.0 -0.20242017919057226 -0.2465979566016299 0.3136499823461779 1.5707961689200318 2.720698818034143 8.713184816023728e-08 0.0 0.0 0.0 0.0 0.0 0.0 6.264272891449523e-07 7.631437114135668e-07 4.253146293222041e-08 -5.5397674192897393e-08 3.900026026832363e-08 -2.6501511131949763e-15 -0.20242018554765093 -0.2465979541203532 0.31364999997695675 1.570796327073909 2.720699046190239 4.400997683934631e-10 0.0 0.0 0.0 0.0 0.0 0.0

479.272 0.5235987755982989 -1.5707963267948966 1.5707963267948966 -1.5707963267948966 -1.5707963267948966 0.0 0.0 0.0 0.0 0.0 0.0 0.0 0.0 0.0 0.0 0.0 0.0 0.0 -1.1512442590619146e-26 -0.5442396572688689 -0.7673661111166267 -0.229354796466502 -1.3146049461972196e-11 0.0 -1.511583712148294e-25 -7.14586669994025 -7.145866699940251 -1.0424175499402515 -5.974879480466362e-11 0.0 0.5235987901687622 -1.570796314870016 1.5707963705062866 -1.570796314870016 -1.570796314870016 0.0 0.0 0.0 0.0 0.0 0.0 0.0 -1.151244268742903e-26 -0.5442396402359009 -0.7673661112785339 -0.22935479879379272 -1.3146049353263134e-11 0.0 -1.151244268742903e-26 -0.5442396402359009 -0.7673661112785339 -0.22935479879379272 -1.3146049353263134e-11 0.0 -0.20242017919057226 -0.2465979566016299 0.3136499823461779 1.5707961689200318 2.720698818034143 8.713184816023728e-08 0.0 0.0 0.0 0.0 0.0 0.0 6.264272891449523e-07 7.631437114135668e-07 4.253146293222041e-08 -5.5397674192897393e-08 3.900026026832363e-08 -2.6501511131949763e-15 -0.20242018554765093 -0.2465979541203532 0.31364999997695675 1.570796327073909 2.720699046190239 4.400997683934631e-10 0.0 0.0 0.0 0.0 0.0 0.0

479.28 0.5235987755982989 -1.5707963267948966 1.5707963267948966 -1.5707963267948966 -1.5707963267948966 0.0 0.0 0.0 0.0 0.0 0.0 0.0 0.0 0.0 0.0 0.0 0.0 0.0 -1.1512442590619146e-26 -0.5442396572688689 -0.7673661111166267 -0.229354796466502 -1.3146049461972196e-11 0.0 -1.511583712148294e-25 -7.14586669994025 -7.145866699940251 -1.0424175499402515 -5.974879480466362e-11 0.0 0.5235987901687622 -1.570796314870016 1.5707963705062866 -1.570796314870016 -1.570796314870016 0.0 0.0 0.0 0.0 0.0 0.0 0.0 -1.151244268742903e-26 -0.5442396402359009 -0.7673661112785339 -0.22935479879379272 -1.3146049353263134e-11 0.0 -1.151244268742903e-26 -0.5442396402359009 -0.7673661112785339 -0.22935479879379272 -1.3146049353263134e-11 0.0 -0.20242017919057226 -0.2465979566016299 0.3136499823461779 1.5707961689200318 2.720698818034143 8.713184816023728e-08 0.0 0.0 0.0 0.0 0.0 0.0 6.264272891449523e-07 7.631437114135668e-07 4.253146293222041e-08 -5.5397674192897393e-08 3.900026026832363e-08 -2.6501511131949763e-15 -0.20242018554765093 -0.2465979541203532 0.31364999997695675 1.570796327073909 2.720699046190239 4.400997683934631e-10 0.0 0.0 0.0 0.0 0.0 0.0

479.28799999999995 0.5235987755982989 -1.5707963267948966 1.5707963267948966 -1.5707963267948966 -1.5707963267948966 0.0 0.0 0.0 0.0 0.0 0.0 0.0 0.0 0.0 0.0 0.0 0.0 0.0 -1.1512442590619146e-26 -0.5442396572688689 -0.7673661111166267 -0.229354796466502 -1.3146049461972196e-11 0.0 -1.511583712148294e-25 -7.14586669994025 -7.145866699940251 -1.0424175499402515 -5.974879480466362e-11 0.0 0.5235987901687622 -1.570796314870016 1.5707963705062866 -1.570796314870016 -1.570796314870016 0.0 0.0 0.0 0.0 0.0 0.0 0.0 -1.151244268742903e-26 -0.5442396402359009 -0.7673661112785339 -0.22935479879379272 -1.3146049353263134e-11 0.0 -1.151244268742903e-26 -0.5442396402359009 -0.7673661112785339 -0.22935479879379272 -1.3146049353263134e-11 0.0 -0.20242017919057226 -0.2465979566016299 0.3136499823461779 1.5707961689200318 2.720698818034143 8.713184816023728e-08 0.0 0.0 0.0 0.0 0.0 0.0 6.264272891449523e-07 7.631437114135668e-07 4.253146293222041e-08 -5.5397674192897393e-08 3.900026026832363e-08 -2.6501511131949763e-15 -0.20242018554765093 -0.2465979541203532 0.31364999997695675 1.570796327073909 2.720699046190239 4.400997683934631e-10 0.0 0.0 0.0 0.0 0.0 0.0

479.296 0.5235987755982989 -1.5707963267948966 1.5707963267948966 -1.5707963267948966 -1.5707963267948966 0.0 0.0 0.0 0.0 0.0 0.0 0.0 0.0 0.0 0.0 0.0 0.0 0.0 -1.1512442590619146e-26 -0.5442396572688689 -0.7673661111166267 -0.229354796466502 -1.3146049461972196e-11 0.0 -1.511583712148294e-25 -7.14586669994025 -7.145866699940251 -1.0424175499402515 -5.974879480466362e-11 0.0 0.5235987901687622 -1.570796314870016 1.5707963705062866 -1.570796314870016 -1.570796314870016 0.0 0.0 0.0 0.0 0.0 0.0 0.0 -1.151244268742903e-26 -0.5442396402359009 -0.7673661112785339 -0.22935479879379272 -1.3146049353263134e-11 0.0 -1.151244268742903e-26 -0.5442396402359009 -0.7673661112785339 -0.22935479879379272 -1.3146049353263134e-11 0.0 -0.20242017919057226 -0.2465979566016299 0.3136499823461779 1.5707961689200318 2.720698818034143 8.713184816023728e-08 0.0 0.0 0.0 0.0 0.0 0.0 6.264272891449523e-07 7.631437114135668e-07 4.253146293222041e-08 -5.5397674192897393e-08 3.900026026832363e-08 -2.6501511131949763e-15 -0.20242018554765093 -0.2465979541203532 0.31364999997695675 1.570796327073909 2.720699046190239 4.400997683934631e-10 0.0 0.0 0.0 0.0 0.0 0.0

479.304 0.5235987755982989 -1.5707963267948966 1.5707963267948966 -1.5707963267948966 -1.5707963267948966 0.0 0.0 0.0 0.0 0.0 0.0 0.0 0.0 0.0 0.0 0.0 0.0 0.0 -1.1512442590619146e-26 -0.5442396572688689 -0.7673661111166267 -0.229354796466502 -1.3146049461972196e-11 0.0 -1.511583712148294e-25 -7.14586669994025 -7.145866699940251 -1.0424175499402515 -5.974879480466362e-11 0.0 0.5235987901687622 -1.570796314870016 1.5707963705062866 -1.570796314870016 -1.570796314870016 0.0 0.0 0.0 0.0 0.0 0.0 0.0 -1.151244268742903e-26 -0.5442396402359009 -0.7673661112785339 -0.22935479879379272 -1.3146049353263134e-11 0.0 -1.151244268742903e-26 -0.5442396402359009 -0.7673661112785339 -0.22935479879379272 -1.3146049353263134e-11 0.0 -0.20242017919057226 -0.2465979566016299 0.3136499823461779 1.5707961689200318 2.720698818034143 8.713184816023728e-08 0.0 0.0 0.0 0.0 0.0 0.0 6.264272891449523e-07 7.631437114135668e-07 4.253146293222041e-08 -5.5397674192897393e-08 3.900026026832363e-08 -2.6501511131949763e-15 -0.20242018554765093 -0.2465979541203532 0.31364999997695675 1.570796327073909 2.720699046190239 4.400997683934631e-10 0.0 0.0 0.0 0.0 0.0 0.0

479.31199999999995 0.5235987755982989 -1.5707963267948966 1.5707963267948966 -1.5707963267948966 -1.5707963267948966 0.0 0.0 0.0 0.0 0.0 0.0 0.0 0.0 0.0 0.0 0.0 0.0 0.0 -1.1512442590619146e-26 -0.5442396572688689 -0.7673661111166267 -0.229354796466502 -1.3146049461972196e-11 0.0 -1.511583712148294e-25 -7.14586669994025 -7.145866699940251 -1.0424175499402515 -5.974879480466362e-11 0.0 0.5235987901687622 -1.570796314870016 1.5707963705062866 -1.570796314870016 -1.570796314870016 0.0 0.0 0.0 0.0 0.0 0.0 0.0 -1.151244268742903e-26 -0.5442396402359009 -0.7673661112785339 -0.22935479879379272 -1.3146049353263134e-11 0.0 -1.151244268742903e-26 -0.5442396402359009 -0.7673661112785339 -0.22935479879379272 -1.3146049353263134e-11 0.0 -0.20242017919057226 -0.2465979566016299 0.3136499823461779 1.5707961689200318 2.720698818034143 8.713184816023728e-08 0.0 0.0 0.0 0.0 0.0 0.0 6.264272891449523e-07 7.631437114135668e-07 4.253146293222041e-08 -5.5397674192897393e-08 3.900026026832363e-08 -2.6501511131949763e-15 -0.20242018554765093 -0.2465979541203532 0.31364999997695675 1.570796327073909 2.720699046190239 4.400997683934631e-10 0.0 0.0 0.0 0.0 0.0 0.0

479.32 0.5235987755982989 -1.5707963267948966 1.5707963267948966 -1.5707963267948966 -1.5707963267948966 0.0 0.0 0.0 0.0 0.0 0.0 0.0 0.0 0.0 0.0 0.0 0.0 0.0 -1.1512442590619146e-26 -0.5442396572688689 -0.7673661111166267 -0.229354796466502 -1.3146049461972196e-11 0.0 -1.511583712148294e-25 -7.14586669994025 -7.145866699940251 -1.0424175499402515 -5.974879480466362e-11 0.0 0.5235987901687622 -1.570796314870016 1.5707963705062866 -1.570796314870016 -1.570796314870016 0.0 0.0 0.0 0.0 0.0 0.0 0.0 -1.151244268742903e-26 -0.5442396402359009 -0.7673661112785339 -0.22935479879379272 -1.3146049353263134e-11 0.0 -1.151244268742903e-26 -0.5442396402359009 -0.7673661112785339 -0.22935479879379272 -1.3146049353263134e-11 0.0 -0.20242017919057226 -0.2465979566016299 0.3136499823461779 1.5707961689200318 2.720698818034143 8.713184816023728e-08 0.0 0.0 0.0 0.0 0.0 0.0 6.264272891449523e-07 7.631437114135668e-07 4.253146293222041e-08 -5.5397674192897393e-08 3.900026026832363e-08 -2.6501511131949763e-15 -0.20242018554765093 -0.2465979541203532 0.31364999997695675 1.570796327073909 2.720699046190239 4.400997683934631e-10 0.0 0.0 0.0 0.0 0.0 0.0

479.328 0.5235987755982989 -1.5707963267948966 1.5707963267948966 -1.5707963267948966 -1.5707963267948966 0.0 0.0 0.0 0.0 0.0 0.0 0.0 0.0 0.0 0.0 0.0 0.0 0.0 -1.1512442590619146e-26 -0.5442396572688689 -0.7673661111166267 -0.229354796466502 -1.3146049461972196e-11 0.0 -1.511583712148294e-25 -7.14586669994025 -7.145866699940251 -1.0424175499402515 -5.974879480466362e-11 0.0 0.5235987901687622 -1.570796314870016 1.5707963705062866 -1.570796314870016 -1.570796314870016 0.0 0.0 0.0 0.0 0.0 0.0 0.0 -1.151244268742903e-26 -0.5442396402359009 -0.7673661112785339 -0.22935479879379272 -1.3146049353263134e-11 0.0 -1.151244268742903e-26 -0.5442396402359009 -0.7673661112785339 -0.22935479879379272 -1.3146049353263134e-11 0.0 -0.20242017919057226 -0.2465979566016299 0.3136499823461779 1.5707961689200318 2.720698818034143 8.713184816023728e-08 0.0 0.0 0.0 0.0 0.0 0.0 6.264272891449523e-07 7.631437114135668e-07 4.253146293222041e-08 -5.5397674192897393e-08 3.900026026832363e-08 -2.6501511131949763e-15 -0.20242018554765093 -0.2465979541203532 0.31364999997695675 1.570796327073909 2.720699046190239 4.400997683934631e-10 0.0 0.0 0.0 0.0 0.0 0.0

479.33599999999996 0.5235987755982989 -1.5707963267948966 1.5707963267948966 -1.5707963267948966 -1.5707963267948966 0.0 0.0 0.0 0.0 0.0 0.0 0.0 0.0 0.0 0.0 0.0 0.0 0.0 -1.1512442590619146e-26 -0.5442396572688689 -0.7673661111166267 -0.229354796466502 -1.3146049461972196e-11 0.0 -1.511583712148294e-25 -7.14586669994025 -7.145866699940251 -1.0424175499402515 -5.974879480466362e-11 0.0 0.5235987901687622 -1.570796314870016 1.5707963705062866 -1.570796314870016 -1.570796314870016 0.0 0.0 0.0 0.0 0.0 0.0 0.0 -1.151244268742903e-26 -0.5442396402359009 -0.7673661112785339 -0.22935479879379272 -1.3146049353263134e-11 0.0 -1.151244268742903e-26 -0.5442396402359009 -0.7673661112785339 -0.22935479879379272 -1.3146049353263134e-11 0.0 -0.20242017919057226 -0.2465979566016299 0.3136499823461779 1.5707961689200318 2.720698818034143 8.713184816023728e-08 0.0 0.0 0.0 0.0 0.0 0.0 6.264272891449523e-07 7.631437114135668e-07 4.253146293222041e-08 -5.5397674192897393e-08 3.900026026832363e-08 -2.6501511131949763e-15 -0.20242018554765093 -0.2465979541203532 0.31364999997695675 1.570796327073909 2.720699046190239 4.400997683934631e-10 0.0 0.0 0.0 0.0 0.0 0.0

479.344 0.5235987755982989 -1.5707963267948966 1.5707963267948966 -1.5707963267948966 -1.5707963267948966 0.0 0.0 0.0 0.0 0.0 0.0 0.0 0.0 0.0 0.0 0.0 0.0 0.0 -1.1512442590619146e-26 -0.5442396572688689 -0.7673661111166267 -0.229354796466502 -1.3146049461972196e-11 0.0 -1.511583712148294e-25 -7.14586669994025 -7.145866699940251 -1.0424175499402515 -5.974879480466362e-11 0.0 0.5235987901687622 -1.570796314870016 1.5707963705062866 -1.570796314870016 -1.570796314870016 0.0 0.0 0.0 0.0 0.0 0.0 0.0 -1.151244268742903e-26 -0.5442396402359009 -0.7673661112785339 -0.22935479879379272 -1.3146049353263134e-11 0.0 -1.151244268742903e-26 -0.5442396402359009 -0.7673661112785339 -0.22935479879379272 -1.3146049353263134e-11 0.0 -0.20242017919057226 -0.2465979566016299 0.3136499823461779 1.5707961689200318 2.720698818034143 8.713184816023728e-08 0.0 0.0 0.0 0.0 0.0 0.0 6.264272891449523e-07 7.631437114135668e-07 4.253146293222041e-08 -5.5397674192897393e-08 3.900026026832363e-08 -2.6501511131949763e-15 -0.20242018554765093 -0.2465979541203532 0.31364999997695675 1.570796327073909 2.720699046190239 4.400997683934631e-10 0.0 0.0 0.0 0.0 0.0 0.0

479.352 0.5235988555982989 -1.5707962867948968 1.5707962467948966 -1.5707963267948966 -1.5707963267948966 0.0 3.9999999999999996e-05 2.0000000000000012e-05 -3.9999999999999996e-05 0.0 0.0 0.0 0.004999999999999999 0.0025000000000000014 -0.004999999999999999 0.0 0.0 0.0 0.00030642161694038916 -0.5441512051122506 -0.7675276370127339 -0.22937299349663898 9.744729479929484e-06 0.0 0.00402331583042731 -7.1447053231238495 -7.14737086138998 -1.042500255442224 4.4289795486279505e-05 0.0 0.523598849773407 -1.570796314870016 1.570796251296997 -1.570796314870016 -1.570796314870016 0.0 3.9999998989515007e-05 1.9999999494757503e-05 -3.9999998989515007e-05 0.0 0.0 0.0 0.0003064216289203614 -0.5441511869430542 -0.7675276398658752 -0.2293729931116104 9.744729140948039e-06 0.0 0.0003064216289203614 -0.5441511869430542 -0.7675276398658752 -0.2293729931116104 9.744729140948039e-06 0.0 -0.20242017294740253 -0.24659797354843335 0.3136500179420717 -1.5707961772493002 -2.7206990197143717 8.959395790552636e-08 4.2252279844130426e-06 -1.1352306870772836e-05 5.971999875288328e-06 -1.0000001032129249e-05 1.7320506896384825e-05 3.999999899361707e-05 7.373985387505871e-07 8.991113892872935e-07 -1.3279715268692688e-07 -8.018065177994618e-08 7.172340827080172e-08 5.294755484101334e-16 -0.20242017709719604 -0.246597976824968 0.3136500119209567 -1.5707961551782528 -2.7206989997856317 5.2122378390076284e-08 4.22522813688684e-06 -1.1352307416603898e-05 5.971999870264034e-06 -1.0000001385640606e-05 1.7320507275688703e-05 4.000000000410206e-05

479.35999999999996 0.5235994955982989 -1.570795966794897 1.5707956067948965 -1.5707963267948966 -1.5707963267948966 0.0 0.00018 9.000000000000006e-05 -0.00018 0.0 0.0 0.0 0.0175 0.008750000000000006 -0.0175 0.0 0.0 0.0 0.0010724762440333226 -0.5439302726150809 -0.767931458413669 -0.22941850005593786 3.4106628048146464e-05 0.0 0.014081613084157526 -7.141804479436012 -7.15113132703977 -1.0427070827542375 0.00015501462447882567 0.0 0.5235995054244995 -1.5707958380328577 1.5707956552505493 -1.570796314870016 -1.570796314870016 0.0 0.00018000000272877514 9.000000136438757e-05 -0.00018000000272877514 0.0 0.0 0.0 0.0010724762687459588 -0.5439302921295166 -0.7679314613342285 -0.22941850125789642 3.4106629755115137e-05 0.0 0.0010724762687459588 -0.5439302921295166 -0.7679314613342285 -0.22941850125789642 3.4106629755115137e-05 0.0 -0.20242012033631412 -0.2465981692377726 0.31365005353793757 -1.5707950980813778 -2.7206992103290184 2.4357759841301706e-07 1.9013574302062282e-05 -5.1085388548195e-05 2.6873990947465467e-05 -4.500005756650537e-05 7.794225467999349e-05 0.00018000000274723444 -6.377572650564071e-07 -7.753443722462604e-07 -1.0191744680513233e-07 6.188953695274552e-08 -4.942618524434393e-08 -4.064928940364188e-15 -0.2024201094934577 -0.24659815846188624 0.31365010747294636 -1.570794781900512 -2.7206986318173043 4.900350414042052e-07 1.9013576134022105e-05 -5.1085383145625235e-05 2.687399475778644e-05 -4.5000056118434474e-05 7.794225394057924e-05 0.0001800000000184593

479.368 0.523601655598299 -1.5707948867948964 1.5707934467948965 -1.5707963267948966 -1.5707963267948966 0.0 0.00047999999999999996 0.00024000000000000011 -0.00047999999999999996 0.0 0.0 0.0 0.03749999999999999 0.01875000000000001 -0.03749999999999999 0.0 0.0 0.0 0.002298167103517032 -0.5435772926804092 -0.7685775891102106 -0.22949134628686949 7.308591190580327e-05 0.0 0.03017493406917863 -7.137169852893773 -7.157148225312103 -1.0430381688738217 0.00033217546961187585 0.0 0.5236016511917114 -1.5707948843585413 1.5707933902740479 -1.570796314870016 -1.570796314870016 0.0 0.0004799999878741801 0.00023999999393709004 -0.0004799999878741801 0.0 0.0 0.0 0.002298167208209634 -0.5435773134231567 -0.7685775756835938 -0.22949135303497314 7.3085910116788e-05 0.0 0.002298167208209634 -0.5435773134231567 -0.7685775756835938 -0.22949135303497314 7.3085910116788e-05 0.0 -0.20241988543221254 -0.24659877346354298 0.31365044509263446 -1.5707901193120026 -2.7206973279611795 2.0252088548235683e-06 5.0703317994210674e-05 -0.00013622768273942703 7.16639429709264e-05 -0.00012000059464890087 0.0002078457465855711 0.0004799999879234049 -1.1079232303695257e-06 -1.342941018436052e-06 7.301382972426296e-07 1.5647371841908677e-07 -1.71272222932873e-07 -7.125491841589442e-14 -0.20241988132954145 -0.24659877148647943 0.313650429960789 -1.570790147097328 -2.720697389930625 1.9588172934812673e-06 5.070331535315196e-05 -0.00013622768632554416 7.166394409509413e-05 -0.00012000059859626136 0.00020784575130740316 0.0004800000000492248

479.376 0.5236067755982989 -1.5707923267948969 1.5707883267948965 -1.5707963267948966 -1.5707963267948966 0.0 0.0009999999999999998 0.0005000000000000002 -0.0009999999999999998 0.0 0.0 0.0 0.06499999999999997 0.032500000000000015 -0.06499999999999997 0.0 0.0 0.0 0.003983504009851797 -0.5430929174988256 -0.7694660478868163 -0.22959157647437164 0.00012668327612943287 0.0 0.0523034076493541 -7.13081000675958 -7.165421731131611 -1.043493715076019 0.0005757754900082724 0.0 0.5236067771911621 -1.5707925001727503 1.5707883834838867 -1.570796314870016 -1.570796314870016 0.0 0.0010000000474974513 0.0005000000237487257 -0.0010000000474974513 0.0 0.0 0.0 0.0039835041388869286 -0.5430929064750671 -0.7694660425186157 -0.22959157824516296 0.0001266832696273923 0.0 0.0039835041388869286 -0.5430929064750671 -0.7694660425186157 -0.22959157824516296 0.0001266832696273923 0.0 -0.20241931045411746 -0.2466002089180245 0.3136512282013689 -1.570784421019879 -2.7207035620288362 5.592823703658839e-06 0.00010563411191968561 -0.0002838076448597422 0.0001492997089935355 -0.00025000347665786937 0.0004330107220470463 0.001000000047600003 2.607851272819455e-07 3.2607535915825785e-07 2.7215785381013515e-07 -1.1092373877456085e-08 -5.743152850389525e-09 5.120935718590421e-14 -0.2024193404885436 -0.24660022458177416 0.3136511943756628 -1.5707844442252803 -2.7207035972179057 5.440992046316999e-06 0.00010563410778969434 -0.0002838076696459505 0.00014929967649040662 -0.00025000346409361494 0.00043301070187836256 0.0010000000001025515

479.38399999999996 0.5236167755982989 -1.5707873267948962 1.5707783267948965 -1.5707963267948966 -1.5707963267948966 0.0 0.0017999999999999995 0.0009000000000000004 -0.0017999999999999997 0.0 0.0 0.0 0.09999999999999996 0.050000000000000024 -0.09999999999999999 0.0 0.0 0.0 0.0061285092788145356 -0.5424780218457174 -0.7705968562589991 -0.22971924795628948 0.0001949002966090529 0.0 0.08046732683083485 -7.122736426834269 -7.175952044855052 -1.0440739819613356 0.0008858218480881455 0.0 0.5236167907714844 -1.57078725496401 1.5707783699035645 -1.570796314870016 -1.570796314870016 0.0 0.0017999999690800905 0.0008999999845400453 -0.0017999999690800905 0.0 0.0 0.0 0.006128509063273668 -0.5424780249595642 -0.7705968618392944 -0.22971925139427185 0.0001949002908077091 0.0 0.006128509063273668 -0.5424780249595642 -0.7705968618392944 -0.22971925139427185 0.0001949002908077091 0.0 -0.20241828605474146 -0.24660307013146188 0.3136526520314152 -1.570769606977328 -2.7207093618815357 1.2079581826864703e-05 0.00019014911610105818 -0.0005108537838665185 0.00026873866008034935 -0.00045001403363462665 0.000779414743063008 0.0017999999692646835 3.55668949219973e-08 2.934942174046101e-08 -1.7040695206483472e-07 -1.8858816973033923e-09 1.9633149475806368e-09 5.749881305919407e-15 -0.2024182841259735 -0.24660306265837081 0.31365268737040564 -1.570769590740695 -2.7207092860894706 1.2242813782624994e-05 0.00019014913123642326 -0.0005108537694171546 0.00026873868979899757 -0.0004500140295386402 0.0007794147632797281 0.0018000000001845925

479.392 0.5236340555982989 -1.5707786867948963 1.5707610467948965 -1.5707963267948966 -1.5707963267948966 0.0 0.002939999999999999 0.0014700000000000004 -0.002939999999999999 0.0 0.0 0.0 0.14249999999999993 0.07125 -0.1424999999999999 0.0 0.0 0.0 0.00873322557579132 -0.5417337074268062 -0.7719700354603685 -0.22987442968038388 0.000277739980657171 0.0 0.11466725181014005 -7.112963578513965 -7.188739364214044 -1.0447792828973448 0.0012623282120868423 0.0 0.5236340761184692 -1.5707786718951624 1.5707610845565796 -1.570796314870016 -1.570796314870016 0.0 0.002940000034868717 0.0014700000174343586 -0.002940000034868717 0.0 0.0 0.0 0.008733225986361504 -0.5417336821556091 -0.7719700336456299 -0.22987443208694458 0.0002777399786282331 0.0 0.008733225986361504 -0.5417336821556091 -0.7719700336456299 -0.22987443208694458 0.0002777399786282331 0.0 -0.2024164516446374 -0.24660797102411058 0.3136552505131454 -1.5707439172712696 -2.7207191692945765 2.3917811605570102e-05 0.00031059875147697384 -0.0008343943983066046 0.0004389377976940886 -0.0007350449478461859 0.0012730314119858992 0.002940000035170219 8.671028139168742e-07 1.0830442658326522e-06 1.3051432408461185e-07 -7.766896488610668e-08 5.1890227604256694e-08 7.251418938528524e-13 -0.20241645863013796 -0.24660796685425804 0.3136552672557903 -1.5707439238868492 -2.720719116285429 2.3996304775709402e-05 0.00031059875193735015 -0.0008343943881373196 0.00043893780560011405 -0.0007350449130056517 0.0012730314119708556 0.002940000000301501

479.4 0.5236614955982989 -1.570764966794897 1.5707336067948965 -1.5707963267948966 -1.5707963267948966 0.0 0.004479999999999999 0.0022400000000000007 -0.004479999999999999 0.0 0.0 0.0 0.19249999999999995 0.09625000000000003 -0.19249999999999995 0.0 0.0 0.0 0.011797725703741909 -0.5408613082689712 -0.7735856026739517 -0.23005720040623104 0.0003752074530384238 0.0 0.15490413849013127 -7.1015089775715925 -7.203783849220374 -1.04560997584632 0.0017053178740596361 0.0 0.5236614942550659 -1.5707648436175745 1.5707335472106934 -1.570796314870016 -1.570796314870016 0.0 0.004480000119656324 0.002240000059828162 -0.004480000119656324 0.0 0.0 0.0 0.011797726154327393 -0.5408613085746765 -0.7735856175422668 -0.23005719482898712 0.0003752074553631246 0.0 0.011797726154327393 -0.5408613085746765 -0.7735856175422668 -0.23005719482898712 0.0003752074553631246 0.0 -0.202413580024293 -0.2466157670235596 0.3136593439855876 -1.5707031917165395 -2.7207347665108217 4.25673150453916e-05 0.00047334620741755604 -0.0012714580141017116 0.0006688525740626089 -0.0011201216954425336 0.0019398267075770232 0.004480000120115756 3.6413788079645567e-07 4.7288779219333027e-07 -7.681546571213129e-07 -8.418083287795613e-08 1.0855661909122453e-07 5.807896696025023e-13 -0.20241355954662515 -0.24661575453445428 0.3136593639934184 -1.5707031658492145 -2.7207347259235686 4.266067833774994e-05 0.0004733461781216281 -0.0012714578668415362 0.0006688526372782774 -0.001120121668130841 0.0019398266542616054 0.004480000000459431

479.40799999999996 0.523702455598299 -1.5707444867948963 1.5706926467948965 -1.5707963267948966 -1.5707963267948966 0.0 0.006479999999999998 0.003240000000000001 -0.006479999999999999 0.0 0.0 0.0 0.2499999999999999 0.12500000000000006 -0.25 0.0 0.0 0.0 0.015322124331723653 -0.5398623971533968 -0.7754435665015385 -0.23026764655001583 0.00048731077722506536 0.0 0.20117949247553157 -7.0883932746241 -7.221085579975626 -1.0465664535698218 0.002214827482487922 0.0 0.5237024426460266 -1.5707443396197718 1.5706926584243774 -1.570796314870016 -1.570796314870016 0.0 0.006479999981820583 0.0032399999909102917 -0.006479999981820583 0.0 0.0 0.0 0.0153221245855093 -0.5398623943328857 -0.7754435539245605 -0.23026764392852783 0.0004873107827734202 0.0 0.0153221245855093 -0.5398623943328857 -0.7754435539245605 -0.23026764392852783 0.0004873107827734202 0.0 -0.2024092531021467 -0.24662738845593013 0.3136654307441777 -1.5706423912775367 -2.7207580985292448 7.029871698833163e-05 0.0006847754426842072 -0.0018390726454134848 0.0009674366666628616 -0.0016202908684307057 0.002805754344695693 0.006479999982485119 -2.2839242730907625e-07 -2.618264644961242e-07 4.933565937924496e-07 3.656511617449622e-08 -4.483990015614357e-08 -4.767759475572451e-13 -0.20240923144955386 -0.2466273792903837 0.31366547918360654 -1.5706423258174262 -2.720758025828547 7.052160827479468e-05 0.0006847755279430851 -0.0018390724436144216 0.0009674368308568113 -0.0016202909093172692 0.0028057543315806897 0.006480000000664533

479.416 0.5237607755982989 -1.5707153267948968 1.5706343267948966 -1.5707963267948966 -1.5707963267948966 0.0 0.008999999999999996 0.0045000000000000005 -0.008999999999999996 0.0 0.0 0.0 0.3149999999999997 0.15749999999999992 -0.3149999999999996 0.0 0.0 0.0 0.019306591665470305 -0.5387387930887391 -0.7775439216642679 -0.230505859669985 0.0006140619115503125 0.0 0.25349554856762513 -7.0736403532551435 -7.240644507321996 -1.0476491322000818 0.0027909113879961704 0.0 0.5237607955932617 -1.5707152525531214 1.570634365081787 -1.570796314870016 -1.570796314870016 0.0 0.008999999612569809 0.0044999998062849045 -0.008999999612569809 0.0 0.0 0.0 0.019306590780615807 -0.5387387871742249 -0.7775439023971558 -0.23050585389137268 0.0006140618934296072 0.0 0.019306590780615807 -0.5387387871742249 -0.7775439023971558 -0.23050585389137268 0.0006140618934296072 0.0 -0.202403069158838 -0.24664393978226162 0.3136741514251692 -1.5705557090443978 -2.72079127781535 0.00011003166686363502 0.0009513026639799975 -0.0025542661991553943 0.0013436408525453994 -0.0022506312840227367 0.0038967495531458457 0.008999999613492774 -2.6365750527710616e-07 -3.7869463604390415e-07 7.18230313425988e-07 4.846820846509324e-08 -5.197659831568874e-08 -1.2911866288885948e-12 -0.20240306773878405 -0.24664393093885636 0.31367418604630815 -1.5705556999765038 -2.7207911992808085 0.0001101916009697102 0.0009513027455902445 -0.0025542661930541646 0.001343641037641465 -0.0022506313029920957 0.00389674976589363 0.00900000000092296

479.424 0.5238407755982989 -1.5706753267948965 1.5705543267948965 -1.5707963267948966 -1.5707963267948966 0.0 0.012099999999999996 0.0060500000000000016 -0.012099999999999996 0.0 0.0 0.0 0.3875 0.19375000000000012 -0.3875 0.0 0.0 0.0 0.02375136906236107 -0.5374925698233026 -0.7798866429275165 -0.23077193359014905 0.0007554777997472693 0.0 0.31185547578880085 -7.057277441779964 -7.26246039626962 -1.0488584381672275 0.003433646599851339 0.0 0.5238407850265503 -1.5706751982318323 1.5705543756484985 -1.570796314870016 -1.570796314870016 0.0 0.01209999993443489 0.006049999967217445 -0.01209999993443489 0.0 0.0 0.0 0.02375136874616146 -0.537492573261261 -0.7798866629600525 -0.23077192902565002 0.0007554778130725026 0.0 0.02375136874616146 -0.537492573261261 -0.7798866629600525 -0.23077192902565002 0.0007554778130725026 0.0 -0.2023946212265921 -0.24666664618962736 0.3136860753927038 -1.5704369111341017 -2.7208367999496406 0.00016436196853464522 0.0012793896483178032 -0.0034340672315064506 0.0018064112845073777 -0.003026267892197091 0.005238721432562345 0.012099999935675766 4.0035857139926494e-07 4.6743050202141243e-07 -9.721340559770548e-07 -9.011231482892045e-08 1.2263206087405996e-07 2.014181239703808e-12 -0.2023946103388181 -0.24666663552047724 0.31368612939277574 -1.5704368714766714 -2.7208367016141293 0.0001646101770856444 0.0012793897997174979 -0.0034340669388987274 0.0018064115775864576 -0.0030262678592032524 0.005238721489481312 0.012100000001240872

479.43199999999996 0.5239472555982989 -1.5706220867948968 1.5704478467948966 -1.5707963267948966 -1.5707963267948966 0.0 0.015839999999999996 0.007920000000000003 -0.015839999999999996 0.0 0.0 0.0 0.4675 0.23375000000000024 -0.4675 0.0 0.0 0.0 0.028656786594222543 -0.5361260653972223 -0.7824716782434488 -0.23106596115976605 0.0009115815951172753 0.0 0.376263607982142 -7.039335238665529 -7.286532762138644 -1.0501947934711366 0.004143138349808016 0.0 0.5239472389221191 -1.5706222693072718 1.5704478025436401 -1.570796314870016 -1.570796314870016 0.0 0.01583999954164028 0.00791999977082014 -0.01583999954164028 0.0 0.0 0.0 0.028656786307692528 -0.5361260771751404 -0.7824716567993164 -0.23106595873832703 0.0009115816210396588 0.0 0.028656786307692528 -0.5361260771751404 -0.7824716567993164 -0.23106595873832703 0.0009115816210396588 0.0 -0.20238332961816516 -0.2466968393170283 0.31370209229000257 -1.570278684570223 -2.720897162503725 0.00023734575791481261 0.0016755627331341066 -0.004495501385249907 0.0023646891751063796 -0.003962389727346172 0.006857540668374676 0.0158399995432647 -9.79277078443238e-07 -1.2123267059242995e-06 8.8506787451711e-07 1.3167408477924112e-07 -1.3601383516868426e-07 -8.016165572062673e-12 -0.20238334927164056 -0.2466968552972277 0.3137020255853598 -1.5702787104118074 -2.7208972596815353 0.0002370441298770398 0.0016755625989304745 -0.004495502128118203 0.0023646887520748236 -0.003962389956362837 0.006857540800732782 0.015840000001624416

479.44 0.524085495598299 -1.5705529667948968 1.5703096067948965 -1.5707963267948966 -1.5707963267948966 0.0 0.020279999999999996 0.010140000000000005 -0.020279999999999996 0.0 0.0 0.0 0.5549999999999999 0.2775000000000002 -0.5549999999999999 0.0 0.0 0.0 0.03402328256281664 -0.5346418927386177 -0.7852989411054246 -0.23138803064617788 0.0010824040172596008 0.0 0.44672570004978257 -7.019848051658051 -7.3128607993619354 -1.0516585992868785 0.004919526258444886 0.0 0.524085521697998 -1.5705531279193323 1.5703096389770508 -1.570796314870016 -1.570796314870016 0.0 0.02027999982237816 0.01013999991118908 -0.02027999982237816 0.0 0.0 0.0 0.03402328118681908 -0.5346419215202332 -0.7852989435195923 -0.23138803243637085 0.001082404050976038 0.0 0.03402328118681908 -0.5346419215202332 -0.7852989435195923 -0.23138803243637085 0.001082404050976038 0.0 -0.20236868944447406 -0.246736080021987 0.31372269997874624 -1.5700733141857228 -2.7209758498596464 0.0003312564650419028 0.002146433236231294 -0.005755597821447639 0.003027405233133732 -0.005074273714495241 0.008779028674591353 0.020279999824457908 -9.58059326860002e-07 -1.2574417317200914e-06 -6.691227517279365e-08 1.0431506556862972e-07 -8.046089480083374e-08 -1.2184522923267287e-11 -0.20236872207227033 -0.24673608874885486 0.31372266248248726 -1.5700733737709245 -2.720975871091685 0.0003310879046537706 0.0021464330598933616 -0.005755598649142334 0.003027404764486941 -0.00507427352980812 0.00877902888391925 0.020280000002079746

479.448 0.524261255598299 -1.570465086794897 1.5701338467948966 -1.5707963267948966 -1.5707963267948966 0.0 0.02548 0.012740000000000007 -0.02548 0.0 0.0 0.0 0.6500000000000004 0.3250000000000002 -0.6500000000000004 0.0 0.0 0.0 0.03985142497460921 -0.533042951311528 -0.7883683021098523 -0.2317382217587441 0.0012679848399056858 0.0 0.5232492099166189 -6.998853950720363 -7.341443302907368 -1.053250217893492 0.005762991097371342 0.0 0.5242612361907959 -1.5704649130450647 1.5701338052749634 -1.570796314870016 -1.570796314870016 0.0 0.02548000030219555 0.012740000151097775 -0.02548000030219555 0.0 0.0 0.0 0.03985142335295677 -0.5330429673194885 -0.788368284702301 -0.23173822462558746 0.001267984858714044 0.0 0.03985142335295677 -0.5330429673194885 -0.788368284702301 -0.23173822462558746 0.001267984858714044 0.0 -0.20235014375232116 -0.24678598277406172 0.3137488588459722 -1.5698123729488758 -2.7210758593316786 0.000450477378746237 0.002698725620944165 -0.0072313836266627626 0.0038034805620219816 -0.006377307713475763 0.011028941480378515 0.025480000304808566 -9.995406212776716e-07 -1.3243502233363864e-06 8.217599919497569e-07 1.501590292900944e-07 -1.5379866966061272e-07 -1.7547023740240154e-11 -0.2023501130123021 -0.24678597056753498 0.31374889936554273 -1.56981230537561 -2.7210758031978206 0.0004506641399926456 0.002698725764773564 -0.007231382569076142 0.0038034812064903613 -0.006377307851884414 0.011028941225806456 0.025480000002613017

479.45599999999996 0.524480775598299 -1.5703553267948962 1.5699143267948965 -1.5707963267948966 -1.5707963267948966 0.0 0.0315 0.01575000000000001 -0.0315 0.0 0.0 0.0 0.7525000000000002 0.3762500000000005 -0.7525000000000002 0.0 0.0 0.0 0.046141934983517735 -0.5313324398284395 -0.791679579723169 -0.23211660130193093 0.0014683745079270179 0.0 0.6058436063335879 -6.976394934947409 -7.372278582298095 -1.054969952917276 0.006673762138528296 0.0 0.5244807600975037 -1.570355240498678 1.5699143409729004 -1.570796314870016 -1.570796314870016 0.0 0.03150000050663948 0.01575000025331974 -0.03150000050663948 0.0 0.0 0.0 0.046141933649778366 -0.5313324332237244 -0.7916795611381531 -0.23211659491062164 0.001468374510295689 0.0 0.046141933649778366 -0.5313324332237244 -0.7916795611381531 -0.23211659491062164 0.001468374510295689 0.0 -0.20232686567405178 -0.2468482752853563 0.31378163581130963 -1.5694862901204532 -2.721200637248025 0.0005998807380790066 0.0033393093518852665 -0.008939879501678375 0.004701825667083738 -0.00788702724279309 0.013632949396627698 0.03150000050986986 -2.1085093472662873e-07 -3.4383533472498027e-07 6.755087810107652e-07 4.249988963285566e-08 -4.203390236407592e-08 -6.938089043391549e-12 -0.20232685209322665 -0.24684827165004383 0.3137816668440303 -1.5694862358039174 -2.7212005917958706 0.0006000243005640306 0.003339309646262896 -0.008939878754253483 0.004701826067392141 -0.007887027327261327 0.01363294905510296 0.03150000000323038

479.464 0.524750775598299 -1.5702203267948969 1.5696443267948965 -1.5707963267948966 -1.5707963267948966 0.0 0.0384 0.019200000000000012 -0.038400000000000004 0.0 0.0 0.0 0.8624999999999995 0.4312500000000002 -0.8625000000000004 0.0 0.0 0.0 0.052895712312821794 -0.5295138700463387 -0.7952325302544322 -0.2325232184560975 0.0016836358810172211 0.0 0.6945207026673501 -6.952517113708427 -7.405364368235324 -1.056818027882963 0.00765212507922327 0.0 0.5247507691383362 -1.5702202955829065 1.5696443319320679 -1.570796314870016 -1.570796314870016 0.0 0.03840000182390213 0.019200000911951065 -0.03840000182390213 0.0 0.0 0.0 0.05289571359753609 -0.5295138955116272 -0.7952325344085693 -0.23252321779727936 0.0016836358699947596 0.0 0.05289571359753609 -0.5295138955116272 -0.7952325344085693 -0.23252321779727936 0.0016836358699947596 0.0 -0.20229821803942732 -0.24692490045737342 0.3138219548567494 -1.569085208287146 -2.721354064250966 0.0007836932227403986 0.004075235169138606 -0.010898111085637867 0.00573133027355335 -0.009619149071498082 0.016616618373159423 0.03840000182784012 -8.498100450559779e-07 -9.539866264021129e-07 -1.9474539217428823e-07 6.822616343483813e-08 -5.258844694592643e-08 -1.8832442254662963e-11 -0.20229821376779233 -0.24692489908632823 0.3138219667350534 -1.569085182291177 -2.7213540394668536 0.0007837495455475241 0.004075235140377622 -0.010898110324726668 0.00573133022312061 -0.009619148721955769 0.016616617521773087 0.038400000003937985

479.472 0.5250784555982989 -1.570056486794897 1.5693166467948965 -1.5707963267948966 -1.5707963267948966 0.0 0.04624 0.023120000000000016 -0.04624000000000001 0.0 0.0 0.0 0.9800000000000009 0.49000000000000044 -0.9800000000000009 0.0 0.0 0.0 0.06011386267030106 -0.5275910816727 -0.7990268370376684 -0.2329580996851782 0.0019138461008769692 0.0 0.789295016861053 -6.927270902362552 -7.4406977118621755 -1.0587945630691349 0.008698430528485825 0.0 0.5250784754753113 -1.5700562636004847 1.5693166255950928 -1.570796314870016 -1.570796314870016 0.0 0.04623999819159508 0.02311999909579754 -0.04623999819159508 0.0 0.0 0.0 0.06011386215686798 -0.5275911092758179 -0.7990268468856812 -0.2329580932855606 0.0019138461211696267 0.0 0.06011386215686798 -0.5275911092758179 -0.7990268468856812 -0.2329580932855606 0.0019138461211696267 0.0 -0.20226344187937936 -0.24701791950900454 0.3138708105262305 -1.5685984801047925 -2.7215403306914006 0.001006470063015717 0.0049137769864698285 -0.013123099429311145 0.006900861429216869 -0.011589614182195361 0.02000537930901424 0.04623999819633707 -7.403937615739347e-07 -9.376812511463057e-07 -5.656167503229042e-07 3.804364351447473e-08 6.4381512265747154e-09 -2.6734290622788357e-11 -0.20226341534415612 -0.2470178961429234 0.313870871912792 -1.568598448608595 -2.721540213512925 0.0010067517616254003 0.004913777249702097 -0.013123097875675062 0.006900863360412584 -0.011589614237807602 0.020005380321773618 0.046240000004741995

479.47999999999996 0.525471495598299 -1.5698599667948967 1.5689236067948966 -1.5707963267948966 -1.5707963267948966 0.0 0.055080000000000004 0.027540000000000023 -0.05508000000000001 0.0 0.0 0.0 1.105 0.5525000000000009 -1.105 0.0 0.0 0.0 0.06779772717394755 -0.52556825841659 -0.8030620988326859 -0.23342124327133743 0.0021590985779454054 0.0 0.8901841577939312 -6.900711233009828 -7.478274876749738 -1.0608995506682286 0.009813103036761868 0.0 0.5254715085029602 -1.569859806691305 1.5689235925674438 -1.570796314870016 -1.570796314870016 0.0 0.055080000311136246 0.027540000155568123 -0.055080000311136246 0.0 0.0 0.0 0.06779772788286209 -0.5255682468414307 -0.8030620813369751 -0.2334212362766266 0.0021590986289083958 0.0 0.06779772788286209 -0.5255682468414307 -0.8030620813369751 -0.2334212362766266 0.0021590986289083958 0.0 -0.20222163394716985 -0.24712945879940984 0.31392948149829714 -1.5680146518663327 -2.7217635308234436 0.0012740695041234826 0.005862484904573891 -0.01563186022262485 0.008219267907878582 -0.013814641221149655 0.02382451041468859 0.0550800003167848 -4.6393656176832165e-08 -1.0663204980567436e-08 6.149671052831961e-07 1.1477301014687843e-08 -2.1625344833440716e-08 8.605220752850753e-13 -0.20222161502400385 -0.24712944223904112 0.31392952612331143 -1.5680146249110656 -2.721763443415848 0.0012742748624166977 0.005862484962754249 -0.015631858376562814 0.008219269290538263 -0.013814640835666182 0.023824510458381798 0.055080000005648555

479.488 0.525938055598299 -1.569626686794896 1.5684570467948966 -1.5707963267948966 -1.5707963267948966 0.0 0.06498000000000001 0.032490000000000026 -0.06498000000000001 0.0 0.0 0.0 1.2375000000000007 0.6187500000000004 -1.2374999999999998 0.0 0.0 0.0 0.0759489138092805 -0.5234499452304447 -0.807337817458667 -0.23391261347778106 0.0024195050928144607 0.0 0.9972092383158531 -6.872897780875739 -7.518091223738599 -1.063132828256515 0.010996650646841723 0.0 0.5259380340576172 -1.5696266333209437 1.568457007408142 -1.570796314870016 -1.570796314870016 0.0 0.06498000025749207 0.03249000012874603 -0.06498000025749207 0.0 0.0 0.0 0.07594891637563705 -0.5234499573707581 -0.8073378205299377 -0.2339126169681549 0.0024195050355046988 0.0 0.07594891637563705 -0.5234499573707581 -0.8073378205299377 -0.2339126169681549 0.0024195050355046988 0.0 -0.2021719237890615 -0.24726185487648142 0.3139991385176938 -1.567321628496887 -2.7220283210896663 0.0015918702864620923 0.0069292373731451576 -0.01844140451975995 0.009695360151450413 -0.016310775659358095 0.028099087276208967 0.06498000026415587 -4.195359105386537e-07 -3.464733759852009e-07 -5.909807012397653e-08 3.3552907225501905e-08 -4.3796974957008506e-08 -8.223141720312255e-12 -0.20217190952225664 -0.24726185291234762 0.31399914375964727 -1.5673215875547688 -2.7220283177588134 0.0015918963423932435 0.00692923747875303 -0.01844140363145847 0.009695360605358591 -0.01631077619999792 0.028099086813517273 0.06498000000666382

479.496 0.5264867755982989 -1.5693523267948963 1.5679083267948966 -1.5707963267948966 -1.5707963267948966 0.0 0.076 0.03800000000000002 -0.076 0.0 0.0 0.0 1.3774999999999984 0.6887499999999992 -1.3774999999999984 0.0 0.0 0.0 0.08456933094333614 -0.5212410667999464 -0.8118533846816064 -0.23443213434228766 0.002695198006421956 0.0 1.1103953152860035 -6.843895207083296 -7.560141088832055 -1.0654940505856973 0.01224967493918779 0.0 0.5264867544174194 -1.5693524519549769 1.5679082870483398 -1.570796314870016 -1.570796314870016 0.0 0.07599999755620956 0.03799999877810478 -0.07599999755620956 0.0 0.0 0.0 0.08456932753324509 -0.5212410688400269 -0.8118534088134766 -0.2344321310520172 0.0026951979380100965 0.0 0.08456932753324509 -0.5212410688400269 -0.8118534088134766 -0.2344321310520172 0.0026951979380100965 0.0 -0.20211332036887944 -0.2474175672709449 0.3140810578771529 -1.5665064947252905 -2.722339606653141 0.0019657466718738244 0.008122307932122383 -0.021568735486237577 0.011337913894346912 -0.01909496041480753 0.032853955528868946 0.0759999975640035 6.253036918229673e-07 5.440291474311867e-07 -1.1250926896368816e-06 -1.0060897605024244e-07 1.4703595255979516e-07 1.8914703578086034e-11 -0.20211333121235964 -0.24741757977039947 0.31408100959174345 -1.5665064988799813 -2.7223396805395232 0.0019655291515674926 0.008122307691274996 -0.02156873815045618 0.011337912626637595 -0.019094961724684303 0.032853956180844336 0.07600000000779393

479.50399999999996 0.5271267755982989 -1.569032326794897 1.5672683267948966 -1.5707963267948966 -1.5707963267948966 0.0 0.084 0.04200000000000003 -0.084 0.0 0.0 0.0 1.0000000000000009 0.5000000000000013 -1.0000000000000009 0.0 0.0 0.0 0.06144730319950161 -0.5282244034784382 -0.799663401803692 -0.23307479028228412 0.0019605306447565024 0.0 0.8068030910094562 -6.935586417671894 -7.446625530276341 -1.0593249218329812 0.008910611780418303 0.0 0.5271267890930176 -1.5690324942218226 1.5672683715820312 -1.570796314870016 -1.570796314870016 0.0 0.08399999886751175 0.041999999433755875 -0.08399999886751175 0.0 0.0 0.0 0.061447303742170334 -0.5282244086265564 -0.7996634244918823 -0.23307478427886963 0.0019605306442826986 0.0 0.061447303742170334 -0.5282244086265564 -0.7996634244918823 -0.23307478427886963 0.0019605306442826986 0.0 -0.20204481343128602 -0.24759919800156016 0.31417651413575737 -1.5655557661547608 -2.7227025983887874 0.0024015839314387444 0.009000412969779137 -0.023838907163499647 0.012529198681920923 -0.02112819342792208 0.03629875197452116 0.0839999988761261 3.875482364679074e-07 5.103691318810681e-07 -1.119744182751145e-06 -1.0364034906711422e-07 1.379805287079592e-07 3.5563169744034355e-11 -0.20204484473751222 -0.24759921042236224 0.31417647844540775 -1.5655558069525544 -2.7227026267952676 0.0024014239003701423 0.009000412751508613 -0.023838910706441254 0.012529196759313565 -0.021128193222930983 0.03629875274902006 0.08400000000861435

479.512 0.5278307755982989 -1.5686803267948966 1.5665643267948965 -1.5707963267948966 -1.5707963267948966 0.0 0.09200000000000001 0.046000000000000034 -0.09200000000000001 0.0 0.0 0.0 1.0000000000000009 0.5000000000000004 -1.0000000000000009 0.0 0.0 0.0 0.06147985498034505 -0.5285600002718378 -0.7996616436790447 -0.23309089947316602 0.001962835364228392 0.0 0.8072304958919305 -6.939992803569231 -7.446609158268 -1.0593981381055395 0.00892108673041804 0.0 0.5278307795524597 -1.5686801115619105 1.5665643215179443 -1.570796314870016 -1.570796314870016 0.0 0.09200000017881393 0.04600000008940697 -0.09200000017881393 0.0 0.0 0.0 0.061479855328798294 -0.5285599827766418 -0.7996616363525391 -0.23309089243412018 0.0019628354348242283 0.0 0.061479855328798294 -0.5285599827766418 -0.7996616363525391 -0.23309089243412018 0.0019628354348242283 0.0 -0.20196933434710368 -0.24779902105884768 0.31428141113135877 -1.564510085107221 -2.7231017122502155 0.002880749473243485 0.009885458845096687 -0.026108992359213705 0.01371982194736598 -0.02316838463366553 0.03973947611244985 0.09200000018824869 4.392494995092153e-07 5.617975245972489e-07 1.6850936734896106e-07 -5.452854296325505e-08 5.12209890339292e-08 4.5084989360412834e-11 -0.20196930609699595 -0.24779900208846412 0.3142814749912983 -1.5645100301575687 -2.7231016041041585 0.002881042132815142 0.009885459579782154 -0.02610898818401171 0.013719825162715365 -0.023168384431498476 0.03973947612682252 0.09200000000943477

479.52 0.5285987755982989 -1.568296326794897 1.5657963267948967 -1.5707963267948966 -1.5707963267948966 0.0 0.1 0.05000000000000004 -0.10000000000000002 0.0 0.0 0.0 0.9999999999999991 0.5000000000000004 -1.0000000000000009 0.0 0.0 0.0 0.061515376734186576 -0.5289260628349288 -0.7996596372252748 -0.233108445129978 0.001965347117540678 0.0 0.8076968965198698 -6.944799205022615 -7.446590473769204 -1.0594778831157499 0.00893250264922238 0.0 0.5285987854003906 -1.568296257649557 1.5657963752746582 -1.570796314870016 -1.570796314870016 0.0 0.10000000149011612 0.05000000074505806 -0.10000000149011612 0.0 0.0 0.0 0.06151537597179413 -0.5289260745048523 -0.7996596097946167 -0.23310844600200653 0.0019653472118079662 0.0 0.06151537597179413 -0.5289260745048523 -0.7996596097946167 -0.23310844600200653 0.0019653472118079662 0.0 -0.20188665964492636 -0.248016959932702 0.31439595752164995 -1.563369188020041 -2.7235366099678013 0.0034042550003561363 0.010778110528052326 -0.028378949531161955 0.014909733467819422 -0.025216193748451507 0.04317572984150195 0.10000000150037129 -1.1159078415526532e-06 -1.4211507672912348e-06 1.2206318230160351e-06 1.7124666364833164e-07 -1.8446660197429188e-07 -1.37097993895317e-10 -0.20188665710471398 -0.24801695391935763 0.3143959937308242 -1.5633691640370344 -2.7235365372242017 0.003404422005426178 0.010778111245550118 -0.028378947805867576 0.014909734613995598 -0.025216192949488476 0.043175729445304865 0.10000000001025518

479.52799999999996 0.5294307755982989 -1.5678803267948966 1.5649643267948965 -1.5707963267948966 -1.5707963267948966 0.0 0.10800000000000001 0.05400000000000004 -0.10800000000000003 0.0 0.0 0.0 1.0000000000000009 0.5000000000000004 -1.0000000000000009 0.0 0.0 0.0 0.06155387120571832 -0.5293225798867482 -0.7996573594046205 -0.23312741996093606 0.0019680652545667238 0.0 0.8082023289310817 -6.950005473913004 -7.446569262247706 -1.0595641237224542 0.00894485658200576 0.0 0.5294307470321655 -1.5678804556476038 1.5649642944335938 -1.570796314870016 -1.570796314870016 0.0 0.1080000028014183 0.05400000140070915 -0.1080000028014183 0.0 0.0 0.0 0.061553869396448135 -0.5293225646018982 -0.7996573448181152 -0.2331274151802063 0.0019680652767419815 0.0 0.061553869396448135 -0.5293225646018982 -0.7996573448181152 -0.2331274151802063 0.0019680652767419815 0.0 -0.2017968242039142 -0.248253050196994 0.3145200759064957 -1.5621332106689028 -2.7240072660876886 0.003971817615783891 0.011679031983009862 -0.03064876103905338 0.016098864445632 -0.0272722743146175 0.04660711539008657 0.10800000281249389 2.1832182977017485e-07 1.5088352938251436e-07 5.34302241621274e-07 -1.1518893257333572e-10 -2.84120039594579e-09 4.474418875907439e-12 -0.20179683426801456 -0.24825306486870446 0.3145200286587816 -1.5621332037368756 -2.7240073441023025 0.003971605082745037 0.011679031324009917 -0.030648763046806814 0.016098861679898588 -0.027272274938585424 0.04660711340207849 0.1080000000110756

479.536 0.5303267755982989 -1.567432326794897 1.5640683267948965 -1.5707963267948966 -1.5707963267948966 0.0 0.11600000000000002 0.05800000000000005 -0.11600000000000003 0.0 0.0 0.0 1.0000000000000009 0.5000000000000013 -1.0000000000000009 0.0 0.0 0.0 0.061595341346724945 -0.5297495391829424 -0.799654785279949 -0.23314781607249047 0.001970989070347133 0.0 0.8087468318824986 -6.955611449472033 -7.446545291483941 -1.0596568240494693 0.00895814532472772 0.0 0.530326783657074 -1.5674322287188929 1.56406831741333 -1.570796314870016 -1.570796314870016 0.0 0.11599999666213989 0.057999998331069946 -0.11599999666213989 0.0 0.0 0.0 0.06159534305334091 -0.5297495126724243 -0.7996547818183899 -0.23314781486988068 0.001970989163964987 0.0 0.06159534305334091 -0.5297495126724243 -0.7996547818183899 -0.23314781486988068 0.001970989163964987 0.0 -0.2016997798716588 -0.2485073440953687 0.31465354565169734 -1.5608021631082638 -2.724513994736406 0.004582508658105581 0.012588883480290775 -0.032918404580637314 0.017287140342578566 -0.029337284552355746 0.05003322437639039 0.11599999667403589 8.341022955189831e-07 1.139523135400484e-06 1.2116944569471018e-07 -9.02879861462418e-08 6.397190306747657e-08 1.5315176419274977e-10 -0.20169976878351 -0.2485073336618787 0.31465357326159865 -1.5608021440095237 -2.7245139358822392 0.004582636322916244 0.01258888392888557 -0.03291840330548691 0.01728714269857622 -0.029337284993319515 0.05003322605250182 0.11600000001189602

479.544 0.531286775598299 -1.5669523267948966 1.5631083267948966 -1.5707963267948966 -1.5707963267948966 0.0 0.12400000000000003 0.062000000000000055 -0.12400000000000004 0.0 0.0 0.0 1.0000000000000009 0.5000000000000004 -1.0000000000000009 0.0 0.0 0.0 0.061639790310885886 -0.530206927510156 -0.7996518880196601 -0.23316962497073698 0.00197411780493307 0.0 0.8093304467819318 -6.9616169582083485 -7.44651831161668 -1.0597559454919996 0.008972365423420801 0.0 0.5312867760658264 -1.5669525305377405 1.5631083250045776 -1.570796314870016 -1.570796314870016 0.0 0.12399999797344208 0.06199999898672104 -0.12399999797344208 0.0 0.0 0.0 0.06163978949189186 -0.5302069187164307 -0.7996518611907959 -0.23316963016986847 0.001974117709323764 0.0 0.06163978949189186 -0.5302069187164307 -0.7996518611907959 -0.23316963016986847 0.001974117709323764 0.0 -0.2015953565934116 -0.248779742463744 0.3147966811211733 -1.5593759357037138 -2.725056142423211 0.005237837011652447 0.01350833472461026 -0.03518782740444001 0.018474517505989194 -0.031411875521768565 0.05345366171328515 0.12399999798615849 -3.558145163071079e-07 -4.928098366120966e-07 1.2845204541799473e-06 1.0761540283551318e-07 -1.4444594546099083e-07 -7.533945963170102e-11 -0.20159538653264894 -0.24877975876204367 0.31479662051543345 -1.5593759792161972 -2.725056216912394 0.005237564059369903 0.01350833374240593 -0.03518783357563246 0.018474513761431926 -0.03141187601014836 0.05345366260157543 0.12400000001271644

479.55199999999996 0.532310775598299 -1.566440326794897 1.5620843267948965 -1.5707963267948966 -1.5707963267948966 0.0 0.13200000000000003 0.06600000000000006 -0.13200000000000003 0.0 0.0 0.0 1.0000000000000009 0.5000000000000004 -0.9999999999999991 0.0 0.0 0.0 0.061687221448172576 -0.5306947306799615 -0.7996486389029548 -0.23319283756293635 0.0019774506432176887 0.0 0.8099532176145059 -6.968021813827895 -7.446488055192097 -1.0598614467235457 0.008987513173424395 0.0 0.5323107838630676 -1.5664404074298304 1.5620843172073364 -1.570796314870016 -1.570796314870016 0.0 0.13199999928474426 0.06599999964237213 -0.13199999928474426 0.0 0.0 0.0 0.06168721988797188 -0.5306947231292725 -0.799648642539978 -0.2331928312778473 0.001977450679987669 0.0 0.06168721988797188 -0.5306947231292725 -0.799648642539978 -0.2331928312778473 0.001977450679987669 0.0 -0.20148359402267801 -0.24907033406641924 0.31494918892004387 -1.5578546777876847 -2.725634066292469 0.00593655593911375 0.014438046961391384 -0.03745701134452404 0.019660912300903804 -0.03349669934376024 0.05686801461161497 0.1319999992982811 4.020564142593464e-07 3.9558041362296215e-07 -2.95162116161892e-07 -5.94872806503666e-08 7.924786019976175e-08 4.8073210766922146e-11 -0.2014836080770564 -0.2490703383335947 0.31494916288412855 -1.5578547033298245 -2.7256340847549025 0.005936439984930518 0.014438046042250189 -0.03745701411665461 0.019660910694995305 -0.033496699055264596 0.05686801519660268 0.13200000001353687

479.56 0.533398775598299 -1.5658963267948964 1.5609963267948965 -1.5707963267948966 -1.5707963267948966 0.0 0.14000000000000004 0.07000000000000006 -0.14000000000000004 0.0 0.0 0.0 1.0000000000000009 0.5000000000000004 -1.0000000000000009 0.0 0.0 0.0 0.061737638298843225 -0.5312129335223612 -0.7996450073254876 -0.23321744415914233 0.0019809867147558215 0.0 0.8106151908638116 -6.974825817148603 -7.446454237216406 -1.0599732837033018 0.009003584618565208 0.0 0.5333987474441528 -1.5658963362323206 1.5609962940216064 -1.570796314870016 -1.570796314870016 0.0 0.14000000059604645 0.07000000029802322 -0.14000000059604645 0.0 0.0 0.0 0.06173763796687126 -0.5312129259109497 -0.7996450066566467 -0.23321744799613953 0.0019809866789728403 0.0 0.06173763796687126 -0.5312129259109497 -0.7996450066566467 -0.23321744799613953 0.0019809866789728403 0.0 -0.2013643552850923 -0.24937906543785412 0.3151112039266309 -1.5562383458835787 -2.7262474041199525 0.006679369628363011 0.015378686497257814 -0.03972590025879806 0.020846269462192438 -0.035592401685555504 0.060275873979373513 0.14000000061040369 2.649269874087044e-07 3.0671356540289846e-07 1.0910423538236452e-07 -1.1553708420645371e-08 -1.5963785582723334e-09 5.2726710087603735e-11 -0.20136434865367484 -0.24937907020296568 0.3151111923170181 -1.5562383099379493 -2.7262474301950763 0.006679319129731394 0.015378686725232791 -0.03972590012365345 0.020846269042829425 -0.03559240323103749 0.0602758727206768 0.14000000001435728

479.568 0.5345507755982989 -1.5653203267948967 1.5598443267948965 -1.5707963267948966 -1.5707963267948966 0.0 0.14800000000000005 0.07400000000000007 -0.14800000000000005 0.0 0.0 0.0 1.0000000000000009 0.5000000000000004 -1.0000000000000009 0.0 0.0 0.0 0.06179104458703316 -0.5317615198788261 -0.7996409608053834 -0.23324343447393772 0.001984725093571933 0.0 0.8113164154277455 -6.9820287560089875 -7.446416555211892 -1.060091409684047 0.009020575550284436 0.0 0.5345507860183716 -1.5653203169452112 1.5598443746566772 -1.570796314870016 -1.570796314870016 0.0 0.14800000190734863 0.07400000095367432 -0.14800000190734863 0.0 0.0 0.0 0.06179104372859001 -0.5317615270614624 -0.799640953540802 -0.2332434356212616 0.001984725007787347 0.0 0.06179104372859001 -0.5317615270614624 -0.799640953540802 -0.2332434356212616 0.001984725007787347 0.0 -0.20123751231373693 -0.24970595312214156 0.31528268195206277 -1.5545268003174941 -2.7268961845349766 0.00746617429474408 0.016330921695134476 -0.04199444197491746 0.022030523739167394 -0.037699636690367425 0.06367682101485675 0.1480000019225263 -4.272643329265009e-07 -5.868116045921785e-07 3.4533813201323827e-07 6.531617824400983e-08 -6.490582074393308e-08 -1.2670145829184518e-10 -0.20123751816972635 -0.2497059518167918 0.31528270024659366 -1.5545267922456205 -2.726896137251156 0.007466259842897292 0.016330922327499508 -0.04199444139677483 0.022030524047473653 -0.037699635540996604 0.06367682058705525 0.1480000000151777

479.57599999999996 0.5357667755982989 -1.564712326794897 1.5586283267948966 -1.5707963267948966 -1.5707963267948966 0.0 0.15600000000000006 0.07800000000000007 -0.15600000000000006 0.0 0.0 0.0 1.0000000000000009 0.5000000000000004 -1.0000000000000009 0.0 0.0 0.0 0.061847444213940506 -0.5323404725949014 -0.7996364649896349 -0.2332707976282792 0.001988664797956437 0.0 0.8120569425290389 -6.989630405171056 -7.446374689276478 -1.060215775220529 0.009038481506712005 0.0 0.5357667803764343 -1.5647123495685022 1.5586283206939697 -1.570796314870016 -1.570796314870016 0.0 0.15600000321865082 0.07800000160932541 -0.15600000321865082 0.0 0.0 0.0 0.061847444623708725 -0.5323404669761658 -0.7996364831924438 -0.2332707941532135 0.001988664735108614 0.0 0.061847444623708725 -0.5323404669761658 -0.7996364831924438 -0.2332707941532135 0.001988664735108614 0.0 -0.20110301588684282 -0.2500509798505476 0.3154636852322321 -1.552720137455429 -2.7275800885785273 0.008297356159128027 0.017295420913636884 -0.044262581896642623 0.023213611648840584 -0.03981904189529968 0.06707044172804541 0.15600000323464888 6.621511293257628e-07 8.510550657244874e-07 -8.750678009919984e-07 -1.1609222379185436e-07 1.3181162987187231e-07 1.979449857716535e-10 -0.2011030211975309 -0.25005098019742583 0.31546367758602195 -1.5527201430788469 -2.727580083185297 0.008297323768835173 0.017295420041005368 -0.04426258200989859 0.023213610632423862 -0.03981904075326655 0.06707044053448356 0.15600000001599812

479.584 0.5370467755982989 -1.5640723267948964 1.5573483267948967 -1.5707963267948966 -1.5707963267948966 0.0 0.16400000000000006 0.08200000000000009 -0.16400000000000006 0.0 0.0 0.0 1.0000000000000009 0.5000000000000022 -1.0000000000000009 0.0 0.0 0.0 0.061906841250606304 -0.5329497735123468 -0.7996314836608621 -0.23329952215144842 0.001992804790250396 0.0 0.8128368256204609 -6.997630526217115 -7.44632830214668 -1.060346328178333 0.00905729777168805 0.0 0.5370467901229858 -1.5640724341021937 1.557348370552063 -1.570796314870016 -1.570796314870016 0.0 0.164000004529953 0.0820000022649765 -0.164000004529953 0.0 0.0 0.0 0.0619068406522274 -0.5329497456550598 -0.7996314764022827 -0.23329952359199524 0.0019928046967834234 0.0 0.0619068406522274 -0.5329497456550598 -0.7996314764022827 -0.23329952359199524 0.0019928046967834234 0.0 -0.2009607338971715 -0.2504141443794126 0.31565413288862526 -1.5508183274413758 -2.7282991364766755 0.009172655490340407 0.018272848450085477 -0.04653025706398363 0.024395466538667747 -0.04195126344448161 0.07045631176032316 0.1640000045467715 8.290857756296326e-07 9.952106698218814e-07 3.3946415999334497e-07 -6.324461812097048e-08 3.640078171427446e-08 2.40176451310486e-10 -0.20096075696920632 -0.25041415189579996 0.31565411472652183 -1.5508183548878156 -2.7282991385145468 0.009172575825288395 0.018272847726044896 -0.046530259978636114 0.02439546338415272 -0.04195126126236206 0.07045631042353152 0.16400000001681855

479.592 0.538390775598299 -1.5634003267948966 1.5560043267948966 -1.5707963267948966 -1.5707963267948966 0.0 0.17200000000000007 0.08600000000000009 -0.17200000000000007 0.0 0.0 0.0 1.0000000000000009 0.5000000000000004 -1.0000000000000009 0.0 0.0 0.0 0.06196923993028846 -0.5335894034608275 -0.7996259787444506 -0.23332959598311312 0.0019971439766187046 0.0 0.8136561202846876 -7.006028867440665 -7.446277039264073 -1.060483013743249 0.009077019373732013 0.0 0.5383907556533813 -1.5634000937091272 1.556004285812378 -1.570796314870016 -1.570796314870016 0.0 0.1720000058412552 0.0860000029206276 -0.1720000058412552 0.0 0.0 0.0 0.06196923926472664 -0.5335894227027893 -0.7996259927749634 -0.23332959413528442 0.0019971439614892006 0.0 0.06196923926472664 -0.5335894227027893 -0.7996259927749634 -0.23332959413528442 0.0019971439614892006 0.0 -0.2008106586536653 -0.250795480547756 0.3158539426127591 -1.548821502125717 -2.7290532489100827 0.010091815309757385 0.019263873029289898 -0.04879741742647266 0.025576011118951233 -0.04409693697420682 0.07383400742097632 0.17200000585889408 -3.1573262888949914e-07 -4.3848567424227396e-07 -6.48417323692007e-07 2.8074257154774083e-09 2.9435287708012954e-08 -1.2945395897705232e-10 -0.20081061937128533 -0.25079546294162913 0.3158540015345968 -1.5488214197505614 -2.7290531670228675 0.010092084177970096 0.019263873919604095 -0.04879740692762041 0.025576016534172567 -0.04409693694925336 0.0738340040340057 0.17200000001763896

479.59999999999997 0.5397987755982989 -1.5626963267948968 1.5545963267948966 -1.5707963267948966 -1.5707963267948966 0.0 0.18000000000000008 0.0900000000000001 -0.18000000000000008 0.0 0.0 0.0 1.0000000000000009 0.5000000000000004 -1.0000000000000009 0.0 0.0 0.0 0.06203464464042862 -0.5342593422491504 -0.7996199103160571 -0.23336100647549543 0.00200168120681182 0.0 0.8145148841288278 -7.014825163731346 -7.446220528845187 -1.0606257744311267 0.00909764108495972 0.0 0.5397987961769104 -1.5626962820636194 1.5545963048934937 -1.570796314870016 -1.570796314870016 0.0 0.18000000715255737 0.09000000357627869 -0.18000000715255737 0.0 0.0 0.0 0.062034644186496735 -0.5342593193054199 -0.7996199131011963 -0.23336100578308105 0.0020016811322420835 0.0 0.062034644186496735 -0.5342593193054199 -0.7996199131011963 -0.23336100578308105 0.0020016811322420835 0.0 -0.20065249822970374 -0.25119491792898035 0.31606331940325494 -1.5467293148850547 -2.729842065838811 0.011055882161563316 0.020269169997336415 -0.05106395089118445 0.026755203772984078 -0.046256708466421444 0.0772030929793792 0.1800000071710167 9.049417747777736e-07 1.1047933157144973e-06 -1.4727072083460667e-07 -9.842049407776469e-08 8.670635410668395e-08 3.2288963161854964e-10 -0.20065249693928341 -0.2511949087909506 0.316063327349122 -1.5467293293765993 -2.729842025773475 0.011055920215385748 0.020269167839303055 -0.05106394775707488 0.026755203941142884 -0.046256705039612656 0.0772030908635028 0.1800000000184594

