mkrssg/UniversalRobots/rtde_client_3.5/examples/roboter/michi_movel/movej_0-30q1.csv
timestamp target_q_0 target_q_1 target_q_2 target_q_3 target_q_4 target_q_5 target_qd_0 target_qd_1 target_qd_2 target_qd_3 target_qd_4 target_qd_5 target_qdd_0 target_qdd_1 target_qdd_2 target_qdd_3 target_qdd_4 target_qdd_5 target_current_0 target_current_1 target_current_2 target_current_3 target_current_4 target_current_5 target_moment_0 target_moment_1 target_moment_2 target_moment_3 target_moment_4 target_moment_5 actual_q_0 actual_q_1 actual_q_2 actual_q_3 actual_q_4 actual_q_5 actual_qd_0 actual_qd_1 actual_qd_2 actual_qd_3 actual_qd_4 actual_qd_5 actual_current_0 actual_current_1 actual_current_2 actual_current_3 actual_current_4 actual_current_5 joint_control_output_0 joint_control_output_1 joint_control_output_2 joint_control_output_3 joint_control_output_4 joint_control_output_5 actual_TCP_pose_0 actual_TCP_pose_1 actual_TCP_pose_2 actual_TCP_pose_3 actual_TCP_pose_4 actual_TCP_pose_5 actual_TCP_speed_0 actual_TCP_speed_1 actual_TCP_speed_2 actual_TCP_speed_3 actual_TCP_speed_4 actual_TCP_speed_5 actual_TCP_force_0 actual_TCP_force_1 actual_TCP_force_2 actual_TCP_force_3 actual_TCP_force_4 actual_TCP_force_5 target_TCP_pose_0 target_TCP_pose_1 target_TCP_pose_2 target_TCP_pose_3 target_TCP_pose_4 target_TCP_pose_5 target_TCP_speed_0 target_TCP_speed_1 target_TCP_speed_2 target_TCP_speed_3 target_TCP_speed_4 target_TCP_speed_5
3777.064 0.0 -1.5707963267948966 1.5707963267948966 -1.5707963267948966 -1.5707963267948966 0.0 0.0 0.0 0.0 0.0 0.0 0.0 0.0 0.0 0.0 0.0 0.0 0.0 2.7100081908582143e-27 -0.620381750820575 -0.8463465614411209 -0.2525548825603051 -1.4392506443496177e-11 0.0 3.110005232743317e-26 -7.1458666999402505 -7.145866699940252 -1.0424175499402515 -5.974879480466362e-11 0.0 1.1984225238848012e-05 -1.5707362333880823 1.5708012580871582 -1.5707123915301722 -1.5706947485553187 4.793690095539205e-05 0.0 0.0 -0.0 0.0 0.0 0.0 0.02018737979233265 -0.6280518174171448 -0.7945464849472046 -0.2372266948223114 -0.05259270966053009 0.11525636911392212 0.02467346377670765 -0.6280518174171448 -0.8021716475486755 -0.23498870432376862 -0.04923573136329651 0.11301837861537933 -0.2984312030614016 -0.1127669309904316 0.3131576793281232 -2.2179920984132813 -2.219565298226865 -0.008232923622462389 0.0 0.0 0.0 0.0 0.0 0.0 -2.41437533139004 1.742037101991653 1.9754964068637086 -0.38945400433847194 -0.29952357900660126 0.5323883109333012 -0.2984301935029837 -0.11275507530515129 0.3131843183387717 -2.217827088832791 -2.2194802147226973 -0.008179933726190749 0.0 0.0 0.0 0.0 0.0 0.0
3777.0719999999997 0.0 -1.5707963267948966 1.5707963267948966 -1.5707963267948966 -1.5707963267948966 0.0 0.0 0.0 0.0 0.0 0.0 0.0 0.0 0.0 0.0 0.0 0.0 0.0 2.7100081908582143e-27 -0.620381750820575 -0.8463465614411209 -0.2525548825603051 -1.4392506443496177e-11 0.0 3.110005232743317e-26 -7.1458666999402505 -7.145866699940252 -1.0424175499402515 -5.974879480466362e-11 0.0 3.5952674807049334e-05 -1.5707123915301722 1.5708012580871582 -1.5707243124591272 -1.5707305113421839 5.992112710373476e-05 0.0 0.0 -0.0 0.0 0.0 0.0 0.0403747595846653 -0.6302948594093323 -0.8052217364311218 -0.24394066631793976 -0.04923573136329651 0.11749435216188431 0.0314025916159153 -0.6280518174171448 -0.8021716475486755 -0.2383456975221634 -0.04923573136329651 0.11413737386465073 -0.29843332864237343 -0.11277113826114217 0.3131516011735908 -2.2179666436567826 -2.219566582759171 -0.008285629370711077 0.0 0.0 0.0 0.0 0.0 0.0 -2.122010167087107 2.75780701350076 1.6503081654853815 -0.4572924369198681 -0.27823387494446344 0.5428198015933678 -0.2984301935029837 -0.11275507530515129 0.3131843183387717 -2.217827088832791 -2.2194802147226973 -0.008179933726190749 0.0 0.0 0.0 0.0 0.0 0.0
3777.08 0.0 -1.5707963267948966 1.5707963267948966 -1.5707963267948966 -1.5707963267948966 0.0 0.0 0.0 0.0 0.0 0.0 0.0 0.0 0.0 0.0 0.0 0.0 0.0 2.7100081908582143e-27 -0.620381750820575 -0.8463465614411209 -0.2525548825603051 -1.4392506443496177e-11 0.0 3.110005232743317e-26 -7.1458666999402505 -7.145866699940252 -1.0424175499402515 -5.974879480466362e-11 0.0 2.3968450477696024e-05 -1.5707243124591272 1.5708250999450684 -1.5707600752459925 -1.570742432271139 9.58738019107841e-05 0.0 0.0 -0.0 0.0 0.0 0.0 0.02467346377670765 -0.6280518174171448 -0.8113219141960144 -0.23386971652507782 -0.048116736114025116 0.1186133474111557 0.02467346377670765 -0.6280518174171448 -0.8021716475486755 -0.2372266948223114 -0.04923573136329651 0.11637535691261292 -0.2984337329803871 -0.11276658195872055 0.31315109997944773 -2.2180018740807776 -2.2194956166249074 -0.008272223588085777 0.0 0.0 0.0 0.0 0.0 0.0 -1.7651123181685877 2.235844424273652 1.1603090938702956 -0.40885118480755417 -0.1607141941959431 0.5488228917532164 -0.2984301935029837 -0.11275507530515129 0.3131843183387717 -2.217827088832791 -2.2194802147226973 -0.008179933726190749 0.0 0.0 0.0 0.0 0.0 0.0
3777.0879999999997 0.0 -1.5707963267948966 1.5707963267948966 -1.5707963267948966 -1.5707963267948966 0.0 0.0 0.0 0.0 0.0 0.0 0.0 0.0 0.0 0.0 0.0 0.0 0.0 2.7100081908582143e-27 -0.620381750820575 -0.8463465614411209 -0.2525548825603051 -1.4392506443496177e-11 0.0 3.110005232743317e-26 -7.1458666999402505 -7.145866699940252 -1.0424175499402515 -5.974879480466362e-11 0.0 -2.366701234990387e-05 -1.5707481543170374 1.5708370208740234 -1.5707481543170374 -1.5707786718951624 7.190534961409867e-05 0.0 0.0 -0.0 0.0 0.0 0.0 0.01794433780014515 -0.6370239853858948 -0.806746780872345 -0.2394646853208542 -0.04923573136329651 0.11189938336610794 0.02467346377670765 -0.6280518174171448 -0.8021716475486755 -0.2372266948223114 -0.04923573136329651 0.11637535691261292 -0.29843329402212215 -0.11274936820090446 0.3131536626319923 -2.218010179095927 -2.2194511609014116 -0.008312592051776329 0.0 0.0 0.0 0.0 0.0 0.0 -2.415800957803987 1.5934490362552185 1.4818106133069096 -0.3613173536605776 -0.2678080231923811 0.5170279505999127 -0.2984301935029837 -0.11275507530515129 0.3131843183387717 -2.217827088832791 -2.2194802147226973 -0.008179933726190749 0.0 0.0 0.0 0.0 0.0 0.0
3777.096 0.0 -1.5707963267948966 1.5707963267948966 -1.5707963267948966 -1.5707963267948966 0.0 0.0 0.0 0.0 0.0 0.0 0.0 0.0 0.0 0.0 0.0 0.0 0.0 2.7100081908582143e-27 -0.620381750820575 -0.8463465614411209 -0.2525548825603051 -1.4392506443496177e-11 0.0 3.110005232743317e-26 -7.1458666999402505 -7.145866699940252 -1.0424175499402515 -5.974879480466362e-11 0.0 3.5952674807049334e-05 -1.5707243124591272 1.5708012580871582 -1.5707481543170374 -1.5707667509662073 5.992112710373476e-05 0.0 0.0 -0.0 0.0 0.0 0.0 0.02243042178452015 -0.6459961533546448 -0.8128469586372375 -0.2383456975221634 -0.054830700159072876 0.1197323426604271 0.02467346377670765 -0.6280518174171448 -0.8021716475486755 -0.2372266948223114 -0.04923573136329651 0.11637535691261292 -0.29843337325103086 -0.11276817472965493 0.3131572171984772 -2.2179306186833108 -2.219530618681616 -0.008285975841903931 0.0 0.0 0.0 0.0 0.0 0.0 -2.654507040791326 1.818380257425482 1.1875660809255837 -0.40571601468784974 -0.25735255703258514 0.5533963665682291 -0.2984301935029837 -0.11275507530515129 0.3131843183387717 -2.217827088832791 -2.2194802147226973 -0.008179933726190749 0.0 0.0 0.0 0.0 0.0 0.0
3777.104 0.0 -1.5707963267948966 1.5707963267948966 -1.5707963267948966 -1.5707963267948966 0.0 0.0 0.0 0.0 0.0 0.0 0.0 0.0 0.0 0.0 0.0 0.0 0.0 2.7100081908582143e-27 -0.620381750820575 -0.8463465614411209 -0.2525548825603051 -1.4392506443496177e-11 0.0 3.110005232743317e-26 -7.1458666999402505 -7.145866699940252 -1.0424175499402515 -5.974879480466362e-11 0.0 3.5952674807049334e-05 -1.5707600752459925 1.570777416229248 -1.5707009474383753 -1.5707305113421839 4.793690095539205e-05 0.0 0.0 -0.0 0.0 0.0 0.0 0.02467346377670765 -0.6302948594093323 -0.8021716475486755 -0.23386971652507782 -0.04364075884222984 0.11301837861537933 0.02467346377670765 -0.6280518174171448 -0.8021716475486755 -0.2372266948223114 -0.04923573136329651 0.11637535691261292 -0.2984256872949978 -0.11277116669262355 0.3131709616374492 -2.2179295541733515 -2.219555707707617 -0.008232188883819033 0.0 0.0 0.0 0.0 0.0 0.0 -2.238294434360149 1.9686990700881815 1.5648086590344972 -0.3662227396595219 -0.2341669897085124 0.5224512587932463 -0.2984301935029837 -0.11275507530515129 0.3131843183387717 -2.217827088832791 -2.2194802147226973 -0.008179933726190749 0.0 0.0 0.0 0.0 0.0 0.0
3777.1119999999996 0.0 -1.5707963267948966 1.5707963267948966 -1.5707963267948966 -1.5707963267948966 0.0 0.0 0.0 0.0 0.0 0.0 0.0 0.0 0.0 0.0 0.0 0.0 0.0 2.7100081908582143e-27 -0.620381750820575 -0.8463465614411209 -0.2525548825603051 -1.4392506443496177e-11 0.0 3.110005232743317e-26 -7.1458666999402505 -7.145866699940252 -1.0424175499402515 -5.974879480466362e-11 0.0 0.0 -1.5707362333880823 1.5708012580871582 -1.5707362333880823 -1.5707786718951624 7.190534961409867e-05 0.0 0.0 -0.0 0.0 0.0 0.0 0.02018737979233265 -0.6235657334327698 -0.7975965142250061 -0.23386971652507782 -0.051473718136548996 0.11749435216188431 0.02467346377670765 -0.6280518174171448 -0.8021716475486755 -0.23386971652507782 -0.04923573136329651 0.11637535691261292 -0.2984345238371522 -0.11275645951145791 0.31315976591162786 -2.217977941093996 -2.2194714267630333 -0.008299268209898476 0.0 0.0 0.0 0.0 0.0 0.0 -2.0590007581680814 1.912431829621002 1.7683578145105745 -0.39817724608967403 -0.23699038070056339 0.5431497044948559 -0.2984301935029837 -0.11275507530515129 0.3131843183387717 -2.217827088832791 -2.2194802147226973 -0.008179933726190749 0.0 0.0 0.0 0.0 0.0 0.0
3777.12 0.0 -1.5707963267948966 1.5707963267948966 -1.5707963267948966 -1.5707963267948966 0.0 0.0 0.0 0.0 0.0 0.0 0.0 0.0 0.0 0.0 0.0 0.0 0.0 2.7100081908582143e-27 -0.620381750820575 -0.8463465614411209 -0.2525548825603051 -1.4392506443496177e-11 0.0 3.110005232743317e-26 -7.1458666999402505 -7.145866699940252 -1.0424175499402515 -5.974879480466362e-11 0.0 -1.1746083394825746e-05 -1.5707362333880823 1.5708250999450684 -1.5707243124591272 -1.5707305113421839 8.388957940042019e-05 0.0 0.0 -0.0 0.0 0.0 0.0 0.02467346377670765 -0.6258087754249573 -0.806746780872345 -0.22491776943206787 -0.048116736114025116 0.11301837861537933 0.02467346377670765 -0.6280518174171448 -0.8021716475486755 -0.23498870432376862 -0.04923573136329651 0.11637535691261292 -0.29843289092153047 -0.1127568847618652 0.3131515991168431 -2.218046274585369 -2.219487074493588 -0.008285722138271279 0.0 0.0 0.0 0.0 0.0 0.0 -1.8237473253693242 2.127555381411167 1.1684506931559622 -0.39997670990440815 -0.12469789448860435 0.5230983810323575 -0.2984301935029837 -0.11275507530515129 0.3131843183387717 -2.217827088832791 -2.2194802147226973 -0.008179933726190749 0.0 0.0 0.0 0.0 0.0 0.0
3777.1279999999997 0.0 -1.5707963267948966 1.5707963267948966 -1.5707963267948966 -1.5707963267948966 0.0 0.0 0.0 0.0 0.0 0.0 0.0 0.0 0.0 0.0 0.0 0.0 0.0 2.7100081908582143e-27 -0.620381750820575 -0.8463465614411209 -0.2525548825603051 -1.4392506443496177e-11 0.0 3.110005232743317e-26 -7.1458666999402505 -7.145866699940252 -1.0424175499402515 -5.974879480466362e-11 0.0 0.0 -1.5707362333880823 1.5708131790161133 -1.5707009474383753 -1.5707548300372522 9.58738019107841e-05 0.0 0.0 -0.0 0.0 0.0 0.0 0.02243042178452015 -0.6370239853858948 -0.7991215586662292 -0.24170267581939697 -0.048116736114025116 0.1186133474111557 0.02467346377670765 -0.6280518174171448 -0.8021716475486755 -0.23498870432376862 -0.04923573136329651 0.11637535691261292 -0.298430628972772 -0.11275838475934377 0.31315317977972296 -2.2180400583848576 -2.2194801428649376 -0.008325321062584498 0.0 0.0 0.0 0.0 0.0 0.0 -2.711855192495281 1.7778018462096985 1.869259442288403 -0.3715168827607185 -0.3357238786746686 0.5477220330549365 -0.2984301935029837 -0.11275507530515129 0.3131843183387717 -2.217827088832791 -2.2194802147226973 -0.008179933726190749 0.0 0.0 0.0 0.0 0.0 0.0
3777.136 0.0 -1.5707963267948966 1.5707963267948966 -1.5707963267948966 -1.5707963267948966 0.0 0.0 0.0 0.0 0.0 0.0 0.0 0.0 0.0 0.0 0.0 0.0 0.0 2.7100081908582143e-27 -0.620381750820575 -0.8463465614411209 -0.2525548825603051 -1.4392506443496177e-11 0.0 3.110005232743317e-26 -7.1458666999402505 -7.145866699940252 -1.0424175499402515 -5.974879480466362e-11 0.0 -2.366701234990387e-05 -1.5707362333880823 1.5708131790161133 -1.5707123915301722 -1.5707185904132288 5.992112710373476e-05 0.0 0.0 -0.0 0.0 0.0 0.0 0.02467346377670765 -0.6123505234718323 -0.8082718253135681 -0.24058367311954498 -0.0503547228872776 0.11525636911392212 0.02467346377670765 -0.6280518174171448 -0.8021716475486755 -0.23498870432376862 -0.04923573136329651 0.11413737386465073 -0.2984342383703111 -0.11275431428975771 0.31315413416188254 -2.218038984132972 -2.2195064535445526 -0.008272642599600479 0.0 0.0 0.0 0.0 0.0 0.0 -1.0527897331911167 2.452814704643714 1.442906885062104 -0.4372819947368794 -0.15700007174145683 0.5332362836618433 -0.2984301935029837 -0.11275507530515129 0.3131843183387717 -2.217827088832791 -2.2194802147226973 -0.008179933726190749 0.0 0.0 0.0 0.0 0.0 0.0
3777.144 0.0 -1.5707963267948966 1.5707963267948966 -1.5707963267948966 -1.5707963267948966 0.0 0.0 0.0 0.0 0.0 0.0 0.0 0.0 0.0 0.0 0.0 0.0 0.0 2.7100081908582143e-27 -0.620381750820575 -0.8463465614411209 -0.2525548825603051 -1.4392506443496177e-11 0.0 3.110005232743317e-26 -7.1458666999402505 -7.145866699940252 -1.0424175499402515 -5.974879480466362e-11 0.0 -1.1746083394825746e-05 -1.5707362333880823 1.5708131790161133 -1.5707362333880823 -1.5707786718951624 7.190534961409867e-05 0.0 0.0 -0.0 0.0 0.0 0.0 0.0291595496237278 -0.6437531113624573 -0.7975965142250061 -0.23275071382522583 -0.05259270966053009 0.1186133474111557 0.02467346377670765 -0.6280518174171448 -0.8021716475486755 -0.23498870432376862 -0.04923573136329651 0.11749435216188431 -0.29843486212805187 -0.11275294039882747 0.3131562060906371 -2.2179969340351953 -2.2194643519930994 -0.008312556869756352 0.0 0.0 0.0 0.0 0.0 0.0 -3.1275980498253904 1.911175470560405 1.7424683287355083 -0.4032791308575845 -0.3176845654832132 0.5478104760889445 -0.2984301935029837 -0.11275507530515129 0.3131843183387717 -2.217827088832791 -2.2194802147226973 -0.008179933726190749 0.0 0.0 0.0 0.0 0.0 0.0
3777.152 0.0 -1.5707963267948966 1.5707963267948966 -1.5707963267948966 -1.5707963267948966 0.0 0.0 0.0 0.0 0.0 0.0 0.0 0.0 0.0 0.0 0.0 0.0 0.0 2.7100081908582143e-27 -0.620381750820575 -0.8463465614411209 -0.2525548825603051 -1.4392506443496177e-11 0.0 3.110005232743317e-26 -7.1458666999402505 -7.145866699940252 -1.0424175499402515 -5.974879480466362e-11 0.0 -1.1746083394825746e-05 -1.5707481543170374 1.570777416229248 -1.5707600752459925 -1.570742432271139 4.793690095539205e-05 0.0 0.0 -0.0 0.0 0.0 0.0 0.02243042178452015 -0.6280518174171448 -0.7945464849472046 -0.23498870432376862 -0.048116736114025116 0.12308932095766068 0.02243042178452015 -0.6280518174171448 -0.7991215586662292 -0.2361077070236206 -0.04923573136329651 0.11637535691261292 -0.29843786031103736 -0.11275598700190996 0.31317245695510865 -2.2179528998652542 -2.219473674894229 -0.008192978046538756 0.0 0.0 0.0 0.0 0.0 0.0 -2.4146764434120773 1.9608239784121133 1.9279613619095006 -0.38658570405889237 -0.28520399200124213 0.5688404369256758 -0.2984301935029837 -0.11275507530515129 0.3131843183387717 -2.217827088832791 -2.2194802147226973 -0.008179933726190749 0.0 0.0 0.0 0.0 0.0 0.0
3777.16 0.0 -1.5707963267948966 1.5707963267948966 -1.5707963267948966 -1.5707963267948966 0.0 0.0 0.0 0.0 0.0 0.0 0.0 0.0 0.0 0.0 0.0 0.0 0.0 2.7100081908582143e-27 -0.620381750820575 -0.8463465614411209 -0.2525548825603051 -1.4392506443496177e-11 0.0 3.110005232743317e-26 -7.1458666999402505 -7.145866699940252 -1.0424175499402515 -5.974879480466362e-11 0.0 -2.366701234990387e-05 -1.5707009474383753 1.5707893371582031 -1.5707009474383753 -1.5707305113421839 4.793690095539205e-05 0.0 0.0 -0.0 0.0 0.0 0.0 0.0269165076315403 -0.6280518174171448 -0.8097968697547913 -0.24394066631793976 -0.04699774086475372 0.11749435216188431 0.0269165076315403 -0.6280518174171448 -0.8052217364311218 -0.2361077070236206 -0.04923573136329651 0.11189938336610794 -0.2984409576818991 -0.11275333869305448 0.31314975039453463 -2.2180310780060752 -2.219525222847423 -0.008311300495514916 0.0 0.0 0.0 0.0 0.0 0.0 -1.8243465469764728 2.2911187659235317 1.4465053198634923 -0.4083459466175821 -0.2365438268381631 0.5431293420300943 -0.2984301935029837 -0.11275507530515129 0.3131843183387717 -2.217827088832791 -2.2194802147226973 -0.008179933726190749 0.0 0.0 0.0 0.0 0.0 0.0
3777.1679999999997 0.0 -1.5707963267948966 1.5707963267948966 -1.5707963267948966 -1.5707963267948966 0.0 0.0 0.0 0.0 0.0 0.0 0.0 0.0 0.0 0.0 0.0 0.0 0.0 2.7100081908582143e-27 -0.620381750820575 -0.8463465614411209 -0.2525548825603051 -1.4392506443496177e-11 0.0 3.110005232743317e-26 -7.1458666999402505 -7.145866699940252 -1.0424175499402515 -5.974879480466362e-11 0.0 2.3968450477696024e-05 -1.5707362333880823 1.5708131790161133 -1.570688549672262 -1.570742432271139 2.3968450477696024e-05 0.0 0.0 -0.0 0.0 0.0 0.0 0.02467346377670765 -0.6258087754249573 -0.7991215586662292 -0.23386971652507782 -0.048116736114025116 0.11189938336610794 0.02243042178452015 -0.6280518174171448 -0.8006466031074524 -0.2372266948223114 -0.04923573136329651 0.11413737386465073 -0.29842690396757604 -0.11276655001397326 0.3131521140366562 -2.21794617687306 -2.2195989124758273 -0.008325534010861132 0.0 0.0 0.0 0.0 0.0 0.0 -2.1191890547902634 1.9961167054816225 1.7003341293222087 -0.3894286150362138 -0.23590912387318427 0.5171943778716294 -0.2984301935029837 -0.11275507530515129 0.3131843183387717 -2.217827088832791 -2.2194802147226973 -0.008179933726190749 0.0 0.0 0.0 0.0 0.0 0.0
3777.176 0.0 -1.5707963267948966 1.5707963267948966 -1.5707963267948966 -1.5707963267948966 0.0 0.0 0.0 0.0 0.0 0.0 0.0 0.0 0.0 0.0 0.0 0.0 0.0 2.7100081908582143e-27 -0.620381750820575 -0.8463465614411209 -0.2525548825603051 -1.4392506443496177e-11 0.0 3.110005232743317e-26 -7.1458666999402505 -7.145866699940252 -1.0424175499402515 -5.974879480466362e-11 0.0 0.0 -1.5707600752459925 1.5707893371582031 -1.5707362333880823 -1.5707548300372522 7.190534961409867e-05 0.0 0.0 -0.0 0.0 0.0 0.0 0.0336456336081028 -0.6527252793312073 -0.796071469783783 -0.2372266948223114 -0.05259270966053009 0.1197323426604271 0.0269165076315403 -0.6280518174171448 -0.8006466031074524 -0.2372266948223114 -0.04923573136329651 0.11413737386465073 -0.29843166413945343 -0.11275844554026247 0.313170428500492 -2.2179721444797367 -2.219465555135989 -0.00823313630419605 0.0 0.0 0.0 0.0 0.0 0.0 -3.661635342615227 1.9185659635658192 1.906713966220835 -0.4039339041791568 -0.3964404063229822 0.5525217786953966 -0.2984301935029837 -0.11275507530515129 0.3131843183387717 -2.217827088832791 -2.2194802147226973 -0.008179933726190749 0.0 0.0 0.0 0.0 0.0 0.0
3777.1839999999997 0.0 -1.5707963267948966 1.5707963267948966 -1.5707963267948966 -1.5707963267948966 0.0 0.0 0.0 0.0 0.0 0.0 0.0 0.0 0.0 0.0 0.0 0.0 0.0 2.7100081908582143e-27 -0.620381750820575 -0.8463465614411209 -0.2525548825603051 -1.4392506443496177e-11 0.0 3.110005232743317e-26 -7.1458666999402505 -7.145866699940252 -1.0424175499402515 -5.974879480466362e-11 0.0 -1.1746083394825746e-05 -1.5707243124591272 1.5708370208740234 -1.5707362333880823 -1.570742432271139 0.00011984225420746952 0.0 0.0 -0.0 0.0 0.0 0.0 0.0269165076315403 -0.6325379014015198 -0.8097968697547913 -0.2383456975221634 -0.04587874934077263 0.1186133474111557 0.0269165076315403 -0.6280518174171448 -0.8052217364311218 -0.2372266948223114 -0.04923573136329651 0.11749435216188431 -0.29843480954947255 -0.11275589319662178 0.31314550534350705 -2.2180860024321256 -2.2194471492124515 -0.008312043550441975 0.0 0.0 0.0 0.0 0.0 0.0 -2.061626963433715 2.2192999130062945 1.3245468635895297 -0.3971684530148881 -0.21986055873513272 0.5484414358315927 -0.2984301935029837 -0.11275507530515129 0.3131843183387717 -2.217827088832791 -2.2194802147226973 -0.008179933726190749 0.0 0.0 0.0 0.0 0.0 0.0
3777.192 0.0 -1.5707963267948966 1.5707963267948966 -1.5707963267948966 -1.5707963267948966 0.0 0.0 0.0 0.0 0.0 0.0 0.0 0.0 0.0 0.0 0.0 0.0 0.0 2.7100081908582143e-27 -0.620381750820575 -0.8463465614411209 -0.2525548825603051 -1.4392506443496177e-11 0.0 3.110005232743317e-26 -7.1458666999402505 -7.145866699940252 -1.0424175499402515 -5.974879480466362e-11 0.0 1.1984225238848012e-05 -1.5707243124591272 1.5708012580871582 -1.5707362333880823 -1.5707667509662073 5.992112710373476e-05 0.0 0.0 -0.0 0.0 0.0 0.0 0.0269165076315403 -0.6302948594093323 -0.796071469783783 -0.2383456975221634 -0.051473718136548996 0.11189938336610794 0.02018737979233265 -0.6280518174171448 -0.8021716475486755 -0.2372266948223114 -0.04923573136329651 0.11413737386465073 -0.2984350938701524 -0.11276101338842595 0.31315619975583037 -2.2179632312516837 -2.2195099690350726 -0.008299313079010363 0.0 0.0 0.0 0.0 0.0 0.0 -2.474777792893064 1.9569468657727855 1.9322593074456647 -0.4019209961120243 -0.30575800917488066 0.5167445726837384 -0.2984301935029837 -0.11275507530515129 0.3131843183387717 -2.217827088832791 -2.2194802147226973 -0.008179933726190749 0.0 0.0 0.0 0.0 0.0 0.0
3777.2 0.0 -1.5707963267948966 1.5707963267948966 -1.5707963267948966 -1.5707963267948966 0.0 0.0 0.0 0.0 0.0 0.0 0.0 0.0 0.0 0.0 0.0 0.0 0.0 2.7100081908582143e-27 -0.620381750820575 -0.8463465614411209 -0.2525548825603051 -1.4392506443496177e-11 0.0 3.110005232743317e-26 -7.1458666999402505 -7.145866699940252 -1.0424175499402515 -5.974879480466362e-11 0.0 -3.5587941304981996e-05 -1.5707724730121058 1.5708250999450684 -1.5707362333880823 -1.5707667509662073 3.5952674807049334e-05 0.0 0.0 -0.0 0.0 0.0 0.0 0.0291595496237278 -0.6190796494483948 -0.7975965142250061 -0.22827474772930145 -0.048116736114025116 0.12085133790969849 0.02467346377670765 -0.6280518174171448 -0.8021716475486755 -0.23498870432376862 -0.04923573136329651 0.11637535691261292 -0.29843072031107154 -0.11274680685838014 0.31316345736569196 -2.2179775560034787 -2.219471681343066 -0.008272537041028044 0.0 0.0 0.0 0.0 0.0 0.0 -1.822849760855155 2.441901078315494 1.648787919532229 -0.42610308827277293 -0.18120927747663276 0.559061999175374 -0.2984301935029837 -0.11275507530515129 0.3131843183387717 -2.217827088832791 -2.2194802147226973 -0.008179933726190749 0.0 0.0 0.0 0.0 0.0 0.0
3777.2079999999996 0.0 -1.5707963267948966 1.5707963267948966 -1.5707963267948966 -1.5707963267948966 0.0 0.0 0.0 0.0 0.0 0.0 0.0 0.0 0.0 0.0 0.0 0.0 0.0 2.7100081908582143e-27 -0.620381750820575 -0.8463465614411209 -0.2525548825603051 -1.4392506443496177e-11 0.0 3.110005232743317e-26 -7.1458666999402505 -7.145866699940252 -1.0424175499402515 -5.974879480466362e-11 0.0 -1.1746083394825746e-05 -1.5707009474383753 1.5708370208740234 -1.5707362333880823 -1.5707548300372522 5.992112710373476e-05 0.0 0.0 -0.0 0.0 0.0 0.0 0.01570129580795765 -0.6235657334327698 -0.7930214405059814 -0.2383456975221634 -0.051473718136548996 0.11749435216188431 0.02467346377670765 -0.6280518174171448 -0.8021716475486755 -0.23498870432376862 -0.04923573136329651 0.11637535691261292 -0.2984385771766029 -0.11275486347388303 0.313138537797687 -2.218024981015557 -2.2195191740194264 -0.008351901701617159 0.0 0.0 0.0 0.0 0.0 0.0 -2.235719640027912 1.6509246520296026 2.0674845117286753 -0.3768281195931632 -0.2979375938051215 0.5427588288509348 -0.2984301935029837 -0.11275507530515129 0.3131843183387717 -2.217827088832791 -2.2194802147226973 -0.008179933726190749 0.0 0.0 0.0 0.0 0.0 0.0
3777.216 0.0 -1.5707963267948966 1.5707963267948966 -1.5707963267948966 -1.5707963267948966 0.0 0.0 0.0 0.0 0.0 0.0 0.0 0.0 0.0 0.0 0.0 0.0 0.0 2.7100081908582143e-27 -0.620381750820575 -0.8463465614411209 -0.2525548825603051 -1.4392506443496177e-11 0.0 3.110005232743317e-26 -7.1458666999402505 -7.145866699940252 -1.0424175499402515 -5.974879480466362e-11 0.0 1.1984225238848012e-05 -1.5707362333880823 1.5708012580871582 -1.5707243124591272 -1.5707667509662073 9.58738019107841e-05 0.0 0.0 -0.0 0.0 0.0 0.0 0.02467346377670765 -0.6302948594093323 -0.8006466031074524 -0.23051273822784424 -0.048116736114025116 0.12085133790969849 0.02467346377670765 -0.6280518174171448 -0.8021716475486755 -0.23498870432376862 -0.04923573136329651 0.11637535691261292 -0.29843218961953805 -0.11276100945137817 0.31315874108849734 -2.218003121848359 -2.2194699505014706 -0.008299228296786653 0.0 0.0 0.0 0.0 0.0 0.0 -2.2973258303209834 2.0682693249169977 1.5602850347891182 -0.3952872721311205 -0.22332304221848515 0.5588127339843574 -0.2984301935029837 -0.11275507530515129 0.3131843183387717 -2.217827088832791 -2.2194802147226973 -0.008179933726190749 0.0 0.0 0.0 0.0 0.0 0.0
3777.2239999999997 0.0 -1.5707963267948966 1.5707963267948966 -1.5707963267948966 -1.5707963267948966 0.0 0.0 0.0 0.0 0.0 0.0 0.0 0.0 0.0 0.0 0.0 0.0 0.0 2.7100081908582143e-27 -0.620381750820575 -0.8463465614411209 -0.2525548825603051 -1.4392506443496177e-11 0.0 3.110005232743317e-26 -7.1458666999402505 -7.145866699940252 -1.0424175499402515 -5.974879480466362e-11 0.0 3.5952674807049334e-05 -1.5707481543170374 1.5708131790161133 -1.5707481543170374 -1.5707548300372522 9.58738019107841e-05 0.0 0.0 -0.0 0.0 0.0 0.0 0.02018737979233265 -0.6392670273780823 -0.8021716475486755 -0.23163172602653503 -0.048116736114025116 0.11413737386465073 0.02467346377670765 -0.6280518174171448 -0.8021716475486755 -0.23498870432376862 -0.04923573136329651 0.11301837861537933 -0.29842854220232207 -0.11276915146047091 0.31316076753637456 -2.217970547215452 -2.2194906738356464 -0.008259439531052418 0.0 0.0 0.0 0.0 0.0 0.0 -2.712134005597043 1.613094527533026 1.5146873559346061 -0.35775384882849187 -0.2588387808532542 0.5274868851729735 -0.2984301935029837 -0.11275507530515129 0.3131843183387717 -2.217827088832791 -2.2194802147226973 -0.008179933726190749 0.0 0.0 0.0 0.0 0.0 0.0
3777.232 0.0 -1.5707963267948966 1.5707963267948966 -1.5707963267948966 -1.5707963267948966 0.0 0.0 0.0 0.0 0.0 0.0 0.0 0.0 0.0 0.0 0.0 0.0 0.0 2.7100081908582143e-27 -0.620381750820575 -0.8463465614411209 -0.2525548825603051 -1.4392506443496177e-11 0.0 3.110005232743317e-26 -7.1458666999402505 -7.145866699940252 -1.0424175499402515 -5.974879480466362e-11 0.0 -1.1746083394825746e-05 -1.5707123915301722 1.5708370208740234 -1.5707481543170374 -1.5707305113421839 8.388957940042019e-05 0.0 0.0 -0.0 0.0 0.0 0.0 0.02243042178452015 -0.6347809433937073 -0.7945464849472046 -0.23163172602653503 -0.05259270966053009 0.11525636911392212 0.02467346377670765 -0.6280518174171448 -0.8021716475486755 -0.23498870432376862 -0.04923573136329651 0.11413737386465073 -0.29843771297795413 -0.11275687883000275 0.31314295663152614 -2.218052092356012 -2.219493164299727 -0.00829892963204668 0.0 0.0 0.0 0.0 0.0 0.0 -2.7705401515953088 1.7043147561196879 1.8532791883707824 -0.38631887014844657 -0.2925626051608805 0.532416356872626 -0.2984301935029837 -0.11275507530515129 0.3131843183387717 -2.217827088832791 -2.2194802147226973 -0.008179933726190749 0.0 0.0 0.0 0.0 0.0 0.0
3777.24 0.0 -1.5707963267948966 1.5707963267948966 -1.5707963267948966 -1.5707963267948966 0.0 0.0 0.0 0.0 0.0 0.0 0.0 0.0 0.0 0.0 0.0 0.0 0.0 2.7100081908582143e-27 -0.620381750820575 -0.8463465614411209 -0.2525548825603051 -1.4392506443496177e-11 0.0 3.110005232743317e-26 -7.1458666999402505 -7.145866699940252 -1.0424175499402515 -5.974879480466362e-11 0.0 2.3968450477696024e-05 -1.5707243124591272 1.5708250999450684 -1.5707481543170374 -1.5707066694842737 8.388957940042019e-05 0.0 0.0 -0.0 0.0 0.0 0.0 0.0269165076315403 -0.6370239853858948 -0.8021716475486755 -0.2372266948223114 -0.048116736114025116 0.1197323426604271 0.02467346377670765 -0.6280518174171448 -0.8021716475486755 -0.23498870432376862 -0.04923573136329651 0.11413737386465073 -0.29843274858739377 -0.11276951891944843 0.3131500605489366 -2.21801250491499 -2.219532800800294 -0.00824593285723497 0.0 0.0 0.0 0.0 0.0 0.0 -2.594343260961671 2.0339902560392455 1.637570207589805 -0.3924814841752155 -0.28544960704358613 0.5532366434204872 -0.2984301935029837 -0.11275507530515129 0.3131843183387717 -2.217827088832791 -2.2194802147226973 -0.008179933726190749 0.0 0.0 0.0 0.0 0.0 0.0
3777.248 0.0 -1.5707963267948966 1.5707963267948966 -1.5707963267948966 -1.5707963267948966 0.0 0.0 0.0 0.0 0.0 0.0 0.0 0.0 0.0 0.0 0.0 0.0 0.0 2.7100081908582143e-27 -0.620381750820575 -0.8463465614411209 -0.2525548825603051 -1.4392506443496177e-11 0.0 3.110005232743317e-26 -7.1458666999402505 -7.145866699940252 -1.0424175499402515 -5.974879480466362e-11 0.0 3.5952674807049334e-05 -1.5707362333880823 1.5708370208740234 -1.5707123915301722 -1.5707667509662073 5.992112710373476e-05 0.0 0.0 -0.0 0.0 0.0 0.0 0.02018737979233265 -0.6415100693702698 -0.7991215586662292 -0.23275071382522583 -0.054830700159072876 0.11189938336610794 0.02467346377670765 -0.6280518174171448 -0.8021716475486755 -0.23498870432376862 -0.04923573136329651 0.11525636911392212 -0.2984255460377248 -0.11276811288376494 0.31314704430010376 -2.2179604224670597 -2.219560099138167 -0.008352290845309656 0.0 0.0 0.0 0.0 0.0 0.0 -2.94881917365071 1.4878918354053794 1.6735661761309786 -0.3788151997292734 -0.2971423663542735 0.5168060933024476 -0.2984301935029837 -0.11275507530515129 0.3131843183387717 -2.217827088832791 -2.2194802147226973 -0.008179933726190749 0.0 0.0 0.0 0.0 0.0 0.0
3777.256 0.0 -1.5707963267948966 1.5707963267948966 -1.5707963267948966 -1.5707963267948966 0.0 0.0 0.0 0.0 0.0 0.0 0.0 0.0 0.0 0.0 0.0 0.0 0.0 2.7100081908582143e-27 -0.620381750820575 -0.8463465614411209 -0.2525548825603051 -1.4392506443496177e-11 0.0 3.110005232743317e-26 -7.1458666999402505 -7.145866699940252 -1.0424175499402515 -5.974879480466362e-11 0.0 -4.7985707418263246e-05 -1.5707243124591272 1.5708012580871582 -1.5707123915301722 -1.5707548300372522 8.388957940042019e-05 0.0 0.0 -0.0 0.0 0.0 0.0 0.02018737979233265 -0.6325379014015198 -0.8036966919898987 -0.24058367311954498 -0.04699774086475372 0.11525636911392212 0.02467346377670765 -0.6280518174171448 -0.8021716475486755 -0.23498870432376862 -0.04923573136329651 0.11413737386465073 -0.2984398905544413 -0.11274408128912453 0.3131541575368673 -2.2180743655424626 -2.2194347146716162 -0.008312753580629578 0.0 0.0 0.0 0.0 0.0 0.0 -2.2970483144621134 1.7869873628810462 1.6423359822730135 -0.3669388354688111 -0.2768751313321094 0.5325353013195911 -0.2984301935029837 -0.11275507530515129 0.3131843183387717 -2.217827088832791 -2.2194802147226973 -0.008179933726190749 0.0 0.0 0.0 0.0 0.0 0.0
3777.2639999999997 0.0 -1.5707963267948966 1.5707963267948966 -1.5707963267948966 -1.5707963267948966 0.0 0.0 0.0 0.0 0.0 0.0 0.0 0.0 0.0 0.0 0.0 0.0 0.0 2.7100081908582143e-27 -0.620381750820575 -0.8463465614411209 -0.2525548825603051 -1.4392506443496177e-11 0.0 3.110005232743317e-26 -7.1458666999402505 -7.145866699940252 -1.0424175499402515 -5.974879480466362e-11 0.0 3.5952674807049334e-05 -1.5707123915301722 1.5707893371582031 -1.5707600752459925 -1.5707548300372522 5.992112710373476e-05 0.0 0.0 -0.0 0.0 0.0 0.0 0.0314025916159153 -0.6415100693702698 -0.7975965142250061 -0.23386971652507782 -0.05371170490980148 0.12197033315896988 0.0291595496237278 -0.6280518174171448 -0.8021716475486755 -0.23498870432376862 -0.0503547228872776 0.1186133474111557 -0.2984372628765948 -0.11276917421657967 0.3131582282951041 -2.2179306028059362 -2.219530764749976 -0.008259502155963903 0.0 0.0 0.0 0.0 0.0 0.0 -3.0093778148593335 2.104591785586629 1.767643848459671 -0.42440823236785563 -0.3152835656625354 0.5633955868428129 -0.2984301935029837 -0.11275507530515129 0.3131843183387717 -2.217827088832791 -2.2194802147226973 -0.008179933726190749 0.0 0.0 0.0 0.0 0.0 0.0
3777.272 0.0 -1.5707963267948966 1.5707963267948966 -1.5707963267948966 -1.5707963267948966 0.0 0.0 0.0 0.0 0.0 0.0 0.0 0.0 0.0 0.0 0.0 0.0 0.0 2.7100081908582143e-27 -0.620381750820575 -0.8463465614411209 -0.2525548825603051 -1.4392506443496177e-11 0.0 3.110005232743317e-26 -7.1458666999402505 -7.145866699940252 -1.0424175499402515 -5.974879480466362e-11 0.0 -2.366701234990387e-05 -1.5707724730121058 1.5708250999450684 -1.5707481543170374 -1.570742432271139 3.5952674807049334e-05 0.0 0.0 -0.0 0.0 0.0 0.0 0.02243042178452015 -0.6280518174171448 -0.8052217364311218 -0.2361077070236206 -0.04364075884222984 0.12085133790969849 0.02467346377670765 -0.6280518174171448 -0.8021716475486755 -0.23498870432376862 -0.04923573136329651 0.11637535691261292 -0.29843035698712966 -0.11275237551130854 0.3131644598122924 -2.2179705329594186 -2.219491223214308 -0.00823231296962884 0.0 0.0 0.0 0.0 0.0 0.0 -2.001068578597588 2.0838195334739695 1.4790453128984762 -0.3756485942331793 -0.2178189900446081 0.5588873417638693 -0.2984301935029837 -0.11275507530515129 0.3131843183387717 -2.217827088832791 -2.2194802147226973 -0.008179933726190749 0.0 0.0 0.0 0.0 0.0 0.0
3777.2799999999997 0.0 -1.5707963267948966 1.5707963267948966 -1.5707963267948966 -1.5707963267948966 0.0 0.0 0.0 0.0 0.0 0.0 0.0 0.0 0.0 0.0 0.0 0.0 0.0 2.7100081908582143e-27 -0.620381750820575 -0.8463465614411209 -0.2525548825603051 -1.4392506443496177e-11 0.0 3.110005232743317e-26 -7.1458666999402505 -7.145866699940252 -1.0424175499402515 -5.974879480466362e-11 0.0 1.1984225238848012e-05 -1.5707362333880823 1.5708131790161133 -1.5707243124591272 -1.570742432271139 4.793690095539205e-05 0.0 0.0 -0.0 0.0 0.0 0.0 0.0291595496237278 -0.6504822373390198 -0.8036966919898987 -0.22827474772930145 -0.04923573136329651 0.1197323426604271 0.02467346377670765 -0.6280518174171448 -0.8021716475486755 -0.23498870432376862 -0.04923573136329651 0.11637535691261292 -0.29843120199550605 -0.11276299856085499 0.3131551662592915 -2.217968147689643 -2.219541361363403 -0.008285702551148197 0.0 0.0 0.0 0.0 0.0 0.0 -3.2472163813973665 1.8842845860977944 1.374320482565779 -0.3852510638225429 -0.27543516469005264 0.5532983815993479 -0.2984301935029837 -0.11275507530515129 0.3131843183387717 -2.217827088832791 -2.2194802147226973 -0.008179933726190749 0.0 0.0 0.0 0.0 0.0 0.0
3777.288 0.0 -1.5707963267948966 1.5707963267948966 -1.5707963267948966 -1.5707963267948966 0.0 0.0 0.0 0.0 0.0 0.0 0.0 0.0 0.0 0.0 0.0 0.0 0.0 2.7100081908582143e-27 -0.620381750820575 -0.8463465614411209 -0.2525548825603051 -1.4392506443496177e-11 0.0 3.110005232743317e-26 -7.1458666999402505 -7.145866699940252 -1.0424175499402515 -5.974879480466362e-11 0.0 2.3968450477696024e-05 -1.5707123915301722 1.5707893371582031 -1.5707009474383753 -1.5707066694842737 7.190534961409867e-05 0.0 0.0 -0.0 0.0 0.0 0.0 0.02243042178452015 -0.6190796494483948 -0.7899713516235352 -0.2361077070236206 -0.054830700159072876 0.11413737386465073 0.02467346377670765 -0.6280518174171448 -0.8021716475486755 -0.23498870432376862 -0.04923573136329651 0.11637535691261292 -0.29843373969467646 -0.11276952265803246 0.3131531521856459 -2.2180109659469722 -2.219557598918073 -0.008271981249485204 0.0 0.0 0.0 0.0 0.0 0.0 -2.117521970708587 1.9336587151229483 2.1551770638321455 -0.41576750825245606 -0.28510347531161967 0.527248042196675 -0.2984301935029837 -0.11275507530515129 0.3131843183387717 -2.217827088832791 -2.2194802147226973 -0.008179933726190749 0.0 0.0 0.0 0.0 0.0 0.0
3777.296 0.0 -1.5707963267948966 1.5707963267948966 -1.5707963267948966 -1.5707963267948966 0.0 0.0 0.0 0.0 0.0 0.0 0.0 0.0 0.0 0.0 0.0 0.0 0.0 2.7100081908582143e-27 -0.620381750820575 -0.8463465614411209 -0.2525548825603051 -1.4392506443496177e-11 0.0 3.110005232743317e-26 -7.1458666999402505 -7.145866699940252 -1.0424175499402515 -5.974879480466362e-11 0.0 -2.366701234990387e-05 -1.5707839171039026 1.5708012580871582 -1.5707243124591272 -1.570742432271139 4.793690095539205e-05 0.0 0.0 -0.0 0.0 0.0 0.0 0.0314025916159153 -0.6392670273780823 -0.7945464849472046 -0.2361077070236206 -0.04923573136329651 0.12085133790969849 0.02467346377670765 -0.6280518174171448 -0.8021716475486755 -0.23498870432376862 -0.04923573136329651 0.11637535691261292 -0.29842851941093496 -0.11275239052356192 0.3131729608937917 -2.2179782020864898 -2.2194720956802505 -0.008219588668467651 0.0 0.0 0.0 0.0 0.0 0.0 -3.008735066437263 2.087232949446433 1.9515692972227736 -0.4022285991981642 -0.3412087893668201 0.5580738337543037 -0.2984301935029837 -0.11275507530515129 0.3131843183387717 -2.217827088832791 -2.2194802147226973 -0.008179933726190749 0.0 0.0 0.0 0.0 0.0 0.0
3777.3039999999996 0.0 -1.5707963267948966 1.5707963267948966 -1.5707963267948966 -1.5707963267948966 0.0 0.0 0.0 0.0 0.0 0.0 0.0 0.0 0.0 0.0 0.0 0.0 0.0 2.7100081908582143e-27 -0.620381750820575 -0.8463465614411209 -0.2525548825603051 -1.4392506443496177e-11 0.0 3.110005232743317e-26 -7.1458666999402505 -7.145866699940252 -1.0424175499402515 -5.974879480466362e-11 0.0 1.1984225238848012e-05 -1.5707600752459925 1.5708250999450684 -1.5707243124591272 -1.5707305113421839 7.190534961409867e-05 0.0 0.0 -0.0 0.0 0.0 0.0 0.0269165076315403 -0.6145935654640198 -0.8006466031074524 -0.22939373552799225 -0.05259270966053009 0.1197323426604271 0.02467346377670765 -0.6280518174171448 -0.8021716475486755 -0.23498870432376862 -0.04923573136329651 0.11637535691261292 -0.2984263709947061 -0.11276397540754222 0.31315871652823873 -2.2179947988860738 -2.2195147283918737 -0.008259202610288053 0.0 0.0 0.0 0.0 0.0 0.0 -1.4672273472040993 2.462729238105991 1.538281121749827 -0.4485941478031224 -0.14765840488462809 0.5540582370280889 -0.2984301935029837 -0.11275507530515129 0.3131843183387717 -2.217827088832791 -2.2194802147226973 -0.008179933726190749 0.0 0.0 0.0 0.0 0.0 0.0
3777.312 0.0 -1.5707963267948966 1.5707963267948966 -1.5707963267948966 -1.5707963267948966 0.0 0.0 0.0 0.0 0.0 0.0 0.0 0.0 0.0 0.0 0.0 0.0 0.0 2.7100081908582143e-27 -0.620381750820575 -0.8463465614411209 -0.2525548825603051 -1.4392506443496177e-11 0.0 3.110005232743317e-26 -7.1458666999402505 -7.145866699940252 -1.0424175499402515 -5.974879480466362e-11 0.0 1.1984225238848012e-05 -1.5707123915301722 1.5708489418029785 -1.5707009474383753 -1.570742432271139 8.388957940042019e-05 0.0 0.0 -0.0 0.0 0.0 0.0 0.0269165076315403 -0.6527252793312073 -0.7914963960647583 -0.2383456975221634 -0.05259270966053009 0.11637535691261292 0.02467346377670765 -0.6280518174171448 -0.7975965142250061 -0.23498870432376862 -0.04923573136329651 0.11637535691261292 -0.29843016180916937 -0.11276293240004664 0.3131353754299695 -2.2180493056887727 -2.2195426784690158 -0.008377843189820574 0.0 0.0 0.0 0.0 0.0 0.0 -3.8381631449447022 1.5086122043740666 2.1321751720748163 -0.37036571761180603 -0.4355567435677995 0.5366824147725746 -0.2984301935029837 -0.11275507530515129 0.3131843183387717 -2.217827088832791 -2.2194802147226973 -0.008179933726190749 0.0 0.0 0.0 0.0 0.0 0.0
3777.3199999999997 0.0 -1.5707963267948966 1.5707963267948966 -1.5707963267948966 -1.5707963267948966 0.0 0.0 0.0 0.0 0.0 0.0 0.0 0.0 0.0 0.0 0.0 0.0 0.0 2.7100081908582143e-27 -0.620381750820575 -0.8463465614411209 -0.2525548825603051 -1.4392506443496177e-11 0.0 3.110005232743317e-26 -7.1458666999402505 -7.145866699940252 -1.0424175499402515 -5.974879480466362e-11 0.0 0.0 -1.5707362333880823 1.5708370208740234 -1.5707724730121058 -1.5707905928241175 4.793690095539205e-05 0.0 0.0 -0.0 0.0 0.0 0.0 0.0269165076315403 -0.6370239853858948 -0.8052217364311218 -0.23386971652507782 -0.05259270966053009 0.12420831620693207 0.02467346377670765 -0.6280518174171448 -0.8036966919898987 -0.2372266948223114 -0.04923573136329651 0.11749435216188431 -0.2984345518604362 -0.11275546197547454 0.31315218686680724 -2.2179450704873265 -2.219491952100351 -0.008311971653623611 0.0 0.0 0.0 0.0 0.0 0.0 -2.476051981557008 2.149150861824224 1.430179633256495 -0.4226957847520053 -0.24256736463901216 0.5742337586448855 -0.2984301935029837 -0.11275507530515129 0.3131843183387717 -2.217827088832791 -2.2194802147226973 -0.008179933726190749 0.0 0.0 0.0 0.0 0.0 0.0
3777.328 0.0 -1.5707963267948966 1.5707963267948966 -1.5707963267948966 -1.5707963267948966 0.0 0.0 0.0 0.0 0.0 0.0 0.0 0.0 0.0 0.0 0.0 0.0 0.0 2.7100081908582143e-27 -0.620381750820575 -0.8463465614411209 -0.2525548825603051 -1.4392506443496177e-11 0.0 3.110005232743317e-26 -7.1458666999402505 -7.145866699940252 -1.0424175499402515 -5.974879480466362e-11 0.0 -1.1746083394825746e-05 -1.5707481543170374 1.5708131790161133 -1.5707243124591272 -1.5707185904132288 9.58738019107841e-05 0.0 0.0 -0.0 0.0 0.0 0.0 0.02243042178452015 -0.6145935654640198 -0.7945464849472046 -0.23386971652507782 -0.054830700159072876 0.12197033315896988 0.02467346377670765 -0.6280518174171448 -0.8021716475486755 -0.23498870432376862 -0.04923573136329651 0.11413737386465073 -0.298431954346295 -0.11275788462731674 0.31315871031006115 -2.2180536849859966 -2.2194678611976646 -0.008245993208826456 0.0 0.0 0.0 0.0 0.0 0.0 -1.7029025387686472 2.213543285306586 1.9053831493971856 -0.4386773702238908 -0.21933849028718963 0.5639948353568169 -0.2984301935029837 -0.11275507530515129 0.3131843183387717 -2.217827088832791 -2.2194802147226973 -0.008179933726190749 0.0 0.0 0.0 0.0 0.0 0.0
3777.336 0.0 -1.5707963267948966 1.5707963267948966 -1.5707963267948966 -1.5707963267948966 0.0 0.0 0.0 0.0 0.0 0.0 0.0 0.0 0.0 0.0 0.0 0.0 0.0 2.7100081908582143e-27 -0.620381750820575 -0.8463465614411209 -0.2525548825603051 -1.4392506443496177e-11 0.0 3.110005232743317e-26 -7.1458666999402505 -7.145866699940252 -1.0424175499402515 -5.974879480466362e-11 0.0 0.0 -1.5707243124591272 1.570765495300293 -1.5707600752459925 -1.5707185904132288 8.388957940042019e-05 0.0 0.0 -0.0 0.0 0.0 0.0 0.02467346377670765 -0.6302948594093323 -0.8021716475486755 -0.24058367311954498 -0.048116736114025116 0.11749435216188431 0.02467346377670765 -0.6280518174171448 -0.8021716475486755 -0.23498870432376862 -0.04923573136329651 0.11413737386465073 -0.2984413648658263 -0.11276146086133529 0.3131688845234648 -2.2179975163623995 -2.219464735935855 -0.008179669526940962 0.0 0.0 0.0 0.0 0.0 0.0 -2.2381526034115087 2.0373312970038784 1.710980431117445 -0.3927493359263759 -0.2778249782378103 0.5429271011137331 -0.2984301935029837 -0.11275507530515129 0.3131843183387717 -2.217827088832791 -2.2194802147226973 -0.008179933726190749 0.0 0.0 0.0 0.0 0.0 0.0
3777.344 0.0 -1.5707963267948966 1.5707963267948966 -1.5707963267948966 -1.5707963267948966 0.0 0.0 0.0 0.0 0.0 0.0 0.0 0.0 0.0 0.0 0.0 0.0 0.0 2.7100081908582143e-27 -0.620381750820575 -0.8463465614411209 -0.2525548825603051 -1.4392506443496177e-11 0.0 3.110005232743317e-26 -7.1458666999402505 -7.145866699940252 -1.0424175499402515 -5.974879480466362e-11 0.0 -1.1746083394825746e-05 -1.5707839171039026 1.5708131790161133 -1.5707362333880823 -1.5707305113421839 9.58738019107841e-05 0.0 0.0 -0.0 0.0 0.0 0.0 0.02018737979233265 -0.6190796494483948 -0.7914963960647583 -0.2372266948223114 -0.054830700159072876 0.11189938336610794 0.02467346377670765 -0.6280518174171448 -0.8006466031074524 -0.2394646853208542 -0.04923573136329651 0.11413737386465073 -0.298427170735618 -0.11275692445820144 0.3131704111703413 -2.21802400593586 -2.2194380822691033 -0.008206199126014299 0.0 0.0 0.0 0.0 0.0 0.0 -2.057926307168918 1.8250028058495462 2.111547842149115 -0.4067549755011875 -0.2816316242233025 0.5169242515207069 -0.2984301935029837 -0.11275507530515129 0.3131843183387717 -2.217827088832791 -2.2194802147226973 -0.008179933726190749 0.0 0.0 0.0 0.0 0.0 0.0
3777.352 0.0 -1.5707963267948966 1.5707963267948966 -1.5707963267948966 -1.5707963267948966 0.0 0.0 0.0 0.0 0.0 0.0 0.0 0.0 0.0 0.0 0.0 0.0 0.0 2.7100081908582143e-27 -0.620381750820575 -0.8463465614411209 -0.2525548825603051 -1.4392506443496177e-11 0.0 3.110005232743317e-26 -7.1458666999402505 -7.145866699940252 -1.0424175499402515 -5.974879480466362e-11 0.0 1.1984225238848012e-05 -1.5707243124591272 1.5708131790161133 -1.5707123915301722 -1.5707548300372522 4.793690095539205e-05 0.0 0.0 -0.0 0.0 0.0 0.0 0.0314025916159153 -0.6280518174171448 -0.8082718253135681 -0.2394646853208542 -0.04587874934077263 0.11413737386465073 0.02467346377670765 -0.6280518174171448 -0.8036966919898987 -0.2372266948223114 -0.04923573136329651 0.11413737386465073 -0.29843214256107936 -0.11276196481513484 0.31315059775104753 -2.217973807176619 -2.2195469785684705 -0.008325935521565705 0.0 0.0 0.0 0.0 0.0 0.0 -1.8841000867379152 2.4101670952158796 1.4170391153459438 -0.4129328728076795 -0.21806974649893784 0.5276680816368332 -0.2984301935029837 -0.11275507530515129 0.3131843183387717 -2.217827088832791 -2.2194802147226973 -0.008179933726190749 0.0 0.0 0.0 0.0 0.0 0.0
3777.3599999999997 0.0 -1.5707963267948966 1.5707963267948966 -1.5707963267948966 -1.5707963267948966 0.0 0.0 0.0 0.0 0.0 0.0 0.0 0.0 0.0 0.0 0.0 0.0 0.0 2.7100081908582143e-27 -0.620381750820575 -0.8463465614411209 -0.2525548825603051 -1.4392506443496177e-11 0.0 3.110005232743317e-26 -7.1458666999402505 -7.145866699940252 -1.0424175499402515 -5.974879480466362e-11 0.0 0.0 -1.5707839171039026 1.5708250999450684 -1.5707481543170374 -1.5707185904132288 7.190534961409867e-05 0.0 0.0 -0.0 0.0 0.0 0.0 0.02467346377670765 -0.6145935654640198 -0.7945464849472046 -0.22715574502944946 -0.04923573136329651 0.11525636911392212 0.02467346377670765 -0.6280518174171448 -0.8021716475486755 -0.23386971652507782 -0.04923573136329651 0.11525636911392212 -0.29842584168007397 -0.11276140619837215 0.31316786145866155 -2.2179903413185076 -2.2194837511829633 -0.008193026436060635 0.0 0.0 0.0 0.0 0.0 0.0 -1.7032953650933949 2.206853755123061 1.7591876032561726 -0.4119969993302844 -0.17558251117661325 0.5331739808372704 -0.2984301935029837 -0.11275507530515129 0.3131843183387717 -2.217827088832791 -2.2194802147226973 -0.008179933726190749 0.0 0.0 0.0 0.0 0.0 0.0
3777.368 0.0 -1.5707963267948966 1.5707963267948966 -1.5707963267948966 -1.5707963267948966 0.0 0.0 0.0 0.0 0.0 0.0 0.0 0.0 0.0 0.0 0.0 0.0 0.0 2.7100081908582143e-27 -0.620381750820575 -0.8463465614411209 -0.2525548825603051 -1.4392506443496177e-11 0.0 3.110005232743317e-26 -7.1458666999402505 -7.145866699940252 -1.0424175499402515 -5.974879480466362e-11 0.0 5.992112710373476e-05 -1.5707481543170374 1.5708370208740234 -1.5707362333880823 -1.570742432271139 4.793690095539205e-05 0.0 0.0 -0.0 0.0 0.0 0.0 0.0269165076315403 -0.6280518174171448 -0.8021716475486755 -0.23275071382522583 -0.04923573136329651 0.1186133474111557 0.02467346377670765 -0.6280518174171448 -0.8021716475486755 -0.23498870432376862 -0.04923573136329651 0.11749435216188431 -0.29842288394051625 -0.11277728948598223 0.31315262280064887 -2.217914852682373 -2.2195944396807707 -0.008285559107454122 0.0 0.0 0.0 0.0 0.0 0.0 -2.119959048652551 2.1972334618577922 1.5415778464274579 -0.41109937069174246 -0.2173514373108205 0.548452480966691 -0.2984301935029837 -0.11275507530515129 0.3131843183387717 -2.217827088832791 -2.2194802147226973 -0.008179933726190749 0.0 0.0 0.0 0.0 0.0 0.0
3777.3759999999997 0.0 -1.5707963267948966 1.5707963267948966 -1.5707963267948966 -1.5707963267948966 0.0 0.0 0.0 0.0 0.0 0.0 0.0 0.0 0.0 0.0 0.0 0.0 0.0 2.7100081908582143e-27 -0.620381750820575 -0.8463465614411209 -0.2525548825603051 -1.4392506443496177e-11 0.0 3.110005232743317e-26 -7.1458666999402505 -7.145866699940252 -1.0424175499402515 -5.974879480466362e-11 0.0 -2.366701234990387e-05 -1.5707243124591272 1.570777416229248 -1.5707009474383753 -1.5707667509662073 8.388957940042019e-05 0.0 0.0 -0.0 0.0 0.0 0.0 0.02467346377670765 -0.6258087754249573 -0.8158970475196838 -0.24170267581939697 -0.05259270966053009 0.11749435216188431 0.02467346377670765 -0.6280518174171448 -0.8021716475486755 -0.2372266948223114 -0.04923573136329651 0.11637535691261292 -0.2984381787451194 -0.1127503765148798 0.3131603077786415 -2.218035210982005 -2.2194494359113794 -0.008312106382701771 0.0 0.0 0.0 0.0 0.0 0.0 -1.4689908765762767 2.3300626448822412 1.1279864555966215 -0.437409800849385 -0.16974566871737057 0.5435347374922962 -0.2984301935029837 -0.11275507530515129 0.3131843183387717 -2.217827088832791 -2.2194802147226973 -0.008179933726190749 0.0 0.0 0.0 0.0 0.0 0.0
3777.384 0.0 -1.5707963267948966 1.5707963267948966 -1.5707963267948966 -1.5707963267948966 0.0 0.0 0.0 0.0 0.0 0.0 0.0 0.0 0.0 0.0 0.0 0.0 0.0 2.7100081908582143e-27 -0.620381750820575 -0.8463465614411209 -0.2525548825603051 -1.4392506443496177e-11 0.0 3.110005232743317e-26 -7.1458666999402505 -7.145866699940252 -1.0424175499402515 -5.974879480466362e-11 0.0 1.1984225238848012e-05 -1.5707481543170374 1.570777416229248 -1.5707123915301722 -1.5707305113421839 4.793690095539205e-05 0.0 0.0 -0.0 0.0 0.0 0.0 0.0291595496237278 -0.6370239853858948 -0.7991215586662292 -0.2383456975221634 -0.04364075884222984 0.1186133474111557 0.02467346377670765 -0.6280518174171448 -0.8021716475486755 -0.23498870432376862 -0.04923573136329651 0.11525636911392212 -0.2984312552447269 -0.11276401746335012 0.31316837967557665 -2.2179563774368636 -2.219529487428968 -0.008232768167024737 0.0 0.0 0.0 0.0 0.0 0.0 -2.712798838335406 2.0680787301314223 1.7971695960757845 -0.37452344094498874 -0.31391450150881883 0.5478886384849478 -0.2984301935029837 -0.11275507530515129 0.3131843183387717 -2.217827088832791 -2.2194802147226973 -0.008179933726190749 0.0 0.0 0.0 0.0 0.0 0.0
3777.392 0.0 -1.5707963267948966 1.5707963267948966 -1.5707963267948966 -1.5707963267948966 0.0 0.0 0.0 0.0 0.0 0.0 0.0 0.0 0.0 0.0 0.0 0.0 0.0 2.7100081908582143e-27 -0.620381750820575 -0.8463465614411209 -0.2525548825603051 -1.4392506443496177e-11 0.0 3.110005232743317e-26 -7.1458666999402505 -7.145866699940252 -1.0424175499402515 -5.974879480466362e-11 0.0 -4.7985707418263246e-05 -1.5707724730121058 1.5708250999450684 -1.5707481543170374 -1.5707305113421839 3.5952674807049334e-05 0.0 0.0 -0.0 0.0 0.0 0.0 0.0269165076315403 -0.6392670273780823 -0.8097968697547913 -0.23386971652507782 -0.04699774086475372 0.11301837861537933 0.0291595496237278 -0.6280518174171448 -0.8021716475486755 -0.23498870432376862 -0.04923573136329651 0.11189938336610794 -0.2984330982246333 -0.11274609980643957 0.3131644524673704 -2.218003544330404 -2.2194702939516273 -0.008219187990236045 0.0 0.0 0.0 0.0 0.0 0.0 -2.4173538262900682 1.9981578703297829 1.2261239083972726 -0.3840831889523518 -0.22000399845639454 0.5225281590109838 -0.2984301935029837 -0.11275507530515129 0.3131843183387717 -2.217827088832791 -2.2194802147226973 -0.008179933726190749 0.0 0.0 0.0 0.0 0.0 0.0
3777.3999999999996 0.0 -1.5707963267948966 1.5707963267948966 -1.5707963267948966 -1.5707963267948966 0.0 0.0 0.0 0.0 0.0 0.0 0.0 0.0 0.0 0.0 0.0 0.0 0.0 2.7100081908582143e-27 -0.620381750820575 -0.8463465614411209 -0.2525548825603051 -1.4392506443496177e-11 0.0 3.110005232743317e-26 -7.1458666999402505 -7.145866699940252 -1.0424175499402515 -5.974879480466362e-11 0.0 0.0 -1.5707600752459925 1.5708370208740234 -1.5707009474383753 -1.5707667509662073 9.58738019107841e-05 0.0 0.0 -0.0 0.0 0.0 0.0 0.02467346377670765 -0.6258087754249573 -0.7914963960647583 -0.2361077070236206 -0.051473718136548996 0.11637535691261292 0.02467346377670765 -0.6280518174171448 -0.8021716475486755 -0.23498870432376862 -0.04923573136329651 0.11749435216188431 -0.29842481326049114 -0.11275738445398827 0.31315318495317734 -2.218034131354539 -2.219474074466925 -0.00833854065611582 0.0 0.0 0.0 0.0 0.0 0.0 -2.414456589884142 1.9527026974069033 2.087139820909396 -0.40168718583553187 -0.30378584168876854 0.5375085587406634 -0.2984301935029837 -0.11275507530515129 0.3131843183387717 -2.217827088832791 -2.2194802147226973 -0.008179933726190749 0.0 0.0 0.0 0.0 0.0 0.0
3777.408 0.0 -1.5707963267948966 1.5707963267948966 -1.5707963267948966 -1.5707963267948966 0.0 0.0 0.0 0.0 0.0 0.0 0.0 0.0 0.0 0.0 0.0 0.0 0.0 2.7100081908582143e-27 -0.620381750820575 -0.8463465614411209 -0.2525548825603051 -1.4392506443496177e-11 0.0 3.110005232743317e-26 -7.1458666999402505 -7.145866699940252 -1.0424175499402515 -5.974879480466362e-11 0.0 -3.5587941304981996e-05 -1.5707243124591272 1.5708489418029785 -1.5707123915301722 -1.5707548300372522 4.793690095539205e-05 0.0 0.0 -0.0 0.0 0.0 0.0 0.02467346377670765 -0.6437531113624573 -0.7991215586662292 -0.23386971652507782 -0.05371170490980148 0.11413737386465073 0.02243042178452015 -0.6280518174171448 -0.8021716475486755 -0.23498870432376862 -0.04923573136329651 0.11637535691261292 -0.2984345476925372 -0.11274772669062223 0.3131399184641309 -2.218044498493044 -2.2195120985591226 -0.00836583688703457 0.0 0.0 0.0 0.0 0.0 0.0 -3.067906992660931 1.670842986348295 1.6981530667625258 -0.3887004051125791 -0.314173007653771 0.5270626209776131 -0.2984301935029837 -0.11275507530515129 0.3131843183387717 -2.217827088832791 -2.2194802147226973 -0.008179933726190749 0.0 0.0 0.0 0.0 0.0 0.0
3777.4159999999997 0.0 -1.5707963267948966 1.5707963267948966 -1.5707963267948966 -1.5707963267948966 0.0 0.0 0.0 0.0 0.0 0.0 0.0 0.0 0.0 0.0 0.0 0.0 0.0 2.7100081908582143e-27 -0.620381750820575 -0.8463465614411209 -0.2525548825603051 -1.4392506443496177e-11 0.0 3.110005232743317e-26 -7.1458666999402505 -7.145866699940252 -1.0424175499402515 -5.974879480466362e-11 0.0 1.1984225238848012e-05 -1.5707600752459925 1.5708131790161133 -1.5707123915301722 -1.570742432271139 0.00011984225420746952 0.0 0.0 -0.0 0.0 0.0 0.0 0.02243042178452015 -0.6504822373390198 -0.7975965142250061 -0.22827474772930145 -0.051473718136548996 0.11413737386465073 0.02467346377670765 -0.6280518174171448 -0.8021716475486755 -0.23498870432376862 -0.04923573136329651 0.11413737386465073 -0.29842637564987734 -0.11276299901022023 0.31316126625154533 -2.2180419605484185 -2.2194554380398284 -0.008272268763360692 0.0 0.0 0.0 0.0 0.0 0.0 -3.4826499985753556 1.4174414509517494 1.6433536803647906 -0.3573604263610538 -0.3179006031127615 0.5271030719403077 -0.2984301935029837 -0.11275507530515129 0.3131843183387717 -2.217827088832791 -2.2194802147226973 -0.008179933726190749 0.0 0.0 0.0 0.0 0.0 0.0
3777.424 0.0 -1.5707963267948966 1.5707963267948966 -1.5707963267948966 -1.5707963267948966 0.0 0.0 0.0 0.0 0.0 0.0 0.0 0.0 0.0 0.0 0.0 0.0 0.0 2.7100081908582143e-27 -0.620381750820575 -0.8463465614411209 -0.2525548825603051 -1.4392506443496177e-11 0.0 3.110005232743317e-26 -7.1458666999402505 -7.145866699940252 -1.0424175499402515 -5.974879480466362e-11 0.0 2.3968450477696024e-05 -1.5707123915301722 1.5708012580871582 -1.5707123915301722 -1.570742432271139 9.58738019107841e-05 0.0 0.0 -0.0 0.0 0.0 0.0 0.02243042178452015 -0.6235657334327698 -0.806746780872345 -0.23051273822784424 -0.051473718136548996 0.11637535691261292 0.02467346377670765 -0.6280518174171448 -0.8021716475486755 -0.23498870432376862 -0.04923573136329651 0.11413737386465073 -0.29843369862161856 -0.11276657166056979 0.31315059111094473 -2.218019786848154 -2.219513266696071 -0.008312021202974371 0.0 0.0 0.0 0.0 0.0 0.0 -1.7048606588304005 2.127240035618793 1.2903205656689622 -0.4156341371416964 -0.15133270039372274 0.5384785020356094 -0.2984301935029837 -0.11275507530515129 0.3131843183387717 -2.217827088832791 -2.2194802147226973 -0.008179933726190749 0.0 0.0 0.0 0.0 0.0 0.0
3777.432 0.0 -1.5707963267948966 1.5707963267948966 -1.5707963267948966 -1.5707963267948966 0.0 0.0 0.0 0.0 0.0 0.0 0.0 0.0 0.0 0.0 0.0 0.0 0.0 2.7100081908582143e-27 -0.620381750820575 -0.8463465614411209 -0.2525548825603051 -1.4392506443496177e-11 0.0 3.110005232743317e-26 -7.1458666999402505 -7.145866699940252 -1.0424175499402515 -5.974879480466362e-11 0.0 -1.1746083394825746e-05 -1.5707481543170374 1.5708250999450684 -1.5707123915301722 -1.5707667509662073 8.388957940042019e-05 0.0 0.0 -0.0 0.0 0.0 0.0 0.0291595496237278 -0.6280518174171448 -0.806746780872345 -0.2394646853208542 -0.0503547228872776 0.11749435216188431 0.0269165076315403 -0.6280518174171448 -0.8021716475486755 -0.2372266948223114 -0.04923573136329651 0.11413737386465073 -0.2984299888313144 -0.11275389632753581 0.3131541627796374 -2.2180281549289647 -2.219468769324683 -0.008325865370882602 0.0 0.0 0.0 0.0 0.0 0.0 -1.9427438717555354 2.343274477956417 1.484797487986921 -0.4282935689731282 -0.22885283129388614 0.5431585289184042 -0.2984301935029837 -0.11275507530515129 0.3131843183387717 -2.217827088832791 -2.2194802147226973 -0.008179933726190749 0.0 0.0 0.0 0.0 0.0 0.0
3777.44 0.0 -1.5707963267948966 1.5707963267948966 -1.5707963267948966 -1.5707963267948966 0.0 0.0 0.0 0.0 0.0 0.0 0.0 0.0 0.0 0.0 0.0 0.0 0.0 2.7100081908582143e-27 -0.620381750820575 -0.8463465614411209 -0.2525548825603051 -1.4392506443496177e-11 0.0 3.110005232743317e-26 -7.1458666999402505 -7.145866699940252 -1.0424175499402515 -5.974879480466362e-11 0.0 0.0 -1.5707600752459925 1.5708131790161133 -1.5707724730121058 -1.5707548300372522 8.388957940042019e-05 0.0 0.0 -0.0 0.0 0.0 0.0 0.02243042178452015 -0.6572113633155823 -0.796071469783783 -0.24058367311954498 -0.05594969168305397 0.11749435216188431 0.02467346377670765 -0.6280518174171448 -0.8021716475486755 -0.2372266948223114 -0.04923573136329651 0.11413737386465073 -0.298432677777511 -0.11275844344905123 0.3131664019329032 -2.2179791481835403 -2.219446208328903 -0.008219280851738791 0.0 0.0 0.0 0.0 0.0 0.0 -3.8973760702137237 1.3103907549512381 1.977536708019117 -0.3694927992155106 -0.4377371291932403 0.5419125798424752 -0.2984301935029837 -0.11275507530515129 0.3131843183387717 -2.217827088832791 -2.2194802147226973 -0.008179933726190749 0.0 0.0 0.0 0.0 0.0 0.0
3777.448 0.0 -1.5707963267948966 1.5707963267948966 -1.5707963267948966 -1.5707963267948966 0.0 0.0 0.0 0.0 0.0 0.0 0.0 0.0 0.0 0.0 0.0 0.0 0.0 2.7100081908582143e-27 -0.620381750820575 -0.8463465614411209 -0.2525548825603051 -1.4392506443496177e-11 0.0 3.110005232743317e-26 -7.1458666999402505 -7.145866699940252 -1.0424175499402515 -5.974879480466362e-11 0.0 0.0 -1.5707600752459925 1.5708370208740234 -1.5707123915301722 -1.5707667509662073 8.388957940042019e-05 0.0 0.0 -0.0 0.0 0.0 0.0 0.02467346377670765 -0.6258087754249573 -0.8097968697547913 -0.2361077070236206 -0.054830700159072876 0.11525636911392212 0.0269165076315403 -0.6280518174171448 -0.8021716475486755 -0.2372266948223114 -0.04923573136329651 0.11413737386465073 -0.2984257561818116 -0.11275739243312491 0.3131541616646225 -2.2180151244518864 -2.2194817372332816 -0.008325841494789094 0.0 0.0 0.0 0.0 0.0 0.0 -1.7053656180406187 2.2058671752780525 1.2765480485277418 -0.43770433580005685 -0.17603390691678797 0.533105971015077 -0.2984301935029837 -0.11275507530515129 0.3131843183387717 -2.217827088832791 -2.2194802147226973 -0.008179933726190749 0.0 0.0 0.0 0.0 0.0 0.0
3777.4559999999997 0.0 -1.5707963267948966 1.5707963267948966 -1.5707963267948966 -1.5707963267948966 0.0 0.0 0.0 0.0 0.0 0.0 0.0 0.0 0.0 0.0 0.0 0.0 0.0 2.7100081908582143e-27 -0.620381750820575 -0.8463465614411209 -0.2525548825603051 -1.4392506443496177e-11 0.0 3.110005232743317e-26 -7.1458666999402505 -7.145866699940252 -1.0424175499402515 -5.974879480466362e-11 0.0 4.793690095539205e-05 -1.5707481543170374 1.570777416229248 -1.5707362333880823 -1.5707305113421839 4.793690095539205e-05 0.0 0.0 -0.0 0.0 0.0 0.0 0.02018737979233265 -0.6347809433937073 -0.8097968697547913 -0.22827474772930145 -0.05259270966053009 0.11637535691261292 0.02018737979233265 -0.6280518174171448 -0.8021716475486755 -0.2372266948223114 -0.051473718136548996 0.11413737386465073 -0.29842916516945356 -0.1127747635104231 0.3131704146194831 -2.217904473560235 -2.2195575190664956 -0.0082061302400931 0.0 0.0 0.0 0.0 0.0 0.0 -2.1794584489931643 1.8510669823247623 1.1050951694684124 -0.39795746265197984 -0.16443173709045852 0.5384486718023926 -0.2984301935029837 -0.11275507530515129 0.3131843183387717 -2.217827088832791 -2.2194802147226973 -0.008179933726190749 0.0 0.0 0.0 0.0 0.0 0.0
3777.464 0.0 -1.5707963267948966 1.5707963267948966 -1.5707963267948966 -1.5707963267948966 0.0 0.0 0.0 0.0 0.0 0.0 0.0 0.0 0.0 0.0 0.0 0.0 0.0 2.7100081908582143e-27 -0.620381750820575 -0.8463465614411209 -0.2525548825603051 -1.4392506443496177e-11 0.0 3.110005232743317e-26 -7.1458666999402505 -7.145866699940252 -1.0424175499402515 -5.974879480466362e-11 0.0 3.5952674807049334e-05 -1.5707243124591272 1.5708131790161133 -1.5707481543170374 -1.5707066694842737 5.992112710373476e-05 0.0 0.0 -0.0 0.0 0.0 0.0 0.0314025916159153 -0.6235657334327698 -0.8021716475486755 -0.23163172602653503 -0.051473718136548996 0.11189938336610794 0.02467346377670765 -0.6190796494483948 -0.8021716475486755 -0.2372266948223114 -0.04923573136329651 0.11413737386465073 -0.29843238331840494 -0.11277310911146066 0.31315362035813055 -2.2179666912525238 -2.2195667649674724 -0.008232714732720577 0.0 0.0 0.0 0.0 0.0 0.0 -1.8832606907835676 2.3762168221031144 1.5177325213626613 -0.4362350462945557 -0.19034676111182203 0.5174631366610093 -0.2984301935029837 -0.11275507530515129 0.3131843183387717 -2.217827088832791 -2.2194802147226973 -0.008179933726190749 0.0 0.0 0.0 0.0 0.0 0.0
3777.4719999999998 0.0 -1.5707963267948966 1.5707963267948966 -1.5707963267948966 -1.5707963267948966 0.0 0.0 0.0 0.0 0.0 0.0 0.0 0.0 0.0 0.0 0.0 0.0 0.0 2.7100081908582143e-27 -0.620381750820575 -0.8463465614411209 -0.2525548825603051 -1.4392506443496177e-11 0.0 3.110005232743317e-26 -7.1458666999402505 -7.145866699940252 -1.0424175499402515 -5.974879480466362e-11 0.0 3.5952674807049334e-05 -1.5707123915301722 1.5708250999450684 -1.5707481543170374 -1.570742432271139 8.388957940042019e-05 0.0 0.0 -0.0 0.0 0.0 0.0 0.02467346377670765 -0.6302948594093323 -0.7991215586662292 -0.24394066631793976 -0.044759754091501236 0.11413737386465073 0.02467346377670765 -0.6258087754249573 -0.8021716475486755 -0.2372266948223114 -0.04923573136329651 0.11413737386465073 -0.2984333213154608 -0.11277014575986379 0.3131465237620815 -2.21798715328966 -2.219534049296465 -0.00829873179115426 0.0 0.0 0.0 0.0 0.0 0.0 -2.356452293532512 1.9394633887689718 1.9183449831445805 -0.36921024456458734 -0.320742597336633 0.5270637802585961 -0.2984301935029837 -0.11275507530515129 0.3131843183387717 -2.217827088832791 -2.2194802147226973 -0.008179933726190749 0.0 0.0 0.0 0.0 0.0 0.0
3777.48 0.0 -1.5707963267948966 1.5707963267948966 -1.5707963267948966 -1.5707963267948966 0.0 0.0 0.0 0.0 0.0 0.0 0.0 0.0 0.0 0.0 0.0 0.0 0.0 2.7100081908582143e-27 -0.620381750820575 -0.8463465614411209 -0.2525548825603051 -1.4392506443496177e-11 0.0 3.110005232743317e-26 -7.1458666999402505 -7.145866699940252 -1.0424175499402515 -5.974879480466362e-11 0.0 -1.1746083394825746e-05 -1.5707481543170374 1.5708131790161133 -1.5707481543170374 -1.5707305113421839 8.388957940042019e-05 0.0 0.0 -0.0 0.0 0.0 0.0 0.02243042178452015 -0.6347809433937073 -0.8036966919898987 -0.22939373552799225 -0.05371170490980148 0.11078038811683655 0.02467346377670765 -0.6302948594093323 -0.8021716475486755 -0.23386971652507782 -0.04923573136329651 0.11413737386465073 -0.29843391938215347 -0.11275691946243423 0.3131607525403574 -2.2180224896609277 -2.219463407534838 -0.008232696074227499 0.0 0.0 0.0 0.0 0.0 0.0 -2.415953478473419 1.7704537308413442 1.3991772894813952 -0.39669675250321446 -0.2140668713925545 0.5121660164715662 -0.2984301935029837 -0.11275507530515129 0.3131843183387717 -2.217827088832791 -2.2194802147226973 -0.008179933726190749 0.0 0.0 0.0 0.0 0.0 0.0
3777.488 0.0 -1.5707963267948966 1.5707963267948966 -1.5707963267948966 -1.5707963267948966 0.0 0.0 0.0 0.0 0.0 0.0 0.0 0.0 0.0 0.0 0.0 0.0 0.0 2.7100081908582143e-27 -0.620381750820575 -0.8463465614411209 -0.2525548825603051 -1.4392506443496177e-11 0.0 3.110005232743317e-26 -7.1458666999402505 -7.145866699940252 -1.0424175499402515 -5.974879480466362e-11 0.0 -3.5587941304981996e-05 -1.5707362333880823 1.570765495300293 -1.5707724730121058 -1.5707305113421839 5.992112710373476e-05 0.0 0.0 -0.0 0.0 0.0 0.0 0.0269165076315403 -0.6235657334327698 -0.7975965142250061 -0.2361077070236206 -0.05259270966053009 0.11078038811683655 0.02467346377670765 -0.6280518174171448 -0.8021716475486755 -0.2372266948223114 -0.04923573136329651 0.11301837861537933 -0.2984444774588298 -0.11274987119693829 0.3131735089042888 -2.217992422660313 -2.2194338762830266 -0.008166009855185577 0.0 0.0 0.0 0.0 0.0 0.0 -2.05973293753352 2.0976484482006845 1.817048457505772 -0.41861576627005 -0.2512562639879831 0.5119307176827299 -0.2984301935029837 -0.11275507530515129 0.3131843183387717 -2.217827088832791 -2.2194802147226973 -0.008179933726190749 0.0 0.0 0.0 0.0 0.0 0.0
3777.4959999999996 0.0 -1.5707963267948966 1.5707963267948966 -1.5707963267948966 -1.5707963267948966 0.0 0.0 0.0 0.0 0.0 0.0 0.0 0.0 0.0 0.0 0.0 0.0 0.0 2.7100081908582143e-27 -0.620381750820575 -0.8463465614411209 -0.2525548825603051 -1.4392506443496177e-11 0.0 3.110005232743317e-26 -7.1458666999402505 -7.145866699940252 -1.0424175499402515 -5.974879480466362e-11 0.0 -1.1746083394825746e-05 -1.5707123915301722 1.5708250999450684 -1.5707243124591272 -1.5707548300372522 7.190534961409867e-05 0.0 0.0 -0.0 0.0 0.0 0.0 0.0269165076315403 -0.6549683213233948 -0.7899713516235352 -0.23498870432376862 -0.051473718136548996 0.11525636911392212 0.02467346377670765 -0.6280518174171448 -0.8021716475486755 -0.23498870432376862 -0.04923573136329651 0.11749435216188431 -0.2984367362685031 -0.11275487309657932 0.3131444966098131 -2.2180326177179785 -2.2195000898518957 -0.00833916533783654 0.0 0.0 0.0 0.0 0.0 0.0 -4.015874204740011 1.4242598705835998 2.126531698552431 -0.3581970913189298 -0.4341734776384968 0.5315253529626204 -0.2984301935029837 -0.11275507530515129 0.3131843183387717 -2.217827088832791 -2.2194802147226973 -0.008179933726190749 0.0 0.0 0.0 0.0 0.0 0.0
3777.504 0.0 -1.5707963267948966 1.5707963267948966 -1.5707963267948966 -1.5707963267948966 0.0 0.0 0.0 0.0 0.0 0.0 0.0 0.0 0.0 0.0 0.0 0.0 0.0 2.7100081908582143e-27 -0.620381750820575 -0.8463465614411209 -0.2525548825603051 -1.4392506443496177e-11 0.0 3.110005232743317e-26 -7.1458666999402505 -7.145866699940252 -1.0424175499402515 -5.974879480466362e-11 0.0 -1.1746083394825746e-05 -1.5707600752459925 1.5707893371582031 -1.5707600752459925 -1.570742432271139 9.58738019107841e-05 0.0 0.0 -0.0 0.0 0.0 0.0 0.02243042178452015 -0.6370239853858948 -0.7991215586662292 -0.24058367311954498 -0.048116736114025116 0.1186133474111557 0.02467346377670765 -0.6280518174171448 -0.8021716475486755 -0.2361077070236206 -0.04923573136329651 0.11637535691261292 -0.29843495209874066 -0.11275597776585382 0.3131724558400731 -2.218006034919374 -2.219420388450475 -0.008192844241046767 0.0 0.0 0.0 0.0 0.0 0.0 -2.7117997041483766 1.7781216044974657 1.8451080364398207 -0.3714741744757497 -0.3284684996079558 0.5478123617049523 -0.2984301935029837 -0.11275507530515129 0.3131843183387717 -2.217827088832791 -2.2194802147226973 -0.008179933726190749 0.0 0.0 0.0 0.0 0.0 0.0
3777.5119999999997 0.0 -1.5707963267948966 1.5707963267948966 -1.5707963267948966 -1.5707963267948966 0.0 0.0 0.0 0.0 0.0 0.0 0.0 0.0 0.0 0.0 0.0 0.0 0.0 2.7100081908582143e-27 -0.620381750820575 -0.8463465614411209 -0.2525548825603051 -1.4392506443496177e-11 0.0 3.110005232743317e-26 -7.1458666999402505 -7.145866699940252 -1.0424175499402515 -5.974879480466362e-11 0.0 -1.1746083394825746e-05 -1.5707243124591272 1.5708012580871582 -1.5707481543170374 -1.5707548300372522 8.388957940042019e-05 0.0 0.0 -0.0 0.0 0.0 0.0 0.02467346377670765 -0.6235657334327698 -0.8021716475486755 -0.22827474772930145 -0.04699774086475372 0.11637535691261292 0.02467346377670765 -0.6280518174171448 -0.8021716475486755 -0.23498870432376862 -0.04923573136329651 0.11525636911392212 -0.29843875111276025 -0.11275492146518405 0.31315720982971773 -2.218016174816456 -2.2194571801937886 -0.008272849803917497 0.0 0.0 0.0 0.0 0.0 0.0 -1.8824063573514234 2.1566476674363644 1.4445652091375598 -0.3972915062610015 -0.16870600317821025 0.5384036284094522 -0.2984301935029837 -0.11275507530515129 0.3131843183387717 -2.217827088832791 -2.2194802147226973 -0.008179933726190749 0.0 0.0 0.0 0.0 0.0 0.0
3777.52 0.0 -1.5707963267948966 1.5707963267948966 -1.5707963267948966 -1.5707963267948966 0.0 0.0 0.0 0.0 0.0 0.0 0.0 0.0 0.0 0.0 0.0 0.0 0.0 2.7100081908582143e-27 -0.620381750820575 -0.8463465614411209 -0.2525548825603051 -1.4392506443496177e-11 0.0 3.110005232743317e-26 -7.1458666999402505 -7.145866699940252 -1.0424175499402515 -5.974879480466362e-11 0.0 -3.5587941304981996e-05 -1.5707724730121058 1.570765495300293 -1.5707481543170374 -1.5707185904132288 7.190534961409867e-05 0.0 0.0 -0.0 0.0 0.0 0.0 0.02467346377670765 -0.6415100693702698 -0.7914963960647583 -0.23163172602653503 -0.05594969168305397 0.11637535691261292 0.0314025916159153 -0.6280518174171448 -0.8021716475486755 -0.23498870432376862 -0.04923573136329651 0.11637535691261292 -0.29843662948620747 -0.11275084969011473 0.3131822445351143 -2.218005888939889 -2.2194204288775903 -0.008139581359457488 0.0 0.0 0.0 0.0 0.0 0.0 -3.244624312725741 1.6384332746547572 1.9883022198721942 -0.3965227976115728 -0.34322330452397803 0.53732846327184 -0.2984301935029837 -0.11275507530515129 0.3131843183387717 -2.217827088832791 -2.2194802147226973 -0.008179933726190749 0.0 0.0 0.0 0.0 0.0 0.0
3777.528 0.0 -1.5707963267948966 1.5707963267948966 -1.5707963267948966 -1.5707963267948966 0.0 0.0 0.0 0.0 0.0 0.0 0.0 0.0 0.0 0.0 0.0 0.0 0.0 2.7100081908582143e-27 -0.620381750820575 -0.8463465614411209 -0.2525548825603051 -1.4392506443496177e-11 0.0 3.110005232743317e-26 -7.1458666999402505 -7.145866699940252 -1.0424175499402515 -5.974879480466362e-11 0.0 2.3968450477696024e-05 -1.5707481543170374 1.5708131790161133 -1.5707362333880823 -1.5707667509662073 5.992112710373476e-05 0.0 0.0 -0.0 0.0 0.0 0.0 0.0269165076315403 -0.6370239853858948 -0.8052217364311218 -0.2361077070236206 -0.05371170490980148 0.11413737386465073 0.0269165076315403 -0.6280518174171448 -0.8021716475486755 -0.23498870432376862 -0.04923573136329651 0.11301837861537933 -0.2984289122061008 -0.11276458491732919 0.31315975745079755 -2.2179440264957866 -2.219517233971052 -0.008286046096425206 0.0 0.0 0.0 0.0 0.0 0.0 -2.4760496109803096 1.992295631088258 1.4778345512250366 -0.41499811506538137 -0.2567895987414772 0.5274338238557124 -0.2984301935029837 -0.11275507530515129 0.3131843183387717 -2.217827088832791 -2.2194802147226973 -0.008179933726190749 0.0 0.0 0.0 0.0 0.0 0.0
3777.5359999999996 0.0 -1.5707963267948966 1.5707963267948966 -1.5707963267948966 -1.5707963267948966 0.0 0.0 0.0 0.0 0.0 0.0 0.0 0.0 0.0 0.0 0.0 0.0 0.0 2.7100081908582143e-27 -0.620381750820575 -0.8463465614411209 -0.2525548825603051 -1.4392506443496177e-11 0.0 3.110005232743317e-26 -7.1458666999402505 -7.145866699940252 -1.0424175499402515 -5.974879480466362e-11 0.0 2.3968450477696024e-05 -1.5707243124591272 1.570777416229248 -1.5707481543170374 -1.5707667509662073 9.58738019107841e-05 0.0 0.0 -0.0 0.0 0.0 0.0 0.02467346377670765 -0.6415100693702698 -0.8036966919898987 -0.23498870432376862 -0.04699774086475372 0.11749435216188431 0.02467346377670765 -0.6280518174171448 -0.8021716475486755 -0.23498870432376862 -0.04923573136329651 0.11525636911392212 -0.29843669687170027 -0.1127646256356722 0.3131643368756332 -2.217971900146709 -2.2194655540247035 -0.00825939667104877 0.0 0.0 0.0 0.0 0.0 0.0 -2.772229748255732 1.83549386545268 1.520512645272738 -0.37084940758861334 -0.27978679172857857 0.5429139870328481 -0.2984301935029837 -0.11275507530515129 0.3131843183387717 -2.217827088832791 -2.2194802147226973 -0.008179933726190749 0.0 0.0 0.0 0.0 0.0 0.0
3777.544 0.0 -1.5707963267948966 1.5707963267948966 -1.5707963267948966 -1.5707963267948966 0.0 0.0 0.0 0.0 0.0 0.0 0.0 0.0 0.0 0.0 0.0 0.0 0.0 2.7100081908582143e-27 -0.620381750820575 -0.8463465614411209 -0.2525548825603051 -1.4392506443496177e-11 0.0 3.110005232743317e-26 -7.1458666999402505 -7.145866699940252 -1.0424175499402515 -5.974879480466362e-11 0.0 3.5952674807049334e-05 -1.570796314870016 1.570765495300293 -1.5707362333880823 -1.5707548300372522 5.992112710373476e-05 0.0 0.0 -0.0 0.0 0.0 0.0 0.02467346377670765 -0.6302948594093323 -0.8052217364311218 -0.2372266948223114 -0.041402772068977356 0.11413737386465073 0.02467346377670765 -0.6280518174171448 -0.8021716475486755 -0.23498870432376862 -0.04923573136329651 0.11413737386465073 -0.29842373784627113 -0.11276921550891922 0.31318836675235484 -2.2178890645298877 -2.219488673580899 -0.00816630242306202 0.0 0.0 0.0 0.0 0.0 0.0 -2.1200761729746076 2.030885217368036 1.5027242653260642 -0.36084043117494113 -0.23463957928073786 0.5276694955099459 -0.2984301935029837 -0.11275507530515129 0.3131843183387717 -2.217827088832791 -2.2194802147226973 -0.008179933726190749 0.0 0.0 0.0 0.0 0.0 0.0
3777.5519999999997 0.0 -1.5707963267948966 1.5707963267948966 -1.5707963267948966 -1.5707963267948966 0.0 0.0 0.0 0.0 0.0 0.0 0.0 0.0 0.0 0.0 0.0 0.0 0.0 2.7100081908582143e-27 -0.620381750820575 -0.8463465614411209 -0.2525548825603051 -1.4392506443496177e-11 0.0 3.110005232743317e-26 -7.1458666999402505 -7.145866699940252 -1.0424175499402515 -5.974879480466362e-11 0.0 -3.5587941304981996e-05 -1.5707243124591272 1.570777416229248 -1.5707243124591272 -1.5707548300372522 5.992112710373476e-05 0.0 0.0 -0.0 0.0 0.0 0.0 0.02467346377670765 -0.6325379014015198 -0.8052217364311218 -0.23163172602653503 -0.04699774086475372 0.11749435216188431 0.02467346377670765 -0.6280518174171448 -0.8021716475486755 -0.23498870432376862 -0.04923573136329651 0.11301837861537933 -0.2984414472081177 -0.11274781683418611 0.31316229458643374 -2.218016188677058 -2.2194573222574725 -0.008273016863328894 0.0 0.0 0.0 0.0 0.0 0.0 -2.238602366366119 2.038682266631606 1.3812972497879124 -0.3875308713813179 -0.2082817816986106 0.5433506265794137 -0.2984301935029837 -0.11275507530515129 0.3131843183387717 -2.217827088832791 -2.2194802147226973 -0.008179933726190749 0.0 0.0 0.0 0.0 0.0 0.0
3777.56 0.0 -1.5707963267948966 1.5707963267948966 -1.5707963267948966 -1.5707963267948966 0.0 0.0 0.0 0.0 0.0 0.0 0.0 0.0 0.0 0.0 0.0 0.0 0.0 2.7100081908582143e-27 -0.620381750820575 -0.8463465614411209 -0.2525548825603051 -1.4392506443496177e-11 0.0 3.110005232743317e-26 -7.1458666999402505 -7.145866699940252 -1.0424175499402515 -5.974879480466362e-11 0.0 2.3968450477696024e-05 -1.5707243124591272 1.5708250999450684 -1.5707243124591272 -1.5707786718951624 8.388957940042019e-05 0.0 0.0 -0.0 0.0 0.0 0.0 0.0314025916159153 -0.6235657334327698 -0.7899713516235352 -0.2394646853208542 -0.051473718136548996 0.11637535691261292 0.02467346377670765 -0.6280518174171448 -0.8021716475486755 -0.23498870432376862 -0.04923573136329651 0.11749435216188431 -0.2984307886244393 -0.11276357238694681 0.31314807012208257 -2.217988323972712 -2.2195083610791553 -0.00835217535734608 0.0 0.0 0.0 0.0 0.0 0.0 -2.3558763654399457 2.2642851377933475 2.228479145511415 -0.4274147788744998 -0.3263896236872206 0.537331358203669 -0.2984301935029837 -0.11275507530515129 0.3131843183387717 -2.217827088832791 -2.2194802147226973 -0.008179933726190749 0.0 0.0 0.0 0.0 0.0 0.0
3777.5679999999998 0.0 -1.5707963267948966 1.5707963267948966 -1.5707963267948966 -1.5707963267948966 0.0 0.0 0.0 0.0 0.0 0.0 0.0 0.0 0.0 0.0 0.0 0.0 0.0 2.7100081908582143e-27 -0.620381750820575 -0.8463465614411209 -0.2525548825603051 -1.4392506443496177e-11 0.0 3.110005232743317e-26 -7.1458666999402505 -7.145866699940252 -1.0424175499402515 -5.974879480466362e-11 0.0 0.0 -1.5707724730121058 1.570765495300293 -1.5707123915301722 -1.5707066694842737 7.190534961409867e-05 0.0 0.0 -0.0 0.0 0.0 0.0 0.02243042178452015 -0.6347809433937073 -0.8006466031074524 -0.2361077070236206 -0.04252176731824875 0.1197323426604271 0.02467346377670765 -0.6280518174171448 -0.8021716475486755 -0.23498870432376862 -0.04923573136329651 0.11637535691261292 -0.29842966971374935 -0.11276242719366553 0.3131791846733385 -2.21799021879839 -2.2194834840090985 -0.008166070365173049 0.0 0.0 0.0 0.0 0.0 0.0 -2.534229746337555 1.8637287759843153 1.6808218178128478 -0.3524064783992867 -0.27904870215246985 0.5533449590110133 -0.2984301935029837 -0.11275507530515129 0.3131843183387717 -2.217827088832791 -2.2194802147226973 -0.008179933726190749 0.0 0.0 0.0 0.0 0.0 0.0
3777.576 0.0 -1.5707963267948966 1.5707963267948966 -1.5707963267948966 -1.5707963267948966 0.0 0.0 0.0 0.0 0.0 0.0 0.0 0.0 0.0 0.0 0.0 0.0 0.0 2.7100081908582143e-27 -0.620381750820575 -0.8463465614411209 -0.2525548825603051 -1.4392506443496177e-11 0.0 3.110005232743317e-26 -7.1458666999402505 -7.145866699940252 -1.0424175499402515 -5.974879480466362e-11 0.0 1.1984225238848012e-05 -1.5707362333880823 1.5708370208740234 -1.5707600752459925 -1.5707066694842737 5.992112710373476e-05 0.0 0.0 -0.0 0.0 0.0 0.0 0.0381317175924778 -0.6258087754249573 -0.796071469783783 -0.2372266948223114 -0.0503547228872776 0.11078038811683655 0.0314025916159153 -0.6280518174171448 -0.8021716475486755 -0.23498870432376862 -0.04923573136329651 0.11637535691261292 -0.2984321739949095 -0.1127659414446517 0.31315107693420613 -2.217993329005299 -2.2195402355163436 -0.008232785165595459 0.0 0.0 0.0 0.0 0.0 0.0 -2.2389661662035576 2.512676580437635 1.9095684600618341 -0.4424621226958254 -0.2788631836490782 0.5117007226316028 -0.2984301935029837 -0.11275507530515129 0.3131843183387717 -2.217827088832791 -2.2194802147226973 -0.008179933726190749 0.0 0.0 0.0 0.0 0.0 0.0
3777.584 0.0 -1.5707963267948966 1.5707963267948966 -1.5707963267948966 -1.5707963267948966 0.0 0.0 0.0 0.0 0.0 0.0 0.0 0.0 0.0 0.0 0.0 0.0 0.0 2.7100081908582143e-27 -0.620381750820575 -0.8463465614411209 -0.2525548825603051 -1.4392506443496177e-11 0.0 3.110005232743317e-26 -7.1458666999402505 -7.145866699940252 -1.0424175499402515 -5.974879480466362e-11 0.0 3.5952674807049334e-05 -1.5707600752459925 1.5708012580871582 -1.5707362333880823 -1.5707066694842737 3.5952674807049334e-05 0.0 0.0 -0.0 0.0 0.0 0.0 0.02467346377670765 -0.6415100693702698 -0.8052217364311218 -0.24058367311954498 -0.04587874934077263 0.11749435216188431 0.0269165076315403 -0.6280518174171448 -0.8021716475486755 -0.23498870432376862 -0.04923573136329651 0.11525636911392212 -0.2984266209523726 -0.11277312750065276 0.3131668389934436 -2.2179224385382414 -2.219575447278477 -0.008193071381836326 0.0 0.0 0.0 0.0 0.0 0.0 -2.713081712435158 1.8573484703799104 1.5743805424049462 -0.3674426466105726 -0.30538472480439255 0.5427707487834164 -0.2984301935029837 -0.11275507530515129 0.3131843183387717 -2.217827088832791 -2.2194802147226973 -0.008179933726190749 0.0 0.0 0.0 0.0 0.0 0.0
3777.5919999999996 0.0 -1.5707963267948966 1.5707963267948966 -1.5707963267948966 -1.5707963267948966 0.0 0.0 0.0 0.0 0.0 0.0 0.0 0.0 0.0 0.0 0.0 0.0 0.0 2.7100081908582143e-27 -0.620381750820575 -0.8463465614411209 -0.2525548825603051 -1.4392506443496177e-11 0.0 3.110005232743317e-26 -7.1458666999402505 -7.145866699940252 -1.0424175499402515 -5.974879480466362e-11 0.0 -1.1746083394825746e-05 -1.5707724730121058 1.5707893371582031 -1.5707243124591272 -1.5707548300372522 0.00011984225420746952 0.0 0.0 -0.0 0.0 0.0 0.0 0.0314025916159153 -0.6370239853858948 -0.7914963960647583 -0.23498870432376862 -0.054830700159072876 0.11301837861537933 0.0269165076315403 -0.6280518174171448 -0.8021716475486755 -0.23498870432376862 -0.04923573136329651 0.11637535691261292 -0.2984300073268708 -0.11275493643828097 0.3131731120771065 -2.2180381316529076 -2.2193989806794088 -0.008232520407136141 0.0 0.0 0.0 0.0 0.0 0.0 -3.0082655176055915 1.9654515299568736 2.0619959588444465 -0.4183058031532687 -0.3452953989210521 0.5216884255051736 -0.2984301935029837 -0.11275507530515129 0.3131843183387717 -2.217827088832791 -2.2194802147226973 -0.008179933726190749 0.0 0.0 0.0 0.0 0.0 0.0
3777.6 0.0 -1.5707963267948966 1.5707963267948966 -1.5707963267948966 -1.5707963267948966 0.0 0.0 0.0 0.0 0.0 0.0 0.0 0.0 0.0 0.0 0.0 0.0 0.0 2.7100081908582143e-27 -0.620381750820575 -0.8463465614411209 -0.2525548825603051 -1.4392506443496177e-11 0.0 3.110005232743317e-26 -7.1458666999402505 -7.145866699940252 -1.0424175499402515 -5.974879480466362e-11 0.0 2.3968450477696024e-05 -1.5707481543170374 1.5708613395690918 -1.5707481543170374 -1.5707305113421839 5.992112710373476e-05 0.0 0.0 -0.0 0.0 0.0 0.0 0.0314025916159153 -0.6235657334327698 -0.8082718253135681 -0.2372266948223114 -0.05259270966053009 0.12085133790969849 0.0269165076315403 -0.6280518174171448 -0.7991215586662292 -0.23498870432376862 -0.04923573136329651 0.11637535691261292 -0.2984259079340745 -0.11276752245748835 0.3131463708884269 -2.2179802174286234 -2.2195535292026265 -0.008286204958569276 0.0 0.0 0.0 0.0 0.0 0.0 -1.646783979478852 2.6048214418871374 1.3698436852154539 -0.46019004792829055 -0.1842831745905231 0.5589918769822629 -0.2984301935029837 -0.11275507530515129 0.3131843183387717 -2.217827088832791 -2.2194802147226973 -0.008179933726190749 0.0 0.0 0.0 0.0 0.0 0.0
3777.6079999999997 0.0 -1.5707963267948966 1.5707963267948966 -1.5707963267948966 -1.5707963267948966 0.0 0.0 0.0 0.0 0.0 0.0 0.0 0.0 0.0 0.0 0.0 0.0 0.0 2.7100081908582143e-27 -0.620381750820575 -0.8463465614411209 -0.2525548825603051 -1.4392506443496177e-11 0.0 3.110005232743317e-26 -7.1458666999402505 -7.145866699940252 -1.0424175499402515 -5.974879480466362e-11 0.0 1.1984225238848012e-05 -1.5707362333880823 1.5708012580871582 -1.5707362333880823 -1.5707305113421839 8.388957940042019e-05 0.0 0.0 -0.0 0.0 0.0 0.0 0.011215210892260075 -0.6459961533546448 -0.8097968697547913 -0.2372266948223114 -0.05259270966053009 0.11301837861537933 0.02018737979233265 -0.6280518174171448 -0.8036966919898987 -0.23498870432376862 -0.04923573136329651 0.11525636911392212 -0.298433169592318 -0.11276400234110778 0.31315973616634335 -2.218002053957396 -2.219495603124858 -0.008245879163826924 0.0 0.0 0.0 0.0 0.0 0.0 -2.7712649538581804 1.1863313454869786 1.2965016408537784 -0.34330482384496935 -0.27121573951051725 0.5222331007123977 -0.2984301935029837 -0.11275507530515129 0.3131843183387717 -2.217827088832791 -2.2194802147226973 -0.008179933726190749 0.0 0.0 0.0 0.0 0.0 0.0
3777.616 0.0 -1.5707963267948966 1.5707963267948966 -1.5707963267948966 -1.5707963267948966 0.0 0.0 0.0 0.0 0.0 0.0 0.0 0.0 0.0 0.0 0.0 0.0 0.0 2.7100081908582143e-27 -0.620381750820575 -0.8463465614411209 -0.2525548825603051 -1.4392506443496177e-11 0.0 3.110005232743317e-26 -7.1458666999402505 -7.145866699940252 -1.0424175499402515 -5.974879480466362e-11 0.0 0.0 -1.5707243124591272 1.5708250999450684 -1.5707481543170374 -1.5707548300372522 5.992112710373476e-05 0.0 0.0 -0.0 0.0 0.0 0.0 0.02243042178452015 -0.6347809433937073 -0.7899713516235352 -0.23386971652507782 -0.05371170490980148 0.1186133474111557 0.0291595496237278 -0.6280518174171448 -0.7991215586662292 -0.23498870432376862 -0.04923573136329651 0.11413737386465073 -0.29843545428997037 -0.11275839958456968 0.31315009019958273 -2.217988436097872 -2.2195086694916966 -0.008299393083531352 0.0 0.0 0.0 0.0 0.0 0.0 -2.947768426275155 1.6885270473784912 2.1049008070507473 -0.3903510676177846 -0.3391162996025045 0.5476890852526394 -0.2984301935029837 -0.11275507530515129 0.3131843183387717 -2.217827088832791 -2.2194802147226973 -0.008179933726190749 0.0 0.0 0.0 0.0 0.0 0.0
3777.624 0.0 -1.5707963267948966 1.5707963267948966 -1.5707963267948966 -1.5707963267948966 0.0 0.0 0.0 0.0 0.0 0.0 0.0 0.0 0.0 0.0 0.0 0.0 0.0 2.7100081908582143e-27 -0.620381750820575 -0.8463465614411209 -0.2525548825603051 -1.4392506443496177e-11 0.0 3.110005232743317e-26 -7.1458666999402505 -7.145866699940252 -1.0424175499402515 -5.974879480466362e-11 0.0 -1.1746083394825746e-05 -1.5707123915301722 1.5708131790161133 -1.5707243124591272 -1.5707305113421839 7.190534961409867e-05 0.0 0.0 -0.0 0.0 0.0 0.0 0.02467346377670765 -0.6325379014015198 -0.806746780872345 -0.2394646853208542 -0.048116736114025116 0.12085133790969849 0.02243042178452015 -0.6280518174171448 -0.8021716475486755 -0.2383456975221634 -0.04923573136329651 0.11749435216188431 -0.29843772111365924 -0.11275688956567774 0.31314804138781654 -2.2180388807044666 -2.2195063902081906 -0.008298988779052696 0.0 0.0 0.0 0.0 0.0 0.0 -2.1794978375880047 2.1122071259577297 1.4839734564945697 -0.3988501871322483 -0.24850169587917764 0.5586414891331255 -0.2984301935029837 -0.11275507530515129 0.3131843183387717 -2.217827088832791 -2.2194802147226973 -0.008179933726190749 0.0 0.0 0.0 0.0 0.0 0.0
3777.6319999999996 0.0 -1.5707963267948966 1.5707963267948966 -1.5707963267948966 -1.5707963267948966 0.0 0.0 0.0 0.0 0.0 0.0 0.0 0.0 0.0 0.0 0.0 0.0 0.0 2.7100081908582143e-27 -0.620381750820575 -0.8463465614411209 -0.2525548825603051 -1.4392506443496177e-11 0.0 3.110005232743317e-26 -7.1458666999402505 -7.145866699940252 -1.0424175499402515 -5.974879480466362e-11 0.0 3.5952674807049334e-05 -1.5707600752459925 1.5708131790161133 -1.5707123915301722 -1.5707305113421839 4.793690095539205e-05 0.0 0.0 -0.0 0.0 0.0 0.0 0.0314025916159153 -0.6235657334327698 -0.8021716475486755 -0.23275071382522583 -0.0503547228872776 0.12085133790969849 0.0314025916159153 -0.6280518174171448 -0.8021716475486755 -0.23386971652507782 -0.04923573136329651 0.11637535691261292 -0.29842367206254 -0.11277113356062686 0.3131612589065984 -2.21794163267925 -2.21956784603741 -0.008259214451579781 0.0 0.0 0.0 0.0 0.0 0.0 -1.883216967974808 2.515283586265082 1.5429630252684918 -0.4424960137151201 -0.19785842386454375 0.5589346001034129 -0.2984301935029837 -0.11275507530515129 0.3131843183387717 -2.217827088832791 -2.2194802147226973 -0.008179933726190749 0.0 0.0 0.0 0.0 0.0 0.0
3777.64 0.0 -1.5707963267948966 1.5707963267948966 -1.5707963267948966 -1.5707963267948966 0.0 0.0 0.0 0.0 0.0 0.0 0.0 0.0 0.0 0.0 0.0 0.0 0.0 2.7100081908582143e-27 -0.620381750820575 -0.8463465614411209 -0.2525548825603051 -1.4392506443496177e-11 0.0 3.110005232743317e-26 -7.1458666999402505 -7.145866699940252 -1.0424175499402515 -5.974879480466362e-11 0.0 -2.366701234990387e-05 -1.5707243124591272 1.5708131790161133 -1.5707243124591272 -1.5707305113421839 9.58738019107841e-05 0.0 0.0 -0.0 0.0 0.0 0.0 0.02243042178452015 -0.6415100693702698 -0.8082718253135681 -0.2383456975221634 -0.05818767845630646 0.11637535691261292 0.02467346377670765 -0.6280518174171448 -0.8021716475486755 -0.23498870432376862 -0.04923573136329651 0.11637535691261292 -0.2984371432795434 -0.11275333635781935 0.3131516001625512 -2.218072776338316 -2.219460599496946 -0.008285710754532154 0.0 0.0 0.0 0.0 0.0 0.0 -2.594389338193491 1.7886878556961743 1.3904916633753042 -0.41902573768183315 -0.26964949950580624 0.5377240462598314 -0.2984301935029837 -0.11275507530515129 0.3131843183387717 -2.217827088832791 -2.2194802147226973 -0.008179933726190749 0.0 0.0 0.0 0.0 0.0 0.0
3777.6479999999997 0.0 -1.5707963267948966 1.5707963267948966 -1.5707963267948966 -1.5707963267948966 0.0 0.0 0.0 0.0 0.0 0.0 0.0 0.0 0.0 0.0 0.0 0.0 0.0 2.7100081908582143e-27 -0.620381750820575 -0.8463465614411209 -0.2525548825603051 -1.4392506443496177e-11 0.0 3.110005232743317e-26 -7.1458666999402505 -7.145866699940252 -1.0424175499402515 -5.974879480466362e-11 0.0 0.0 -1.5707362333880823 1.5708131790161133 -1.5707123915301722 -1.5707786718951624 2.3968450477696024e-05 0.0 0.0 -0.0 0.0 0.0 0.0 0.0336456336081028 -0.6258087754249573 -0.7945464849472046 -0.24170267581939697 -0.04923573136329651 0.11301837861537933 0.02467346377670765 -0.6280518174171448 -0.7975965142250061 -0.23498870432376862 -0.04923573136329651 0.11301837861537933 -0.29843157331853176 -0.11275642920838212 0.3131541712404922 -2.2179427058158567 -2.2195423794560316 -0.008339195621560118 0.0 0.0 0.0 0.0 0.0 0.0 -2.2974424260402113 2.3311409928527405 2.0740178040901043 -0.4224053894711083 -0.3185869496003455 0.5218181144550699 -0.2984301935029837 -0.11275507530515129 0.3131843183387717 -2.217827088832791 -2.2194802147226973 -0.008179933726190749 0.0 0.0 0.0 0.0 0.0 0.0
3777.656 0.0 -1.5707963267948966 1.5707963267948966 -1.5707963267948966 -1.5707963267948966 0.0 0.0 0.0 0.0 0.0 0.0 0.0 0.0 0.0 0.0 0.0 0.0 0.0 2.7100081908582143e-27 -0.620381750820575 -0.8463465614411209 -0.2525548825603051 -1.4392506443496177e-11 0.0 3.110005232743317e-26 -7.1458666999402505 -7.145866699940252 -1.0424175499402515 -5.974879480466362e-11 0.0 -2.366701234990387e-05 -1.5707243124591272 1.5708131790161133 -1.5707123915301722 -1.5707667509662073 8.388957940042019e-05 0.0 0.0 -0.0 0.0 0.0 0.0 0.0336456336081028 -0.6190796494483948 -0.8082718253135681 -0.23498870432376862 -0.04923573136329651 0.1186133474111557 0.0291595496237278 -0.6280518174171448 -0.8036966919898987 -0.23498870432376862 -0.04923573136329651 0.1186133474111557 -0.29843616316407334 -0.11275034350313227 0.3131506051198434 -2.2180472892363823 -2.2194615738109262 -0.00833913206432445 0.0 0.0 0.0 0.0 0.0 0.0 -1.4098173095258844 2.7569801611014433 1.3218620145525073 -0.45708804782094997 -0.15011717224559118 0.548820603182826 -0.2984301935029837 -0.11275507530515129 0.3131843183387717 -2.217827088832791 -2.2194802147226973 -0.008179933726190749 0.0 0.0 0.0 0.0 0.0 0.0
3777.6639999999998 0.0 -1.5707963267948966 1.5707963267948966 -1.5707963267948966 -1.5707963267948966 0.0 0.0 0.0 0.0 0.0 0.0 0.0 0.0 0.0 0.0 0.0 0.0 0.0 2.7100081908582143e-27 -0.620381750820575 -0.8463465614411209 -0.2525548825603051 -1.4392506443496177e-11 0.0 3.110005232743317e-26 -7.1458666999402505 -7.145866699940252 -1.0424175499402515 -5.974879480466362e-11 0.0 3.5952674807049334e-05 -1.5707481543170374 1.5708250999450684 -1.5707009474383753 -1.570742432271139 4.793690095539205e-05 0.0 0.0 -0.0 0.0 0.0 0.0 0.02467346377670765 -0.6258087754249573 -0.8097968697547913 -0.2372266948223114 -0.04699774086475372 0.12197033315896988 0.0269165076315403 -0.6280518174171448 -0.8021716475486755 -0.23498870432376862 -0.04923573136329651 0.11637535691261292 -0.29842366582507046 -0.11277012572694395 0.3131531710482028 -2.217953228793777 -2.2195793970073914 -0.008311642636841548 0.0 0.0 0.0 0.0 0.0 0.0 -1.705578461842218 2.3100431702150175 1.3013527499153625 -0.4098405520241976 -0.18343699172255817 0.5642356596096 -0.2984301935029837 -0.11275507530515129 0.3131843183387717 -2.217827088832791 -2.2194802147226973 -0.008179933726190749 0.0 0.0 0.0 0.0 0.0 0.0
3777.672 0.0 -1.5707963267948966 1.5707963267948966 -1.5707963267948966 -1.5707963267948966 0.0 0.0 0.0 0.0 0.0 0.0 0.0 0.0 0.0 0.0 0.0 0.0 0.0 2.7100081908582143e-27 -0.620381750820575 -0.8463465614411209 -0.2525548825603051 -1.4392506443496177e-11 0.0 3.110005232743317e-26 -7.1458666999402505 -7.145866699940252 -1.0424175499402515 -5.974879480466362e-11 0.0 0.0 -1.5707600752459925 1.5708012580871582 -1.5707724730121058 -1.570742432271139 5.992112710373476e-05 0.0 0.0 -0.0 0.0 0.0 0.0 0.0314025916159153 -0.6392670273780823 -0.8021716475486755 -0.24505965411663055 -0.0503547228872776 0.11189938336610794 0.0269165076315403 -0.6280518174171448 -0.8021716475486755 -0.2361077070236206 -0.04923573136329651 0.11637535691261292 -0.2984336630505435 -0.11275947816462799 0.3131699541619013 -2.217952875506554 -2.2194731386235236 -0.008192375031936277 0.0 0.0 0.0 0.0 0.0 0.0 -2.7133079116936125 2.059514164746423 1.807125974747374 -0.40502775493608073 -0.34572601133703446 0.5165214643046923 -0.2984301935029837 -0.11275507530515129 0.3131843183387717 -2.217827088832791 -2.2194802147226973 -0.008179933726190749 0.0 0.0 0.0 0.0 0.0 0.0
3777.68 0.0 -1.5707963267948966 1.5707963267948966 -1.5707963267948966 -1.5707963267948966 0.0 0.0 0.0 0.0 0.0 0.0 0.0 0.0 0.0 0.0 0.0 0.0 0.0 2.7100081908582143e-27 -0.620381750820575 -0.8463465614411209 -0.2525548825603051 -1.4392506443496177e-11 0.0 3.110005232743317e-26 -7.1458666999402505 -7.145866699940252 -1.0424175499402515 -5.974879480466362e-11 0.0 -1.1746083394825746e-05 -1.5707481543170374 1.5708250999450684 -1.5707481543170374 -1.5707548300372522 4.793690095539205e-05 0.0 0.0 -0.0 0.0 0.0 0.0 0.0291595496237278 -0.6280518174171448 -0.8128469586372375 -0.23275071382522583 -0.048116736114025116 0.1186133474111557 0.0269165076315403 -0.6280518174171448 -0.8021716475486755 -0.23498870432376862 -0.04923573136329651 0.11637535691261292 -0.2984329346880686 -0.11275490299322678 0.3131572077036732 -2.2179763966641906 -2.21949704520705 -0.008272980013279349 0.0 0.0 0.0 0.0 0.0 0.0 -1.7064848815224531 2.4518236791063055 1.0689988405291273 -0.4265865774824435 -0.14278367006183154 0.5489226846951532 -0.2984301935029837 -0.11275507530515129 0.3131843183387717 -2.217827088832791 -2.2194802147226973 -0.008179933726190749 0.0 0.0 0.0 0.0 0.0 0.0
3777.6879999999996 0.0 -1.5707963267948966 1.5707963267948966 -1.5707963267948966 -1.5707963267948966 0.0 0.0 0.0 0.0 0.0 0.0 0.0 0.0 0.0 0.0 0.0 0.0 0.0 2.7100081908582143e-27 -0.620381750820575 -0.8463465614411209 -0.2525548825603051 -1.4392506443496177e-11 0.0 3.110005232743317e-26 -7.1458666999402505 -7.145866699940252 -1.0424175499402515 -5.974879480466362e-11 0.0 -1.1746083394825746e-05 -1.5707724730121058 1.5708131790161133 -1.5707243124591272 -1.5707305113421839 7.190534961409867e-05 0.0 0.0 -0.0 0.0 0.0 0.0 0.0358886756002903 -0.6258087754249573 -0.7945464849472046 -0.23163172602653503 -0.04923573136329651 0.11525636911392212 0.0269165076315403 -0.6280518174171448 -0.8021716475486755 -0.23498870432376862 -0.04923573136329651 0.11637535691261292 -0.29842803390339445 -0.11275691190324193 0.31316597737921137 -2.2180090947270585 -2.219476321151846 -0.008232248325943284 0.0 0.0 0.0 0.0 0.0 0.0 -2.297707801431844 2.4640473422040556 1.8560369145735571 -0.4332322103319724 -0.2533887024584225 0.5326425882489888 -0.2984301935029837 -0.11275507530515129 0.3131843183387717 -2.217827088832791 -2.2194802147226973 -0.008179933726190749 0.0 0.0 0.0 0.0 0.0 0.0
3777.696 0.0 -1.5707963267948966 1.5707963267948966 -1.5707963267948966 -1.5707963267948966 0.0 0.0 0.0 0.0 0.0 0.0 0.0 0.0 0.0 0.0 0.0 0.0 0.0 2.7100081908582143e-27 -0.620381750820575 -0.8463465614411209 -0.2525548825603051 -1.4392506443496177e-11 0.0 3.110005232743317e-26 -7.1458666999402505 -7.145866699940252 -1.0424175499402515 -5.974879480466362e-11 0.0 -2.366701234990387e-05 -1.5707600752459925 1.5708370208740234 -1.5707481543170374 -1.5707667509662073 8.388957940042019e-05 0.0 0.0 -0.0 0.0 0.0 0.0 0.0269165076315403 -0.6347809433937073 -0.7991215586662292 -0.24394066631793976 -0.04923573136329651 0.1197323426604271 0.02467346377670765 -0.6280518174171448 -0.8021716475486755 -0.23498870432376862 -0.04923573136329651 0.11637535691261292 -0.2984313712865021 -0.11275035442087956 0.3131572139574376 -2.218023525987635 -2.2194378768538057 -0.008286116581410242 0.0 0.0 0.0 0.0 0.0 0.0 -2.5936734331955327 2.033188691626273 1.9187272037697485 -0.3977574382162129 -0.3404575946492684 0.5528693874311984 -0.2984301935029837 -0.11275507530515129 0.3131843183387717 -2.217827088832791 -2.2194802147226973 -0.008179933726190749 0.0 0.0 0.0 0.0 0.0 0.0
3777.7039999999997 0.0 -1.5707963267948966 1.5707963267948966 -1.5707963267948966 -1.5707963267948966 0.0 0.0 0.0 0.0 0.0 0.0 0.0 0.0 0.0 0.0 0.0 0.0 0.0 2.7100081908582143e-27 -0.620381750820575 -0.8463465614411209 -0.2525548825603051 -1.4392506443496177e-11 0.0 3.110005232743317e-26 -7.1458666999402505 -7.145866699940252 -1.0424175499402515 -5.974879480466362e-11 0.0 -3.5587941304981996e-05 -1.5707243124591272 1.5708250999450684 -1.570676628743307 -1.5707667509662073 5.992112710373476e-05 0.0 0.0 -0.0 0.0 0.0 0.0 0.02467346377670765 -0.6325379014015198 -0.8036966919898987 -0.2372266948223114 -0.04923573136329651 0.12197033315896988 0.02018737979233265 -0.6280518174171448 -0.8021716475486755 -0.23498870432376862 -0.04923573136329651 0.11637535691261292 -0.2984335742470168 -0.11274674738463573 0.3131439932285994 -2.2180578294889384 -2.2194985889831527 -0.00839228824489225 0.0 0.0 0.0 0.0 0.0 0.0 -2.2976080136999983 2.0848320039733332 1.5706350786647658 -0.40189337535067904 -0.2553279974338509 0.5637575079206175 -0.2984301935029837 -0.11275507530515129 0.3131843183387717 -2.217827088832791 -2.2194802147226973 -0.008179933726190749 0.0 0.0 0.0 0.0 0.0 0.0
3777.712 0.0 -1.5707963267948966 1.5707963267948966 -1.5707963267948966 -1.5707963267948966 0.0 0.0 0.0 0.0 0.0 0.0 0.0 0.0 0.0 0.0 0.0 0.0 0.0 2.7100081908582143e-27 -0.620381750820575 -0.8463465614411209 -0.2525548825603051 -1.4392506443496177e-11 0.0 3.110005232743317e-26 -7.1458666999402505 -7.145866699940252 -1.0424175499402515 -5.974879480466362e-11 0.0 -1.1746083394825746e-05 -1.5707362333880823 1.5708370208740234 -1.5707009474383753 -1.5707305113421839 4.793690095539205e-05 0.0 0.0 -0.0 0.0 0.0 0.0 0.02467346377670765 -0.6437531113624573 -0.8052217364311218 -0.23275071382522583 -0.051473718136548996 0.11749435216188431 0.02467346377670765 -0.6280518174171448 -0.8021716475486755 -0.23498870432376862 -0.0503547228872776 0.11413737386465073 -0.2984299795221085 -0.11275685482573629 0.313146045246223 -2.2180240786992664 -2.2195444791648593 -0.008325082045445761 0.0 0.0 0.0 0.0 0.0 0.0 -2.831616087230923 1.813343852617489 1.4040634229109297 -0.38985080952556633 -0.2644357016053065 0.5429661038340482 -0.2984301935029837 -0.11275507530515129 0.3131843183387717 -2.217827088832791 -2.2194802147226973 -0.008179933726190749 0.0 0.0 0.0 0.0 0.0 0.0
3777.72 0.0 -1.5707963267948966 1.5707963267948966 -1.5707963267948966 -1.5707963267948966 0.0 0.0 0.0 0.0 0.0 0.0 0.0 0.0 0.0 0.0 0.0 0.0 0.0 2.7100081908582143e-27 -0.620381750820575 -0.8463465614411209 -0.2525548825603051 -1.4392506443496177e-11 0.0 3.110005232743317e-26 -7.1458666999402505 -7.145866699940252 -1.0424175499402515 -5.974879480466362e-11 0.0 -2.366701234990387e-05 -1.5707481543170374 1.5707893371582031 -1.5707009474383753 -1.5707548300372522 0.000107858024421148 0.0 0.0 -0.0 0.0 0.0 0.0 0.0291595496237278 -0.6213226914405823 -0.7975965142250061 -0.22603675723075867 -0.051473718136548996 0.11637535691261292 0.02467346377670765 -0.6280518174171448 -0.8021716475486755 -0.23498870432376862 -0.04587874934077263 0.11413737386465073 -0.29843334771785335 -0.11275135353378048 0.31316385809363984 -2.218061861245442 -2.21942280199833 -0.008285606259809276 0.0 0.0 0.0 0.0 0.0 0.0 -1.9414994390281293 2.3274991215145238 1.599568371952498 -0.4322961336141741 -0.17638543684572996 0.5383132558057271 -0.2984301935029837 -0.11275507530515129 0.3131843183387717 -2.217827088832791 -2.2194802147226973 -0.008179933726190749 0.0 0.0 0.0 0.0 0.0 0.0
3777.7279999999996 0.0 -1.5707963267948966 1.5707963267948966 -1.5707963267948966 -1.5707963267948966 0.0 0.0 0.0 0.0 0.0 0.0 0.0 0.0 0.0 0.0 0.0 0.0 0.0 2.7100081908582143e-27 -0.620381750820575 -0.8463465614411209 -0.2525548825603051 -1.4392506443496177e-11 0.0 3.110005232743317e-26 -7.1458666999402505 -7.145866699940252 -1.0424175499402515 -5.974879480466362e-11 0.0 1.1984225238848012e-05 -1.5707481543170374 1.5708012580871582 -1.5707481543170374 -1.5707185904132288 9.58738019107841e-05 0.0 0.0 -0.0 0.0 0.0 0.0 0.0314025916159153 -0.6504822373390198 -0.7991215586662292 -0.23051273822784424 -0.054830700159072876 0.11301837861537933 0.0269165076315403 -0.6280518174171448 -0.8021716475486755 -0.23498870432376862 -0.04923573136329651 0.11525636911392212 -0.2984322288983853 -0.11276499681657137 0.313164305051618 -2.2180094314520353 -2.219476433837821 -0.00820613842595004 0.0 0.0 0.0 0.0 0.0 0.0 -3.424635038131375 1.808580708203143 1.6252699083245534 -0.4051587653933151 -0.32170456456965285 0.5218596548569051 -0.2984301935029837 -0.11275507530515129 0.3131843183387717 -2.217827088832791 -2.2194802147226973 -0.008179933726190749 0.0 0.0 0.0 0.0 0.0 0.0
