mkrssg/UniversalRobots/rtde_client_3.5/examples/roboter/michi_movel/movej_3_Achsen_zu_90,-60,30,-90,-90,0.csv
timestamp target_q_0 target_q_1 target_q_2 target_q_3 target_q_4 target_q_5 target_qd_0 target_qd_1 target_qd_2 target_qd_3 target_qd_4 target_qd_5 target_qdd_0 target_qdd_1 target_qdd_2 target_qdd_3 target_qdd_4 target_qdd_5 target_current_0 target_current_1 target_current_2 target_current_3 target_current_4 target_current_5 target_moment_0 target_moment_1 target_moment_2 target_moment_3 target_moment_4 target_moment_5 actual_q_0 actual_q_1 actual_q_2 actual_q_3 actual_q_4 actual_q_5 actual_qd_0 actual_qd_1 actual_qd_2 actual_qd_3 actual_qd_4 actual_qd_5 actual_current_0 actual_current_1 actual_current_2 actual_current_3 actual_current_4 actual_current_5 joint_control_output_0 joint_control_output_1 joint_control_output_2 joint_control_output_3 joint_control_output_4 joint_control_output_5 actual_TCP_pose_0 actual_TCP_pose_1 actual_TCP_pose_2 actual_TCP_pose_3 actual_TCP_pose_4 actual_TCP_pose_5 actual_TCP_speed_0 actual_TCP_speed_1 actual_TCP_speed_2 actual_TCP_speed_3 actual_TCP_speed_4 actual_TCP_speed_5 actual_TCP_force_0 actual_TCP_force_1 actual_TCP_force_2 actual_TCP_force_3 actual_TCP_force_4 actual_TCP_force_5 target_TCP_pose_0 target_TCP_pose_1 target_TCP_pose_2 target_TCP_pose_3 target_TCP_pose_4 target_TCP_pose_5 target_TCP_speed_0 target_TCP_speed_1 target_TCP_speed_2 target_TCP_speed_3 target_TCP_speed_4 target_TCP_speed_5
4856.84 -8.881784197001252e-16 -1.5707963267948966 1.5707963267948966 -1.5707963267948966 -1.5707963267948966 0.0 0.0 0.0 -0.0 0.0 0.0 0.0 0.0 0.0 0.0 0.0 0.0 0.0 2.7100081908582143e-27 -0.620381750820575 -0.8463465614411209 -0.2525548825603051 -1.4392506443496177e-11 0.0 3.110005232743317e-26 -7.1458666999402505 -7.145866699940252 -1.0424175499402515 -5.974879480466362e-11 0.0 1.1984225238848012e-05 -1.5708320776568812 1.570777416229248 -1.5707600752459925 -1.5708625952350062 4.793690095539205e-05 0.0 0.0 -0.0 0.0 0.0 0.0 0.011215210892260075 -0.6101074814796448 -0.7442200779914856 -0.374862939119339 -0.05371170490980148 0.12980328500270844 0.01570129580795765 -0.5988922715187073 -0.7396449446678162 -0.3703869581222534 -0.05706868693232536 0.1353982537984848 -0.29842165809285054 -0.11275320368399043 0.31319758494434885 -2.217824655535345 -2.219397502966539 -0.008232714236632788 0.0 0.0 0.0 0.0 0.0 0.0 -3.412432855921504 1.179051580734937 7.1943766316865 -0.3507018518053393 -1.4649193273821561 0.5923108139088837 -0.29843019350298383 -0.11275507530515122 0.3131843183387717 -2.217827088832791 -2.2194802147226973 -0.008179933726190749 0.0 0.0 0.0 0.0 0.0 0.0
4856.848 -8.881784197001252e-16 -1.5707963267948966 1.5707963267948966 -1.5707963267948966 -1.5707963267948966 0.0 0.0 0.0 -0.0 0.0 0.0 0.0 0.0 0.0 0.0 0.0 0.0 0.0 2.7100081908582143e-27 -0.620381750820575 -0.8463465614411209 -0.2525548825603051 -1.4392506443496177e-11 0.0 3.110005232743317e-26 -7.1458666999402505 -7.145866699940252 -1.0424175499402515 -5.974879480466362e-11 0.0 0.0 -1.570808235798971 1.5707530975341797 -1.570808235798971 -1.5708864370929163 0.0 0.0 0.0 -0.0 0.0 0.0 0.0 0.0291595496237278 -0.5876770615577698 -0.7442200779914856 -0.3715059459209442 -0.05594969168305397 0.134279265999794 0.0291595496237278 -0.5988922715187073 -0.7381199598312378 -0.3703869581222534 -0.05706868693232536 0.1353982537984848 -0.2984328338706613 -0.11274771646451513 0.3132018560763645 -2.217748511007369 -2.219401540602364 -0.008205158806015482 0.0 0.0 0.0 0.0 0.0 0.0 -2.2287058535914954 2.4717745451522317 7.126735075120465 -0.46755255453294287 -1.345550170451816 0.6137433893889863 -0.29843019350298383 -0.11275507530515122 0.3131843183387717 -2.217827088832791 -2.2194802147226973 -0.008179933726190749 0.0 0.0 0.0 0.0 0.0 0.0
4856.856 -8.881784197001252e-16 -1.5707963267948966 1.5707963267948966 -1.5707963267948966 -1.5707963267948966 0.0 0.0 0.0 -0.0 0.0 0.0 0.0 0.0 0.0 0.0 0.0 0.0 0.0 2.7100081908582143e-27 -0.620381750820575 -0.8463465614411209 -0.2525548825603051 -1.4392506443496177e-11 0.0 3.110005232743317e-26 -7.1458666999402505 -7.145866699940252 -1.0424175499402515 -5.974879480466362e-11 0.0 3.5952674807049334e-05 -1.5707724730121058 1.5708250999450684 -1.5707481543170374 -1.570850674306051 5.992112710373476e-05 0.0 0.0 -0.0 0.0 0.0 0.0 0.02467346377670765 -0.5876770615577698 -0.7274446487426758 -0.36591097712516785 -0.05371170490980148 0.1365172564983368 0.02467346377670765 -0.5988922715187073 -0.7365949153900146 -0.3703869581222534 -0.05706868693232536 0.1353982537984848 -0.29842364098086827 -0.11276125321085946 0.3131645270397763 -2.217876521839002 -2.219476164151429 -0.008351890429007757 0.0 0.0 0.0 0.0 0.0 0.0 -2.878500345746155 2.0658637049602158 7.74781432541951 -0.42411590065489696 -1.4264201182084957 0.6236116859194232 -0.29843019350298383 -0.11275507530515122 0.3131843183387717 -2.217827088832791 -2.2194802147226973 -0.008179933726190749 0.0 0.0 0.0 0.0 0.0 0.0
4856.864 -8.881784197001252e-16 -1.5707963267948966 1.5707963267948966 -1.5707963267948966 -1.5707963267948966 0.0 0.0 0.0 -0.0 0.0 0.0 0.0 0.0 0.0 0.0 0.0 0.0 0.0 2.7100081908582143e-27 -0.620381750820575 -0.8463465614411209 -0.2525548825603051 -1.4392506443496177e-11 0.0 3.110005232743317e-26 -7.1458666999402505 -7.145866699940252 -1.0424175499402515 -5.974879480466362e-11 0.0 2.3968450477696024e-05 -1.570796314870016 1.5708489418029785 -1.5707724730121058 -1.5708382765399378 0.0 0.0 0.0 -0.0 0.0 0.0 0.0 0.02243042178452015 -0.6033783555030823 -0.7243945598602295 -0.3726249635219574 -0.05706868693232536 0.1353982537984848 0.02467346377670765 -0.5988922715187073 -0.7381199598312378 -0.3703869581222534 -0.05706868693232536 0.1353982537984848 -0.2984211786717521 -0.11275869618611323 0.31316659255263946 -2.2178175551106256 -2.219523610814339 -0.008311348337346028 0.0 0.0 0.0 0.0 0.0 0.0 -3.8263353834936678 1.5909209934422543 8.026256424577895 -0.40075016441072653 -1.5596070896972645 0.617604205744797 -0.29843019350298383 -0.11275507530515122 0.3131843183387717 -2.217827088832791 -2.2194802147226973 -0.008179933726190749 0.0 0.0 0.0 0.0 0.0 0.0
4856.871999999999 -8.881784197001252e-16 -1.5707963267948966 1.5707963267948966 -1.5707963267948966 -1.5707963267948966 0.0 0.0 0.0 -0.0 0.0 0.0 0.0 0.0 0.0 0.0 0.0 0.0 0.0 2.7100081908582143e-27 -0.620381750820575 -0.8463465614411209 -0.2525548825603051 -1.4392506443496177e-11 0.0 3.110005232743317e-26 -7.1458666999402505 -7.145866699940252 -1.0424175499402515 -5.974879480466362e-11 0.0 2.3968450477696024e-05 -1.570796314870016 1.5708250999450684 -1.570796314870016 -1.5708144346820276 -1.1746083394825746e-05 0.0 0.0 -0.0 0.0 0.0 0.0 0.02243042178452015 -0.6011353135108948 -0.7335448265075684 -0.3726249635219574 -0.067139632999897 0.13316026329994202 0.02467346377670765 -0.5988922715187073 -0.7411699891090393 -0.3703869581222534 -0.05706868693232536 0.1353982537984848 -0.2984251133435922 -0.11276070379333786 0.31317573252187764 -2.217792690746795 -2.2195250147964565 -0.008231956012685499 0.0 0.0 0.0 0.0 0.0 0.0 -3.353059901501394 1.7365161053279494 7.621320190953434 -0.45934534096255 -1.486004006563354 0.6077005086045998 -0.29843019350298383 -0.11275507530515122 0.3131843183387717 -2.217827088832791 -2.2194802147226973 -0.008179933726190749 0.0 0.0 0.0 0.0 0.0 0.0
4856.88 -8.881784197001252e-16 -1.5707963267948966 1.5707963267948966 -1.5707963267948966 -1.5707963267948966 0.0 0.0 0.0 -0.0 0.0 0.0 0.0 0.0 0.0 0.0 0.0 0.0 0.0 2.7100081908582143e-27 -0.620381750820575 -0.8463465614411209 -0.2525548825603051 -1.4392506443496177e-11 0.0 3.110005232743317e-26 -7.1458666999402505 -7.145866699940252 -1.0424175499402515 -5.974879480466362e-11 0.0 3.5952674807049334e-05 -1.5707600752459925 1.570765495300293 -1.5707724730121058 -1.570850674306051 2.3968450477696024e-05 0.0 0.0 -0.0 0.0 0.0 0.0 0.02243042178452015 -0.5854340195655823 -0.7472701668739319 -0.3759819269180298 -0.05930667370557785 0.13092228770256042 0.02467346377670765 -0.5988922715187073 -0.7396449446678162 -0.3703869581222534 -0.05706868693232536 0.1353982537984848 -0.2984325734211356 -0.11276133430130501 0.31318070109984475 -2.217800984866231 -2.219480645384401 -0.008272447534975729 0.0 0.0 0.0 0.0 0.0 0.0 -1.9914103660773306 2.2190937122948484 7.087927628238683 -0.46232773766688234 -1.3434407050221708 0.5981910359377555 -0.29843019350298383 -0.11275507530515122 0.3131843183387717 -2.217827088832791 -2.2194802147226973 -0.008179933726190749 0.0 0.0 0.0 0.0 0.0 0.0
4856.888 -8.881784197001252e-16 -1.5707963267948966 1.5707963267948966 -1.5707963267948966 -1.5707963267948966 0.0 0.0 0.0 -0.0 0.0 0.0 0.0 0.0 0.0 0.0 0.0 0.0 0.0 2.7100081908582143e-27 -0.620381750820575 -0.8463465614411209 -0.2525548825603051 -1.4392506443496177e-11 0.0 3.110005232743317e-26 -7.1458666999402505 -7.145866699940252 -1.0424175499402515 -5.974879480466362e-11 0.0 0.0 -1.5708320776568812 1.5708131790161133 -1.570820156727926 -1.5708144346820276 -1.1746083394825746e-05 0.0 0.0 -0.0 0.0 0.0 0.0 0.0269165076315403 -0.5764618515968323 -0.7350698709487915 -0.36591097712516785 -0.05818767845630646 0.134279265999794 0.02467346377670765 -0.5988922715187073 -0.7365949153900146 -0.3703869581222534 -0.05706868693232536 0.1353982537984848 -0.29842499869295996 -0.11275359450591774 0.3131920036363749 -2.2177837319207967 -2.2194628734870037 -0.00815252795293318 0.0 0.0 0.0 0.0 0.0 0.0 -1.9897051402807604 2.46610260863954 7.411789932777109 -0.47765385243138214 -1.32431599400951 0.6139575735936664 -0.29843019350298383 -0.11275507530515122 0.3131843183387717 -2.217827088832791 -2.2194802147226973 -0.008179933726190749 0.0 0.0 0.0 0.0 0.0 0.0
4856.896 -8.881784197001252e-16 -1.5707963267948966 1.5707963267948966 -1.5707963267948966 -1.5707963267948966 0.0 0.0 0.0 -0.0 0.0 0.0 0.0 0.0 0.0 0.0 0.0 0.0 0.0 2.7100081908582143e-27 -0.620381750820575 -0.8463465614411209 -0.2525548825603051 -1.4392506443496177e-11 0.0 3.110005232743317e-26 -7.1458666999402505 -7.145866699940252 -1.0424175499402515 -5.974879480466362e-11 0.0 2.3968450477696024e-05 -1.570796314870016 1.5708250999450684 -1.570820156727926 -1.570850674306051 -3.5587941304981996e-05 0.0 0.0 -0.0 0.0 0.0 0.0 0.02243042178452015 -0.5944061875343323 -0.748795211315155 -0.3759819269180298 -0.05371170490980148 0.1353982537984848 0.02467346377670765 -0.5988922715187073 -0.7411699891090393 -0.3703869581222534 -0.05706868693232536 0.1353982537984848 -0.29842707969316096 -0.11275773590043997 0.31317779024656234 -2.217736165710551 -2.2195214945963055 -0.008245621989847044 0.0 0.0 0.0 0.0 0.0 0.0 -2.406578360961907 2.1313898855041025 7.0195132699799325 -0.4290224305629758 -1.3719467736149011 0.6188118851622014 -0.29843019350298383 -0.11275507530515122 0.3131843183387717 -2.217827088832791 -2.2194802147226973 -0.008179933726190749 0.0 0.0 0.0 0.0 0.0 0.0
4856.9039999999995 -8.881784197001252e-16 -1.5707963267948966 1.5707963267948966 -1.5707963267948966 -1.5707963267948966 0.0 0.0 0.0 -0.0 0.0 0.0 0.0 0.0 0.0 0.0 0.0 0.0 0.0 2.7100081908582143e-27 -0.620381750820575 -0.8463465614411209 -0.2525548825603051 -1.4392506443496177e-11 0.0 3.110005232743317e-26 -7.1458666999402505 -7.145866699940252 -1.0424175499402515 -5.974879480466362e-11 0.0 3.5952674807049334e-05 -1.570796314870016 1.5708012580871582 -1.5707839171039026 -1.5708263556109827 1.1984225238848012e-05 0.0 0.0 -0.0 0.0 0.0 0.0 0.02467346377670765 -0.5921631455421448 -0.7381199598312378 -0.3715059459209442 -0.054830700159072876 0.13092228770256042 0.02467346377670765 -0.5988922715187073 -0.7396449446678162 -0.3703869581222534 -0.05706868693232536 0.1353982537984848 -0.29842471314777475 -0.11276331716340027 0.31318180155309444 -2.2177940174776256 -2.2195001888550627 -0.008232332860412273 0.0 0.0 0.0 0.0 0.0 0.0 -2.7018815420312947 2.0462302554364062 7.395388665943824 -0.42742369636199556 -1.4075641853657481 0.5978446132356598 -0.29843019350298383 -0.11275507530515122 0.3131843183387717 -2.217827088832791 -2.2194802147226973 -0.008179933726190749 0.0 0.0 0.0 0.0 0.0 0.0
4856.911999999999 -8.881784197001252e-16 -1.5707963267948966 1.5707963267948966 -1.5707963267948966 -1.5707963267948966 0.0 0.0 0.0 -0.0 0.0 0.0 0.0 0.0 0.0 0.0 0.0 0.0 0.0 2.7100081908582143e-27 -0.620381750820575 -0.8463465614411209 -0.2525548825603051 -1.4392506443496177e-11 0.0 3.110005232743317e-26 -7.1458666999402505 -7.145866699940252 -1.0424175499402515 -5.974879480466362e-11 0.0 7.227985770441592e-05 -1.570796314870016 1.5708131790161133 -1.5707839171039026 -1.5708382765399378 2.3968450477696024e-05 0.0 0.0 -0.0 0.0 0.0 0.0 0.02467346377670765 -0.5921631455421448 -0.7365949153900146 -0.3681489825248718 -0.05594969168305397 0.12980328500270844 0.02467346377670765 -0.5988922715187073 -0.7396449446678162 -0.3703869581222534 -0.05706868693232536 0.1365172564983368 -0.29841963148840034 -0.11277316250249321 0.31317824906503644 -2.217766870286223 -2.219527027323375 -0.008258632836098564 0.0 0.0 0.0 0.0 0.0 0.0 -2.7610511421801256 2.006583100079822 7.38997230085845 -0.42934781668710364 -1.396443610238439 0.5927020693722205 -0.29843019350298383 -0.11275507530515122 0.3131843183387717 -2.217827088832791 -2.2194802147226973 -0.008179933726190749 0.0 0.0 0.0 0.0 0.0 0.0
4856.92 -8.881784197001252e-16 -1.5707963267948966 1.5707963267948966 -1.5707963267948966 -1.5707963267948966 0.0 0.0 0.0 -0.0 0.0 0.0 0.0 0.0 0.0 0.0 0.0 0.0 0.0 2.7100081908582143e-27 -0.620381750820575 -0.8463465614411209 -0.2525548825603051 -1.4392506443496177e-11 0.0 3.110005232743317e-26 -7.1458666999402505 -7.145866699940252 -1.0424175499402515 -5.974879480466362e-11 0.0 1.1984225238848012e-05 -1.5707724730121058 1.5707530975341797 -1.570796314870016 -1.5708263556109827 -4.7985707418263246e-05 0.0 0.0 -0.0 0.0 0.0 0.0 0.02018737979233265 -0.5966492295265198 -0.7304947376251221 -0.36702999472618103 -0.05930667370557785 0.13316026329994202 0.02467346377670765 -0.5988922715187073 -0.7396449446678162 -0.3703869581222534 -0.05706868693232536 0.1353982537984848 -0.2984362646041653 -0.11275621955167808 0.31319012453440037 -2.217735850007921 -2.2195221170635286 -0.008191742455179521 0.0 0.0 0.0 0.0 0.0 0.0 -3.2340633149732323 1.6856400028453575 7.635357295951327 -0.4187154928390598 -1.4514856125675333 0.607965245532153 -0.29843019350298383 -0.11275507530515122 0.3131843183387717 -2.217827088832791 -2.2194802147226973 -0.008179933726190749 0.0 0.0 0.0 0.0 0.0 0.0
4856.928 -8.881784197001252e-16 -1.5707963267948966 1.5707963267948966 -1.5707963267948966 -1.5707963267948966 0.0 0.0 0.0 -0.0 0.0 0.0 0.0 0.0 0.0 0.0 0.0 0.0 0.0 2.7100081908582143e-27 -0.620381750820575 -0.8463465614411209 -0.2525548825603051 -1.4392506443496177e-11 0.0 3.110005232743317e-26 -7.1458666999402505 -7.145866699940252 -1.0424175499402515 -5.974879480466362e-11 0.0 2.3968450477696024e-05 -1.5707839171039026 1.5707893371582031 -1.5707724730121058 -1.5708745161639612 1.1984225238848012e-05 0.0 0.0 -0.0 0.0 0.0 0.0 0.0269165076315403 -0.6101074814796448 -0.7472701668739319 -0.3771009147167206 -0.05594969168305397 0.1353982537984848 0.02467346377670765 -0.5988922715187073 -0.7396449446678162 -0.3703869581222534 -0.05706868693232536 0.1353982537984848 -0.298428109803031 -0.11275577560164807 0.3131807137034012 -2.217789125383785 -2.2194686245439104 -0.008298938343741966 0.0 0.0 0.0 0.0 0.0 0.0 -3.2965449118135517 1.9865295784714703 7.109901764707795 -0.4275852159704809 -1.4582454834073748 0.6182052447684719 -0.29843019350298383 -0.11275507530515122 0.3131843183387717 -2.217827088832791 -2.2194802147226973 -0.008179933726190749 0.0 0.0 0.0 0.0 0.0 0.0
4856.936 -8.881784197001252e-16 -1.5707963267948966 1.5707963267948966 -1.5707963267948966 -1.5707963267948966 0.0 0.0 0.0 -0.0 0.0 0.0 0.0 0.0 0.0 0.0 0.0 0.0 0.0 2.7100081908582143e-27 -0.620381750820575 -0.8463465614411209 -0.2525548825603051 -1.4392506443496177e-11 0.0 3.110005232743317e-26 -7.1458666999402505 -7.145866699940252 -1.0424175499402515 -5.974879480466362e-11 0.0 1.1984225238848012e-05 -1.5707724730121058 1.570777416229248 -1.570796314870016 -1.5708382765399378 -1.1746083394825746e-05 0.0 0.0 -0.0 0.0 0.0 0.0 0.01570129580795765 -0.5742188096046448 -0.7426950335502625 -0.3715059459209442 -0.054830700159072876 0.134279265999794 0.02467346377670765 -0.5988922715187073 -0.7396449446678162 -0.3703869581222534 -0.05706868693232536 0.1353982537984848 -0.2984342543053755 -0.11275520985605599 0.3131828696608907 -2.217782131417647 -2.219487967782577 -0.008231861073026401 0.0 0.0 0.0 0.0 0.0 0.0 -1.5747360805120685 2.1397855590192605 7.194434212851428 -0.4350430287832635 -1.2976063257356623 0.6141159668015721 -0.29843019350298383 -0.11275507530515122 0.3131843183387717 -2.217827088832791 -2.2194802147226973 -0.008179933726190749 0.0 0.0 0.0 0.0 0.0 0.0
4856.9439999999995 -8.881784197001252e-16 -1.5707963267948966 1.5707963267948966 -1.5707963267948966 -1.5707963267948966 0.0 0.0 0.0 -0.0 0.0 0.0 0.0 0.0 0.0 0.0 0.0 0.0 0.0 2.7100081908582143e-27 -0.620381750820575 -0.8463465614411209 -0.2525548825603051 -1.4392506443496177e-11 0.0 3.110005232743317e-26 -7.1458666999402505 -7.145866699940252 -1.0424175499402515 -5.974879480466362e-11 0.0 2.3968450477696024e-05 -1.570820156727926 1.5708250999450684 -1.570796314870016 -1.5708625952350062 -1.1746083394825746e-05 0.0 0.0 -0.0 0.0 0.0 0.0 0.0336456336081028 -0.6033783555030823 -0.7472701668739319 -0.3715059459209442 -0.06042566895484924 0.1376362442970276 0.02467346377670765 -0.5988922715187073 -0.7396449446678162 -0.3703869581222534 -0.05706868693232536 0.1353982537984848 -0.2984212716513358 -0.11275674619132844 0.3131828799220239 -2.2177567206310393 -2.219488856159617 -0.008258790914861175 0.0 0.0 0.0 0.0 0.0 0.0 -2.941285947216505 2.4470768409822505 6.990389512471427 -0.48627769432644447 -1.3927421753038802 0.6289902517994407 -0.29843019350298383 -0.11275507530515122 0.3131843183387717 -2.217827088832791 -2.2194802147226973 -0.008179933726190749 0.0 0.0 0.0 0.0 0.0 0.0
4856.952 -8.881784197001252e-16 -1.5707963267948966 1.5707963267948966 -1.5707963267948966 -1.5707963267948966 0.0 0.0 0.0 -0.0 0.0 0.0 0.0 0.0 0.0 0.0 0.0 0.0 0.0 2.7100081908582143e-27 -0.620381750820575 -0.8463465614411209 -0.2525548825603051 -1.4392506443496177e-11 0.0 3.110005232743317e-26 -7.1458666999402505 -7.145866699940252 -1.0424175499402515 -5.974879480466362e-11 0.0 -1.1746083394825746e-05 -1.570808235798971 1.570765495300293 -1.5707839171039026 -1.5708144346820276 -3.5587941304981996e-05 0.0 0.0 -0.0 0.0 0.0 0.0 0.02467346377670765 -0.5988922715187073 -0.7350698709487915 -0.3759819269180298 -0.06266365945339203 0.13316026329994202 0.02467346377670765 -0.5988922715187073 -0.7396449446678162 -0.3703869581222534 -0.05706868693232536 0.1353982537984848 -0.298431125632503 -0.11275010974848194 0.3131960326965162 -2.217776594125074 -2.2194824604601004 -0.008166434391502584 0.0 0.0 0.0 0.0 0.0 0.0 -3.1755298592247074 1.900466754445144 7.627280163558363 -0.45201327753821596 -1.4873059826073363 0.6077255838541182 -0.29843019350298383 -0.11275507530515122 0.3131843183387717 -2.217827088832791 -2.2194802147226973 -0.008179933726190749 0.0 0.0 0.0 0.0 0.0 0.0
4856.96 -8.881784197001252e-16 -1.5707963267948966 1.5707963267948966 -1.5707963267948966 -1.5707963267948966 0.0 0.0 0.0 -0.0 0.0 0.0 0.0 0.0 0.0 0.0 0.0 0.0 0.0 2.7100081908582143e-27 -0.620381750820575 -0.8463465614411209 -0.2525548825603051 -1.4392506443496177e-11 0.0 3.110005232743317e-26 -7.1458666999402505 -7.145866699940252 -1.0424175499402515 -5.974879480466362e-11 0.0 0.0 -1.5707481543170374 1.5708250999450684 -1.570808235798971 -1.5708382765399378 2.3968450477696024e-05 0.0 0.0 -0.0 0.0 0.0 0.0 0.01794433780014515 -0.6033783555030823 -0.7320197820663452 -0.3737439513206482 -0.054830700159072876 0.1353982537984848 0.02467346377670765 -0.5988922715187073 -0.7396449446678162 -0.3703869581222534 -0.05706868693232536 0.1376362442970276 -0.2984365651938295 -0.11275157794187689 0.31316238761969467 -2.217864849299244 -2.219465038286771 -0.00829854499210731 0.0 0.0 0.0 0.0 0.0 0.0 -3.530712244582621 1.510276342905826 7.712197000325875 -0.3835335668227298 -1.513649063640633 0.6179247352680741 -0.29843019350298383 -0.11275507530515122 0.3131843183387717 -2.217827088832791 -2.2194802147226973 -0.008179933726190749 0.0 0.0 0.0 0.0 0.0 0.0
4856.968 -8.881784197001252e-16 -1.5707963267948966 1.5707963267948966 -1.5707963267948966 -1.5707963267948966 0.0 0.0 0.0 -0.0 0.0 0.0 0.0 0.0 0.0 0.0 0.0 0.0 0.0 2.7100081908582143e-27 -0.620381750820575 -0.8463465614411209 -0.2525548825603051 -1.4392506443496177e-11 0.0 3.110005232743317e-26 -7.1458666999402505 -7.145866699940252 -1.0424175499402515 -5.974879480466362e-11 0.0 2.3968450477696024e-05 -1.5707839171039026 1.5707893371582031 -1.570808235798971 -1.5708144346820276 -3.5587941304981996e-05 0.0 0.0 -0.0 0.0 0.0 0.0 0.02467346377670765 -0.6056213974952698 -0.7274446487426758 -0.3703869581222534 -0.05706868693232536 0.134279265999794 0.02467346377670765 -0.5988922715187073 -0.7396449446678162 -0.3703869581222534 -0.05706868693232536 0.134279265999794 -0.29843105225172517 -0.11276074870164582 0.31318372883111156 -2.217748645311837 -2.219534023470903 -0.008192779879965514 0.0 0.0 0.0 0.0 0.0 0.0 -3.8271796820036657 1.6706199897309362 7.842611445808959 -0.40715163849553376 -1.533593953392001 0.6126463387674308 -0.29843019350298383 -0.11275507530515122 0.3131843183387717 -2.217827088832791 -2.2194802147226973 -0.008179933726190749 0.0 0.0 0.0 0.0 0.0 0.0
4856.976 -8.881784197001252e-16 -1.5707963267948966 1.5707963267948966 -1.5707963267948966 -1.5707963267948966 0.0 0.0 0.0 -0.0 0.0 0.0 0.0 0.0 0.0 0.0 0.0 0.0 0.0 2.7100081908582143e-27 -0.620381750820575 -0.8463465614411209 -0.2525548825603051 -1.4392506443496177e-11 0.0 3.110005232743317e-26 -7.1458666999402505 -7.145866699940252 -1.0424175499402515 -5.974879480466362e-11 0.0 -1.1746083394825746e-05 -1.5707839171039026 1.5708250999450684 -1.5707724730121058 -1.5708263556109827 -1.1746083394825746e-05 0.0 0.0 -0.0 0.0 0.0 0.0 0.0291595496237278 -0.5988922715187073 -0.7350698709487915 -0.374862939119339 -0.06154466047883034 0.1353982537984848 0.02467346377670765 -0.5988922715187073 -0.7396449446678162 -0.3715059459209442 -0.05706868693232536 0.1353982537984848 -0.2984291760182719 -0.11274904263264045 0.3131700038671866 -2.2178444956478347 -2.2194974609154725 -0.008285562647489902 0.0 0.0 0.0 0.0 0.0 0.0 -3.1763002038171777 2.128321791194606 7.603411163377559 -0.4656266265823917 -1.4800515728171322 0.6180813370684901 -0.29843019350298383 -0.11275507530515122 0.3131843183387717 -2.217827088832791 -2.2194802147226973 -0.008179933726190749 0.0 0.0 0.0 0.0 0.0 0.0
4856.9839999999995 -8.881784197001252e-16 -1.5707963267948966 1.5707963267948966 -1.5707963267948966 -1.5707963267948966 0.0 0.0 0.0 -0.0 0.0 0.0 0.0 0.0 0.0 0.0 0.0 0.0 0.0 2.7100081908582143e-27 -0.620381750820575 -0.8463465614411209 -0.2525548825603051 -1.4392506443496177e-11 0.0 3.110005232743317e-26 -7.1458666999402505 -7.145866699940252 -1.0424175499402515 -5.974879480466362e-11 0.0 1.1984225238848012e-05 -1.570796314870016 1.5708012580871582 -1.5707839171039026 -1.5708144346820276 1.1984225238848012e-05 0.0 0.0 -0.0 0.0 0.0 0.0 0.02467346377670765 -0.5854340195655823 -0.7457451224327087 -0.36702999472618103 -0.05259270966053009 0.13987423479557037 0.02467346377670765 -0.5988922715187073 -0.7396449446678162 -0.3703869581222534 -0.05706868693232536 0.1353982537984848 -0.29842741510044407 -0.11275714611798049 0.31318179412579933 -2.217826638928997 -2.2194796503904852 -0.008219209789961246 0.0 0.0 0.0 0.0 0.0 0.0 -2.0506574617095765 2.4338982363612724 6.9622432025563175 -0.44872636461736015 -1.2962615555570114 0.6400940533034951 -0.29843019350298383 -0.11275507530515122 0.3131843183387717 -2.217827088832791 -2.2194802147226973 -0.008179933726190749 0.0 0.0 0.0 0.0 0.0 0.0
4856.992 -8.881784197001252e-16 -1.5707963267948966 1.5707963267948966 -1.5707963267948966 -1.5707963267948966 0.0 0.0 0.0 -0.0 0.0 0.0 0.0 0.0 0.0 0.0 0.0 0.0 0.0 2.7100081908582143e-27 -0.620381750820575 -0.8463465614411209 -0.2525548825603051 -1.4392506443496177e-11 0.0 3.110005232743317e-26 -7.1458666999402505 -7.145866699940252 -1.0424175499402515 -5.974879480466362e-11 0.0 3.5952674807049334e-05 -1.570796314870016 1.5708489418029785 -1.570808235798971 -1.5708382765399378 -1.1746083394825746e-05 0.0 0.0 -0.0 0.0 0.0 0.0 0.02018737979233265 -0.6033783555030823 -0.7518453001976013 -0.36367300152778625 -0.05371170490980148 0.1365172564983368 0.02467346377670765 -0.5988922715187073 -0.7396449446678162 -0.3703869581222534 -0.05706868693232536 0.1353982537984848 -0.29842277362314346 -0.11276229756628149 0.3131696450939209 -2.21777331503957 -2.2195322640743336 -0.008271554241944507 0.0 0.0 0.0 0.0 0.0 0.0 -2.762711357574542 1.9189104555686574 6.615975136927146 -0.41134194391506607 -1.3100206905480474 0.6244246471062701 -0.29843019350298383 -0.11275507530515122 0.3131843183387717 -2.217827088832791 -2.2194802147226973 -0.008179933726190749 0.0 0.0 0.0 0.0 0.0 0.0
4857.0 -8.881784197001252e-16 -1.5707963267948966 1.5707963267948966 -1.5707963267948966 -1.5707963267948966 0.0 0.0 0.0 -0.0 0.0 0.0 0.0 0.0 0.0 0.0 0.0 0.0 0.0 2.7100081908582143e-27 -0.620381750820575 -0.8463465614411209 -0.2525548825603051 -1.4392506443496177e-11 0.0 3.110005232743317e-26 -7.1458666999402505 -7.145866699940252 -1.0424175499402515 -5.974879480466362e-11 0.0 2.3968450477696024e-05 -1.5707839171039026 1.5708012580871582 -1.5707600752459925 -1.5708745161639612 0.0 0.0 0.0 -0.0 0.0 0.0 0.0 0.02467346377670765 -0.6078644394874573 -0.7396449446678162 -0.3771009147167206 -0.05706868693232536 0.1353982537984848 0.02467346377670765 -0.5988922715187073 -0.7396449446678162 -0.3703869581222534 -0.05706868693232536 0.1353982537984848 -0.29842610254603613 -0.11275575322924669 0.31317609556233766 -2.2177879901922384 -2.2194939893284715 -0.008326023145429308 0.0 0.0 0.0 0.0 0.0 0.0 -3.4730556969609987 1.8221772575005024 7.44768239104582 -0.4194637383247094 -1.5017110796324966 0.6179180791826417 -0.29843019350298383 -0.11275507530515122 0.3131843183387717 -2.217827088832791 -2.2194802147226973 -0.008179933726190749 0.0 0.0 0.0 0.0 0.0 0.0
4857.008 -8.881784197001252e-16 -1.5707963267948966 1.5707963267948966 -1.5707963267948966 -1.5707963267948966 0.0 0.0 0.0 -0.0 0.0 0.0 0.0 0.0 0.0 0.0 0.0 0.0 0.0 2.7100081908582143e-27 -0.620381750820575 -0.8463465614411209 -0.2525548825603051 -1.4392506443496177e-11 0.0 3.110005232743317e-26 -7.1458666999402505 -7.145866699940252 -1.0424175499402515 -5.974879480466362e-11 0.0 0.0 -1.5707481543170374 1.5708250999450684 -1.5707839171039026 -1.5708144346820276 -1.1746083394825746e-05 0.0 0.0 -0.0 0.0 0.0 0.0 0.0269165076315403 -0.6101074814796448 -0.7335448265075684 -0.36479198932647705 -0.05930667370557785 0.13316026329994202 0.02467346377670765 -0.5988922715187073 -0.7396449446678162 -0.3703869581222534 -0.05706868693232536 0.1353982537984848 -0.2984345602475181 -0.11275352451458336 0.31316029706265425 -2.2178494150829375 -2.2195287100300836 -0.008299319112466388 0.0 0.0 0.0 0.0 0.0 0.0 -3.8285851467360366 1.750578348924902 7.450326239388095 -0.4240408735914093 -1.474238287093331 0.6077840481990912 -0.29843019350298383 -0.11275507530515122 0.3131843183387717 -2.217827088832791 -2.2194802147226973 -0.008179933726190749 0.0 0.0 0.0 0.0 0.0 0.0
4857.016 -8.881784197001252e-16 -1.5707963267948966 1.5707963267948966 -1.5707963267948966 -1.5707963267948966 0.0 0.0 0.0 -0.0 0.0 0.0 0.0 0.0 0.0 0.0 0.0 0.0 0.0 2.7100081908582143e-27 -0.620381750820575 -0.8463465614411209 -0.2525548825603051 -1.4392506443496177e-11 0.0 3.110005232743317e-26 -7.1458666999402505 -7.145866699940252 -1.0424175499402515 -5.974879480466362e-11 0.0 -1.1746083394825746e-05 -1.570796314870016 1.5708250999450684 -1.5707724730121058 -1.5708745161639612 0.0 0.0 0.0 -0.0 0.0 0.0 0.0 0.0291595496237278 -0.5899201035499573 -0.7472701668739319 -0.3681489825248718 -0.0503547228872776 0.134279265999794 0.02467346377670765 -0.5988922715187073 -0.7396449446678162 -0.3703869581222534 -0.05706868693232536 0.1353982537984848 -0.2984271797153983 -0.11274508091352277 0.3131737350119743 -2.217827209445909 -2.2194539849685118 -0.00832507317151158 0.0 0.0 0.0 0.0 0.0 0.0 -2.229327286738429 2.4722875215181626 6.9182089621399925 -0.44152645656041994 -1.312172260260739 0.6139466893445886 -0.29843019350298383 -0.11275507530515122 0.3131843183387717 -2.217827088832791 -2.2194802147226973 -0.008179933726190749 0.0 0.0 0.0 0.0 0.0 0.0
4857.023999999999 -8.881784197001252e-16 -1.5707963267948966 1.5707963267948966 -1.5707963267948966 -1.5707963267948966 0.0 0.0 0.0 -0.0 0.0 0.0 0.0 0.0 0.0 0.0 0.0 0.0 0.0 2.7100081908582143e-27 -0.620381750820575 -0.8463465614411209 -0.2525548825603051 -1.4392506443496177e-11 0.0 3.110005232743317e-26 -7.1458666999402505 -7.145866699940252 -1.0424175499402515 -5.974879480466362e-11 0.0 -1.1746083394825746e-05 -1.5708320776568812 1.5707893371582031 -1.570808235798971 -1.5708144346820276 0.0 0.0 0.0 -0.0 0.0 0.0 0.0 0.02467346377670765 -0.5988922715187073 -0.7289696931838989 -0.3715059459209442 -0.05371170490980148 0.134279265999794 0.02467346377670765 -0.5988922715187073 -0.7396449446678162 -0.3703869581222534 -0.05706868693232536 0.1376362442970276 -0.29842731248161236 -0.1127501082092697 0.31319810601307685 -2.217803898238128 -2.2194308486733214 -0.008139288059231732 0.0 0.0 0.0 0.0 0.0 0.0 -3.411866211209702 1.8284735131129413 7.800304867536093 -0.4045130123056204 -1.5008415658069008 0.6128805319323111 -0.29843019350298383 -0.11275507530515122 0.3131843183387717 -2.217827088832791 -2.2194802147226973 -0.008179933726190749 0.0 0.0 0.0 0.0 0.0 0.0
4857.032 -8.881784197001252e-16 -1.5707963267948966 1.5707963267948966 -1.5707963267948966 -1.5707963267948966 0.0 0.0 0.0 -0.0 0.0 0.0 0.0 0.0 0.0 0.0 0.0 0.0 0.0 2.7100081908582143e-27 -0.620381750820575 -0.8463465614411209 -0.2525548825603051 -1.4392506443496177e-11 0.0 3.110005232743317e-26 -7.1458666999402505 -7.145866699940252 -1.0424175499402515 -5.974879480466362e-11 0.0 2.3968450477696024e-05 -1.570796314870016 1.5708370208740234 -1.570796314870016 -1.5708263556109827 -2.366701234990387e-05 0.0 0.0 -0.0 0.0 0.0 0.0 0.02243042178452015 -0.6011353135108948 -0.7411699891090393 -0.36702999472618103 -0.06490164250135422 0.13316026329994202 0.02467346377670765 -0.5988922715187073 -0.7396449446678162 -0.3703869581222534 -0.05706868693232536 0.134279265999794 -0.29842412813445357 -0.11275970832518944 0.3131721800334355 -2.2177794408105833 -2.2195381906443497 -0.008258442583395429 0.0 0.0 0.0 0.0 0.0 0.0 -3.057732905475848 1.8499977643138874 7.162095630769647 -0.45805164702137513 -1.3964997731652589 0.6082601391184432 -0.29843019350298383 -0.11275507530515122 0.3131843183387717 -2.217827088832791 -2.2194802147226973 -0.008179933726190749 0.0 0.0 0.0 0.0 0.0 0.0
4857.04 -8.881784197001252e-16 -1.5707963267948966 1.5707963267948966 -1.5707963267948966 -1.5707963267948966 0.0 0.0 0.0 -0.0 0.0 0.0 0.0 0.0 0.0 0.0 0.0 0.0 0.0 2.7100081908582143e-27 -0.620381750820575 -0.8463465614411209 -0.2525548825603051 -1.4392506443496177e-11 0.0 3.110005232743317e-26 -7.1458666999402505 -7.145866699940252 -1.0424175499402515 -5.974879480466362e-11 0.0 0.0 -1.5708444754229944 1.5708131790161133 -1.570796314870016 -1.5708144346820276 -4.7985707418263246e-05 0.0 0.0 -0.0 0.0 0.0 0.0 0.02018737979233265 -0.6078644394874573 -0.7396449446678162 -0.36591097712516785 -0.05371170490980148 0.12980328500270844 0.02243042178452015 -0.5988922715187073 -0.7396449446678162 -0.3703869581222534 -0.05706868693232536 0.134279265999794 -0.2984210352957206 -0.11275358246720424 0.3131936693927902 -2.2177493735178073 -2.2195086938114352 -0.008165398018465586 0.0 0.0 0.0 0.0 0.0 0.0 -3.472175006563318 1.5442733603014744 7.203939908887446 -0.38079361257379374 -1.4290284403434779 0.5925922123323298 -0.29843019350298383 -0.11275507530515122 0.3131843183387717 -2.217827088832791 -2.2194802147226973 -0.008179933726190749 0.0 0.0 0.0 0.0 0.0 0.0
4857.048 -8.881784197001252e-16 -1.5707963267948966 1.5707963267948966 -1.5707963267948966 -1.5707963267948966 0.0 0.0 0.0 -0.0 0.0 0.0 0.0 0.0 0.0 0.0 0.0 0.0 0.0 2.7100081908582143e-27 -0.620381750820575 -0.8463465614411209 -0.2525548825603051 -1.4392506443496177e-11 0.0 3.110005232743317e-26 -7.1458666999402505 -7.145866699940252 -1.0424175499402515 -5.974879480466362e-11 0.0 2.3968450477696024e-05 -1.570808235798971 1.570765495300293 -1.570808235798971 -1.5708263556109827 0.0 0.0 0.0 -0.0 0.0 0.0 0.0 0.02243042178452015 -0.5988922715187073 -0.748795211315155 -0.3703869581222534 -0.05594969168305397 0.13875523209571838 0.02467346377670765 -0.5988922715187073 -0.7396449446678162 -0.3703869581222534 -0.05706868693232536 0.1376362442970276 -0.2984291026328507 -0.11275980324550094 0.31319811605443243 -2.2177581689937775 -2.2194644639859753 -0.008152351164654804 0.0 0.0 0.0 0.0 0.0 0.0 -2.6437347400890068 2.0944738699241636 6.898100143983921 -0.436297559695238 -1.3553884011671633 0.6345460653098212 -0.29843019350298383 -0.11275507530515122 0.3131843183387717 -2.217827088832791 -2.2194802147226973 -0.008179933726190749 0.0 0.0 0.0 0.0 0.0 0.0
4857.056 -8.881784197001252e-16 -1.5707963267948966 1.5707963267948966 -1.5707963267948966 -1.5707963267948966 0.0 0.0 0.0 -0.0 0.0 0.0 0.0 0.0 0.0 0.0 0.0 0.0 0.0 2.7100081908582143e-27 -0.620381750820575 -0.8463465614411209 -0.2525548825603051 -1.4392506443496177e-11 0.0 3.110005232743317e-26 -7.1458666999402505 -7.145866699940252 -1.0424175499402515 -5.974879480466362e-11 0.0 0.0 -1.5707839171039026 1.5708489418029785 -1.5707724730121058 -1.5708745161639612 -3.5587941304981996e-05 0.0 0.0 -0.0 0.0 0.0 0.0 0.02243042178452015 -0.5809479355812073 -0.7381199598312378 -0.3726249635219574 -0.06042566895484924 0.13092228770256042 0.02467346377670765 -0.5988922715187073 -0.7396449446678162 -0.3703869581222534 -0.05706868693232536 0.134279265999794 -0.29842588244567436 -0.11274855431093382 0.31316291424421516 -2.2177927409974876 -2.219524586016986 -0.008365422519324558 0.0 0.0 0.0 0.0 0.0 0.0 -2.1084584280431407 2.174306920935017 7.420854601964573 -0.4641396287670189 -1.3659636628997387 0.5979821998689299 -0.29843019350298383 -0.11275507530515122 0.3131843183387717 -2.217827088832791 -2.2194802147226973 -0.008179933726190749 0.0 0.0 0.0 0.0 0.0 0.0
4857.063999999999 -8.881784197001252e-16 -1.5707963267948966 1.5707963267948966 -1.5707963267948966 -1.5707963267948966 0.0 0.0 0.0 -0.0 0.0 0.0 0.0 0.0 0.0 0.0 0.0 0.0 0.0 2.7100081908582143e-27 -0.620381750820575 -0.8463465614411209 -0.2525548825603051 -1.4392506443496177e-11 0.0 3.110005232743317e-26 -7.1458666999402505 -7.145866699940252 -1.0424175499402515 -5.974879480466362e-11 0.0 3.5952674807049334e-05 -1.5707839171039026 1.5708131790161133 -1.5707724730121058 -1.5708144346820276 1.1984225238848012e-05 0.0 0.0 -0.0 0.0 0.0 0.0 0.0269165076315403 -0.5854340195655823 -0.7426950335502625 -0.3759819269180298 -0.051473718136548996 0.13316026329994202 0.02467346377670765 -0.5988922715187073 -0.7396449446678162 -0.3703869581222534 -0.05706868693232536 0.1353982537984848 -0.2984247829125735 -0.1127642726853635 0.31317355633173055 -2.217817806760902 -2.2195239724146214 -0.008258893302884181 0.0 0.0 0.0 0.0 0.0 0.0 -2.1691888317038286 2.379678008379999 7.291073319090797 -0.4392004970367797 -1.3753306750059768 0.6084263932370686 -0.29843019350298383 -0.11275507530515122 0.3131843183387717 -2.217827088832791 -2.2194802147226973 -0.008179933726190749 0.0 0.0 0.0 0.0 0.0 0.0
4857.072 -8.881784197001252e-16 -1.5707963267948966 1.5707963267948966 -1.5707963267948966 -1.5707963267948966 0.0 0.0 0.0 -0.0 0.0 0.0 0.0 0.0 0.0 0.0 0.0 0.0 0.0 2.7100081908582143e-27 -0.620381750820575 -0.8463465614411209 -0.2525548825603051 -1.4392506443496177e-11 0.0 3.110005232743317e-26 -7.1458666999402505 -7.145866699940252 -1.0424175499402515 -5.974879480466362e-11 0.0 5.992112710373476e-05 -1.5707724730121058 1.5708012580871582 -1.5707724730121058 -1.5708382765399378 -1.1746083394825746e-05 0.0 0.0 -0.0 0.0 0.0 0.0 0.0269165076315403 -0.6213226914405823 -0.7411699891090393 -0.3703869581222534 -0.05371170490980148 0.12980328500270844 0.0269165076315403 -0.5988922715187073 -0.7396449446678162 -0.3703869581222534 -0.05706868693232536 0.1353982537984848 -0.298424912904404 -0.11276947152035713 0.31317371473153566 -2.217752651429615 -2.2195646707190018 -0.008284745971731558 0.0 0.0 0.0 0.0 0.0 0.0 -4.12617475273507 1.5851592456554384 7.232272010576904 -0.38415613606894106 -1.5060054049778329 0.5920220553510732 -0.29843019350298383 -0.11275507530515122 0.3131843183387717 -2.217827088832791 -2.2194802147226973 -0.008179933726190749 0.0 0.0 0.0 0.0 0.0 0.0
4857.08 -8.881784197001252e-16 -1.5707963267948966 1.5707963267948966 -1.5707963267948966 -1.5707963267948966 0.0 0.0 0.0 -0.0 0.0 0.0 0.0 0.0 0.0 0.0 0.0 0.0 0.0 2.7100081908582143e-27 -0.620381750820575 -0.8463465614411209 -0.2525548825603051 -1.4392506443496177e-11 0.0 3.110005232743317e-26 -7.1458666999402505 -7.145866699940252 -1.0424175499402515 -5.974879480466362e-11 0.0 3.5952674807049334e-05 -1.5707724730121058 1.5707893371582031 -1.5707600752459925 -1.5708144346820276 1.1984225238848012e-05 0.0 0.0 -0.0 0.0 0.0 0.0 0.01570129580795765 -0.6011353135108948 -0.7518453001976013 -0.3737439513206482 -0.054830700159072876 0.1365172564983368 0.02467346377670765 -0.5988922715187073 -0.7396449446678162 -0.3703869581222534 -0.05706868693232536 0.1353982537984848 -0.29842757878911147 -0.11276428726787727 0.3131762015430538 -2.2178178153296138 -2.2195239622369107 -0.008258894870419099 0.0 0.0 0.0 0.0 0.0 0.0 -2.643583038597696 1.7693556452294352 6.8344382011060745 -0.4043148334295774 -1.36554738947139 0.6240972402998091 -0.29843019350298383 -0.11275507530515122 0.3131843183387717 -2.217827088832791 -2.2194802147226973 -0.008179933726190749 0.0 0.0 0.0 0.0 0.0 0.0
4857.088 -8.881784197001252e-16 -1.5707963267948966 1.5707963267948966 -1.5707963267948966 -1.5707963267948966 0.0 0.0 0.0 -0.0 0.0 0.0 0.0 0.0 0.0 0.0 0.0 0.0 0.0 2.7100081908582143e-27 -0.620381750820575 -0.8463465614411209 -0.2525548825603051 -1.4392506443496177e-11 0.0 3.110005232743317e-26 -7.1458666999402505 -7.145866699940252 -1.0424175499402515 -5.974879480466362e-11 0.0 -1.1746083394825746e-05 -1.570796314870016 1.5708250999450684 -1.5707724730121058 -1.5708382765399378 0.0 0.0 0.0 -0.0 0.0 0.0 0.0 0.01345825381577015 -0.6056213974952698 -0.7335448265075684 -0.3681489825248718 -0.05930667370557785 0.1353982537984848 0.02018737979233265 -0.5988922715187073 -0.7396449446678162 -0.3703869581222534 -0.05706868693232536 0.1353982537984848 -0.29842717758649473 -0.11274806547732849 0.3131737123255081 -2.2178453847116755 -2.2194722120513526 -0.008284953233546314 0.0 0.0 0.0 0.0 0.0 0.0 -3.5892741266784407 1.2956321849394852 7.52273803888628 -0.38660853016872343 -1.4765664081755328 0.6181678200226343 -0.29843019350298383 -0.11275507530515122 0.3131843183387717 -2.217827088832791 -2.2194802147226973 -0.008179933726190749 0.0 0.0 0.0 0.0 0.0 0.0
4857.096 -8.881784197001252e-16 -1.5707963267948966 1.5707963267948966 -1.5707963267948966 -1.5707963267948966 0.0 0.0 0.0 -0.0 0.0 0.0 0.0 0.0 0.0 0.0 0.0 0.0 0.0 2.7100081908582143e-27 -0.620381750820575 -0.8463465614411209 -0.2525548825603051 -1.4392506443496177e-11 0.0 3.110005232743317e-26 -7.1458666999402505 -7.145866699940252 -1.0424175499402515 -5.974879480466362e-11 0.0 2.3968450477696024e-05 -1.570820156727926 1.5708250999450684 -1.5707724730121058 -1.5708745161639612 3.5952674807049334e-05 0.0 0.0 -0.0 0.0 0.0 0.0 0.02467346377670765 -0.5854340195655823 -0.7518453001976013 -0.3703869581222534 -0.054830700159072876 0.13204127550125122 0.0269165076315403 -0.5988922715187073 -0.7396449446678162 -0.3703869581222534 -0.05706868693232536 0.1353982537984848 -0.2984193082724223 -0.11275574775582681 0.3131808522872081 -2.2178155224957807 -2.2194416525867786 -0.008298367536322734 0.0 0.0 0.0 0.0 0.0 0.0 -1.814123463961874 2.401734983709272 6.7641376910139135 -0.45640043563567445 -1.2751988066450062 0.6038027511533635 -0.29843019350298383 -0.11275507530515122 0.3131843183387717 -2.217827088832791 -2.2194802147226973 -0.008179933726190749 0.0 0.0 0.0 0.0 0.0 0.0
4857.103999999999 -8.881784197001252e-16 -1.5707963267948966 1.5707963267948966 -1.5707963267948966 -1.5707963267948966 0.0 0.0 0.0 -0.0 0.0 0.0 0.0 0.0 0.0 0.0 0.0 0.0 0.0 2.7100081908582143e-27 -0.620381750820575 -0.8463465614411209 -0.2525548825603051 -1.4392506443496177e-11 0.0 3.110005232743317e-26 -7.1458666999402505 -7.145866699940252 -1.0424175499402515 -5.974879480466362e-11 0.0 1.1984225238848012e-05 -1.5707724730121058 1.5708613395690918 -1.5707724730121058 -1.570850674306051 -1.1746083394825746e-05 0.0 0.0 -0.0 0.0 0.0 0.0 0.02243042178452015 -0.5988922715187073 -0.7503202557563782 -0.3681489825248718 -0.048116736114025116 0.1365172564983368 0.02467346377670765 -0.5988922715187073 -0.7396449446678162 -0.3703869581222534 -0.054830700159072876 0.1353982537984848 -0.2984253494183899 -0.1127540757843701 0.3131557807429293 -2.2178296359046947 -2.219535257440733 -0.008365412182032524 0.0 0.0 0.0 0.0 0.0 0.0 -2.5850171085274836 2.0822712963229026 6.781265396581958 -0.3989094702555855 -1.33003758937311 0.6242608528424609 -0.29843019350298383 -0.11275507530515122 0.3131843183387717 -2.217827088832791 -2.2194802147226973 -0.008179933726190749 0.0 0.0 0.0 0.0 0.0 0.0
4857.112 -8.881784197001252e-16 -1.5707963267948966 1.5707963267948966 -1.5707963267948966 -1.5707963267948966 0.0 0.0 0.0 -0.0 0.0 0.0 0.0 0.0 0.0 0.0 0.0 0.0 0.0 2.7100081908582143e-27 -0.620381750820575 -0.8463465614411209 -0.2525548825603051 -1.4392506443496177e-11 0.0 3.110005232743317e-26 -7.1458666999402505 -7.145866699940252 -1.0424175499402515 -5.974879480466362e-11 0.0 0.0 -1.5707724730121058 1.5708250999450684 -1.570796314870016 -1.570850674306051 0.0 0.0 0.0 -0.0 0.0 0.0 0.0 0.0291595496237278 -0.5831909775733948 -0.7411699891090393 -0.3692679703235626 -0.05706868693232536 0.13204127550125122 0.02467346377670765 -0.5988922715187073 -0.7396449446678162 -0.3703869581222534 -0.054830700159072876 0.1353982537984848 -0.29843166261405996 -0.11275055759015089 0.31316863772342557 -2.217825991322759 -2.219479140529092 -0.00829859614627874 0.0 0.0 0.0 0.0 0.0 0.0 -2.1099102562292975 2.4820887816711377 7.213411622257383 -0.4737199998879185 -1.332693594525996 0.60343065125114 -0.29843019350298383 -0.11275507530515122 0.3131843183387717 -2.217827088832791 -2.2194802147226973 -0.008179933726190749 0.0 0.0 0.0 0.0 0.0 0.0
4857.12 -8.881784197001252e-16 -1.5707963267948966 1.5707963267948966 -1.5707963267948966 -1.5707963267948966 0.0 0.0 0.0 -0.0 0.0 0.0 0.0 0.0 0.0 0.0 0.0 0.0 0.0 2.7100081908582143e-27 -0.620381750820575 -0.8463465614411209 -0.2525548825603051 -1.4392506443496177e-11 0.0 3.110005232743317e-26 -7.1458666999402505 -7.145866699940252 -1.0424175499402515 -5.974879480466362e-11 0.0 4.793690095539205e-05 -1.570808235798971 1.5708250999450684 -1.5707600752459925 -1.570850674306051 -2.366701234990387e-05 0.0 0.0 -0.0 0.0 0.0 0.0 0.0269165076315403 -0.5921631455421448 -0.7320197820663452 -0.3692679703235626 -0.05371170490980148 0.13204127550125122 0.02467346377670765 -0.5988922715187073 -0.7396449446678162 -0.3703869581222534 -0.05706868693232536 0.1353982537984848 -0.2984175050462069 -0.11276485088987645 0.31317622049732236 -2.2177468996483483 -2.2195584910861355 -0.00829912080333691 0.0 0.0 0.0 0.0 0.0 0.0 -2.9384722742028813 2.070204895381748 7.617319526660821 -0.4243442180308031 -1.435641849953802 0.6028062669189356 -0.29843019350298383 -0.11275507530515122 0.3131843183387717 -2.217827088832791 -2.2194802147226973 -0.008179933726190749 0.0 0.0 0.0 0.0 0.0 0.0
4857.128 -8.881784197001252e-16 -1.5707963267948966 1.5707963267948966 -1.5707963267948966 -1.5707963267948966 0.0 0.0 0.0 -0.0 0.0 0.0 0.0 0.0 0.0 0.0 0.0 0.0 0.0 2.7100081908582143e-27 -0.620381750820575 -0.8463465614411209 -0.2525548825603051 -1.4392506443496177e-11 0.0 3.110005232743317e-26 -7.1458666999402505 -7.145866699940252 -1.0424175499402515 -5.974879480466362e-11 0.0 0.0 -1.570808235798971 1.5708613395690918 -1.570820156727926 -1.5708625952350062 2.3968450477696024e-05 0.0 0.0 -0.0 0.0 0.0 0.0 0.02243042178452015 -0.5988922715187073 -0.748795211315155 -0.36702999472618103 -0.06154466047883034 0.134279265999794 0.02018737979233265 -0.5988922715187073 -0.7396449446678162 -0.3703869581222534 -0.05706868693232536 0.1353982537984848 -0.29842486341237917 -0.11274956409139925 0.31317053419103313 -2.2178349470989414 -2.219434874437014 -0.008285754139837188 0.0 0.0 0.0 0.0 0.0 0.0 -2.6436283936191343 2.0251803642125097 6.824662732404729 -0.45670483173221105 -1.33348917317457 0.6138192212703717 -0.29843019350298383 -0.11275507530515122 0.3131843183387717 -2.217827088832791 -2.2194802147226973 -0.008179933726190749 0.0 0.0 0.0 0.0 0.0 0.0
4857.1359999999995 -8.881784197001252e-16 -1.5707963267948966 1.5707963267948966 -1.5707963267948966 -1.5707963267948966 0.0 0.0 0.0 -0.0 0.0 0.0 0.0 0.0 0.0 0.0 0.0 0.0 0.0 2.7100081908582143e-27 -0.620381750820575 -0.8463465614411209 -0.2525548825603051 -1.4392506443496177e-11 0.0 3.110005232743317e-26 -7.1458666999402505 -7.145866699940252 -1.0424175499402515 -5.974879480466362e-11 0.0 1.1984225238848012e-05 -1.570796314870016 1.5708250999450684 -1.5707724730121058 -1.5708263556109827 3.5952674807049334e-05 0.0 0.0 -0.0 0.0 0.0 0.0 0.0269165076315403 -0.5831909775733948 -0.7411699891090393 -0.3703869581222534 -0.054830700159072876 0.1376362442970276 0.02467346377670765 -0.5988922715187073 -0.7396449446678162 -0.3703869581222534 -0.05594969168305397 0.1353982537984848 -0.29842450123248215 -0.11275612897917692 0.3131737048864959 -2.217864816061495 -2.2194645430329056 -0.00827157200493946 0.0 0.0 0.0 0.0 0.0 0.0 -2.109511690244505 2.472508967435293 7.238027504431815 -0.4624959513850156 -1.340099605026989 0.6293821268881808 -0.29843019350298383 -0.11275507530515122 0.3131843183387717 -2.217827088832791 -2.2194802147226973 -0.008179933726190749 0.0 0.0 0.0 0.0 0.0 0.0
4857.144 -8.881784197001252e-16 -1.5707963267948966 1.5707963267948966 -1.5707963267948966 -1.5707963267948966 0.0 0.0 0.0 -0.0 0.0 0.0 0.0 0.0 0.0 0.0 0.0 0.0 0.0 2.7100081908582143e-27 -0.620381750820575 -0.8463465614411209 -0.2525548825603051 -1.4392506443496177e-11 0.0 3.110005232743317e-26 -7.1458666999402505 -7.145866699940252 -1.0424175499402515 -5.974879480466362e-11 0.0 4.793690095539205e-05 -1.5707600752459925 1.570765495300293 -1.5707839171039026 -1.570850674306051 -3.5587941304981996e-05 0.0 0.0 -0.0 0.0 0.0 0.0 0.02018737979233265 -0.6056213974952698 -0.7320197820663452 -0.3692679703235626 -0.05818767845630646 0.1365172564983368 0.02467346377670765 -0.5988922715187073 -0.7396449446678162 -0.3703869581222534 -0.05706868693232536 0.1353982537984848 -0.29843216482349455 -0.11276491880148767 0.31318167794608603 -2.217715950956635 -2.2195544120701203 -0.008259861644160345 0.0 0.0 0.0 0.0 0.0 0.0 -3.649572359133167 1.579684270634022 7.615453496110988 -0.4047566571190055 -1.4945202178605104 0.6232207137892141 -0.29843019350298383 -0.11275507530515122 0.3131843183387717 -2.217827088832791 -2.2194802147226973 -0.008179933726190749 0.0 0.0 0.0 0.0 0.0 0.0
4857.152 -8.881784197001252e-16 -1.5707963267948966 1.5707963267948966 -1.5707963267948966 -1.5707963267948966 0.0 0.0 0.0 -0.0 0.0 0.0 0.0 0.0 0.0 0.0 0.0 0.0 0.0 2.7100081908582143e-27 -0.620381750820575 -0.8463465614411209 -0.2525548825603051 -1.4392506443496177e-11 0.0 3.110005232743317e-26 -7.1458666999402505 -7.145866699940252 -1.0424175499402515 -5.974879480466362e-11 0.0 2.3968450477696024e-05 -1.570820156727926 1.5708012580871582 -1.5707839171039026 -1.5708625952350062 2.3968450477696024e-05 0.0 0.0 -0.0 0.0 0.0 0.0 0.02467346377670765 -0.6056213974952698 -0.7381199598312378 -0.36702999472618103 -0.05706868693232536 0.1353982537984848 0.02467346377670765 -0.5988922715187073 -0.7396449446678162 -0.3703869581222534 -0.05706868693232536 0.1353982537984848 -0.2984222219348784 -0.11275676492927447 0.3131889415486439 -2.2177906240934058 -2.219443447678859 -0.008245969305658832 0.0 0.0 0.0 0.0 0.0 0.0 -3.4133552632168236 1.8462945715383139 7.297115773491932 -0.42135534330721447 -1.4373414438869945 0.6183800363801822 -0.29843019350298383 -0.11275507530515122 0.3131843183387717 -2.217827088832791 -2.2194802147226973 -0.008179933726190749 0.0 0.0 0.0 0.0 0.0 0.0
4857.16 -8.881784197001252e-16 -1.5707963267948966 1.5707963267948966 -1.5707963267948966 -1.5707963267948966 0.0 0.0 0.0 -0.0 0.0 0.0 0.0 0.0 0.0 0.0 0.0 0.0 0.0 2.7100081908582143e-27 -0.620381750820575 -0.8463465614411209 -0.2525548825603051 -1.4392506443496177e-11 0.0 3.110005232743317e-26 -7.1458666999402505 -7.145866699940252 -1.0424175499402515 -5.974879480466362e-11 0.0 2.3968450477696024e-05 -1.5707481543170374 1.5707893371582031 -1.570820156727926 -1.5708745161639612 1.1984225238848012e-05 0.0 0.0 -0.0 0.0 0.0 0.0 0.0269165076315403 -0.5876770615577698 -0.7426950335502625 -0.36702999472618103 -0.05706868693232536 0.1376362442970276 0.02467346377670765 -0.5988922715187073 -0.7396449446678162 -0.3703869581222534 -0.05706868693232536 0.1353982537984848 -0.29843780498357186 -0.11275579585399835 0.31317410756468106 -2.217782979454418 -2.2194629782347715 -0.008285604892133463 0.0 0.0 0.0 0.0 0.0 0.0 -2.288015976055683 2.4050639658935937 7.097069225730068 -0.4672823701590205 -1.3273108303780825 0.6294135723933679 -0.29843019350298383 -0.11275507530515122 0.3131843183387717 -2.217827088832791 -2.2194802147226973 -0.008179933726190749 0.0 0.0 0.0 0.0 0.0 0.0
4857.168 -8.881784197001252e-16 -1.5707963267948966 1.5707963267948966 -1.5707963267948966 -1.5707963267948966 0.0 0.0 0.0 -0.0 0.0 0.0 0.0 0.0 0.0 0.0 0.0 0.0 0.0 2.7100081908582143e-27 -0.620381750820575 -0.8463465614411209 -0.2525548825603051 -1.4392506443496177e-11 0.0 3.110005232743317e-26 -7.1458666999402505 -7.145866699940252 -1.0424175499402515 -5.974879480466362e-11 0.0 2.3968450477696024e-05 -1.5707600752459925 1.5708131790161133 -1.5707724730121058 -1.5708625952350062 -2.366701234990387e-05 0.0 0.0 -0.0 0.0 0.0 0.0 0.0291595496237278 -0.5876770615577698 -0.7304947376251221 -0.3692679703235626 -0.0503547228872776 0.13092228770256042 0.02467346377670765 -0.5988922715187073 -0.7396449446678162 -0.3703869581222534 -0.05371170490980148 0.1353982537984848 -0.2984299816958995 -0.11275672123228977 0.31316646897183775 -2.2177792943352483 -2.2195380164770038 -0.008338839603640643 0.0 0.0 0.0 0.0 0.0 0.0 -2.7609895434975864 2.2166890906422947 7.685404104396064 -0.4208714419393991 -1.4266737415935689 0.5976498245535866 -0.29843019350298383 -0.11275507530515122 0.3131843183387717 -2.217827088832791 -2.2194802147226973 -0.008179933726190749 0.0 0.0 0.0 0.0 0.0 0.0
4857.1759999999995 -8.881784197001252e-16 -1.5707963267948966 1.5707963267948966 -1.5707963267948966 -1.5707963267948966 0.0 0.0 0.0 -0.0 0.0 0.0 0.0 0.0 0.0 0.0 0.0 0.0 0.0 2.7100081908582143e-27 -0.620381750820575 -0.8463465614411209 -0.2525548825603051 -1.4392506443496177e-11 0.0 3.110005232743317e-26 -7.1458666999402505 -7.145866699940252 -1.0424175499402515 -5.974879480466362e-11 0.0 3.5952674807049334e-05 -1.570796314870016 1.5708131790161133 -1.570808235798971 -1.5708025137530726 -2.366701234990387e-05 0.0 0.0 -0.0 0.0 0.0 0.0 0.0269165076315403 -0.5899201035499573 -0.7304947376251221 -0.3692679703235626 -0.051473718136548996 0.13092228770256042 0.02467346377670765 -0.5988922715187073 -0.7396449446678162 -0.3703869581222534 -0.05818767845630646 0.1353982537984848 -0.2984257291784149 -0.11276528400624392 0.3131803025944033 -2.2177602350456227 -2.2195457010991557 -0.00819224193064617 0.0 0.0 0.0 0.0 0.0 0.0 -2.8790469914046577 2.075514802440969 7.6850019809993295 -0.4143571560538346 -1.4364844002168577 0.5977080692522565 -0.29843019350298383 -0.11275507530515122 0.3131843183387717 -2.217827088832791 -2.2194802147226973 -0.008179933726190749 0.0 0.0 0.0 0.0 0.0 0.0
4857.184 -8.881784197001252e-16 -1.5707963267948966 1.5707963267948966 -1.5707963267948966 -1.5707963267948966 0.0 0.0 0.0 -0.0 0.0 0.0 0.0 0.0 0.0 0.0 0.0 0.0 0.0 2.7100081908582143e-27 -0.620381750820575 -0.8463465614411209 -0.2525548825603051 -1.4392506443496177e-11 0.0 3.110005232743317e-26 -7.1458666999402505 -7.145866699940252 -1.0424175499402515 -5.974879480466362e-11 0.0 1.1984225238848012e-05 -1.5707839171039026 1.5708131790161133 -1.5707724730121058 -1.5708144346820276 1.1984225238848012e-05 0.0 0.0 -0.0 0.0 0.0 0.0 0.02243042178452015 -0.6033783555030823 -0.7381199598312378 -0.3726249635219574 -0.05259270966053009 0.1376362442970276 0.02467346377670765 -0.5988922715187073 -0.7396449446678162 -0.3703869581222534 -0.05706868693232536 0.1353982537984848 -0.2984274856116357 -0.11275711987362058 0.31317355633173055 -2.217844450333112 -2.2194974379185375 -0.008258966926548771 0.0 0.0 0.0 0.0 0.0 0.0 -3.2947248095039057 1.8288032123102764 7.418547994773285 -0.3991520399914464 -1.4638448911980653 0.6286559233186574 -0.29843019350298383 -0.11275507530515122 0.3131843183387717 -2.217827088832791 -2.2194802147226973 -0.008179933726190749 0.0 0.0 0.0 0.0 0.0 0.0
4857.192 -8.881784197001252e-16 -1.5707963267948966 1.5707963267948966 -1.5707963267948966 -1.5707963267948966 0.0 0.0 0.0 -0.0 0.0 0.0 0.0 0.0 0.0 0.0 0.0 0.0 0.0 2.7100081908582143e-27 -0.620381750820575 -0.8463465614411209 -0.2525548825603051 -1.4392506443496177e-11 0.0 3.110005232743317e-26 -7.1458666999402505 -7.145866699940252 -1.0424175499402515 -5.974879480466362e-11 0.0 2.3968450477696024e-05 -1.570796314870016 1.5707893371582031 -1.5707724730121058 -1.5708382765399378 2.3968450477696024e-05 0.0 0.0 -0.0 0.0 0.0 0.0 0.02243042178452015 -0.6056213974952698 -0.7335448265075684 -0.3692679703235626 -0.05706868693232536 0.1353982537984848 0.02467346377670765 -0.5988922715187073 -0.7381199598312378 -0.3703869581222534 -0.05706868693232536 0.1353982537984848 -0.29842610830300415 -0.11275876470330533 0.3131843920729607 -2.217814431910354 -2.219467335068708 -0.00824501122487209 0.0 0.0 0.0 0.0 0.0 0.0 -3.5904760908661606 1.6817237672452285 7.548051214761657 -0.40793471007460064 -1.4837929358252948 0.6181150264970996 -0.29843019350298383 -0.11275507530515122 0.3131843183387717 -2.217827088832791 -2.2194802147226973 -0.008179933726190749 0.0 0.0 0.0 0.0 0.0 0.0
4857.2 -8.881784197001252e-16 -1.5707963267948966 1.5707963267948966 -1.5707963267948966 -1.5707963267948966 0.0 0.0 0.0 -0.0 0.0 0.0 0.0 0.0 0.0 0.0 0.0 0.0 0.0 2.7100081908582143e-27 -0.620381750820575 -0.8463465614411209 -0.2525548825603051 -1.4392506443496177e-11 0.0 3.110005232743317e-26 -7.1458666999402505 -7.145866699940252 -1.0424175499402515 -5.974879480466362e-11 0.0 -1.1746083394825746e-05 -1.5708320776568812 1.5708250999450684 -1.5708320776568812 -1.5708745161639612 -2.366701234990387e-05 0.0 0.0 -0.0 0.0 0.0 0.0 0.02467346377670765 -0.6056213974952698 -0.7381199598312378 -0.3759819269180298 -0.06154466047883034 0.13092228770256042 0.02243042178452015 -0.5988922715187073 -0.7396449446678162 -0.3703869581222534 -0.05706868693232536 0.1353982537984848 -0.2984263228653749 -0.11274513571248078 0.3131894988102874 -2.217753421461974 -2.2194329343625774 -0.008219105841302747 0.0 0.0 0.0 0.0 0.0 0.0 -3.4130415975524637 1.7756188806582407 7.490957615019535 -0.4364764510244377 -1.4952307718070685 0.5972210624343002 -0.29843019350298383 -0.11275507530515122 0.3131843183387717 -2.217827088832791 -2.2194802147226973 -0.008179933726190749 0.0 0.0 0.0 0.0 0.0 0.0
4857.208 -8.881784197001252e-16 -1.5707963267948966 1.5707963267948966 -1.5707963267948966 -1.5707963267948966 0.0 0.0 0.0 -0.0 0.0 0.0 0.0 0.0 0.0 0.0 0.0 0.0 0.0 2.7100081908582143e-27 -0.620381750820575 -0.8463465614411209 -0.2525548825603051 -1.4392506443496177e-11 0.0 3.110005232743317e-26 -7.1458666999402505 -7.145866699940252 -1.0424175499402515 -5.974879480466362e-11 0.0 0.0 -1.5707600752459925 1.570765495300293 -1.5707724730121058 -1.570850674306051 0.0 0.0 0.0 -0.0 0.0 0.0 0.0 0.01345825381577015 -0.5719757676124573 -0.748795211315155 -0.3692679703235626 -0.06154466047883034 0.1376362442970276 0.02243042178452015 -0.5988922715187073 -0.7396449446678162 -0.3703869581222534 -0.05706868693232536 0.1353982537984848 -0.29843662729984155 -0.11275060477917447 0.31318070109984475 -2.2178143955275287 -2.219467467439444 -0.008272633588598201 0.0 0.0 0.0 0.0 0.0 0.0 -1.2194702372036086 2.230738034351676 6.876194080161364 -0.47364840693228144 -1.230908888440101 0.6300621917463743 -0.29843019350298383 -0.11275507530515122 0.3131843183387717 -2.217827088832791 -2.2194802147226973 -0.008179933726190749 0.0 0.0 0.0 0.0 0.0 0.0
4857.215999999999 -8.881784197001252e-16 -1.5707963267948966 1.5707963267948966 -1.5707963267948966 -1.5707963267948966 0.0 0.0 0.0 -0.0 0.0 0.0 0.0 0.0 0.0 0.0 0.0 0.0 0.0 2.7100081908582143e-27 -0.620381750820575 -0.8463465614411209 -0.2525548825603051 -1.4392506443496177e-11 0.0 3.110005232743317e-26 -7.1458666999402505 -7.145866699940252 -1.0424175499402515 -5.974879480466362e-11 0.0 1.1984225238848012e-05 -1.5707839171039026 1.5708489418029785 -1.570808235798971 -1.5708144346820276 -1.1746083394825746e-05 0.0 0.0 -0.0 0.0 0.0 0.0 0.02467346377670765 -0.5988922715187073 -0.7548953890800476 -0.374862939119339 -0.05259270966053009 0.1353982537984848 0.02243042178452015 -0.5988922715187073 -0.7396449446678162 -0.3703869581222534 -0.05706868693232536 0.1353982537984848 -0.29842747390924734 -0.11275710377008373 0.31316592919628666 -2.21781806124627 -2.2195239277069967 -0.008259004285236803 0.0 0.0 0.0 0.0 0.0 0.0 -2.407833352474547 2.228376616513099 6.724586178232781 -0.4316635329369295 -1.3416147331304016 0.6190349307312082 -0.29843019350298383 -0.11275507530515122 0.3131843183387717 -2.217827088832791 -2.2194802147226973 -0.008179933726190749 0.0 0.0 0.0 0.0 0.0 0.0
4857.224 -8.881784197001252e-16 -1.5707963267948966 1.5707963267948966 -1.5707963267948966 -1.5707963267948966 0.0 0.0 0.0 -0.0 0.0 0.0 0.0 0.0 0.0 0.0 0.0 0.0 0.0 2.7100081908582143e-27 -0.620381750820575 -0.8463465614411209 -0.2525548825603051 -1.4392506443496177e-11 0.0 3.110005232743317e-26 -7.1458666999402505 -7.145866699940252 -1.0424175499402515 -5.974879480466362e-11 0.0 3.5952674807049334e-05 -1.5707839171039026 1.5707893371582031 -1.5707724730121058 -1.5708263556109827 2.3968450477696024e-05 0.0 0.0 -0.0 0.0 0.0 0.0 0.0269165076315403 -0.6033783555030823 -0.748795211315155 -0.374862939119339 -0.05594969168305397 0.134279265999794 0.02467346377670765 -0.5988922715187073 -0.7396449446678162 -0.3703869581222534 -0.05371170490980148 0.1353982537984848 -0.298426755472953 -0.11276331835121586 0.3131806835779736 -2.21781323423871 -2.2194928040485706 -0.00824554809257761 0.0 0.0 0.0 0.0 0.0 0.0 -2.881673515569235 2.1272078861492534 6.994542395179808 -0.43907225772930747 -1.4037565268513295 0.6134273149605706 -0.29843019350298383 -0.11275507530515122 0.3131843183387717 -2.217827088832791 -2.2194802147226973 -0.008179933726190749 0.0 0.0 0.0 0.0 0.0 0.0
4857.232 -8.881784197001252e-16 -1.5707963267948966 1.5707963267948966 -1.5707963267948966 -1.5707963267948966 0.0 0.0 0.0 -0.0 0.0 0.0 0.0 0.0 0.0 0.0 0.0 0.0 0.0 2.7100081908582143e-27 -0.620381750820575 -0.8463465614411209 -0.2525548825603051 -1.4392506443496177e-11 0.0 3.110005232743317e-26 -7.1458666999402505 -7.145866699940252 -1.0424175499402515 -5.974879480466362e-11 0.0 1.1984225238848012e-05 -1.5707839171039026 1.5708370208740234 -1.5707600752459925 -1.5708382765399378 -3.5587941304981996e-05 0.0 0.0 -0.0 0.0 0.0 0.0 0.0269165076315403 -0.5921631455421448 -0.7396449446678162 -0.3681489825248718 -0.05930667370557785 0.1353982537984848 0.0269165076315403 -0.5988922715187073 -0.7365949153900146 -0.3703869581222534 -0.05706868693232536 0.1365172564983368 -0.29842449366573426 -0.11275512030455957 0.31316539323687376 -2.217797865997273 -2.219556271731123 -0.00832580778727082 0.0 0.0 0.0 0.0 0.0 0.0 -2.6430804897766484 2.2352414277652284 7.2556492247146105 -0.46383669440549474 -1.3752903155022285 0.6187361491610527 -0.29843019350298383 -0.11275507530515122 0.3131843183387717 -2.217827088832791 -2.2194802147226973 -0.008179933726190749 0.0 0.0 0.0 0.0 0.0 0.0
4857.24 -8.881784197001252e-16 -1.5707963267948966 1.5707963267948966 -1.5707963267948966 -1.5707963267948966 0.0 0.0 0.0 -0.0 0.0 0.0 0.0 0.0 0.0 0.0 0.0 0.0 0.0 2.7100081908582143e-27 -0.620381750820575 -0.8463465614411209 -0.2525548825603051 -1.4392506443496177e-11 0.0 3.110005232743317e-26 -7.1458666999402505 -7.145866699940252 -1.0424175499402515 -5.974879480466362e-11 0.0 1.1984225238848012e-05 -1.5707600752459925 1.5708370208740234 -1.5707724730121058 -1.5708625952350062 3.5952674807049334e-05 0.0 0.0 -0.0 0.0 0.0 0.0 0.02243042178452015 -0.5809479355812073 -0.7457451224327087 -0.374862939119339 -0.05818767845630646 0.134279265999794 0.02018737979233265 -0.5988922715187073 -0.7365949153900146 -0.3703869581222534 -0.05706868693232536 0.1365172564983368 -0.29842936082331806 -0.11275311738890659 0.3131593492469318 -2.2178705379149544 -2.2194703854775026 -0.00836519852800899 0.0 0.0 0.0 0.0 0.0 0.0 -1.8132477426690563 2.338844592078753 7.131960386624271 -0.46708935297637105 -1.3273317017012585 0.6138163309580922 -0.29843019350298383 -0.11275507530515122 0.3131843183387717 -2.217827088832791 -2.2194802147226973 -0.008179933726190749 0.0 0.0 0.0 0.0 0.0 0.0
4857.248 -8.881784197001252e-16 -1.5707963267948966 1.5707963267948966 -1.5707963267948966 -1.5707963267948966 0.0 0.0 0.0 -0.0 0.0 0.0 0.0 0.0 0.0 0.0 0.0 0.0 0.0 2.7100081908582143e-27 -0.620381750820575 -0.8463465614411209 -0.2525548825603051 -1.4392506443496177e-11 0.0 3.110005232743317e-26 -7.1458666999402505 -7.145866699940252 -1.0424175499402515 -5.974879480466362e-11 0.0 3.5952674807049334e-05 -1.570796314870016 1.5708131790161133 -1.570820156727926 -1.5708625952350062 2.3968450477696024e-05 0.0 0.0 -0.0 0.0 0.0 0.0 0.011215210892260075 -0.5921631455421448 -0.7396449446678162 -0.3759819269180298 -0.05706868693232536 0.13316026329994202 0.01794433780014515 -0.5988922715187073 -0.7411699891090393 -0.3703869581222534 -0.05259270966053009 0.1353982537984848 -0.298426714982273 -0.11276034426040968 0.3131813576602937 -2.2177769125971376 -2.2194566833049225 -0.008245343279915312 0.0 0.0 0.0 0.0 0.0 0.0 -2.641020561832203 1.523319417442513 7.423780115969483 -0.39478203421896574 -1.426072778624689 0.6080951467143958 -0.29843019350298383 -0.11275507530515122 0.3131843183387717 -2.217827088832791 -2.2194802147226973 -0.008179933726190749 0.0 0.0 0.0 0.0 0.0 0.0
4857.255999999999 -8.881784197001252e-16 -1.5707963267948966 1.5707963267948966 -1.5707963267948966 -1.5707963267948966 0.0 0.0 0.0 -0.0 0.0 0.0 0.0 0.0 0.0 0.0 0.0 0.0 0.0 2.7100081908582143e-27 -0.620381750820575 -0.8463465614411209 -0.2525548825603051 -1.4392506443496177e-11 0.0 3.110005232743317e-26 -7.1458666999402505 -7.145866699940252 -1.0424175499402515 -5.974879480466362e-11 0.0 -2.366701234990387e-05 -1.5707724730121058 1.5708250999450684 -1.5708320776568812 -1.5708263556109827 1.1984225238848012e-05 0.0 0.0 -0.0 0.0 0.0 0.0 0.0269165076315403 -0.5988922715187073 -0.7365949153900146 -0.3715059459209442 -0.05371170490980148 0.1365172564983368 0.02467346377670765 -0.5988922715187073 -0.7411699891090393 -0.3703869581222534 -0.054830700159072876 0.1353982537984848 -0.2984372758214103 -0.11274552223912893 0.3131716751470698 -2.2178598667910085 -2.2194341983309718 -0.00823191723128808 0.0 0.0 0.0 0.0 0.0 0.0 -3.117153073172067 2.0722415459871284 7.462706792188518 -0.4244644986059233 -1.4476504338454326 0.6235436722225292 -0.29843019350298383 -0.11275507530515122 0.3131843183387717 -2.217827088832791 -2.2194802147226973 -0.008179933726190749 0.0 0.0 0.0 0.0 0.0 0.0
4857.264 -8.881784197001252e-16 -1.5707963267948966 1.5707963267948966 -1.5707963267948966 -1.5707963267948966 0.0 0.0 0.0 -0.0 0.0 0.0 0.0 0.0 0.0 0.0 0.0 0.0 0.0 2.7100081908582143e-27 -0.620381750820575 -0.8463465614411209 -0.2525548825603051 -1.4392506443496177e-11 0.0 3.110005232743317e-26 -7.1458666999402505 -7.145866699940252 -1.0424175499402515 -5.974879480466362e-11 0.0 2.3968450477696024e-05 -1.570796314870016 1.5708250999450684 -1.570808235798971 -1.5708144346820276 2.3968450477696024e-05 0.0 0.0 -0.0 0.0 0.0 0.0 0.02467346377670765 -0.5921631455421448 -0.7457451224327087 -0.3703869581222534 -0.05818767845630646 0.134279265999794 0.02467346377670765 -0.5988922715187073 -0.7396449446678162 -0.3703869581222534 -0.05818767845630646 0.1353982537984848 -0.29842609540677034 -0.11276071212899598 0.3131767500707835 -2.217826290431982 -2.2194794578616497 -0.008218581431992524 0.0 0.0 0.0 0.0 0.0 0.0 -2.406397544042099 2.2113592290064683 7.033709732671168 -0.4564563234681088 -1.347205898158544 0.6138002119465309 -0.29843019350298383 -0.11275507530515122 0.3131843183387717 -2.217827088832791 -2.2194802147226973 -0.008179933726190749 0.0 0.0 0.0 0.0 0.0 0.0
4857.272 -8.881784197001252e-16 -1.5707963267948966 1.5707963267948966 -1.5707963267948966 -1.5707963267948966 0.0 0.0 0.0 -0.0 0.0 0.0 0.0 0.0 0.0 0.0 0.0 0.0 0.0 2.7100081908582143e-27 -0.620381750820575 -0.8463465614411209 -0.2525548825603051 -1.4392506443496177e-11 0.0 3.110005232743317e-26 -7.1458666999402505 -7.145866699940252 -1.0424175499402515 -5.974879480466362e-11 0.0 1.1984225238848012e-05 -1.5707600752459925 1.5708250999450684 -1.5707724730121058 -1.5708382765399378 -1.1746083394825746e-05 0.0 0.0 -0.0 0.0 0.0 0.0 0.0314025916159153 -0.5876770615577698 -0.7274446487426758 -0.3681489825248718 -0.05818767845630646 0.134279265999794 0.02467346377670765 -0.5988922715187073 -0.7396449446678162 -0.3703869581222534 -0.05594969168305397 0.1353982537984848 -0.2984303454444886 -0.11275513387993054 0.31316289389168644 -2.2178239558273742 -2.2195296701671428 -0.00832516989761893 0.0 0.0 0.0 0.0 0.0 0.0 -2.879299560428774 2.320536361430922 7.796914280983412 -0.46595623330070046 -1.4408594389198084 0.6131161991673278 -0.29843019350298383 -0.11275507530515122 0.3131843183387717 -2.217827088832791 -2.2194802147226973 -0.008179933726190749 0.0 0.0 0.0 0.0 0.0 0.0
4857.28 -8.881784197001252e-16 -1.5707963267948966 1.5707963267948966 -1.5707963267948966 -1.5707963267948966 0.0 0.0 0.0 -0.0 0.0 0.0 0.0 0.0 0.0 0.0 0.0 0.0 0.0 2.7100081908582143e-27 -0.620381750820575 -0.8463465614411209 -0.2525548825603051 -1.4392506443496177e-11 0.0 3.110005232743317e-26 -7.1458666999402505 -7.145866699940252 -1.0424175499402515 -5.974879480466362e-11 0.0 -1.1746083394825746e-05 -1.570796314870016 1.5708489418029785 -1.5707724730121058 -1.5708263556109827 -1.1746083394825746e-05 0.0 0.0 -0.0 0.0 0.0 0.0 0.0291595496237278 -0.5899201035499573 -0.7426950335502625 -0.3692679703235626 -0.05930667370557785 0.1353982537984848 0.02243042178452015 -0.5988922715187073 -0.7396449446678162 -0.3703869581222534 -0.05706868693232536 0.1353982537984848 -0.2984252049053134 -0.11274901990548747 0.31316658511362494 -2.217850221605896 -2.219503116079822 -0.008298296566746516 0.0 0.0 0.0 0.0 0.0 0.0 -2.406424853794127 2.4219570367693053 7.145368354278164 -0.47916056662095585 -1.351453684465736 0.6188982802375179 -0.29843019350298383 -0.11275507530515122 0.3131843183387717 -2.217827088832791 -2.2194802147226973 -0.008179933726190749 0.0 0.0 0.0 0.0 0.0 0.0
4857.288 -8.881784197001252e-16 -1.5707963267948966 1.5707963267948966 -1.5707963267948966 -1.5707963267948966 0.0 0.0 0.0 -0.0 0.0 0.0 0.0 0.0 0.0 0.0 0.0 0.0 0.0 2.7100081908582143e-27 -0.620381750820575 -0.8463465614411209 -0.2525548825603051 -1.4392506443496177e-11 0.0 3.110005232743317e-26 -7.1458666999402505 -7.145866699940252 -1.0424175499402515 -5.974879480466362e-11 0.0 0.0 -1.570796314870016 1.5708131790161133 -1.570820156727926 -1.5708625952350062 1.1984225238848012e-05 0.0 0.0 -0.0 0.0 0.0 0.0 0.01345825381577015 -0.5876770615577698 -0.7335448265075684 -0.3726249635219574 -0.05706868693232536 0.1365172564983368 0.02467346377670765 -0.5988922715187073 -0.7396449446678162 -0.3703869581222534 -0.05706868693232536 0.1353982537984848 -0.2984307688253881 -0.11274961494889868 0.3131813576602937 -2.2178035996721124 -2.219430193640068 -0.00824549339941246 0.0 0.0 0.0 0.0 0.0 0.0 -2.6403866809986445 1.67246220420528 7.622286745991238 -0.4072307881089878 -1.4274388466622026 0.6236490126612526 -0.29843019350298383 -0.11275507530515122 0.3131843183387717 -2.217827088832791 -2.2194802147226973 -0.008179933726190749 0.0 0.0 0.0 0.0 0.0 0.0
4857.295999999999 -8.881784197001252e-16 -1.5707963267948966 1.5707963267948966 -1.5707963267948966 -1.5707963267948966 0.0 0.0 0.0 -0.0 0.0 0.0 0.0 0.0 0.0 0.0 0.0 0.0 0.0 2.7100081908582143e-27 -0.620381750820575 -0.8463465614411209 -0.2525548825603051 -1.4392506443496177e-11 0.0 3.110005232743317e-26 -7.1458666999402505 -7.145866699940252 -1.0424175499402515 -5.974879480466362e-11 0.0 1.1984225238848012e-05 -1.570808235798971 1.570765495300293 -1.570820156727926 -1.570850674306051 0.0 0.0 0.0 -0.0 0.0 0.0 0.0 0.02018737979233265 -0.5921631455421448 -0.7396449446678162 -0.3681489825248718 -0.05930667370557785 0.134279265999794 0.02467346377670765 -0.5988922715187073 -0.7396449446678162 -0.3703869581222534 -0.05706868693232536 0.1353982537984848 -0.29843143740405437 -0.1127542323202989 0.3131991488731832 -2.2177533273335115 -2.2194330772923725 -0.008166047590617322 0.0 0.0 0.0 0.0 0.0 0.0 -2.642060596044872 1.928313162293777 7.255077599612681 -0.43846916743105363 -1.3753522865229924 0.6136211694677247 -0.29843019350298383 -0.11275507530515122 0.3131843183387717 -2.217827088832791 -2.2194802147226973 -0.008179933726190749 0.0 0.0 0.0 0.0 0.0 0.0
4857.304 -8.881784197001252e-16 -1.5707963267948966 1.5707963267948966 -1.5707963267948966 -1.5707963267948966 0.0 0.0 0.0 -0.0 0.0 0.0 0.0 0.0 0.0 0.0 0.0 0.0 0.0 2.7100081908582143e-27 -0.620381750820575 -0.8463465614411209 -0.2525548825603051 -1.4392506443496177e-11 0.0 3.110005232743317e-26 -7.1458666999402505 -7.145866699940252 -1.0424175499402515 -5.974879480466362e-11 0.0 2.3968450477696024e-05 -1.570796314870016 1.5708131790161133 -1.5707724730121058 -1.5708144346820276 3.5952674807049334e-05 0.0 0.0 -0.0 0.0 0.0 0.0 0.02467346377670765 -0.5764618515968323 -0.7381199598312378 -0.36702999472618103 -0.05818767845630646 0.134279265999794 0.02243042178452015 -0.5988922715187073 -0.7396449446678162 -0.3703869581222534 -0.05706868693232536 0.1353982537984848 -0.29842413510718785 -0.1127607008256259 0.3131772573632543 -2.217851537526799 -2.2194778760062097 -0.008245085247507847 0.0 0.0 0.0 0.0 0.0 0.0 -1.8715682041467807 2.414173660979814 7.300663970700608 -0.47333516484210236 -1.310275474517725 0.6140128400797382 -0.29843019350298383 -0.11275507530515122 0.3131843183387717 -2.217827088832791 -2.2194802147226973 -0.008179933726190749 0.0 0.0 0.0 0.0 0.0 0.0
4857.312 -8.881784197001252e-16 -1.5707963267948966 1.5707963267948966 -1.5707963267948966 -1.5707963267948966 0.0 0.0 0.0 -0.0 0.0 0.0 0.0 0.0 0.0 0.0 0.0 0.0 0.0 2.7100081908582143e-27 -0.620381750820575 -0.8463465614411209 -0.2525548825603051 -1.4392506443496177e-11 0.0 3.110005232743317e-26 -7.1458666999402505 -7.145866699940252 -1.0424175499402515 -5.974879480466362e-11 0.0 3.5952674807049334e-05 -1.5707724730121058 1.5708131790161133 -1.570796314870016 -1.5708144346820276 1.1984225238848012e-05 0.0 0.0 -0.0 0.0 0.0 0.0 0.01794433780014515 -0.5742188096046448 -0.7411699891090393 -0.374862939119339 -0.05818767845630646 0.13204127550125122 0.01794433780014515 -0.5988922715187073 -0.7396449446678162 -0.3715059459209442 -0.05706868693232536 0.1353982537984848 -0.2984285924522083 -0.11276428521332567 0.31317217501221645 -2.217811542646071 -2.2195179272048207 -0.008245076060985682 0.0 0.0 0.0 0.0 0.0 0.0 -1.6340714917375863 2.1785663546184564 7.334846538065385 -0.4539088931353981 -1.3299430124198 0.6035210686881369 -0.29843019350298383 -0.11275507530515122 0.3131843183387717 -2.217827088832791 -2.2194802147226973 -0.008179933726190749 0.0 0.0 0.0 0.0 0.0 0.0
4857.32 -8.881784197001252e-16 -1.5707963267948966 1.5707963267948966 -1.5707963267948966 -1.5707963267948966 0.0 0.0 0.0 -0.0 0.0 0.0 0.0 0.0 0.0 0.0 0.0 0.0 0.0 2.7100081908582143e-27 -0.620381750820575 -0.8463465614411209 -0.2525548825603051 -1.4392506443496177e-11 0.0 3.110005232743317e-26 -7.1458666999402505 -7.145866699940252 -1.0424175499402515 -5.974879480466362e-11 0.0 -3.5587941304981996e-05 -1.5707600752459925 1.5708370208740234 -1.5707724730121058 -1.5708382765399378 -1.1746083394825746e-05 0.0 0.0 -0.0 0.0 0.0 0.0 0.02467346377670765 -0.5854340195655823 -0.7381199598312378 -0.3703869581222534 -0.054830700159072876 0.1365172564983368 0.02243042178452015 -0.5988922715187073 -0.7396449446678162 -0.3703869581222534 -0.05706868693232536 0.1353982537984848 -0.29843472301429214 -0.11274092312959114 0.3131593340351086 -2.217882773774836 -2.2194829356579215 -0.00833856806536645 0.0 0.0 0.0 0.0 0.0 0.0 -2.3461661265064206 2.2682773162255807 7.372367300407144 -0.44584488511136444 -1.3711100518961592 0.6239674584658658 -0.29843019350298383 -0.11275507530515122 0.3131843183387717 -2.217827088832791 -2.2194802147226973 -0.008179933726190749 0.0 0.0 0.0 0.0 0.0 0.0
4857.3279999999995 -8.881784197001252e-16 -1.5707963267948966 1.5707963267948966 -1.5707963267948966 -1.5707963267948966 0.0 0.0 0.0 -0.0 0.0 0.0 0.0 0.0 0.0 0.0 0.0 0.0 0.0 2.7100081908582143e-27 -0.620381750820575 -0.8463465614411209 -0.2525548825603051 -1.4392506443496177e-11 0.0 3.110005232743317e-26 -7.1458666999402505 -7.145866699940252 -1.0424175499402515 -5.974879480466362e-11 0.0 2.3968450477696024e-05 -1.5707724730121058 1.5708131790161133 -1.570796314870016 -1.5708625952350062 -2.366701234990387e-05 0.0 0.0 -0.0 0.0 0.0 0.0 0.02018737979233265 -0.5966492295265198 -0.7365949153900146 -0.3703869581222534 -0.06042566895484924 0.13092228770256042 0.0269165076315403 -0.5988922715187073 -0.7396449446678162 -0.3703869581222534 -0.05706868693232536 0.1353982537984848 -0.2984299467944361 -0.11275674244138785 0.31317220509024224 -2.2177612133357334 -2.219520036193393 -0.0082985400980544 0.0 0.0 0.0 0.0 0.0 0.0 -2.997694618909146 1.7403547430715252 7.437609763828642 -0.42835281215294874 -1.4305622556382886 0.5976326398690304 -0.29843019350298383 -0.11275507530515122 0.3131843183387717 -2.217827088832791 -2.2194802147226973 -0.008179933726190749 0.0 0.0 0.0 0.0 0.0 0.0
4857.335999999999 -8.881784197001252e-16 -1.5707963267948966 1.5707963267948966 -1.5707963267948966 -1.5707963267948966 0.0 0.0 0.0 -0.0 0.0 0.0 0.0 0.0 0.0 0.0 0.0 0.0 0.0 2.7100081908582143e-27 -0.620381750820575 -0.8463465614411209 -0.2525548825603051 -1.4392506443496177e-11 0.0 3.110005232743317e-26 -7.1458666999402505 -7.145866699940252 -1.0424175499402515 -5.974879480466362e-11 0.0 -1.1746083394825746e-05 -1.5707600752459925 1.5708370208740234 -1.5707724730121058 -1.5708745161639612 0.0 0.0 0.0 -0.0 0.0 0.0 0.0 0.01794433780014515 -0.5944061875343323 -0.7411699891090393 -0.3737439513206482 -0.05930667370557785 0.13316026329994202 0.02467346377670765 -0.5988922715187073 -0.7396449446678162 -0.3703869581222534 -0.05706868693232536 0.1353982537984848 -0.29843203710613725 -0.11274505377201247 0.31315935672149714 -2.2178511071881415 -2.219478055826896 -0.008378579155298318 0.0 0.0 0.0 0.0 0.0 0.0 -2.7015623407523344 1.7907139823914533 7.307972715482652 -0.42729364285170635 -1.410634352775542 0.6081038871784357 -0.29843019350298383 -0.11275507530515122 0.3131843183387717 -2.217827088832791 -2.2194802147226973 -0.008179933726190749 0.0 0.0 0.0 0.0 0.0 0.0
4857.344 -8.881784197001252e-16 -1.5707963267948966 1.5707963267948966 -1.5707963267948966 -1.5707963267948966 0.0 0.0 0.0 -0.0 0.0 0.0 0.0 0.0 0.0 0.0 0.0 0.0 0.0 2.7100081908582143e-27 -0.620381750820575 -0.8463465614411209 -0.2525548825603051 -1.4392506443496177e-11 0.0 3.110005232743317e-26 -7.1458666999402505 -7.145866699940252 -1.0424175499402515 -5.974879480466362e-11 0.0 2.3968450477696024e-05 -1.5707839171039026 1.5707893371582031 -1.570808235798971 -1.5708745161639612 1.1984225238848012e-05 0.0 0.0 -0.0 0.0 0.0 0.0 0.0269165076315403 -0.5988922715187073 -0.7320197820663452 -0.3715059459209442 -0.06042566895484924 0.1353982537984848 0.02467346377670765 -0.5988922715187073 -0.7396449446678162 -0.3703869581222534 -0.05706868693232536 0.1353982537984848 -0.2984310559574369 -0.1127558006087 0.31318376638365797 -2.2177712213009046 -2.2194509632502055 -0.008259145589979592 0.0 0.0 0.0 0.0 0.0 0.0 -3.2943114323380702 1.986872005974354 7.66552100494186 -0.44875722579748956 -1.479644381346022 0.6180615330630824 -0.29843019350298383 -0.11275507530515122 0.3131843183387717 -2.217827088832791 -2.2194802147226973 -0.008179933726190749 0.0 0.0 0.0 0.0 0.0 0.0
4857.352 -8.881784197001252e-16 -1.5707963267948966 1.5707963267948966 -1.5707963267948966 -1.5707963267948966 0.0 0.0 0.0 -0.0 0.0 0.0 0.0 0.0 0.0 0.0 0.0 0.0 0.0 2.7100081908582143e-27 -0.620381750820575 -0.8463465614411209 -0.2525548825603051 -1.4392506443496177e-11 0.0 3.110005232743317e-26 -7.1458666999402505 -7.145866699940252 -1.0424175499402515 -5.974879480466362e-11 0.0 -2.366701234990387e-05 -1.570820156727926 1.5707893371582031 -1.570796314870016 -1.570850674306051 2.3968450477696024e-05 0.0 0.0 -0.0 0.0 0.0 0.0 0.02467346377670765 -0.6033783555030823 -0.7320197820663452 -0.3703869581222534 -0.05706868693232536 0.13316026329994202 0.02467346377670765 -0.5988922715187073 -0.7396449446678162 -0.3703869581222534 -0.05706868693232536 0.1353982537984848 -0.2984295991699646 -0.11274355336217158 0.3131935523473452 -2.2178374087681783 -2.2193846552759173 -0.008205874815796625 0.0 0.0 0.0 0.0 0.0 0.0 -3.530954907291587 1.7661006205011733 7.640264230107912 -0.4149676161817341 -1.4918275081401224 0.6076749142403902 -0.29843019350298383 -0.11275507530515122 0.3131843183387717 -2.217827088832791 -2.2194802147226973 -0.008179933726190749 0.0 0.0 0.0 0.0 0.0 0.0
4857.36 -8.881784197001252e-16 -1.5707963267948966 1.5707963267948966 -1.5707963267948966 -1.5707963267948966 0.0 0.0 0.0 -0.0 0.0 0.0 0.0 0.0 0.0 0.0 0.0 0.0 0.0 2.7100081908582143e-27 -0.620381750820575 -0.8463465614411209 -0.2525548825603051 -1.4392506443496177e-11 0.0 3.110005232743317e-26 -7.1458666999402505 -7.145866699940252 -1.0424175499402515 -5.974879480466362e-11 0.0 1.1984225238848012e-05 -1.570820156727926 1.5708613395690918 -1.5707724730121058 -1.5708382765399378 0.0 0.0 0.0 -0.0 0.0 0.0 0.0 0.02243042178452015 -0.6123505234718323 -0.7350698709487915 -0.36255401372909546 -0.06266365945339203 0.13204127550125122 0.02467346377670765 -0.5988922715187073 -0.7396449446678162 -0.3703869581222534 -0.05706868693232536 0.1353982537984848 -0.29841766012311444 -0.11275511436470415 0.3131700074930472 -2.21782523211116 -2.219504577222878 -0.008298685047593006 0.0 0.0 0.0 0.0 0.0 0.0 -3.887005606628211 1.5180223874798582 7.333541298364372 -0.42044168942881605 -1.4588590225890583 0.6026715492924786 -0.29843019350298383 -0.11275507530515122 0.3131843183387717 -2.217827088832791 -2.2194802147226973 -0.008179933726190749 0.0 0.0 0.0 0.0 0.0 0.0
4857.3679999999995 -8.881784197001252e-16 -1.5707963267948966 1.5707963267948966 -1.5707963267948966 -1.5707963267948966 0.0 0.0 0.0 -0.0 0.0 0.0 0.0 0.0 0.0 0.0 0.0 0.0 0.0 2.7100081908582143e-27 -0.620381750820575 -0.8463465614411209 -0.2525548825603051 -1.4392506443496177e-11 0.0 3.110005232743317e-26 -7.1458666999402505 -7.145866699940252 -1.0424175499402515 -5.974879480466362e-11 0.0 3.5952674807049334e-05 -1.5708320776568812 1.5708489418029785 -1.5707600752459925 -1.5708864370929163 0.0 0.0 0.0 -0.0 0.0 0.0 0.0 0.02243042178452015 -0.6033783555030823 -0.7518453001976013 -0.3737439513206482 -0.05259270966053009 0.13316026329994202 0.02467346377670765 -0.5988922715187073 -0.7396449446678162 -0.3703869581222534 -0.05706868693232536 0.1353982537984848 -0.2984130422412259 -0.11275831053598884 0.31317624030719954 -2.2177685594025203 -2.2195008747307305 -0.008338697954312264 0.0 0.0 0.0 0.0 0.0 0.0 -2.7626737317056063 1.9618965403377884 6.834476671839049 -0.40979568062420146 -1.3751344953392737 0.6083570364086124 -0.29843019350298383 -0.11275507530515122 0.3131843183387717 -2.217827088832791 -2.2194802147226973 -0.008179933726190749 0.0 0.0 0.0 0.0 0.0 0.0
4857.376 -8.881784197001252e-16 -1.5707963267948966 1.5707963267948966 -1.5707963267948966 -1.5707963267948966 0.0 0.0 0.0 -0.0 0.0 0.0 0.0 0.0 0.0 0.0 0.0 0.0 0.0 2.7100081908582143e-27 -0.620381750820575 -0.8463465614411209 -0.2525548825603051 -1.4392506443496177e-11 0.0 3.110005232743317e-26 -7.1458666999402505 -7.145866699940252 -1.0424175499402515 -5.974879480466362e-11 0.0 2.3968450477696024e-05 -1.570808235798971 1.5708250999450684 -1.570808235798971 -1.5708263556109827 -3.5587941304981996e-05 0.0 0.0 -0.0 0.0 0.0 0.0 0.02018737979233265 -0.5876770615577698 -0.7457451224327087 -0.3726249635219574 -0.051473718136548996 0.134279265999794 0.02243042178452015 -0.5988922715187073 -0.7396449446678162 -0.3703869581222534 -0.05706868693232536 0.1353982537984848 -0.2984241738198956 -0.1127597347276908 0.31318031618221776 -2.21774842006691 -2.2195336463178736 -0.00821872222643503 0.0 0.0 0.0 0.0 0.0 0.0 -2.1686137422928713 2.107999718266241 7.082272421475654 -0.41671229118054004 -1.342126978421013 0.6138587710724602 -0.29843019350298383 -0.11275507530515122 0.3131843183387717 -2.217827088832791 -2.2194802147226973 -0.008179933726190749 0.0 0.0 0.0 0.0 0.0 0.0
4857.384 -8.881784197001252e-16 -1.5707963267948966 1.5707963267948966 -1.5707963267948966 -1.5707963267948966 0.0 0.0 0.0 -0.0 0.0 0.0 0.0 0.0 0.0 0.0 0.0 0.0 0.0 2.7100081908582143e-27 -0.620381750820575 -0.8463465614411209 -0.2525548825603051 -1.4392506443496177e-11 0.0 3.110005232743317e-26 -7.1458666999402505 -7.145866699940252 -1.0424175499402515 -5.974879480466362e-11 0.0 3.5952674807049334e-05 -1.570808235798971 1.5708250999450684 -1.570796314870016 -1.570850674306051 1.1984225238848012e-05 0.0 0.0 -0.0 0.0 0.0 0.0 0.02018737979233265 -0.6033783555030823 -0.7411699891090393 -0.3726249635219574 -0.05371170490980148 0.1376362442970276 0.02467346377670765 -0.5988922715187073 -0.7396449446678162 -0.3703869581222534 -0.05706868693232536 0.1353982537984848 -0.2984218419335079 -0.11276129995480978 0.31317931380958663 -2.217781576687269 -2.2194877283143764 -0.008258723640088225 0.0 0.0 0.0 0.0 0.0 0.0 -3.176124130537117 1.7772263304369094 7.283277634579605 -0.40000743276163764 -1.442583600477557 0.6287554272673478 -0.29843019350298383 -0.11275507530515122 0.3131843183387717 -2.217827088832791 -2.2194802147226973 -0.008179933726190749 0.0 0.0 0.0 0.0 0.0 0.0
4857.392 -8.881784197001252e-16 -1.5707963267948966 1.5707963267948966 -1.5707963267948966 -1.5707963267948966 0.0 0.0 0.0 -0.0 0.0 0.0 0.0 0.0 0.0 0.0 0.0 0.0 0.0 2.7100081908582143e-27 -0.620381750820575 -0.8463465614411209 -0.2525548825603051 -1.4392506443496177e-11 0.0 3.110005232743317e-26 -7.1458666999402505 -7.145866699940252 -1.0424175499402515 -5.974879480466362e-11 0.0 4.793690095539205e-05 -1.5707481543170374 1.5707893371582031 -1.5707600752459925 -1.5708144346820276 -1.1746083394825746e-05 0.0 0.0 -0.0 0.0 0.0 0.0 0.02467346377670765 -0.6123505234718323 -0.7381199598312378 -0.3703869581222534 -0.06154466047883034 0.13092228770256042 0.02467346377670765 -0.5988922715187073 -0.7396449446678162 -0.3703869581222534 -0.05706868693232536 0.1353982537984848 -0.29843014876741997 -0.11276785487594185 0.3131689416873901 -2.2177902564613285 -2.2195757607590343 -0.008285943677257306 0.0 0.0 0.0 0.0 0.0 0.0 -3.769651099168795 1.6408956096038296 7.3685124400596465 -0.42529605542445237 -1.4883203742641504 0.5973139999305979 -0.29843019350298383 -0.11275507530515122 0.3131843183387717 -2.217827088832791 -2.2194802147226973 -0.008179933726190749 0.0 0.0 0.0 0.0 0.0 0.0
4857.4 -8.881784197001252e-16 -1.5707963267948966 1.5707963267948966 -1.5707963267948966 -1.5707963267948966 0.0 0.0 0.0 -0.0 0.0 0.0 0.0 0.0 0.0 0.0 0.0 0.0 0.0 2.7100081908582143e-27 -0.620381750820575 -0.8463465614411209 -0.2525548825603051 -1.4392506443496177e-11 0.0 3.110005232743317e-26 -7.1458666999402505 -7.145866699940252 -1.0424175499402515 -5.974879480466362e-11 0.0 2.3968450477696024e-05 -1.5707724730121058 1.5708131790161133 -1.570820156727926 -1.5708625952350062 3.5952674807049334e-05 0.0 0.0 -0.0 0.0 0.0 0.0 0.0291595496237278 -0.5988922715187073 -0.7350698709487915 -0.3726249635219574 -0.05371170490980148 0.1353982537984848 0.02467346377670765 -0.5988922715187073 -0.7396449446678162 -0.3703869581222534 -0.05706868693232536 0.1353982537984848 -0.2984319109328197 -0.11275675911276485 0.313174240176252 -2.2178153286108433 -2.2194420391843988 -0.008271825936491901 0.0 0.0 0.0 0.0 0.0 0.0 -3.1766095478216085 2.1284305181514838 7.554696016988714 -0.4291056561855689 -1.4655256019151564 0.6181789959249943 -0.29843019350298383 -0.11275507530515122 0.3131843183387717 -2.217827088832791 -2.2194802147226973 -0.008179933726190749 0.0 0.0 0.0 0.0 0.0 0.0
4857.407999999999 -8.881784197001252e-16 -1.5707963267948966 1.5707963267948966 -1.5707963267948966 -1.5707963267948966 0.0 0.0 0.0 -0.0 0.0 0.0 0.0 0.0 0.0 0.0 0.0 0.0 0.0 2.7100081908582143e-27 -0.620381750820575 -0.8463465614411209 -0.2525548825603051 -1.4392506443496177e-11 0.0 3.110005232743317e-26 -7.1458666999402505 -7.145866699940252 -1.0424175499402515 -5.974879480466362e-11 0.0 0.0 -1.5707724730121058 1.5708250999450684 -1.570820156727926 -1.5708625952350062 -1.1746083394825746e-05 0.0 0.0 -0.0 0.0 0.0 0.0 0.01570129580795765 -0.5854340195655823 -0.7442200779914856 -0.3715059459209442 -0.06042566895484924 0.13316026329994202 0.02018737979233265 -0.5988922715187073 -0.7396449446678162 -0.3703869581222534 -0.05706868693232536 0.1353982537984848 -0.2984336274890558 -0.11274959244998588 0.31317068024886724 -2.217795063064077 -2.2194744177552708 -0.008285301585876429 0.0 0.0 0.0 0.0 0.0 0.0 -2.108594938731901 1.9197287393624638 7.125341695837883 -0.44296623090134296 -1.3358073574534102 0.6086257933632638 -0.29843019350298383 -0.11275507530515122 0.3131843183387717 -2.217827088832791 -2.2194802147226973 -0.008179933726190749 0.0 0.0 0.0 0.0 0.0 0.0
4857.416 -8.881784197001252e-16 -1.5707963267948966 1.5707963267948966 -1.5707963267948966 -1.5707963267948966 0.0 0.0 0.0 -0.0 0.0 0.0 0.0 0.0 0.0 0.0 0.0 0.0 0.0 2.7100081908582143e-27 -0.620381750820575 -0.8463465614411209 -0.2525548825603051 -1.4392506443496177e-11 0.0 3.110005232743317e-26 -7.1458666999402505 -7.145866699940252 -1.0424175499402515 -5.974879480466362e-11 0.0 4.793690095539205e-05 -1.570796314870016 1.5708012580871582 -1.5707724730121058 -1.5708144346820276 3.5952674807049334e-05 0.0 0.0 -0.0 0.0 0.0 0.0 0.02243042178452015 -0.6033783555030823 -0.7365949153900146 -0.3692679703235626 -0.05818767845630646 0.134279265999794 0.02243042178452015 -0.5988922715187073 -0.7396449446678162 -0.3703869581222534 -0.05706868693232536 0.1353982537984848 -0.2984224182057709 -0.11276786728439755 0.3131808172790742 -2.2178189586150503 -2.2194984803768203 -0.008231758595866084 0.0 0.0 0.0 0.0 0.0 0.0 -3.35372184004414 1.7544468526175871 7.413106244370843 -0.4190215951047491 -1.452708478190865 0.6131454304331576 -0.29843019350298383 -0.11275507530515122 0.3131843183387717 -2.217827088832791 -2.2194802147226973 -0.008179933726190749 0.0 0.0 0.0 0.0 0.0 0.0
4857.424 -8.881784197001252e-16 -1.5707963267948966 1.5707963267948966 -1.5707963267948966 -1.5707963267948966 0.0 0.0 0.0 -0.0 0.0 0.0 0.0 0.0 0.0 0.0 0.0 0.0 0.0 2.7100081908582143e-27 -0.620381750820575 -0.8463465614411209 -0.2525548825603051 -1.4392506443496177e-11 0.0 3.110005232743317e-26 -7.1458666999402505 -7.145866699940252 -1.0424175499402515 -5.974879480466362e-11 0.0 0.0 -1.570796314870016 1.5708250999450684 -1.570796314870016 -1.5708263556109827 2.3968450477696024e-05 0.0 0.0 -0.0 0.0 0.0 0.0 0.01794433780014515 -0.6123505234718323 -0.7426950335502625 -0.3681489825248718 -0.05818767845630646 0.1353982537984848 0.02243042178452015 -0.5988922715187073 -0.7396449446678162 -0.3703869581222534 -0.05706868693232536 0.1353982537984848 -0.2984278166690203 -0.11275256920871594 0.31317573994916276 -2.217852923488697 -2.219452814052608 -0.008245117100830191 0.0 0.0 0.0 0.0 0.0 0.0 -3.5912012832649682 1.489079368813073 7.11703053366454 -0.3970676676210281 -1.441989641415341 0.6184095502778686 -0.29843019350298383 -0.11275507530515122 0.3131843183387717 -2.217827088832791 -2.2194802147226973 -0.008179933726190749 0.0 0.0 0.0 0.0 0.0 0.0
4857.432 -8.881784197001252e-16 -1.5707963267948966 1.5707963267948966 -1.5707963267948966 -1.5707963267948966 0.0 0.0 0.0 -0.0 0.0 0.0 0.0 0.0 0.0 0.0 0.0 0.0 0.0 2.7100081908582143e-27 -0.620381750820575 -0.8463465614411209 -0.2525548825603051 -1.4392506443496177e-11 0.0 3.110005232743317e-26 -7.1458666999402505 -7.145866699940252 -1.0424175499402515 -5.974879480466362e-11 0.0 0.0 -1.5707839171039026 1.5707893371582031 -1.570808235798971 -1.5708382765399378 1.1984225238848012e-05 0.0 0.0 -0.0 0.0 0.0 0.0 0.0291595496237278 -0.6145935654640198 -0.748795211315155 -0.36367300152778625 -0.06266365945339203 0.13316026329994202 0.0291595496237278 -0.5988922715187073 -0.7396449446678162 -0.3703869581222534 -0.05706868693232536 0.1353982537984848 -0.29843375628988367 -0.11275163221010889 0.3131837436973369 -2.217816037697541 -2.219442657200984 -0.008219101341622695 0.0 0.0 0.0 0.0 0.0 0.0 -3.4749317822942247 1.9828992993777996 6.750550655932353 -0.45836519409756293 -1.380119353121655 0.6083715280566238 -0.29843019350298383 -0.11275507530515122 0.3131843183387717 -2.217827088832791 -2.2194802147226973 -0.008179933726190749 0.0 0.0 0.0 0.0 0.0 0.0
4857.44 -8.881784197001252e-16 -1.5707963267948966 1.5707963267948966 -1.5707963267948966 -1.5707963267948966 0.0 0.0 0.0 -0.0 0.0 0.0 0.0 0.0 0.0 0.0 0.0 0.0 0.0 2.7100081908582143e-27 -0.620381750820575 -0.8463465614411209 -0.2525548825603051 -1.4392506443496177e-11 0.0 3.110005232743317e-26 -7.1458666999402505 -7.145866699940252 -1.0424175499402515 -5.974879480466362e-11 0.0 0.0 -1.5707724730121058 1.5708370208740234 -1.5708444754229944 -1.5708625952350062 0.0 0.0 0.0 -0.0 0.0 0.0 0.0 0.02018737979233265 -0.5921631455421448 -0.7304947376251221 -0.3726249635219574 -0.05259270966053009 0.13316026329994202 0.02467346377670765 -0.5988922715187073 -0.7396449446678162 -0.3703869581222534 -0.05706868693232536 0.1353982537984848 -0.29843464490484284 -0.11274959572696641 0.31316919612144367 -2.217801836501571 -2.219455291674119 -0.00827145854297431 0.0 0.0 0.0 0.0 0.0 0.0 -2.9968778901717923 1.7748142670375409 7.756947840391295 -0.3949175670832359 -1.4680973526747034 0.6078112225438117 -0.29843019350298383 -0.11275507530515122 0.3131843183387717 -2.217827088832791 -2.2194802147226973 -0.008179933726190749 0.0 0.0 0.0 0.0 0.0 0.0
4857.447999999999 -8.881784197001252e-16 -1.5707963267948966 1.5707963267948966 -1.5707963267948966 -1.5707963267948966 0.0 0.0 0.0 -0.0 0.0 0.0 0.0 0.0 0.0 0.0 0.0 0.0 0.0 2.7100081908582143e-27 -0.620381750820575 -0.8463465614411209 -0.2525548825603051 -1.4392506443496177e-11 0.0 3.110005232743317e-26 -7.1458666999402505 -7.145866699940252 -1.0424175499402515 -5.974879480466362e-11 0.0 3.5952674807049334e-05 -1.5708320776568812 1.570777416229248 -1.570808235798971 -1.5708144346820276 1.1984225238848012e-05 0.0 0.0 -0.0 0.0 0.0 0.0 0.0269165076315403 -0.6078644394874573 -0.7381199598312378 -0.36702999472618103 -0.05818767845630646 0.1365172564983368 0.02467346377670765 -0.5988922715187073 -0.7396449446678162 -0.3715059459209442 -0.05706868693232536 0.1353982537984848 -0.2984229197371363 -0.11276435640863534 0.3132016660227728 -2.2177582197888297 -2.2194644123129565 -0.008125849125191367 0.0 0.0 0.0 0.0 0.0 0.0 -3.532166866685756 1.915489417507869 7.297330507935619 -0.43218157144545233 -1.4471733068315944 0.6235929674081805 -0.29843019350298383 -0.11275507530515122 0.3131843183387717 -2.217827088832791 -2.2194802147226973 -0.008179933726190749 0.0 0.0 0.0 0.0 0.0 0.0
4857.456 -8.881784197001252e-16 -1.5707963267948966 1.5707963267948966 -1.5707963267948966 -1.5707963267948966 0.0 0.0 0.0 -0.0 0.0 0.0 0.0 0.0 0.0 0.0 0.0 0.0 0.0 2.7100081908582143e-27 -0.620381750820575 -0.8463465614411209 -0.2525548825603051 -1.4392506443496177e-11 0.0 3.110005232743317e-26 -7.1458666999402505 -7.145866699940252 -1.0424175499402515 -5.974879480466362e-11 0.0 3.5952674807049334e-05 -1.570796314870016 1.5708250999450684 -1.570796314870016 -1.5708144346820276 -1.1746083394825746e-05 0.0 0.0 -0.0 0.0 0.0 0.0 0.02018737979233265 -0.6056213974952698 -0.7320197820663452 -0.3692679703235626 -0.05371170490980148 0.13092228770256042 0.02467346377670765 -0.5988922715187073 -0.7396449446678162 -0.3715059459209442 -0.05706868693232536 0.1353982537984848 -0.29842376197259224 -0.11276428017873599 0.31317573252187764 -2.2177793689088534 -2.2195382818463165 -0.008231919040559827 0.0 0.0 0.0 0.0 0.0 0.0 -3.6493493835733157 1.4931005338513237 7.614716989844524 -0.3767910118053508 -1.4942753240896691 0.5973413211030121 -0.29843019350298383 -0.11275507530515122 0.3131843183387717 -2.217827088832791 -2.2194802147226973 -0.008179933726190749 0.0 0.0 0.0 0.0 0.0 0.0
4857.464 -8.881784197001252e-16 -1.5707963267948966 1.5707963267948966 -1.5707963267948966 -1.5707963267948966 0.0 0.0 0.0 -0.0 0.0 0.0 0.0 0.0 0.0 0.0 0.0 0.0 0.0 2.7100081908582143e-27 -0.620381750820575 -0.8463465614411209 -0.2525548825603051 -1.4392506443496177e-11 0.0 3.110005232743317e-26 -7.1458666999402505 -7.145866699940252 -1.0424175499402515 -5.974879480466362e-11 0.0 -2.366701234990387e-05 -1.570796314870016 1.5708131790161133 -1.570820156727926 -1.5708382765399378 -1.1746083394825746e-05 0.0 0.0 -0.0 0.0 0.0 0.0 0.01794433780014515 -0.5876770615577698 -0.7304947376251221 -0.374862939119339 -0.067139632999897 0.134279265999794 0.02467346377670765 -0.5988922715187073 -0.7396449446678162 -0.3703869581222534 -0.05706868693232536 0.1353982537984848 -0.29843343578380593 -0.11274455475213821 0.31318134244851653 -2.2178158123724527 -2.219442583213999 -0.008218718842064609 0.0 0.0 0.0 0.0 0.0 0.0 -2.7588902331577523 1.7855170947063004 7.806393580907253 -0.46352833505506685 -1.4632160156062264 0.6130175263336304 -0.29843019350298383 -0.11275507530515122 0.3131843183387717 -2.217827088832791 -2.2194802147226973 -0.008179933726190749 0.0 0.0 0.0 0.0 0.0 0.0
4857.472 -8.881784197001252e-16 -1.5707963267948966 1.5707963267948966 -1.5707963267948966 -1.5707963267948966 0.0 0.0 0.0 -0.0 0.0 0.0 0.0 0.0 0.0 0.0 0.0 0.0 0.0 2.7100081908582143e-27 -0.620381750820575 -0.8463465614411209 -0.2525548825603051 -1.4392506443496177e-11 0.0 3.110005232743317e-26 -7.1458666999402505 -7.145866699940252 -1.0424175499402515 -5.974879480466362e-11 0.0 2.3968450477696024e-05 -1.5708320776568812 1.5708250999450684 -1.5707481543170374 -1.5708745161639612 -2.366701234990387e-05 0.0 0.0 -0.0 0.0 0.0 0.0 0.0269165076315403 -0.5944061875343323 -0.7411699891090393 -0.36702999472618103 -0.05259270966053009 0.13204127550125122 0.02467346377670765 -0.5988922715187073 -0.7396449446678162 -0.3703869581222534 -0.05706868693232536 0.1353982537984848 -0.2984153824798472 -0.11275573511465516 0.3131823351032221 -2.2177557373978942 -2.2195139180025896 -0.008312371224151035 0.0 0.0 0.0 0.0 0.0 0.0 -2.702408322915018 2.1609069021061234 7.163218613405615 -0.42639392970786455 -1.3670164522054373 0.6032243959857322 -0.29843019350298383 -0.11275507530515122 0.3131843183387717 -2.217827088832791 -2.2194802147226973 -0.008179933726190749 0.0 0.0 0.0 0.0 0.0 0.0
4857.48 -8.881784197001252e-16 -1.5707963267948966 1.5707963267948966 -1.5707963267948966 -1.5707963267948966 0.0 0.0 0.0 -0.0 0.0 0.0 0.0 0.0 0.0 0.0 0.0 0.0 0.0 2.7100081908582143e-27 -0.620381750820575 -0.8463465614411209 -0.2525548825603051 -1.4392506443496177e-11 0.0 3.110005232743317e-26 -7.1458666999402505 -7.145866699940252 -1.0424175499402515 -5.974879480466362e-11 0.0 0.0 -1.570808235798971 1.5708370208740234 -1.570796314870016 -1.5708263556109827 -3.5587941304981996e-05 0.0 0.0 -0.0 0.0 0.0 0.0 0.01794433780014515 -0.5876770615577698 -0.7411699891090393 -0.3681489825248718 -0.05371170490980148 0.1353982537984848 0.02467346377670765 -0.5988922715187073 -0.7396449446678162 -0.3703869581222534 -0.05706868693232536 0.1365172564983368 -0.29842490845669306 -0.11275255993825262 0.3131757386941362 -2.2177869680451954 -2.2195189304523044 -0.008245312425490087 0.0 0.0 0.0 0.0 0.0 0.0 -2.3455398310269353 1.9617894238133635 7.187688511172731 -0.4152045514917635 -1.3451043276427823 0.6190221237605846 -0.29843019350298383 -0.11275507530515122 0.3131843183387717 -2.217827088832791 -2.2194802147226973 -0.008179933726190749 0.0 0.0 0.0 0.0 0.0 0.0
4857.487999999999 -8.881784197001252e-16 -1.5707963267948966 1.5707963267948966 -1.5707963267948966 -1.5707963267948966 0.0 0.0 0.0 -0.0 0.0 0.0 0.0 0.0 0.0 0.0 0.0 0.0 0.0 2.7100081908582143e-27 -0.620381750820575 -0.8463465614411209 -0.2525548825603051 -1.4392506443496177e-11 0.0 3.110005232743317e-26 -7.1458666999402505 -7.145866699940252 -1.0424175499402515 -5.974879480466362e-11 0.0 1.1984225238848012e-05 -1.570796314870016 1.5708250999450684 -1.5707724730121058 -1.5708382765399378 4.793690095539205e-05 0.0 0.0 -0.0 0.0 0.0 0.0 0.02018737979233265 -0.5854340195655823 -0.7289696931838989 -0.3715059459209442 -0.05818767845630646 0.1353982537984848 0.02467346377670765 -0.5988922715187073 -0.7396449446678162 -0.3703869581222534 -0.05706868693232536 0.134279265999794 -0.29842450195607706 -0.11275514721460457 0.3131737123255081 -2.2178721141301962 -2.2194452352061305 -0.008284732126307823 0.0 0.0 0.0 0.0 0.0 0.0 -2.699883634760436 1.9223366976774234 7.801530896830231 -0.4331305820317565 -1.442277120020274 0.618346534724481 -0.29843019350298383 -0.11275507530515122 0.3131843183387717 -2.217827088832791 -2.2194802147226973 -0.008179933726190749 0.0 0.0 0.0 0.0 0.0 0.0
4857.496 -8.881784197001252e-16 -1.5707963267948966 1.5707963267948966 -1.5707963267948966 -1.5707963267948966 0.0 0.0 0.0 -0.0 0.0 0.0 0.0 0.0 0.0 0.0 0.0 0.0 0.0 2.7100081908582143e-27 -0.620381750820575 -0.8463465614411209 -0.2525548825603051 -1.4392506443496177e-11 0.0 3.110005232743317e-26 -7.1458666999402505 -7.145866699940252 -1.0424175499402515 -5.974879480466362e-11 0.0 3.5952674807049334e-05 -1.5707839171039026 1.5708131790161133 -1.5707481543170374 -1.570850674306051 1.1984225238848012e-05 0.0 0.0 -0.0 0.0 0.0 0.0 0.02018737979233265 -0.6190796494483948 -0.7396449446678162 -0.3681489825248718 -0.05706868693232536 0.13204127550125122 0.02467346377670765 -0.5988922715187073 -0.7396449446678162 -0.3703869581222534 -0.05706868693232536 0.1353982537984848 -0.29842278168723557 -0.11276127109272926 0.31317150323233556 -2.2178118062583043 -2.21951775386418 -0.008326072355313938 0.0 0.0 0.0 0.0 0.0 0.0 -4.065643547821568 1.3530217039568448 7.251128432105262 -0.38073234621345153 -1.4924830628804737 0.6024680212687672 -0.29843019350298383 -0.11275507530515122 0.3131843183387717 -2.217827088832791 -2.2194802147226973 -0.008179933726190749 0.0 0.0 0.0 0.0 0.0 0.0
