mkrssg/UniversalRobots/rtde_client_3.5/examples/werte/movet_singular.csv
timestamp target_q_0 target_q_1 target_q_2 target_q_3 target_q_4 target_q_5 target_qd_0 target_qd_1 target_qd_2 target_qd_3 target_qd_4 target_qd_5 target_qdd_0 target_qdd_1 target_qdd_2 target_qdd_3 target_qdd_4 target_qdd_5 target_current_0 target_current_1 target_current_2 target_current_3 target_current_4 target_current_5 target_moment_0 target_moment_1 target_moment_2 target_moment_3 target_moment_4 target_moment_5 actual_q_0 actual_q_1 actual_q_2 actual_q_3 actual_q_4 actual_q_5 actual_qd_0 actual_qd_1 actual_qd_2 actual_qd_3 actual_qd_4 actual_qd_5 actual_current_0 actual_current_1 actual_current_2 actual_current_3 actual_current_4 actual_current_5 joint_control_output_0 joint_control_output_1 joint_control_output_2 joint_control_output_3 joint_control_output_4 joint_control_output_5 actual_TCP_pose_0 actual_TCP_pose_1 actual_TCP_pose_2 actual_TCP_pose_3 actual_TCP_pose_4 actual_TCP_pose_5 actual_TCP_speed_0 actual_TCP_speed_1 actual_TCP_speed_2 actual_TCP_speed_3 actual_TCP_speed_4 actual_TCP_speed_5 actual_TCP_force_0 actual_TCP_force_1 actual_TCP_force_2 actual_TCP_force_3 actual_TCP_force_4 actual_TCP_force_5 target_TCP_pose_0 target_TCP_pose_1 target_TCP_pose_2 target_TCP_pose_3 target_TCP_pose_4 target_TCP_pose_5 target_TCP_speed_0 target_TCP_speed_1 target_TCP_speed_2 target_TCP_speed_3 target_TCP_speed_4 target_TCP_speed_5
6531.936 0.45809493550609653 -1.885529400329105 1.8913539821084733 -1.5775092871271372 -1.5641353746118325 0.45808487927694497 0.0 0.0 -0.0 0.0 0.0 -0.0 0.0 0.0 0.0 0.0 0.0 0.0 -5.8460745106854385e-18 -0.3114035749645834 -0.846364901061535 -0.2526174815615467 0.0004674078944194273 0.0 -6.708954748022854e-17 -3.5869018288149865 -7.146021544880584 -1.0426759266417487 0.0019403888046453637 0.0 0.45815280079841614 -1.8856175581561487 1.8913335800170898 -1.577569309865133 -1.5641277472125452 0.45808878540992737 0.0 0.0 -0.0 0.0 0.0 0.0 0.0717773512005806 -0.3633728325366974 -0.942475438117981 -0.2853434383869171 0.07944856584072113 0.13092228770256042 0.0717773512005806 -0.3656158745288849 -0.942475438117981 -0.32786521315574646 0.07832957059144974 0.12197033315896988 -0.14998236592338138 -0.20000648714657862 0.30003088783124204 2.2213725715318295 2.2214937620346777 -0.0002546278518382991 0.0 0.0 0.0 0.0 0.0 0.0 -3.131804032635986 6.031182776845592 -3.5328218428224347 -0.23275124547530265 0.04017547654877203 0.6073908818360095 -0.149999999985009 -0.19999999999267257 0.30000000001152155 2.221400000057246 2.2213999999968266 5.947204720274495e-12 0.0 0.0 0.0 0.0 0.0 0.0
6531.9439999999995 0.45809493550609653 -1.885529400329105 1.8913539821084733 -1.5775092871271372 -1.5641353746118325 0.45808487927694497 0.0 0.0 -0.0 0.0 0.0 -0.0 0.0 0.0 0.0 0.0 0.0 0.0 -5.8460745106854385e-18 -0.3114035749645834 -0.846364901061535 -0.2526174815615467 0.0004674078944194273 0.0 -6.708954748022854e-17 -3.5869018288149865 -7.146021544880584 -1.0426759266417487 0.0019403888046453637 0.0 0.45817679166793823 -1.8855693976031702 1.8913216590881348 -1.5776169935809534 -1.56409198442568 0.45812472701072693 0.0 0.0 -0.0 0.0 0.0 0.0 0.0762634351849556 -0.3611297905445099 -0.9562008380889893 -0.3077233135700226 0.07049661129713058 0.11749435216188431 0.0785064771771431 -0.3678589165210724 -0.9485756158828735 -0.32786521315574646 0.07497258484363556 0.12197033315896988 -0.1499870637666338 -0.20001808721691564 0.30002777674114595 2.221364086071239 2.221459483225342 -0.00028972766942736276 0.0 0.0 0.0 0.0 0.0 0.0 -2.68906655482769 6.590770036362711 -3.6516361376044966 -0.2751785634488044 -0.025144678523211502 0.5451083155924611 -0.149999999985009 -0.19999999999267257 0.30000000001152155 2.221400000057246 2.2213999999968266 5.947204720274495e-12 0.0 0.0 0.0 0.0 0.0 0.0
6531.951999999999 0.45809493550609653 -1.885529400329105 1.8913539821084733 -1.5775092871271372 -1.5641353746118325 0.45808487927694497 0.0 0.0 -0.0 0.0 0.0 -0.0 0.0 0.0 0.0 0.0 0.0 0.0 -5.8460745106854385e-18 -0.3114035749645834 -0.846364901061535 -0.2526174815615467 0.0004674078944194273 0.0 -6.708954748022854e-17 -3.5869018288149865 -7.146021544880584 -1.0426759266417487 0.0019403888046453637 0.0 0.4581168591976166 -1.8856175581561487 1.891345500946045 -1.5776169935809534 -1.5641277472125452 0.45812472701072693 0.0 0.0 -0.0 0.0 0.0 0.0 0.0717773512005806 -0.3656158745288849 -0.9348502159118652 -0.32786521315574646 0.07609158009290695 0.11525636911392212 0.0762634351849556 -0.3633728325366974 -0.9470505714416504 -0.32786521315574646 0.07609158009290695 0.12197033315896988 -0.14999216959001133 -0.20000240539378744 0.30003140142324614 2.2214591722790216 2.2214212858329607 -0.0003078435568020888 0.0 0.0 0.0 0.0 0.0 0.0 -3.0042702202717617 5.716551552749892 -2.2735878398591356 -0.08650745803130827 -0.2290650457380132 0.5347379371267612 -0.149999999985009 -0.19999999999267257 0.30000000001152155 2.221400000057246 2.2213999999968266 5.947204720274495e-12 0.0 0.0 0.0 0.0 0.0 0.0
6531.96 0.45809493550609653 -1.885529400329105 1.8913539821084733 -1.5775092871271372 -1.5641353746118325 0.45808487927694497 0.0 0.0 -0.0 0.0 0.0 -0.0 0.0 0.0 0.0 0.0 0.0 0.0 -5.8460745106854385e-18 -0.3114035749645834 -0.846364901061535 -0.2526174815615467 0.0004674078944194273 0.0 -6.708954748022854e-17 -3.5869018288149865 -7.146021544880584 -1.0426759266417487 0.0019403888046453637 0.0 0.45817679166793823 -1.8855813185321253 1.8913097381591797 -1.5776050726519983 -1.5641277472125452 0.4581127464771271 0.0 0.0 -0.0 0.0 0.0 0.0 0.0829925611615181 -0.3633728325366974 -0.9257000088691711 -0.3412931263446808 0.07832957059144974 0.11749435216188431 0.0785064771771431 -0.3678589165210724 -0.9440004825592041 -0.32786521315574646 0.08056755363941193 0.12197033315896988 -0.14998679547787752 -0.20001468086571167 0.30003298133847484 2.221377504697759 2.221499391393594 -0.0002893988363283321 0.0 0.0 0.0 0.0 0.0 0.0 -3.3267436655393636 6.317916252633859 -1.5743186494605663 -0.07297294517136399 -0.36004914713527064 0.5451338433951659 -0.149999999985009 -0.19999999999267257 0.30000000001152155 2.221400000057246 2.2213999999968266 5.947204720274495e-12 0.0 0.0 0.0 0.0 0.0 0.0
6531.968 0.45809493550609653 -1.885529400329105 1.8913539821084733 -1.5775092871271372 -1.5641353746118325 0.45808487927694497 0.0 0.0 -0.0 0.0 0.0 -0.0 0.0 0.0 0.0 0.0 0.0 0.0 -5.8460745106854385e-18 -0.3114035749645834 -0.846364901061535 -0.2526174815615467 0.0004674078944194273 0.0 -6.708954748022854e-17 -3.5869018288149865 -7.146021544880584 -1.0426759266417487 0.0019403888046453637 0.0 0.45815280079841614 -1.8855693976031702 1.8912978172302246 -1.5775931517230433 -1.5641277472125452 0.45808878540992737 0.0 0.0 -0.0 0.0 0.0 0.0 0.0829925611615181 -0.3701019585132599 -0.9485756158828735 -0.31555625796318054 0.09063850343227386 0.1186133474111557 0.0762634351849556 -0.3678589165210724 -0.9485756158828735 -0.32786521315574646 0.07832957059144974 0.12197033315896988 -0.1499931928929918 -0.2000118737037453 0.30003286428302184 2.2213748943982132 2.2214966051248286 -0.0002716621487291779 0.0 0.0 0.0 0.0 0.0 0.0 -3.306039026753955 6.379743748828845 -3.1479766935896767 -0.13873247395084015 -0.10548892602545089 0.550297452984802 -0.149999999985009 -0.19999999999267257 0.30000000001152155 2.221400000057246 2.2213999999968266 5.947204720274495e-12 0.0 0.0 0.0 0.0 0.0 0.0
6531.976 0.45809493550609653 -1.885529400329105 1.8913539821084733 -1.5775092871271372 -1.5641353746118325 0.45808487927694497 0.0 0.0 -0.0 0.0 0.0 -0.0 0.0 0.0 0.0 0.0 0.0 0.0 -5.8460745106854385e-18 -0.3114035749645834 -0.846364901061535 -0.2526174815615467 0.0004674078944194273 0.0 -6.708954748022854e-17 -3.5869018288149865 -7.146021544880584 -1.0426759266417487 0.0019403888046453637 0.0 0.4582127332687378 -1.8856294790851038 1.8913097381591797 -1.5775931517230433 -1.5641277472125452 0.4581367075443268 0.0 0.0 -0.0 0.0 0.0 0.0 0.0740203931927681 -0.3723450005054474 -0.9409503936767578 -0.337936133146286 0.07832957059144974 0.12644630670547485 0.0740203931927681 -0.3723450005054474 -0.9455255270004272 -0.3267461955547333 0.07832957059144974 0.12197033315896988 -0.14997232682258152 -0.20001648725211504 0.3000427062738179 -2.2213619952816788 -2.2215104536794676 0.0003432968056725471 0.0 0.0 0.0 0.0 0.0 0.0 -3.2613588206695194 5.912807705388006 -2.325435299353887 -0.07453660343819656 -0.2835248283574727 0.586660473526062 -0.149999999985009 -0.19999999999267257 0.30000000001152155 2.221400000057246 2.2213999999968266 5.947204720274495e-12 0.0 0.0 0.0 0.0 0.0 0.0
6531.9839999999995 0.45809493550609653 -1.885529400329105 1.8913539821084733 -1.5775092871271372 -1.5641353746118325 0.45808487927694497 0.0 0.0 -0.0 0.0 0.0 -0.0 0.0 0.0 0.0 0.0 0.0 0.0 -5.8460745106854385e-18 -0.3114035749645834 -0.846364901061535 -0.2526174815615467 0.0004674078944194273 0.0 -6.708954748022854e-17 -3.5869018288149865 -7.146021544880584 -1.0426759266417487 0.0019403888046453637 0.0 0.458164781332016 -1.885653320943014 1.8913335800170898 -1.5776169935809534 -1.5641158262835901 0.4580764174461365 0.0 0.0 -0.0 0.0 0.0 0.0 0.0785064771771431 -0.3656158745288849 -0.9363752603530884 -0.34017413854599 0.08840051293373108 0.1186133474111557 0.0762634351849556 -0.3678589165210724 -0.9440004825592041 -0.3245082199573517 0.07832957059144974 0.12197033315896988 -0.14997828577054134 -0.20000859365610202 0.3000429391388967 -2.2213507317193533 -2.221526846423816 0.00038478960139379524 0.0 0.0 0.0 0.0 0.0 0.0 -3.122389477391231 6.240663076404474 -2.0719393148893106 -0.045561324482796914 -0.27974566723630306 0.5503235119380657 -0.149999999985009 -0.19999999999267257 0.30000000001152155 2.221400000057246 2.2213999999968266 5.947204720274495e-12 0.0 0.0 0.0 0.0 0.0 0.0
6531.991999999999 0.45809493550609653 -1.885529400329105 1.8913539821084733 -1.5775092871271372 -1.5641353746118325 0.45808487927694497 0.0 0.0 -0.0 0.0 0.0 -0.0 0.0 0.0 0.0 0.0 0.0 0.0 -5.8460745106854385e-18 -0.3114035749645834 -0.846364901061535 -0.2526174815615467 0.0004674078944194273 0.0 -6.708954748022854e-17 -3.5869018288149865 -7.146021544880584 -1.0426759266417487 0.0019403888046453637 0.0 0.4581408202648163 -1.8855932394610804 1.8913216590881348 -1.5776289145099085 -1.564103905354635 0.4581367075443268 0.0 0.0 -0.0 0.0 0.0 0.0 0.0672912672162056 -0.3701019585132599 -0.9592509269714355 -0.3233892321586609 0.07273460179567337 0.12420831620693207 0.0740203931927681 -0.3678589165210724 -0.9470505714416504 -0.3256272077560425 0.07832957059144974 0.12197033315896988 -0.14999239919456386 -0.20001069618521594 0.30003411506723854 2.2214333402772435 2.221422433070293 -0.000336910309642697 0.0 0.0 0.0 0.0 0.0 0.0 -2.728354566666946 5.976329079616086 -3.4503168549859025 -0.17530717366929907 -0.10463811430205662 0.5762653054641347 -0.149999999985009 -0.19999999999267257 0.30000000001152155 2.221400000057246 2.2213999999968266 5.947204720274495e-12 0.0 0.0 0.0 0.0 0.0 0.0
6532.0 0.45809493550609653 -1.885529400329105 1.8913539821084733 -1.5775092871271372 -1.5641353746118325 0.45808487927694497 0.0 0.0 -0.0 0.0 0.0 -0.0 0.0 0.0 0.0 0.0 0.0 0.0 -5.8460745106854385e-18 -0.3114035749645834 -0.846364901061535 -0.2526174815615467 0.0004674078944194273 0.0 -6.708954748022854e-17 -3.5869018288149865 -7.146021544880584 -1.0426759266417487 0.0019403888046453637 0.0 0.4581887722015381 -1.8855813185321253 1.8913335800170898 -1.5776408354388636 -1.5641158262835901 0.45808878540992737 0.0 0.0 -0.0 0.0 0.0 0.0 0.0762634351849556 -0.3790741264820099 -0.9394253492355347 -0.3177942633628845 0.06937761604785919 0.13092228770256042 0.0740203931927681 -0.3701019585132599 -0.9409503936767578 -0.3267461955547333 0.07832957059144974 0.12197033315896988 -0.14998481334756422 -0.2000177725810962 0.3000289143798882 2.2213321081533826 2.2215341935992763 -0.0003131653333809648 0.0 0.0 0.0 0.0 0.0 0.0 -3.73487823933514 5.611674704116145 -2.698585565871258 -0.14232484580332133 -0.22890698204189566 0.6074241305391809 -0.149999999985009 -0.19999999999267257 0.30000000001152155 2.221400000057246 2.2213999999968266 5.947204720274495e-12 0.0 0.0 0.0 0.0 0.0 0.0
6532.008 0.45809493550609653 -1.885529400329105 1.8913539821084733 -1.5775092871271372 -1.5641353746118325 0.45808487927694497 0.0 0.0 -0.0 0.0 0.0 -0.0 0.0 0.0 0.0 0.0 0.0 0.0 -5.8460745106854385e-18 -0.3114035749645834 -0.846364901061535 -0.2526174815615467 0.0004674078944194273 0.0 -6.708954748022854e-17 -3.5869018288149865 -7.146021544880584 -1.0426759266417487 0.0019403888046453637 0.0 0.45815280079841614 -1.8856294790851038 1.8912734985351562 -1.5775931517230433 -1.56409198442568 0.4580764174461365 0.0 0.0 -0.0 0.0 0.0 0.0 0.0740203931927681 -0.3678589165210724 -0.9287500977516174 -0.3345791697502136 0.08840051293373108 0.12420831620693207 0.0740203931927681 -0.3723450005054474 -0.9440004825592041 -0.3267461955547333 0.07832957059144974 0.12197033315896988 -0.14998571729709168 -0.2000115202808862 0.3000535287944078 2.2213561570317197 2.2215058006980337 -0.000415259308582849 0.0 0.0 0.0 0.0 0.0 0.0 -3.3046108938137535 5.785517845785851 -1.857978592669324 -0.011281048694509029 -0.28822177585746567 0.5762827017592731 -0.149999999985009 -0.19999999999267257 0.30000000001152155 2.221400000057246 2.2213999999968266 5.947204720274495e-12 0.0 0.0 0.0 0.0 0.0 0.0
6532.016 0.45809493550609653 -1.885529400329105 1.8913539821084733 -1.5775092871271372 -1.5641353746118325 0.45808487927694497 0.0 0.0 -0.0 0.0 0.0 -0.0 0.0 0.0 0.0 0.0 0.0 0.0 -5.8460745106854385e-18 -0.3114035749645834 -0.846364901061535 -0.2526174815615467 0.0004674078944194273 0.0 -6.708954748022854e-17 -3.5869018288149865 -7.146021544880584 -1.0426759266417487 0.0019403888046453637 0.0 0.45817679166793823 -1.8856294790851038 1.8913097381591797 -1.5775812307940882 -1.5641158262835901 0.45808878540992737 0.0 0.0 -0.0 0.0 0.0 0.0 0.0762634351849556 -0.3678589165210724 -0.942475438117981 -0.3211512267589569 0.08616252988576889 0.1186133474111557 0.0740203931927681 -0.3633728325366974 -0.9440004825592041 -0.3256272077560425 0.07385359704494476 0.12197033315896988 -0.14997820508853 -0.20001153664387805 0.30004168661835634 2.221348545928505 2.2215234696299553 -0.0003315791862929337 0.0 0.0 0.0 0.0 0.0 0.0 -3.131410985380483 6.036023056482755 -2.7566537087303686 -0.10278335860213236 -0.15373924508576434 0.5503063481153696 -0.149999999985009 -0.19999999999267257 0.30000000001152155 2.221400000057246 2.2213999999968266 5.947204720274495e-12 0.0 0.0 0.0 0.0 0.0 0.0
6532.023999999999 0.45809493550609653 -1.885529400329105 1.8913539821084733 -1.5775092871271372 -1.5641353746118325 0.45808487927694497 0.0 0.0 -0.0 0.0 0.0 -0.0 0.0 0.0 0.0 0.0 0.0 0.0 -5.8460745106854385e-18 -0.3114035749645834 -0.846364901061535 -0.2526174815615467 0.0004674078944194273 0.0 -6.708954748022854e-17 -3.5869018288149865 -7.146021544880584 -1.0426759266417487 0.0019403888046453637 0.0 0.458164781332016 -1.8856056372271937 1.8912978172302246 -1.5776169935809534 -1.56409198442568 0.4581007659435272 0.0 0.0 -0.0 0.0 0.0 0.0 0.0785064771771431 -0.3678589165210724 -0.9257000088691711 -0.33234116435050964 0.07497258484363556 0.12197033315896988 0.0740203931927681 -0.3678589165210724 -0.9440004825592041 -0.3256272077560425 0.07944856584072113 0.12197033315896988 -0.14998642813016153 -0.20001482876128815 0.3000429831081573 2.2213643114204165 2.221486561242496 -0.00037909664673635977 0.0 0.0 0.0 0.0 0.0 0.0 -3.4637221520982964 5.8889570830119995 -1.77131322571338 -0.07723636020259457 -0.32623952292054875 0.5659142648691795 -0.149999999985009 -0.19999999999267257 0.30000000001152155 2.221400000057246 2.2213999999968266 5.947204720274495e-12 0.0 0.0 0.0 0.0 0.0 0.0
6532.032 0.45809493550609653 -1.885529400329105 1.8913539821084733 -1.5775092871271372 -1.5641353746118325 0.45808487927694497 0.0 0.0 -0.0 0.0 0.0 -0.0 0.0 0.0 0.0 0.0 0.0 0.0 -5.8460745106854385e-18 -0.3114035749645834 -0.846364901061535 -0.2526174815615467 0.0004674078944194273 0.0 -6.708954748022854e-17 -3.5869018288149865 -7.146021544880584 -1.0426759266417487 0.0019403888046453637 0.0 0.45815280079841614 -1.8855813185321253 1.8912978172302246 -1.5775931517230433 -1.56409198442568 0.45808878540992737 0.0 0.0 -0.0 0.0 0.0 0.0 0.0717773512005806 -0.3633728325366974 -0.9333252310752869 -0.3390551507472992 0.067139632999897 0.10966140031814575 0.0740203931927681 -0.3656158745288849 -0.9440004825592041 -0.3256272077560425 0.07609158009290695 0.12197033315896988 -0.14999030525730256 -0.20001373740779133 0.30003552072171935 2.2213535987656496 2.221475424724613 -0.00030745055435541435 0.0 0.0 0.0 0.0 0.0 0.0 -2.8425173872458513 5.759156292606474 -1.9621423839088306 -0.09281888271542253 -0.304415028124754 0.5087988332716804 -0.149999999985009 -0.19999999999267257 0.30000000001152155 2.221400000057246 2.2213999999968266 5.947204720274495e-12 0.0 0.0 0.0 0.0 0.0 0.0
6532.04 0.45809493550609653 -1.885529400329105 1.8913539821084733 -1.5775092871271372 -1.5641353746118325 0.45808487927694497 0.0 0.0 -0.0 0.0 0.0 -0.0 0.0 0.0 0.0 0.0 0.0 0.0 -5.8460745106854385e-18 -0.3114035749645834 -0.846364901061535 -0.2526174815615467 0.0004674078944194273 0.0 -6.708954748022854e-17 -3.5869018288149865 -7.146021544880584 -1.0426759266417487 0.0019403888046453637 0.0 0.4581408202648163 -1.8855813185321253 1.891357421875 -1.5775812307940882 -1.5641277472125452 0.4581007659435272 0.0 0.0 -0.0 0.0 0.0 0.0 0.0740203931927681 -0.3723450005054474 -0.9257000088691711 -0.29877135157585144 0.08280554413795471 0.134279265999794 0.0740203931927681 -0.3723450005054474 -0.9440004825592041 -0.32898420095443726 0.07944856584072113 0.12197033315896988 -0.1499886758424448 -0.2000065877214046 0.30001670048317375 2.221388297518228 2.221456134460715 -0.00018299776784824604 0.0 0.0 0.0 0.0 0.0 0.0 -3.7898614000175064 5.449684988644976 -2.503405410403163 -0.10446818306861508 -0.14194320496225157 0.6229656906753879 -0.149999999985009 -0.19999999999267257 0.30000000001152155 2.221400000057246 2.2213999999968266 5.947204720274495e-12 0.0 0.0 0.0 0.0 0.0 0.0
6532.048 0.45809493550609653 -1.885529400329105 1.8913539821084733 -1.5775092871271372 -1.5641353746118325 0.45808487927694497 0.0 0.0 -0.0 0.0 0.0 -0.0 0.0 0.0 0.0 0.0 0.0 0.0 -5.8460745106854385e-18 -0.3114035749645834 -0.846364901061535 -0.2526174815615467 0.0004674078944194273 0.0 -6.708954748022854e-17 -3.5869018288149865 -7.146021544880584 -1.0426759266417487 0.0019403888046453637 0.0 0.45815280079841614 -1.8856175581561487 1.8913216590881348 -1.5776289145099085 -1.56409198442568 0.45814868807792664 0.0 0.0 -0.0 0.0 0.0 0.0 0.0717773512005806 -0.3723450005054474 -0.9623009562492371 -0.31331828236579895 0.08280554413795471 0.10518541932106018 0.0717773512005806 -0.3701019585132599 -0.9455255270004272 -0.32786521315574646 0.07832957059144974 0.12197033315896988 -0.14998633526803823 -0.20001178664180966 0.3000395391213077 2.2214308323895935 2.2214200221009524 -0.00037910098003685923 0.0 0.0 0.0 0.0 0.0 0.0 -2.7466418052397774 5.748522709358003 -3.807000360095408 -0.14889305623459934 -0.015817267542243107 0.4879992857621637 -0.149999999985009 -0.19999999999267257 0.30000000001152155 2.221400000057246 2.2213999999968266 5.947204720274495e-12 0.0 0.0 0.0 0.0 0.0 0.0
6532.056 0.45809493550609653 -1.885529400329105 1.8913539821084733 -1.5775092871271372 -1.5641353746118325 0.45808487927694497 0.0 0.0 -0.0 0.0 0.0 -0.0 0.0 0.0 0.0 0.0 0.0 0.0 -5.8460745106854385e-18 -0.3114035749645834 -0.846364901061535 -0.2526174815615467 0.0004674078944194273 0.0 -6.708954748022854e-17 -3.5869018288149865 -7.146021544880584 -1.0426759266417487 0.0019403888046453637 0.0 0.45815280079841614 -1.8856056372271937 1.8913216590881348 -1.5776527563678187 -1.564103905354635 0.45812472701072693 0.0 0.0 -0.0 0.0 0.0 0.0 0.0762634351849556 -0.3723450005054474 -0.9714512228965759 -0.3368171453475952 0.06937761604785919 0.13092228770256042 0.0740203931927681 -0.3701019585132599 -0.9455255270004272 -0.3267461955547333 0.07832957059144974 0.12197033315896988 -0.1499901071539503 -0.20001256557080616 0.30003891814572625 2.2214147491215934 2.2214574588636378 -0.00039082601557661084 0.0 0.0 0.0 0.0 0.0 0.0 -2.823923343216148 6.826478533703562 -3.695815859640825 -0.24116316092369924 -0.15610115969223393 0.6074405207879244 -0.149999999985009 -0.19999999999267257 0.30000000001152155 2.221400000057246 2.2213999999968266 5.947204720274495e-12 0.0 0.0 0.0 0.0 0.0 0.0
6532.063999999999 0.45809493550609653 -1.885529400329105 1.8913539821084733 -1.5775092871271372 -1.5641353746118325 0.45808487927694497 0.0 0.0 -0.0 0.0 0.0 -0.0 0.0 0.0 0.0 0.0 0.0 0.0 -5.8460745106854385e-18 -0.3114035749645834 -0.846364901061535 -0.2526174815615467 0.0004674078944194273 0.0 -6.708954748022854e-17 -3.5869018288149865 -7.146021544880584 -1.0426759266417487 0.0019403888046453637 0.0 0.4581168591976166 -1.8855932394610804 1.8913335800170898 -1.5776169935809534 -1.5641396681415003 0.4580764174461365 0.0 0.0 -0.0 0.0 0.0 0.0 0.0740203931927681 -0.3656158745288849 -0.9440004825592041 -0.3267461955547333 0.08951950818300247 0.12197033315896988 0.0740203931927681 -0.3678589165210724 -0.9455255270004272 -0.32898420095443726 0.07832957059144974 0.12197033315896988 -0.14999672747761905 -0.2000035657073806 0.3000295384180083 -2.22140177204862 -2.2214712065967914 0.00028338341657993 0.0 0.0 0.0 0.0 0.0 0.0 -2.9664734216231103 6.16673352906693 -2.7012043328006086 -0.0859406718775962 -0.16081417141960366 0.5658725194028067 -0.149999999985009 -0.19999999999267257 0.30000000001152155 2.221400000057246 2.2213999999968266 5.947204720274495e-12 0.0 0.0 0.0 0.0 0.0 0.0
6532.072 0.45809493550609653 -1.885529400329105 1.8913539821084733 -1.5775092871271372 -1.5641353746118325 0.45808487927694497 0.0 0.0 -0.0 0.0 0.0 -0.0 0.0 0.0 0.0 0.0 0.0 0.0 -5.8460745106854385e-18 -0.3114035749645834 -0.846364901061535 -0.2526174815615467 0.0004674078944194273 0.0 -6.708954748022854e-17 -3.5869018288149865 -7.146021544880584 -1.0426759266417487 0.0019403888046453637 0.0 0.45812883973121643 -1.8856056372271937 1.8913335800170898 -1.5776289145099085 -1.5641277472125452 0.4581007659435272 0.0 0.0 -0.0 0.0 0.0 0.0 0.0762634351849556 -0.3701019585132599 -0.9379003047943115 -0.32898420095443726 0.07497258484363556 0.13092228770256042 0.0740203931927681 -0.3633728325366974 -0.9440004825592041 -0.32786521315574646 0.07832957059144974 0.12197033315896988 -0.1499931250901591 -0.20000587501792072 0.3000333217579952 -2.2214178509069447 -2.221460049886714 0.00032558127153473396 0.0 0.0 0.0 0.0 0.0 0.0 -3.3720386946600804 6.095499838280308 -2.3835537044811583 -0.12408169760021114 -0.25799426895728894 0.6074267406316937 -0.149999999985009 -0.19999999999267257 0.30000000001152155 2.221400000057246 2.2213999999968266 5.947204720274495e-12 0.0 0.0 0.0 0.0 0.0 0.0
6532.08 0.45809493550609653 -1.885529400329105 1.8913539821084733 -1.5775092871271372 -1.5641353746118325 0.45808487927694497 0.0 0.0 -0.0 0.0 0.0 -0.0 0.0 0.0 0.0 0.0 0.0 0.0 -5.8460745106854385e-18 -0.3114035749645834 -0.846364901061535 -0.2526174815615467 0.0004674078944194273 0.0 -6.708954748022854e-17 -3.5869018288149865 -7.146021544880584 -1.0426759266417487 0.0019403888046453637 0.0 0.458164781332016 -1.8856056372271937 1.8913097381591797 -1.5776289145099085 -1.56409198442568 0.45814868807792664 0.0 0.0 -0.0 0.0 0.0 0.0 0.0762634351849556 -0.3723450005054474 -0.9470505714416504 -0.31219929456710815 0.08728151768445969 0.134279265999794 0.0785064771771431 -0.3678589165210724 -0.9470505714416504 -0.32786521315574646 0.07832957059144974 0.12197033315896988 -0.1499864142601822 -0.20001481554263997 0.3000404407991301 2.221417490331745 2.221433361005458 -0.0003791010605859171 0.0 0.0 0.0 0.0 0.0 0.0 -3.4049212172703394 6.155461390321258 -3.1538359140955463 -0.1410243353581016 -0.10660702077657964 0.6229863924424617 -0.149999999985009 -0.19999999999267257 0.30000000001152155 2.221400000057246 2.2213999999968266 5.947204720274495e-12 0.0 0.0 0.0 0.0 0.0 0.0
6532.088 0.45809493550609653 -1.885529400329105 1.8913539821084733 -1.5775092871271372 -1.5641353746118325 0.45808487927694497 0.0 0.0 -0.0 0.0 0.0 -0.0 0.0 0.0 0.0 0.0 0.0 0.0 -5.8460745106854385e-18 -0.3114035749645834 -0.846364901061535 -0.2526174815615467 0.0004674078944194273 0.0 -6.708954748022854e-17 -3.5869018288149865 -7.146021544880584 -1.0426759266417487 0.0019403888046453637 0.0 0.4582127332687378 -1.8855932394610804 1.8913216590881348 -1.5775812307940882 -1.5641396681415003 0.45808878540992737 0.0 0.0 -0.0 0.0 0.0 0.0 0.0852356031537056 -0.3723450005054474 -0.9684011340141296 -0.3412931263446808 0.07944856584072113 0.1197323426604271 0.0785064771771431 -0.3745880424976349 -0.9470505714416504 -0.32786521315574646 0.07832957059144974 0.12197033315896988 -0.14997581290000433 -0.20001707718614992 0.30003004347198237 2.221311486320342 2.2215659954563587 -0.00024790410284416777 0.0 0.0 0.0 0.0 0.0 0.0 -2.984226939634838 7.036697579147218 -3.4638792382191874 -0.19884637577751327 -0.18448849020964175 0.555501759936151 -0.149999999985009 -0.19999999999267257 0.30000000001152155 2.221400000057246 2.2213999999968266 5.947204720274495e-12 0.0 0.0 0.0 0.0 0.0 0.0
6532.096 0.45809493550609653 -1.885529400329105 1.8913539821084733 -1.5775092871271372 -1.5641353746118325 0.45808487927694497 0.0 0.0 -0.0 0.0 0.0 -0.0 0.0 0.0 0.0 0.0 0.0 0.0 -5.8460745106854385e-18 -0.3114035749645834 -0.846364901061535 -0.2526174815615467 0.0004674078944194273 0.0 -6.708954748022854e-17 -3.5869018288149865 -7.146021544880584 -1.0426759266417487 0.0019403888046453637 0.0 0.45817679166793823 -1.8855932394610804 1.8913335800170898 -1.5776169935809534 -1.5641158262835901 0.4581127464771271 0.0 0.0 -0.0 0.0 0.0 0.0 0.0762634351849556 -0.3701019585132599 -0.9775514006614685 -0.29877135157585144 0.07721057534217834 0.12532731890678406 0.0762634351849556 -0.3678589165210724 -0.9470505714416504 -0.32786521315574646 0.07832957059144974 0.12197033315896988 -0.14998387203887378 -0.2000143161133645 0.300029536432692 2.221369497289864 2.221491420441134 -0.00029542238708494016 0.0 0.0 0.0 0.0 0.0 0.0 -2.7615955070441967 6.736483841908045 -4.792864811330555 -0.32042214406212144 0.107286060038784 0.581438688441502 -0.149999999985009 -0.19999999999267257 0.30000000001152155 2.221400000057246 2.2213999999968266 5.947204720274495e-12 0.0 0.0 0.0 0.0 0.0 0.0
6532.103999999999 0.45809493550609653 -1.885529400329105 1.8913539821084733 -1.5775092871271372 -1.5641353746118325 0.45808487927694497 0.0 0.0 -0.0 0.0 0.0 -0.0 0.0 0.0 0.0 0.0 0.0 0.0 -5.8460745106854385e-18 -0.3114035749645834 -0.846364901061535 -0.2526174815615467 0.0004674078944194273 0.0 -6.708954748022854e-17 -3.5869018288149865 -7.146021544880584 -1.0426759266417487 0.0019403888046453637 0.0 0.45815280079841614 -1.8855932394610804 1.8913335800170898 -1.5776289145099085 -1.5641158262835901 0.4580764174461365 0.0 0.0 -0.0 0.0 0.0 0.0 0.0829925611615181 -0.3656158745288849 -0.9470505714416504 -0.31108027696609497 0.08056755363941193 0.12756529450416565 0.0807495191693306 -0.3678589165210724 -0.9485756158828735 -0.32786521315574646 0.07832957059144974 0.12308932095766068 -0.14998954686499494 -0.20001115858125576 0.30003055507747134 2.221358408978871 2.221507917543093 -0.0003131602137758687 0.0 0.0 0.0 0.0 0.0 0.0 -3.2686034965351465 6.706815298180675 -3.1746398340440445 -0.21775153880871698 -0.10264296601383514 0.5918416177461142 -0.149999999985009 -0.19999999999267257 0.30000000001152155 2.221400000057246 2.2213999999968266 5.947204720274495e-12 0.0 0.0 0.0 0.0 0.0 0.0
6532.112 0.45809493550609653 -1.885529400329105 1.8913539821084733 -1.5775092871271372 -1.5641353746118325 0.45808487927694497 0.0 0.0 -0.0 0.0 0.0 -0.0 0.0 0.0 0.0 0.0 0.0 0.0 -5.8460745106854385e-18 -0.3114035749645834 -0.846364901061535 -0.2526174815615467 0.0004674078944194273 0.0 -6.708954748022854e-17 -3.5869018288149865 -7.146021544880584 -1.0426759266417487 0.0019403888046453637 0.0 0.4581408202648163 -1.8856414000140589 1.891345500946045 -1.5776169935809534 -1.5641515890704554 0.4580764174461365 0.0 0.0 -0.0 0.0 0.0 0.0 0.0672912672162056 -0.3656158745288849 -0.9226499199867249 -0.3088423013687134 0.09511447697877884 0.1197323426604271 0.0785064771771431 -0.3656158745288849 -0.9470505714416504 -0.32786521315574646 0.07832957059144974 0.12197033315896988 -0.14998507564502886 -0.2000026822991216 0.3000367219204664 -2.2213589325951477 -2.221481599707349 0.0003312633878686994 0.0 0.0 0.0 0.0 0.0 0.0 -3.237703319327056 5.158949726842011 -2.1492371833300377 0.004727132140297776 -0.13989279496524956 0.5554760855006351 -0.149999999985009 -0.19999999999267257 0.30000000001152155 2.221400000057246 2.2213999999968266 5.947204720274495e-12 0.0 0.0 0.0 0.0 0.0 0.0
6532.12 0.45809493550609653 -1.885529400329105 1.8913539821084733 -1.5775092871271372 -1.5641353746118325 0.45808487927694497 0.0 0.0 -0.0 0.0 0.0 -0.0 0.0 0.0 0.0 0.0 0.0 0.0 -5.8460745106854385e-18 -0.3114035749645834 -0.846364901061535 -0.2526174815615467 0.0004674078944194273 0.0 -6.708954748022854e-17 -3.5869018288149865 -7.146021544880584 -1.0426759266417487 0.0019403888046453637 0.0 0.45815280079841614 -1.8855932394610804 1.8913335800170898 -1.5775812307940882 -1.5641158262835901 0.45808878540992737 0.0 0.0 -0.0 0.0 0.0 0.0 0.0762634351849556 -0.3701019585132599 -0.9333252310752869 -0.33010318875312805 0.07944856584072113 0.12644630670547485 0.0785064771771431 -0.3678589165210724 -0.9470505714416504 -0.32786521315574646 0.07832957059144974 0.12197033315896988 -0.14998604139177493 -0.20000939547355887 0.30002648056851505 2.221361696408662 2.221483022321977 -0.00024221178896384571 0.0 0.0 0.0 0.0 0.0 0.0 -3.4068449056396757 5.910758792256442 -2.157767899062396 -0.0794604077778571 -0.27356111623821905 0.5866484241029876 -0.149999999985009 -0.19999999999267257 0.30000000001152155 2.221400000057246 2.2213999999968266 5.947204720274495e-12 0.0 0.0 0.0 0.0 0.0 0.0
6532.128 0.45809493550609653 -1.885529400329105 1.8913539821084733 -1.5775092871271372 -1.5641353746118325 0.45808487927694497 0.0 0.0 -0.0 0.0 0.0 -0.0 0.0 0.0 0.0 0.0 0.0 0.0 -5.8460745106854385e-18 -0.3114035749645834 -0.846364901061535 -0.2526174815615467 0.0004674078944194273 0.0 -6.708954748022854e-17 -3.5869018288149865 -7.146021544880584 -1.0426759266417487 0.0019403888046453637 0.0 0.45815280079841614 -1.8856056372271937 1.8913216590881348 -1.5776289145099085 -1.56409198442568 0.4580644369125366 0.0 0.0 -0.0 0.0 0.0 0.0 0.0807495191693306 -0.3611297905445099 -0.9257000088691711 -0.29653337597846985 0.08840051293373108 0.1186133474111557 0.0762634351849556 -0.3656158745288849 -0.9470505714416504 -0.3267461955547333 0.07832957059144974 0.12197033315896988 -0.1499879203176609 -0.20001256462645883 0.3000368798099709 2.2213345674585665 2.2215108808591877 -0.0003613709660725678 0.0 0.0 0.0 0.0 0.0 0.0 -3.4086365301255466 6.050749957589125 -2.547659365767687 -0.13720083363282404 -0.08572032432156376 0.5503030824847128 -0.149999999985009 -0.19999999999267257 0.30000000001152155 2.221400000057246 2.2213999999968266 5.947204720274495e-12 0.0 0.0 0.0 0.0 0.0 0.0
6532.1359999999995 0.45809493550609653 -1.885529400329105 1.8913539821084733 -1.5775092871271372 -1.5641353746118325 0.45808487927694497 0.0 0.0 -0.0 0.0 0.0 -0.0 0.0 0.0 0.0 0.0 0.0 0.0 -5.8460745106854385e-18 -0.3114035749645834 -0.846364901061535 -0.2526174815615467 0.0004674078944194273 0.0 -6.708954748022854e-17 -3.5869018288149865 -7.146021544880584 -1.0426759266417487 0.0019403888046453637 0.0 0.45817679166793823 -1.88554555574526 1.8913335800170898 -1.5776289145099085 -1.5641158262835901 0.45812472701072693 0.0 0.0 -0.0 0.0 0.0 0.0 0.0695343092083931 -0.3745880424976349 -0.9790764451026917 -0.3245082199573517 0.06937761604785919 0.12197033315896988 0.0740203931927681 -0.3701019585132599 -0.9455255270004272 -0.3267461955547333 0.07832957059144974 0.12197033315896988 -0.1499910879492885 -0.20001786872013297 0.30001991758174174 2.221374648689863 2.221470000608629 -0.00024223271813269626 0.0 0.0 0.0 0.0 0.0 0.0 -2.5764840265321007 6.301878422168459 -4.303513653767951 -0.24613114123060026 -0.03814466359458101 0.5658684288268351 -0.149999999985009 -0.19999999999267257 0.30000000001152155 2.221400000057246 2.2213999999968266 5.947204720274495e-12 0.0 0.0 0.0 0.0 0.0 0.0
6532.143999999999 0.45809493550609653 -1.885529400329105 1.8913539821084733 -1.5775092871271372 -1.5641353746118325 0.45808487927694497 0.0 0.0 -0.0 0.0 0.0 -0.0 0.0 0.0 0.0 0.0 0.0 0.0 -5.8460745106854385e-18 -0.3114035749645834 -0.846364901061535 -0.2526174815615467 0.0004674078944194273 0.0 -6.708954748022854e-17 -3.5869018288149865 -7.146021544880584 -1.0426759266417487 0.0019403888046453637 0.0 0.458164781332016 -1.8855813185321253 1.8913335800170898 -1.5776289145099085 -1.5641158262835901 0.4580764174461365 0.0 0.0 -0.0 0.0 0.0 0.0 0.0785064771771431 -0.3633728325366974 -0.9394253492355347 -0.34576910734176636 0.07721057534217834 0.12197033315896988 0.0829925611615181 -0.3723450005054474 -0.942475438117981 -0.3267461955547333 0.07832957059144974 0.12197033315896988 -0.14998873555806636 -0.2000137334779339 0.30002789573510913 2.2213424088019136 2.2215184976562115 -0.00029542851789390336 0.0 0.0 0.0 0.0 0.0 0.0 -2.988096808467027 6.523050958634904 -2.083205444440081 -0.10448669754963906 -0.31415247691880294 0.5658993973692136 -0.149999999985009 -0.19999999999267257 0.30000000001152155 2.221400000057246 2.2213999999968266 5.947204720274495e-12 0.0 0.0 0.0 0.0 0.0 0.0
6532.152 0.45809493550609653 -1.885529400329105 1.8913539821084733 -1.5775092871271372 -1.5641353746118325 0.45808487927694497 0.0 0.0 -0.0 0.0 0.0 -0.0 0.0 0.0 0.0 0.0 0.0 0.0 -5.8460745106854385e-18 -0.3114035749645834 -0.846364901061535 -0.2526174815615467 0.0004674078944194273 0.0 -6.708954748022854e-17 -3.5869018288149865 -7.146021544880584 -1.0426759266417487 0.0019403888046453637 0.0 0.4581887722015381 -1.8856056372271937 1.891345500946045 -1.5776289145099085 -1.5641396681415003 0.45812472701072693 0.0 0.0 -0.0 0.0 0.0 0.0 0.0695343092083931 -0.3813171684741974 -0.9546757936477661 -0.3177942633628845 0.0839245393872261 0.12085133790969849 0.0740203931927681 -0.3723450005054474 -0.9440004825592041 -0.32898420095443726 0.07832957059144974 0.12197033315896988 -0.14998068194008438 -0.2000135295229968 0.3000297617911616 -2.2213726952397 -2.2214946739498544 0.0003018297138790473 0.0 0.0 0.0 0.0 0.0 0.0 -3.283600691088915 5.324763954244707 -3.3756387099313954 -0.08359324909407424 -0.10981075827759802 0.5606762771796936 -0.149999999985009 -0.19999999999267257 0.30000000001152155 2.221400000057246 2.2213999999968266 5.947204720274495e-12 0.0 0.0 0.0 0.0 0.0 0.0
6532.16 0.45809493550609653 -1.885529400329105 1.8913539821084733 -1.5775092871271372 -1.5641353746118325 0.45808487927694497 0.0 0.0 -0.0 0.0 0.0 -0.0 0.0 0.0 0.0 0.0 0.0 0.0 -5.8460745106854385e-18 -0.3114035749645834 -0.846364901061535 -0.2526174815615467 0.0004674078944194273 0.0 -6.708954748022854e-17 -3.5869018288149865 -7.146021544880584 -1.0426759266417487 0.0019403888046453637 0.0 0.45817679166793823 -1.8855932394610804 1.891345500946045 -1.5776050726519983 -1.564103905354635 0.4581127464771271 0.0 0.0 -0.0 0.0 0.0 0.0 0.0807495191693306 -0.3745880424976349 -0.942475438117981 -0.3200322389602661 0.07832957059144974 0.13316026329994202 0.0762634351849556 -0.3656158745288849 -0.9440004825592041 -0.32786521315574646 0.07832957059144974 0.12197033315896988 -0.1499816711131236 -0.20001430178991797 0.3000249558949339 2.22135623164722 2.22147790402735 -0.00026597182654993987 0.0 0.0 0.0 0.0 0.0 0.0 -3.637573878812425 6.195671206472387 -2.7816976712125063 -0.15170959133815684 -0.2052010697622531 0.6177974665080316 -0.149999999985009 -0.19999999999267257 0.30000000001152155 2.221400000057246 2.2213999999968266 5.947204720274495e-12 0.0 0.0 0.0 0.0 0.0 0.0
6532.168 0.45809493550609653 -1.885529400329105 1.8913539821084733 -1.5775092871271372 -1.5641353746118325 0.45808487927694497 0.0 0.0 -0.0 0.0 0.0 -0.0 0.0 0.0 0.0 0.0 0.0 0.0 -5.8460745106854385e-18 -0.3114035749645834 -0.846364901061535 -0.2526174815615467 0.0004674078944194273 0.0 -6.708954748022854e-17 -3.5869018288149865 -7.146021544880584 -1.0426759266417487 0.0019403888046453637 0.0 0.45817679166793823 -1.8855932394610804 1.8913335800170898 -1.577557388936178 -1.5641396681415003 0.4580764174461365 0.0 0.0 -0.0 0.0 0.0 0.0 0.0785064771771431 -0.3566437065601349 -0.9333252310752869 -0.3390551507472992 0.06490164250135422 0.11749435216188431 0.0762634351849556 -0.3633728325366974 -0.9440004825592041 -0.32786521315574646 0.07832957059144974 0.12197033315896988 -0.1499803586293327 -0.2000103509927305 0.30002444536963235 2.221332075694119 2.221533763354895 -0.00019469921367506733 0.0 0.0 0.0 0.0 0.0 0.0 -2.834956737770684 6.589157478844953 -1.956971744475771 -0.17036766511645024 -0.308658946405095 0.5451197273608089 -0.149999999985009 -0.19999999999267257 0.30000000001152155 2.221400000057246 2.2213999999968266 5.947204720274495e-12 0.0 0.0 0.0 0.0 0.0 0.0
6532.1759999999995 0.45809493550609653 -1.885529400329105 1.8913539821084733 -1.5775092871271372 -1.5641353746118325 0.45808487927694497 0.0 0.0 -0.0 0.0 0.0 -0.0 0.0 0.0 0.0 0.0 0.0 0.0 -5.8460745106854385e-18 -0.3114035749645834 -0.846364901061535 -0.2526174815615467 0.0004674078944194273 0.0 -6.708954748022854e-17 -3.5869018288149865 -7.146021544880584 -1.0426759266417487 0.0019403888046453637 0.0 0.45815280079841614 -1.8855813185321253 1.8913216590881348 -1.5776289145099085 -1.5641277472125452 0.4581007659435272 0.0 0.0 -0.0 0.0 0.0 0.0 0.0695343092083931 -0.3633728325366974 -0.9592509269714355 -0.3245082199573517 0.07049661129713058 0.11749435216188431 0.0762634351849556 -0.3678589165210724 -0.9485756158828735 -0.32786521315574646 0.07832957059144974 0.12197033315896988 -0.14999245636012526 -0.20001151000432107 0.3000314576748473 2.2213917557959895 2.22148721549228 -0.00030714182835461204 0.0 0.0 0.0 0.0 0.0 0.0 -2.4665282866796825 6.310213449729616 -3.423163962698729 -0.20898677383161857 -0.0941778391996494 0.5451184469521352 -0.149999999985009 -0.19999999999267257 0.30000000001152155 2.221400000057246 2.2213999999968266 5.947204720274495e-12 0.0 0.0 0.0 0.0 0.0 0.0
6532.183999999999 0.45809493550609653 -1.885529400329105 1.8913539821084733 -1.5775092871271372 -1.5641353746118325 0.45808487927694497 0.0 0.0 -0.0 0.0 0.0 -0.0 0.0 0.0 0.0 0.0 0.0 0.0 -5.8460745106854385e-18 -0.3114035749645834 -0.846364901061535 -0.2526174815615467 0.0004674078944194273 0.0 -6.708954748022854e-17 -3.5869018288149865 -7.146021544880584 -1.0426759266417487 0.0019403888046453637 0.0 0.4581408202648163 -1.8855932394610804 1.891369342803955 -1.5776289145099085 -1.5641158262835901 0.4580764174461365 0.0 0.0 -0.0 0.0 0.0 0.0 0.0852356031537056 -0.3678589165210724 -0.953150749206543 -0.32898420095443726 0.07721057534217834 0.12420831620693207 0.0740203931927681 -0.3656158745288849 -0.9440004825592041 -0.32786521315574646 0.07832957059144974 0.12197033315896988 -0.1499892719686027 -0.20000799946320755 0.30001987225437776 2.2213637433114104 2.221486335798478 -0.0002599650515816788 0.0 0.0 0.0 0.0 0.0 0.0 -3.1857835299219315 6.905935973342743 -3.055496572272128 -0.20712540120646208 -0.18607013684487406 0.5762694696921424 -0.149999999985009 -0.19999999999267257 0.30000000001152155 2.221400000057246 2.2213999999968266 5.947204720274495e-12 0.0 0.0 0.0 0.0 0.0 0.0
6532.192 0.45809493550609653 -1.885529400329105 1.8913539821084733 -1.5775092871271372 -1.5641353746118325 0.45808487927694497 0.0 0.0 -0.0 0.0 0.0 -0.0 0.0 0.0 0.0 0.0 0.0 0.0 -5.8460745106854385e-18 -0.3114035749645834 -0.846364901061535 -0.2526174815615467 0.0004674078944194273 0.0 -6.708954748022854e-17 -3.5869018288149865 -7.146021544880584 -1.0426759266417487 0.0019403888046453637 0.0 0.4581887722015381 -1.8856414000140589 1.8913097381591797 -1.5775812307940882 -1.56409198442568 0.45812472701072693 0.0 0.0 -0.0 0.0 0.0 0.0 0.0785064771771431 -0.3678589165210724 -0.9668760895729065 -0.337936133146286 0.07609158009290695 0.11525636911392212 0.0740203931927681 -0.3678589165210724 -0.9501006603240967 -0.32898420095443726 0.07832957059144974 0.12197033315896988 -0.14997335527732086 -0.2000143164618325 0.3000443439141671 2.221361856071029 2.221483640851392 -0.0003613470368653446 0.0 0.0 0.0 0.0 0.0 0.0 -2.6455037943288633 6.772911856534238 -3.4689378650284706 -0.19815771051630612 -0.1492782336996841 0.5347497826896055 -0.149999999985009 -0.19999999999267257 0.30000000001152155 2.221400000057246 2.2213999999968266 5.947204720274495e-12 0.0 0.0 0.0 0.0 0.0 0.0
6532.2 0.45809493550609653 -1.885529400329105 1.8913539821084733 -1.5775092871271372 -1.5641353746118325 0.45808487927694497 0.0 0.0 -0.0 0.0 0.0 -0.0 0.0 0.0 0.0 0.0 0.0 0.0 -5.8460745106854385e-18 -0.3114035749645834 -0.846364901061535 -0.2526174815615467 0.0004674078944194273 0.0 -6.708954748022854e-17 -3.5869018288149865 -7.146021544880584 -1.0426759266417487 0.0019403888046453637 0.0 0.45817679166793823 -1.8856414000140589 1.891357421875 -1.5776289145099085 -1.564103905354635 0.4581127464771271 0.0 0.0 -0.0 0.0 0.0 0.0 0.0785064771771431 -0.3723450005054474 -0.9577258825302124 -0.3390551507472992 0.0682586282491684 0.11525636911392212 0.0740203931927681 -0.3678589165210724 -0.9470505714416504 -0.32786521315574646 0.07832957059144974 0.12197033315896988 -0.14997613035079604 -0.20001158629269689 0.3000341756410121 2.2213696721138767 2.221491734370716 -0.0003553502855494833 0.0 0.0 0.0 0.0 0.0 0.0 -2.970488623143235 6.339494002718245 -3.042416987141701 -0.1767156760960468 -0.2296463672229504 0.5347597539368052 -0.149999999985009 -0.19999999999267257 0.30000000001152155 2.221400000057246 2.2213999999968266 5.947204720274495e-12 0.0 0.0 0.0 0.0 0.0 0.0
6532.208 0.45809493550609653 -1.885529400329105 1.8913539821084733 -1.5775092871271372 -1.5641353746118325 0.45808487927694497 0.0 0.0 -0.0 0.0 0.0 -0.0 0.0 0.0 0.0 0.0 0.0 0.0 -5.8460745106854385e-18 -0.3114035749645834 -0.846364901061535 -0.2526174815615467 0.0004674078944194273 0.0 -6.708954748022854e-17 -3.5869018288149865 -7.146021544880584 -1.0426759266417487 0.0019403888046453637 0.0 0.458164781332016 -1.8856175581561487 1.891369342803955 -1.5775931517230433 -1.564103905354635 0.4581127464771271 0.0 0.0 -0.0 0.0 0.0 0.0 0.0717773512005806 -0.3656158745288849 -0.9470505714416504 -0.3368171453475952 0.06937761604785919 0.12197033315896988 0.0740203931927681 -0.3678589165210724 -0.9455255270004272 -0.3267461955547333 0.07832957059144974 0.12197033315896988 -0.1499781830548481 -0.20000956453059152 0.3000222403339166 2.221367136313194 2.2214618187323323 -0.0002489437861232186 0.0 0.0 0.0 0.0 0.0 0.0 -2.8072846530872226 6.1873302593116675 -2.6166809923894863 -0.14788684106592445 -0.23756804852228436 0.5658870278785688 -0.149999999985009 -0.19999999999267257 0.30000000001152155 2.221400000057246 2.2213999999968266 5.947204720274495e-12 0.0 0.0 0.0 0.0 0.0 0.0
6532.215999999999 0.45809493550609653 -1.885529400329105 1.8913539821084733 -1.5775092871271372 -1.5641353746118325 0.45808487927694497 0.0 0.0 -0.0 0.0 0.0 -0.0 0.0 0.0 0.0 0.0 0.0 0.0 -5.8460745106854385e-18 -0.3114035749645834 -0.846364901061535 -0.2526174815615467 0.0004674078944194273 0.0 -6.708954748022854e-17 -3.5869018288149865 -7.146021544880584 -1.0426759266417487 0.0019403888046453637 0.0 0.458164781332016 -1.885653320943014 1.891345500946045 -1.5775812307940882 -1.56409198442568 0.4581127464771271 0.0 0.0 -0.0 0.0 0.0 0.0 0.0695343092083931 -0.3745880424976349 -0.9592509269714355 -0.31443727016448975 0.07944856584072113 0.12420831620693207 0.0740203931927681 -0.3723450005054474 -0.9470505714416504 -0.32786521315574646 0.07832957059144974 0.12197033315896988 -0.14997389821163074 -0.20000857848928205 0.3000363201931364 2.2213699187261677 2.221464754382585 -0.0003258836384072193 0.0 0.0 0.0 0.0 0.0 0.0 -2.997170086347155 5.810971189530137 -3.6470497921632896 -0.15943101902699608 -0.060681197699417704 0.5762537145334357 -0.149999999985009 -0.19999999999267257 0.30000000001152155 2.221400000057246 2.2213999999968266 5.947204720274495e-12 0.0 0.0 0.0 0.0 0.0 0.0
6532.223999999999 0.45809493550609653 -1.885529400329105 1.8913539821084733 -1.5775092871271372 -1.5641353746118325 0.45808487927694497 0.0 0.0 -0.0 0.0 0.0 -0.0 0.0 0.0 0.0 0.0 0.0 0.0 -5.8460745106854385e-18 -0.3114035749645834 -0.846364901061535 -0.2526174815615467 0.0004674078944194273 0.0 -6.708954748022854e-17 -3.5869018288149865 -7.146021544880584 -1.0426759266417487 0.0019403888046453637 0.0 0.45817679166793823 -1.8855932394610804 1.8913097381591797 -1.5776169935809534 -1.5641396681415003 0.45814868807792664 0.0 0.0 -0.0 0.0 0.0 0.0 0.0897216871380806 -0.3656158745288849 -0.9668760895729065 -0.34688809514045715 0.09959045052528381 0.12085133790969849 0.0762634351849556 -0.3633728325366974 -0.9470505714416504 -0.32786521315574646 0.07832957059144974 0.12197033315896988 -0.14998652104997912 -0.2000134631029547 0.3000366603362446 -2.221409964213296 -2.2214521907045452 0.0003188469738286587 0.0 0.0 0.0 0.0 0.0 0.0 -2.857423686733554 7.624842042204745 -3.271190873196424 -0.14458755353650438 -0.17029804555153208 0.56069513338033 -0.149999999985009 -0.19999999999267257 0.30000000001152155 2.221400000057246 2.2213999999968266 5.947204720274495e-12 0.0 0.0 0.0 0.0 0.0 0.0
6532.232 0.45809493550609653 -1.885529400329105 1.8913539821084733 -1.5775092871271372 -1.5641353746118325 0.45808487927694497 0.0 0.0 -0.0 0.0 0.0 -0.0 0.0 0.0 0.0 0.0 0.0 0.0 -5.8460745106854385e-18 -0.3114035749645834 -0.846364901061535 -0.2526174815615467 0.0004674078944194273 0.0 -6.708954748022854e-17 -3.5869018288149865 -7.146021544880584 -1.0426759266417487 0.0019403888046453637 0.0 0.45820075273513794 -1.8856294790851038 1.8913216590881348 -1.5776050726519983 -1.564103905354635 0.4581127464771271 0.0 0.0 -0.0 0.0 0.0 0.0 0.0785064771771431 -0.3723450005054474 -0.9318001866340637 -0.33010318875312805 0.07944856584072113 0.12868429720401764 0.0740203931927681 -0.3678589165210724 -0.9470505714416504 -0.32786521315574646 0.07497258484363556 0.12197033315896988 -0.14997384077005796 -0.20001643835350003 0.3000401620026113 2.221343112382851 2.221518316990036 -0.0003553397414924349 0.0 0.0 0.0 0.0 0.0 0.0 -3.596449558142876 5.920009816097129 -2.090859067784907 -0.07765657607305791 -0.2942544448108479 0.5970504743020695 -0.149999999985009 -0.19999999999267257 0.30000000001152155 2.221400000057246 2.2213999999968266 5.947204720274495e-12 0.0 0.0 0.0 0.0 0.0 0.0
6532.24 0.45809493550609653 -1.885529400329105 1.8913539821084733 -1.5775092871271372 -1.5641353746118325 0.45808487927694497 0.0 0.0 -0.0 0.0 0.0 -0.0 0.0 0.0 0.0 0.0 0.0 0.0 -5.8460745106854385e-18 -0.3114035749645834 -0.846364901061535 -0.2526174815615467 0.0004674078944194273 0.0 -6.708954748022854e-17 -3.5869018288149865 -7.146021544880584 -1.0426759266417487 0.0019403888046453637 0.0 0.45812883973121643 -1.8855813185321253 1.8912854194641113 -1.5776289145099085 -1.5641277472125452 0.45805245637893677 0.0 0.0 -0.0 0.0 0.0 0.0 0.0740203931927681 -0.3768310844898224 -0.9668760895729065 -0.3233892321586609 0.07497258484363556 0.11637535691261292 0.0740203931927681 -0.3678589165210724 -0.942475438117981 -0.32898420095443726 0.08056755363941193 0.12197033315896988 -0.1499999552142309 -0.2000092960741294 0.3000422830449467 -2.2213585983156507 -2.2215084513757652 0.0003610436938390519 0.0 0.0 0.0 0.0 0.0 0.0 -2.9457109439821236 6.021226253451534 -3.790237581621325 -0.18265548181518104 -0.09156769520765769 0.5399306496117613 -0.149999999985009 -0.19999999999267257 0.30000000001152155 2.221400000057246 2.2213999999968266 5.947204720274495e-12 0.0 0.0 0.0 0.0 0.0 0.0
6532.248 0.45809493550609653 -1.885529400329105 1.8913539821084733 -1.5775092871271372 -1.5641353746118325 0.45808487927694497 0.0 0.0 -0.0 0.0 0.0 -0.0 0.0 0.0 0.0 0.0 0.0 0.0 -5.8460745106854385e-18 -0.3114035749645834 -0.846364901061535 -0.2526174815615467 0.0004674078944194273 0.0 -6.708954748022854e-17 -3.5869018288149865 -7.146021544880584 -1.0426759266417487 0.0019403888046453637 0.0 0.45815280079841614 -1.8856056372271937 1.8913216590881348 -1.5775931517230433 -1.5641515890704554 0.4581127464771271 0.0 0.0 -0.0 0.0 0.0 0.0 0.0762634351849556 -0.3678589165210724 -0.9607759714126587 -0.3356981575489044 0.09287648648023605 0.11637535691261292 0.0740203931927681 -0.3701019585132599 -0.9470505714416504 -0.32786521315574646 0.07832957059144974 0.12197033315896988 -0.1499874623441948 -0.20000683955733278 0.3000338287732221 -2.2213942248660605 -2.2214625524329317 0.0002780613935398187 0.0 0.0 0.0 0.0 0.0 0.0 -2.7167666392519125 6.519384931405042 -3.2487416855653612 -0.10344852058767966 -0.12825814391238838 0.5399140324196297 -0.149999999985009 -0.19999999999267257 0.30000000001152155 2.221400000057246 2.2213999999968266 5.947204720274495e-12 0.0 0.0 0.0 0.0 0.0 0.0
6532.255999999999 0.45809493550609653 -1.885529400329105 1.8913539821084733 -1.5775092871271372 -1.5641353746118325 0.45808487927694497 0.0 0.0 -0.0 0.0 0.0 -0.0 0.0 0.0 0.0 0.0 0.0 0.0 -5.8460745106854385e-18 -0.3114035749645834 -0.846364901061535 -0.2526174815615467 0.0004674078944194273 0.0 -6.708954748022854e-17 -3.5869018288149865 -7.146021544880584 -1.0426759266417487 0.0019403888046453637 0.0 0.458164781332016 -1.8855813185321253 1.8912734985351562 -1.5775931517230433 -1.5641396681415003 0.45808878540992737 0.0 0.0 -0.0 0.0 0.0 0.0 0.0740203931927681 -0.3678589165210724 -0.9333252310752869 -0.3513640761375427 0.08280554413795471 0.10630441457033157 0.0740203931927681 -0.3656158745288849 -0.9455255270004272 -0.3245082199573517 0.07832957059144974 0.12197033315896988 -0.14999146191521243 -0.2000129383195981 0.30004278900359815 -2.221356681234766 -2.2215052157379827 0.00031954513551294827 0.0 0.0 0.0 0.0 0.0 0.0 -2.978775546896545 5.665911675565839 -1.696794560769724 0.015385658683244872 -0.35465832396488334 0.49320943394545325 -0.149999999985009 -0.19999999999267257 0.30000000001152155 2.221400000057246 2.2213999999968266 5.947204720274495e-12 0.0 0.0 0.0 0.0 0.0 0.0
6532.264 0.45809493550609653 -1.885529400329105 1.8913539821084733 -1.5775092871271372 -1.5641353746118325 0.45808487927694497 0.0 0.0 -0.0 0.0 0.0 -0.0 0.0 0.0 0.0 0.0 0.0 0.0 -5.8460745106854385e-18 -0.3114035749645834 -0.846364901061535 -0.2526174815615467 0.0004674078944194273 0.0 -6.708954748022854e-17 -3.5869018288149865 -7.146021544880584 -1.0426759266417487 0.0019403888046453637 0.0 0.4581408202648163 -1.8855813185321253 1.8913335800170898 -1.5776169935809534 -1.56409198442568 0.4581007659435272 0.0 0.0 -0.0 0.0 0.0 0.0 0.0695343092083931 -0.3745880424976349 -0.9455255270004272 -0.3222702145576477 0.06154466047883034 0.12420831620693207 0.0762634351849556 -0.3656158745288849 -0.9440004825592041 -0.3267461955547333 0.07832957059144974 0.12197033315896988 -0.14999178329110335 -0.20001145988855193 0.3000268751635224 2.221377464272457 2.221446114422768 -0.000289729354485386 0.0 0.0 0.0 0.0 0.0 0.0 -3.2027060761163484 5.536274831480863 -2.87007993130176 -0.16615039409804516 -0.2067059549644469 0.5762736370246856 -0.149999999985009 -0.19999999999267257 0.30000000001152155 2.221400000057246 2.2213999999968266 5.947204720274495e-12 0.0 0.0 0.0 0.0 0.0 0.0
6532.272 0.45809493550609653 -1.885529400329105 1.8913539821084733 -1.5775092871271372 -1.5641353746118325 0.45808487927694497 0.0 0.0 -0.0 0.0 0.0 -0.0 0.0 0.0 0.0 0.0 0.0 0.0 -5.8460745106854385e-18 -0.3114035749645834 -0.846364901061535 -0.2526174815615467 0.0004674078944194273 0.0 -6.708954748022854e-17 -3.5869018288149865 -7.146021544880584 -1.0426759266417487 0.0019403888046453637 0.0 0.45812883973121643 -1.8856056372271937 1.8913335800170898 -1.5776169935809534 -1.56409198442568 0.4581007659435272 0.0 0.0 -0.0 0.0 0.0 0.0 0.0650482252240181 -0.3790741264820099 -0.9501006603240967 -0.3211512267589569 0.09511447697877884 0.11301837861537933 0.0785064771771431 -0.3701019585132599 -0.9440004825592041 -0.3267461955547333 0.07832957059144974 0.12197033315896988 -0.14999094617313646 -0.20000807597412376 0.3000323001757596 2.2213962633875766 2.221438368837672 -0.0003259018659615054 0.0 0.0 0.0 0.0 0.0 0.0 -3.0773836930306073 4.9723292031293465 -3.1012671115800514 0.009300549375788395 -0.10475686499184457 0.5243285131899098 -0.149999999985009 -0.19999999999267257 0.30000000001152155 2.221400000057246 2.2213999999968266 5.947204720274495e-12 0.0 0.0 0.0 0.0 0.0 0.0
6532.28 0.45809493550609653 -1.885529400329105 1.8913539821084733 -1.5775092871271372 -1.5641353746118325 0.45808487927694497 0.0 0.0 -0.0 0.0 0.0 -0.0 0.0 0.0 0.0 0.0 0.0 0.0 -5.8460745106854385e-18 -0.3114035749645834 -0.846364901061535 -0.2526174815615467 0.0004674078944194273 0.0 -6.708954748022854e-17 -3.5869018288149865 -7.146021544880584 -1.0426759266417487 0.0019403888046453637 0.0 0.4581887722015381 -1.8855813185321253 1.8913216590881348 -1.5775931517230433 -1.5641158262835901 0.45814868807792664 0.0 0.0 -0.0 0.0 0.0 0.0 0.0829925611615181 -0.3633728325366974 -0.9318001866340637 -0.33122217655181885 0.09175749868154526 0.12756529450416565 0.0785064771771431 -0.3656158745288849 -0.9455255270004272 -0.32898420095443726 0.07832957059144974 0.12197033315896988 -0.14998219828605924 -0.2000164634367256 0.3000284007887961 2.221390850485025 2.22145925900524 -0.00025994733331604773 0.0 0.0 0.0 0.0 0.0 0.0 -3.3592781894028727 6.586089594835238 -2.061974096547731 -0.07792805167797925 -0.25597314815241967 0.5918393966668867 -0.149999999985009 -0.19999999999267257 0.30000000001152155 2.221400000057246 2.2213999999968266 5.947204720274495e-12 0.0 0.0 0.0 0.0 0.0 0.0
6532.288 0.45809493550609653 -1.885529400329105 1.8913539821084733 -1.5775092871271372 -1.5641353746118325 0.45808487927694497 0.0 0.0 -0.0 0.0 0.0 -0.0 0.0 0.0 0.0 0.0 0.0 0.0 -5.8460745106854385e-18 -0.3114035749645834 -0.846364901061535 -0.2526174815615467 0.0004674078944194273 0.0 -6.708954748022854e-17 -3.5869018288149865 -7.146021544880584 -1.0426759266417487 0.0019403888046453637 0.0 0.458164781332016 -1.8855813185321253 1.8913216590881348 -1.5776408354388636 -1.56409198442568 0.4581127464771271 0.0 0.0 -0.0 0.0 0.0 0.0 0.0852356031537056 -0.3745880424976349 -0.9623009562492371 -0.3245082199573517 0.08280554413795471 0.1186133474111557 0.0785064771771431 -0.3678589165210724 -0.9455255270004272 -0.32786521315574646 0.07832957059144974 0.12197033315896988 -0.14998963377933217 -0.2000163894054155 0.30003247340607336 2.2213720361345155 2.221467755561742 -0.0003429343215730357 0.0 0.0 0.0 0.0 0.0 0.0 -3.2457410317770785 6.65274160648629 -3.5609878533329824 -0.19120252195722284 -0.12205082521438404 0.5503146495526442 -0.149999999985009 -0.19999999999267257 0.30000000001152155 2.221400000057246 2.2213999999968266 5.947204720274495e-12 0.0 0.0 0.0 0.0 0.0 0.0
6532.295999999999 0.45809493550609653 -1.885529400329105 1.8913539821084733 -1.5775092871271372 -1.5641353746118325 0.45808487927694497 0.0 0.0 -0.0 0.0 0.0 -0.0 0.0 0.0 0.0 0.0 0.0 0.0 -5.8460745106854385e-18 -0.3114035749645834 -0.846364901061535 -0.2526174815615467 0.0004674078944194273 0.0 -6.708954748022854e-17 -3.5869018288149865 -7.146021544880584 -1.0426759266417487 0.0019403888046453637 0.0 0.458164781332016 -1.8856056372271937 1.891345500946045 -1.5776050726519983 -1.5641277472125452 0.45808878540992737 0.0 0.0 -0.0 0.0 0.0 0.0 0.0785064771771431 -0.3723450005054474 -0.9333252310752869 -0.31443727016448975 0.06042566895484924 0.12532731890678406 0.0785064771771431 -0.3678589165210724 -0.9440004825592041 -0.32786521315574646 0.07832957059144974 0.12197033315896988 -0.1499832934716772 -0.20000993028523656 0.30002772351388485 2.2213617507052086 2.2215099517562718 -0.0002723756927289774 0.0 0.0 0.0 0.0 0.0 0.0 -3.612804957716479 5.794089656101744 -2.4991530560623088 -0.194179049117868 -0.2385102120505703 0.5814683504671124 -0.149999999985009 -0.19999999999267257 0.30000000001152155 2.221400000057246 2.2213999999968266 5.947204720274495e-12 0.0 0.0 0.0 0.0 0.0 0.0
6532.304 0.45809493550609653 -1.885529400329105 1.8913539821084733 -1.5775092871271372 -1.5641353746118325 0.45808487927694497 0.0 0.0 -0.0 0.0 0.0 -0.0 0.0 0.0 0.0 0.0 0.0 0.0 -5.8460745106854385e-18 -0.3114035749645834 -0.846364901061535 -0.2526174815615467 0.0004674078944194273 0.0 -6.708954748022854e-17 -3.5869018288149865 -7.146021544880584 -1.0426759266417487 0.0019403888046453637 0.0 0.458164781332016 -1.8856056372271937 1.8913097381591797 -1.5776050726519983 -1.564103905354635 0.45808878540992737 0.0 0.0 -0.0 0.0 0.0 0.0 0.0807495191693306 -0.3656158745288849 -0.924174964427948 -0.33010318875312805 0.06490164250135422 0.13092228770256042 0.0762634351849556 -0.3678589165210724 -0.9440004825592041 -0.32786521315574646 0.07832957059144974 0.12197033315896988 -0.14998509584278838 -0.20001305346040163 0.3000384044135312 2.2213537320473495 2.2215022898275385 -0.00033760911091859674 0.0 0.0 0.0 0.0 0.0 0.0 -3.5571178277667417 6.233858906690631 -1.7500162105089678 -0.15137020739189885 -0.34711071153343814 0.6074494695543691 -0.149999999985009 -0.19999999999267257 0.30000000001152155 2.221400000057246 2.2213999999968266 5.947204720274495e-12 0.0 0.0 0.0 0.0 0.0 0.0
6532.312 0.45809493550609653 -1.885529400329105 1.8913539821084733 -1.5775092871271372 -1.5641353746118325 0.45808487927694497 0.0 0.0 -0.0 0.0 0.0 -0.0 0.0 0.0 0.0 0.0 0.0 0.0 -5.8460745106854385e-18 -0.3114035749645834 -0.846364901061535 -0.2526174815615467 0.0004674078944194273 0.0 -6.708954748022854e-17 -3.5869018288149865 -7.146021544880584 -1.0426759266417487 0.0019403888046453637 0.0 0.4581408202648163 -1.8855932394610804 1.8912978172302246 -1.5776050726519983 -1.5641396681415003 0.4581007659435272 0.0 0.0 -0.0 0.0 0.0 0.0 0.0807495191693306 -0.3499145805835724 -0.9440004825592041 -0.34017413854599 0.08728151768445969 0.10742340981960297 0.0807495191693306 -0.3656158745288849 -0.9440004825592041 -0.32786521315574646 0.07832957059144974 0.12197033315896988 -0.14999372961629226 -0.20000808098015257 0.30003920264508793 -2.2213967149143596 -2.2214654128343474 0.0003188407231903663 0.0 0.0 0.0 0.0 0.0 0.0 -2.3527323755087854 7.112584852984828 -2.4022093763191927 -0.13479213187014077 -0.19292733743524518 0.4984021625108182 -0.149999999985009 -0.19999999999267257 0.30000000001152155 2.221400000057246 2.2213999999968266 5.947204720274495e-12 0.0 0.0 0.0 0.0 0.0 0.0
6532.32 0.45809493550609653 -1.885529400329105 1.8913539821084733 -1.5775092871271372 -1.5641353746118325 0.45808487927694497 0.0 0.0 -0.0 0.0 0.0 -0.0 0.0 0.0 0.0 0.0 0.0 0.0 -5.8460745106854385e-18 -0.3114035749645834 -0.846364901061535 -0.2526174815615467 0.0004674078944194273 0.0 -6.708954748022854e-17 -3.5869018288149865 -7.146021544880584 -1.0426759266417487 0.0019403888046453637 0.0 0.45820075273513794 -1.8856056372271937 1.8913216590881348 -1.5776408354388636 -1.56409198442568 0.45808878540992737 0.0 0.0 -0.0 0.0 0.0 0.0 0.0785064771771431 -0.3723450005054474 -0.9684011340141296 -0.3524830639362335 0.1007094457745552 0.12980328500270844 0.0785064771771431 -0.3723450005054474 -0.9485756158828735 -0.32898420095443726 0.07832957059144974 0.12197033315896988 -0.14997920545289106 -0.2000201974024762 0.300037898490321 2.2213109553440824 2.22153987942208 -0.00037910677749932294 0.0 0.0 0.0 0.0 0.0 0.0 -2.8510436417644915 6.9483366823258965 -3.220638109757413 -0.07053644050241466 -0.19506278287132706 0.6022271603109877 -0.149999999985009 -0.19999999999267257 0.30000000001152155 2.221400000057246 2.2213999999968266 5.947204720274495e-12 0.0 0.0 0.0 0.0 0.0 0.0
6532.3279999999995 0.45809493550609653 -1.885529400329105 1.8913539821084733 -1.5775092871271372 -1.5641353746118325 0.45808487927694497 0.0 0.0 -0.0 0.0 0.0 -0.0 0.0 0.0 0.0 0.0 0.0 0.0 -5.8460745106854385e-18 -0.3114035749645834 -0.846364901061535 -0.2526174815615467 0.0004674078944194273 0.0 -6.708954748022854e-17 -3.5869018288149865 -7.146021544880584 -1.0426759266417487 0.0019403888046453637 0.0 0.45817679166793823 -1.8855932394610804 1.891345500946045 -1.5776050726519983 -1.5641515890704554 0.4580644369125366 0.0 0.0 -0.0 0.0 0.0 0.0 0.0672912672162056 -0.3745880424976349 -0.9318001866340637 -0.34017413854599 0.07385359704494476 0.11301837861537933 0.0740203931927681 -0.3656158745288849 -0.942475438117981 -0.3256272077560425 0.07832957059144974 0.12197033315896988 -0.1499834080359716 -0.20001077960822766 0.3000249598656166 -2.221319481491291 -2.221548361764412 0.00024189501824575585 0.0 0.0 0.0 0.0 0.0 0.0 -3.2007456120076863 5.000553600002304 -1.8762046522003444 0.00337803529052879 -0.33160813463199257 0.5243449682972973 -0.149999999985009 -0.19999999999267257 0.30000000001152155 2.221400000057246 2.2213999999968266 5.947204720274495e-12 0.0 0.0 0.0 0.0 0.0 0.0
6532.335999999999 0.45809493550609653 -1.885529400329105 1.8913539821084733 -1.5775092871271372 -1.5641353746118325 0.45808487927694497 0.0 0.0 -0.0 0.0 0.0 -0.0 0.0 0.0 0.0 0.0 0.0 0.0 -5.8460745106854385e-18 -0.3114035749645834 -0.846364901061535 -0.2526174815615467 0.0004674078944194273 0.0 -6.708954748022854e-17 -3.5869018288149865 -7.146021544880584 -1.0426759266417487 0.0019403888046453637 0.0 0.45812883973121643 -1.8856294790851038 1.8913335800170898 -1.5776289145099085 -1.56409198442568 0.45808878540992737 0.0 0.0 -0.0 0.0 0.0 0.0 0.0785064771771431 -0.3768310844898224 -0.9562008380889893 -0.3412931263446808 0.07385359704494476 0.1376362442970276 0.0762634351849556 -0.3678589165210724 -0.9485756158828735 -0.3267461955547333 0.07832957059144974 0.12197033315896988 -0.14998865243537063 -0.20000696084659614 0.30003863741052544 2.2213909525884334 2.2214599167770457 -0.00037910220838580896 0.0 0.0 0.0 0.0 0.0 0.0 -3.360454286851445 6.511318285561771 -2.925988501070226 -0.15822280774550598 -0.26883234686962904 0.6385929376540488 -0.149999999985009 -0.19999999999267257 0.30000000001152155 2.221400000057246 2.2213999999968266 5.947204720274495e-12 0.0 0.0 0.0 0.0 0.0 0.0
6532.344 0.45809493550609653 -1.885529400329105 1.8913539821084733 -1.5775092871271372 -1.5641353746118325 0.45808487927694497 0.0 0.0 -0.0 0.0 0.0 -0.0 0.0 0.0 0.0 0.0 0.0 0.0 -5.8460745106854385e-18 -0.3114035749645834 -0.846364901061535 -0.2526174815615467 0.0004674078944194273 0.0 -6.708954748022854e-17 -3.5869018288149865 -7.146021544880584 -1.0426759266417487 0.0019403888046453637 0.0 0.4581168591976166 -1.885653320943014 1.891357421875 -1.5776050726519983 -1.5641277472125452 0.45808878540992737 0.0 0.0 -0.0 0.0 0.0 0.0 0.0762634351849556 -0.3588867485523224 -0.9440004825592041 -0.32898420095443726 0.06602063775062561 0.12420831620693207 0.0762634351849556 -0.3656158745288849 -0.9470505714416504 -0.3267461955547333 0.07832957059144974 0.12197033315896988 -0.1499856478970402 -0.1999991769895758 0.3000347994664194 -2.2214180426665786 -2.221459820625677 0.00032556957118291363 0.0 0.0 0.0 0.0 0.0 0.0 -2.781797914617659 6.67539170478667 -2.6482423257610725 -0.2193404702422996 -0.20730468652947034 0.5762863644653979 -0.149999999985009 -0.19999999999267257 0.30000000001152155 2.221400000057246 2.2213999999968266 5.947204720274495e-12 0.0 0.0 0.0 0.0 0.0 0.0
6532.352 0.45809493550609653 -1.885529400329105 1.8913539821084733 -1.5775092871271372 -1.5641353746118325 0.45808487927694497 0.0 0.0 -0.0 0.0 0.0 -0.0 0.0 0.0 0.0 0.0 0.0 0.0 -5.8460745106854385e-18 -0.3114035749645834 -0.846364901061535 -0.2526174815615467 0.0004674078944194273 0.0 -6.708954748022854e-17 -3.5869018288149865 -7.146021544880584 -1.0426759266417487 0.0019403888046453637 0.0 0.45815280079841614 -1.8856056372271937 1.891345500946045 -1.5776408354388636 -1.5641396681415003 0.4581007659435272 0.0 0.0 -0.0 0.0 0.0 0.0 0.0762634351849556 -0.3544006645679474 -0.9348502159118652 -0.3356981575489044 0.0839245393872261 0.11413737386465073 0.0807495191693306 -0.3656158745288849 -0.9470505714416504 -0.32898420095443726 0.07832957059144974 0.12197033315896988 -0.14998875295104203 -0.20000857514148063 0.3000307804480786 -2.2213832401940015 -2.2214787151742956 0.00031956560709936655 0.0 0.0 0.0 0.0 0.0 0.0 -2.6513721832251416 6.537393869597787 -2.097415172237839 -0.09888896884497814 -0.22956566790593708 0.5295488477689955 -0.149999999985009 -0.19999999999267257 0.30000000001152155 2.221400000057246 2.2213999999968266 5.947204720274495e-12 0.0 0.0 0.0 0.0 0.0 0.0
6532.36 0.45809493550609653 -1.885529400329105 1.8913539821084733 -1.5775092871271372 -1.5641353746118325 0.45808487927694497 0.0 0.0 -0.0 0.0 0.0 -0.0 0.0 0.0 0.0 0.0 0.0 0.0 -5.8460745106854385e-18 -0.3114035749645834 -0.846364901061535 -0.2526174815615467 0.0004674078944194273 0.0 -6.708954748022854e-17 -3.5869018288149865 -7.146021544880584 -1.0426759266417487 0.0019403888046453637 0.0 0.45815280079841614 -1.8856056372271937 1.8913097381591797 -1.5776408354388636 -1.5641158262835901 0.4581007659435272 0.0 0.0 -0.0 0.0 0.0 0.0 0.0762634351849556 -0.3701019585132599 -0.9211248755455017 -0.3177942633628845 0.09399548172950745 0.1365172564983368 0.0762634351849556 -0.3656158745288849 -0.9470505714416504 -0.3256272077560425 0.07832957059144974 0.12197033315896988 -0.14999055526113866 -0.2000116982469203 0.3000414614296235 -2.2213908918244134 -2.221486724852263 0.00038480145757062076 0.0 0.0 0.0 0.0 0.0 0.0 -3.774462937579079 5.731821739221856 -1.8858891845050803 -0.01874885545116705 -0.24377023034679415 0.6333719886206466 -0.149999999985009 -0.19999999999267257 0.30000000001152155 2.221400000057246 2.2213999999968266 5.947204720274495e-12 0.0 0.0 0.0 0.0 0.0 0.0
6532.3679999999995 0.45809493550609653 -1.885529400329105 1.8913539821084733 -1.5775092871271372 -1.5641353746118325 0.45808487927694497 0.0 0.0 -0.0 0.0 0.0 -0.0 0.0 0.0 0.0 0.0 0.0 0.0 -5.8460745106854385e-18 -0.3114035749645834 -0.846364901061535 -0.2526174815615467 0.0004674078944194273 0.0 -6.708954748022854e-17 -3.5869018288149865 -7.146021544880584 -1.0426759266417487 0.0019403888046453637 0.0 0.4581887722015381 -1.8856056372271937 1.891345500946045 -1.5776289145099085 -1.564103905354635 0.4581367075443268 0.0 0.0 -0.0 0.0 0.0 0.0 0.0807495191693306 -0.3588867485523224 -0.9638260006904602 -0.3200322389602661 0.0839245393872261 0.12756529450416565 0.0785064771771431 -0.3656158745288849 -0.9440004825592041 -0.32786521315574646 0.07832957059144974 0.12197033315896988 -0.14997937921591273 -0.2000161711434862 0.30002975883077554 2.2213775597045275 2.2214730076720253 -0.0003198864635377666 0.0 0.0 0.0 0.0 0.0 0.0 -2.6190395835038185 7.380968280856992 -3.717903112883348 -0.2614967565336275 -0.03760599062233369 0.5918368560548412 -0.149999999985009 -0.19999999999267257 0.30000000001152155 2.221400000057246 2.2213999999968266 5.947204720274495e-12 0.0 0.0 0.0 0.0 0.0 0.0
6532.375999999999 0.45809493550609653 -1.885529400329105 1.8913539821084733 -1.5775092871271372 -1.5641353746118325 0.45808487927694497 0.0 0.0 -0.0 0.0 0.0 -0.0 0.0 0.0 0.0 0.0 0.0 0.0 -5.8460745106854385e-18 -0.3114035749645834 -0.846364901061535 -0.2526174815615467 0.0004674078944194273 0.0 -6.708954748022854e-17 -3.5869018288149865 -7.146021544880584 -1.0426759266417487 0.0019403888046453637 0.0 0.458164781332016 -1.8856175581561487 1.8912978172302246 -1.5776050726519983 -1.5641635099994105 0.4580644369125366 0.0 0.0 -0.0 0.0 0.0 0.0 0.0740203931927681 -0.3656158745288849 -0.9729762673377991 -0.3233892321586609 0.07609158009290695 0.12420831620693207 0.0785064771771431 -0.3656158745288849 -0.9440004825592041 -0.32898420095443726 0.07832957059144974 0.12197033315896988 -0.14998657204365057 -0.20000832666423035 0.30004462969558177 -2.2213082485219564 -2.221510885716185 0.0003429685928145608 0.0 0.0 0.0 0.0 0.0 0.0 -2.489542448360658 6.872409137998328 -4.05345487867099 -0.25798189806253785 -0.03145425025518358 0.5762757164614479 -0.149999999985009 -0.19999999999267257 0.30000000001152155 2.221400000057246 2.2213999999968266 5.947204720274495e-12 0.0 0.0 0.0 0.0 0.0 0.0
6532.384 0.45809493550609653 -1.885529400329105 1.8913539821084733 -1.5775092871271372 -1.5641353746118325 0.45808487927694497 0.0 0.0 -0.0 0.0 0.0 -0.0 0.0 0.0 0.0 0.0 0.0 0.0 -5.8460745106854385e-18 -0.3114035749645834 -0.846364901061535 -0.2526174815615467 0.0004674078944194273 0.0 -6.708954748022854e-17 -3.5869018288149865 -7.146021544880584 -1.0426759266417487 0.0019403888046453637 0.0 0.45817679166793823 -1.8855813185321253 1.891345500946045 -1.5776169935809534 -1.5641277472125452 0.4580644369125366 0.0 0.0 -0.0 0.0 0.0 0.0 0.0785064771771431 -0.3633728325366974 -0.924174964427948 -0.3412931263446808 0.06602063775062561 0.12644630670547485 0.0785064771771431 -0.3656158745288849 -0.9440004825592041 -0.32786521315574646 0.07832957059144974 0.12197033315896988 -0.1499850008237385 -0.2000137594508548 0.300023317159493 2.221318485926658 2.2215475642894016 -0.0002539405267265531 0.0 0.0 0.0 0.0 0.0 0.0 -3.3210737430611075 6.217627572495401 -1.5063473320563272 -0.11333373069656272 -0.3904652963492351 0.5866661547934396 -0.149999999985009 -0.19999999999267257 0.30000000001152155 2.221400000057246 2.2213999999968266 5.947204720274495e-12 0.0 0.0 0.0 0.0 0.0 0.0
6532.392 0.45809493550609653 -1.885529400329105 1.8913539821084733 -1.5775092871271372 -1.5641353746118325 0.45808487927694497 0.0 0.0 -0.0 0.0 0.0 -0.0 0.0 0.0 0.0 0.0 0.0 0.0 -5.8460745106854385e-18 -0.3114035749645834 -0.846364901061535 -0.2526174815615467 0.0004674078944194273 0.0 -6.708954748022854e-17 -3.5869018288149865 -7.146021544880584 -1.0426759266417487 0.0019403888046453637 0.0 0.4581887722015381 -1.8855693976031702 1.8913216590881348 -1.5776050726519983 -1.564103905354635 0.45805245637893677 0.0 0.0 -0.0 0.0 0.0 0.0 0.0762634351849556 -0.3633728325366974 -0.9668760895729065 -0.31443727016448975 0.07609158009290695 0.12532731890678406 0.0785064771771431 -0.3656158745288849 -0.9440004825592041 -0.32898420095443726 0.07832957059144974 0.12197033315896988 -0.14998422531605943 -0.20001856277630334 0.30002675908313997 2.2212758910862056 2.2215582408872265 -0.0002659737044613786 0.0 0.0 0.0 0.0 0.0 0.0 -2.623979837433136 6.919943160362583 -3.97725917288802 -0.27740532585114397 -0.011219543334414854 0.5814431111571426 -0.149999999985009 -0.19999999999267257 0.30000000001152155 2.221400000057246 2.2213999999968266 5.947204720274495e-12 0.0 0.0 0.0 0.0 0.0 0.0
6532.4 0.45809493550609653 -1.885529400329105 1.8913539821084733 -1.5775092871271372 -1.5641353746118325 0.45808487927694497 0.0 0.0 -0.0 0.0 0.0 -0.0 0.0 0.0 0.0 0.0 0.0 0.0 -5.8460745106854385e-18 -0.3114035749645834 -0.846364901061535 -0.2526174815615467 0.0004674078944194273 0.0 -6.708954748022854e-17 -3.5869018288149865 -7.146021544880584 -1.0426759266417487 0.0019403888046453637 0.0 0.4581168591976166 -1.8855693976031702 1.891357421875 -1.5775812307940882 -1.5641277472125452 0.4580764174461365 0.0 0.0 -0.0 0.0 0.0 0.0 0.0740203931927681 -0.3745880424976349 -0.9363752603530884 -0.34912607073783875 0.08840051293373108 0.12980328500270844 0.0695343092083931 -0.3656158745288849 -0.9440004825592041 -0.32786521315574646 0.07832957059144974 0.12197033315896988 -0.14999505300402594 -0.2000037715825305 0.3000140411903695 2.221385176459166 2.2214538406642537 -0.00016526760242302087 0.0 0.0 0.0 0.0 0.0 0.0 -3.4034449216909453 5.8264192634048575 -1.8807985166953918 0.014276585309147613 -0.35517080616685465 0.6022132958651952 -0.149999999985009 -0.19999999999267257 0.30000000001152155 2.221400000057246 2.2213999999968266 5.947204720274495e-12 0.0 0.0 0.0 0.0 0.0 0.0
6532.407999999999 0.45809493550609653 -1.885529400329105 1.8913539821084733 -1.5775092871271372 -1.5641353746118325 0.45808487927694497 0.0 0.0 -0.0 0.0 0.0 -0.0 0.0 0.0 0.0 0.0 0.0 0.0 -5.8460745106854385e-18 -0.3114035749645834 -0.846364901061535 -0.2526174815615467 0.0004674078944194273 0.0 -6.708954748022854e-17 -3.5869018288149865 -7.146021544880584 -1.0426759266417487 0.0019403888046453637 0.0 0.45815280079841614 -1.8856294790851038 1.891357421875 -1.5776050726519983 -1.564103905354635 0.4581127464771271 0.0 0.0 -0.0 0.0 0.0 0.0 0.0740203931927681 -0.3566437065601349 -0.9455255270004272 -0.3513640761375427 0.07161560654640198 0.10518541932106018 0.0740203931927681 -0.3723450005054474 -0.9485756158828735 -0.32786521315574646 0.07832957059144974 0.12197033315896988 -0.1499807610596934 -0.20000788460190366 0.3000294791052954 2.221388405957619 2.221456786247872 -0.00030214453715454113 0.0 0.0 0.0 0.0 0.0 0.0 -2.33181577371175 6.494648187504533 -2.230186404362911 -0.11979851571992488 -0.28337422284200997 0.48803122707382407 -0.149999999985009 -0.19999999999267257 0.30000000001152155 2.221400000057246 2.2213999999968266 5.947204720274495e-12 0.0 0.0 0.0 0.0 0.0 0.0
6532.415999999999 0.45809493550609653 -1.885529400329105 1.8913539821084733 -1.5775092871271372 -1.5641353746118325 0.45808487927694497 0.0 0.0 -0.0 0.0 0.0 -0.0 0.0 0.0 0.0 0.0 0.0 0.0 -5.8460745106854385e-18 -0.3114035749645834 -0.846364901061535 -0.2526174815615467 0.0004674078944194273 0.0 -6.708954748022854e-17 -3.5869018288149865 -7.146021544880584 -1.0426759266417487 0.0019403888046453637 0.0 0.45820075273513794 -1.8855574766742151 1.891357421875 -1.577569309865133 -1.564103905354635 0.4581127464771271 0.0 0.0 -0.0 0.0 0.0 0.0 0.0785064771771431 -0.3768310844898224 -0.9638260006904602 -0.3211512267589569 0.06602063775062561 0.10854240506887436 0.0762634351849556 -0.3656158745288849 -0.9470505714416504 -0.32786521315574646 0.07832957059144974 0.12197033315896988 -0.1499781132596956 -0.20001845263174825 0.3000103613749931 2.2213110453211264 2.2214852111183565 -0.00014183378865026706 0.0 0.0 0.0 0.0 0.0 0.0 -3.0538052553669073 6.020156288068642 -3.704306844452908 -0.22148491995962444 -0.1160684148863193 0.5035639168779529 -0.149999999985009 -0.19999999999267257 0.30000000001152155 2.221400000057246 2.2213999999968266 5.947204720274495e-12 0.0 0.0 0.0 0.0 0.0 0.0
6532.424 0.45809493550609653 -1.885529400329105 1.8913539821084733 -1.5775092871271372 -1.5641353746118325 0.45808487927694497 0.0 0.0 -0.0 0.0 0.0 -0.0 0.0 0.0 0.0 0.0 0.0 0.0 -5.8460745106854385e-18 -0.3114035749645834 -0.846364901061535 -0.2526174815615467 0.0004674078944194273 0.0 -6.708954748022854e-17 -3.5869018288149865 -7.146021544880584 -1.0426759266417487 0.0019403888046453637 0.0 0.458164781332016 -1.8855813185321253 1.8913335800170898 -1.5776169935809534 -1.5641635099994105 0.4581367075443268 0.0 0.0 -0.0 0.0 0.0 0.0 0.0807495191693306 -0.3611297905445099 -0.9302751421928406 -0.3245082199573517 0.08168654888868332 0.10854240506887436 0.0762634351849556 -0.3701019585132599 -0.9470505714416504 -0.32786521315574646 0.07832957059144974 0.12197033315896988 -0.14998959608134507 -0.20000977049075774 0.30002688111947184 -2.2214023082521708 -2.22144417968966 0.00025361205477124793 0.0 0.0 0.0 0.0 0.0 0.0 -3.101609721323157 6.148664691025506 -2.1420123259790285 -0.10089115363644069 -0.22130185571110417 0.5035815276741732 -0.149999999985009 -0.19999999999267257 0.30000000001152155 2.221400000057246 2.2213999999968266 5.947204720274495e-12 0.0 0.0 0.0 0.0 0.0 0.0
6532.432 0.45809493550609653 -1.885529400329105 1.8913539821084733 -1.5775092871271372 -1.5641353746118325 0.45808487927694497 0.0 0.0 -0.0 0.0 0.0 -0.0 0.0 0.0 0.0 0.0 0.0 0.0 -5.8460745106854385e-18 -0.3114035749645834 -0.846364901061535 -0.2526174815615467 0.0004674078944194273 0.0 -6.708954748022854e-17 -3.5869018288149865 -7.146021544880584 -1.0426759266417487 0.0019403888046453637 0.0 0.45817679166793823 -1.8855693976031702 1.8913216590881348 -1.5776050726519983 -1.5641515890704554 0.4581127464771271 0.0 0.0 -0.0 0.0 0.0 0.0 0.0762634351849556 -0.3656158745288849 -0.9104495644569397 -0.3256272077560425 0.0839245393872261 0.12644630670547485 0.0807495191693306 -0.3701019585132599 -0.9409503936767578 -0.3267461955547333 0.07832957059144974 0.12197033315896988 -0.1499883585574661 -0.2000132436893039 0.3000267630538166 -2.221373078469179 -2.221494776454928 0.00024189597279552897 0.0 0.0 0.0 0.0 0.0 0.0 -3.6657111782486544 5.5653273548533 -1.2428516968561447 -0.006941026795860178 -0.3372789090660114 0.5866412191607605 -0.149999999985009 -0.19999999999267257 0.30000000001152155 2.221400000057246 2.2213999999968266 5.947204720274495e-12 0.0 0.0 0.0 0.0 0.0 0.0
6532.44 0.45809493550609653 -1.885529400329105 1.8913539821084733 -1.5775092871271372 -1.5641353746118325 0.45808487927694497 0.0 0.0 -0.0 0.0 0.0 -0.0 0.0 0.0 0.0 0.0 0.0 0.0 -5.8460745106854385e-18 -0.3114035749645834 -0.846364901061535 -0.2526174815615467 0.0004674078944194273 0.0 -6.708954748022854e-17 -3.5869018288149865 -7.146021544880584 -1.0426759266417487 0.0019403888046453637 0.0 0.4581408202648163 -1.8856294790851038 1.8913216590881348 -1.5775931517230433 -1.5641158262835901 0.4581367075443268 0.0 0.0 -0.0 0.0 0.0 0.0 0.0740203931927681 -0.3701019585132599 -0.9653510451316833 -0.32898420095443726 0.09399548172950745 0.11301837861537933 0.0762634351849556 -0.3678589165210724 -0.9470505714416504 -0.32786521315574646 0.07832957059144974 0.12197033315896988 -0.14998538584408821 -0.20000612838304604 0.30003914430909 2.2214416832843695 2.2214303191447207 -0.00033158436424646275 0.0 0.0 0.0 0.0 0.0 0.0 -2.663394012131361 6.294379811939589 -3.5987228235219466 -0.10719570528548984 -0.06687578480588022 0.5243375183834769 -0.149999999985009 -0.19999999999267257 0.30000000001152155 2.221400000057246 2.2213999999968266 5.947204720274495e-12 0.0 0.0 0.0 0.0 0.0 0.0
6532.447999999999 0.45809493550609653 -1.885529400329105 1.8913539821084733 -1.5775092871271372 -1.5641353746118325 0.45808487927694497 0.0 0.0 -0.0 0.0 0.0 -0.0 0.0 0.0 0.0 0.0 0.0 0.0 -5.8460745106854385e-18 -0.3114035749645834 -0.846364901061535 -0.2526174815615467 0.0004674078944194273 0.0 -6.708954748022854e-17 -3.5869018288149865 -7.146021544880584 -1.0426759266417487 0.0019403888046453637 0.0 0.458164781332016 -1.885653320943014 1.8913335800170898 -1.577569309865133 -1.56409198442568 0.45814868807792664 0.0 0.0 -0.0 0.0 0.0 0.0 0.0874786451458931 -0.3790741264820099 -0.9180747866630554 -0.3222702145576477 0.08728151768445969 0.134279265999794 0.0807495191693306 -0.3723450005054474 -0.9485756158828735 -0.32786521315574646 0.07832957059144974 0.12197033315896988 -0.14997391205438834 -0.20000859169460466 0.300038862502381 2.2214098827784357 2.2214248008380952 -0.00032587741173203976 0.0 0.0 0.0 0.0 0.0 0.0 -4.410796098121497 5.777011409598284 -1.656460720081063 -0.03283494020824789 -0.3459608043568391 0.6230077994299444 -0.149999999985009 -0.19999999999267257 0.30000000001152155 2.221400000057246 2.2213999999968266 5.947204720274495e-12 0.0 0.0 0.0 0.0 0.0 0.0
6532.456 0.45809493550609653 -1.885529400329105 1.8913539821084733 -1.5775092871271372 -1.5641353746118325 0.45808487927694497 0.0 0.0 -0.0 0.0 0.0 -0.0 0.0 0.0 0.0 0.0 0.0 0.0 -5.8460745106854385e-18 -0.3114035749645834 -0.846364901061535 -0.2526174815615467 0.0004674078944194273 0.0 -6.708954748022854e-17 -3.5869018288149865 -7.146021544880584 -1.0426759266417487 0.0019403888046453637 0.0 0.4581408202648163 -1.8855574766742151 1.8913097381591797 -1.577569309865133 -1.56409198442568 0.4580644369125366 0.0 0.0 -0.0 0.0 0.0 0.0 0.0807495191693306 -0.3745880424976349 -0.9546757936477661 -0.31219929456710815 0.06378264725208282 0.11637535691261292 0.0785064771771431 -0.3656158745288849 -0.9470505714416504 -0.32786521315574646 0.07497258484363556 0.12197033315896988 -0.14999322833919745 -0.2000121606926065 0.3000246038703104 2.221326596912928 2.221475373571567 -0.00021878404559472008 0.0 0.0 0.0 0.0 0.0 0.0 -3.303738701520038 6.1211769341202595 -3.4926317121451618 -0.24937544414245846 -0.12042175073893414 0.5399165513528501 -0.149999999985009 -0.19999999999267257 0.30000000001152155 2.221400000057246 2.2213999999968266 5.947204720274495e-12 0.0 0.0 0.0 0.0 0.0 0.0
6532.464 0.45809493550609653 -1.885529400329105 1.8913539821084733 -1.5775092871271372 -1.5641353746118325 0.45808487927694497 0.0 0.0 -0.0 0.0 0.0 -0.0 0.0 0.0 0.0 0.0 0.0 0.0 -5.8460745106854385e-18 -0.3114035749645834 -0.846364901061535 -0.2526174815615467 0.0004674078944194273 0.0 -6.708954748022854e-17 -3.5869018288149865 -7.146021544880584 -1.0426759266417487 0.0019403888046453637 0.0 0.4581408202648163 -1.8855932394610804 1.8912978172302246 -1.5776408354388636 -1.5641158262835901 0.4580644369125366 0.0 0.0 -0.0 0.0 0.0 0.0 0.0807495191693306 -0.3723450005054474 -0.9638260006904602 -0.3233892321586609 0.07944856584072113 0.10518541932106018 0.0785064771771431 -0.3678589165210724 -0.9409503936767578 -0.32786521315574646 0.08056755363941193 0.12197033315896988 -0.1499954901914072 -0.2000111643295074 0.3000422566993303 -2.2213639186502565 -2.221513906169018 0.00038409233977612016 0.0 0.0 0.0 0.0 0.0 0.0 -2.901371359048229 6.311658610882001 -3.6537989382898677 -0.1830162011892018 -0.08874487527787937 0.48802053664947614 -0.149999999985009 -0.19999999999267257 0.30000000001152155 2.221400000057246 2.2213999999968266 5.947204720274495e-12 0.0 0.0 0.0 0.0 0.0 0.0
6532.472 0.45809493550609653 -1.885529400329105 1.8913539821084733 -1.5775092871271372 -1.5641353746118325 0.45808487927694497 0.0 0.0 -0.0 0.0 0.0 -0.0 0.0 0.0 0.0 0.0 0.0 0.0 -5.8460745106854385e-18 -0.3114035749645834 -0.846364901061535 -0.2526174815615467 0.0004674078944194273 0.0 -6.708954748022854e-17 -3.5869018288149865 -7.146021544880584 -1.0426759266417487 0.0019403888046453637 0.0 0.45817679166793823 -1.8856414000140589 1.891345500946045 -1.5776289145099085 -1.5641277472125452 0.4580644369125366 0.0 0.0 -0.0 0.0 0.0 0.0 0.0717773512005806 -0.3566437065601349 -0.9333252310752869 -0.3334601819515228 0.09175749868154526 0.12868429720401764 0.0785064771771431 -0.3678589165210724 -0.9440004825592041 -0.32786521315574646 0.07944856584072113 0.12197033315896988 -0.14997788901765607 -0.2000102792078133 0.30003773859205674 -2.2213188138013575 -2.2215482367374304 0.00036104281320486093 0.0 0.0 0.0 0.0 0.0 0.0 -2.792251184902256 6.415044478156115 -2.0789708884096196 -0.05973024541890839 -0.21749644574376775 0.5970324645482281 -0.149999999985009 -0.19999999999267257 0.30000000001152155 2.221400000057246 2.2213999999968266 5.947204720274495e-12 0.0 0.0 0.0 0.0 0.0 0.0
6532.48 0.45809493550609653 -1.885529400329105 1.8913539821084733 -1.5775092871271372 -1.5641353746118325 0.45808487927694497 0.0 0.0 -0.0 0.0 0.0 -0.0 0.0 0.0 0.0 0.0 0.0 0.0 -5.8460745106854385e-18 -0.3114035749645834 -0.846364901061535 -0.2526174815615467 0.0004674078944194273 0.0 -6.708954748022854e-17 -3.5869018288149865 -7.146021544880584 -1.0426759266417487 0.0019403888046453637 0.0 0.45815280079841614 -1.8855813185321253 1.8913097381591797 -1.5775931517230433 -1.5641158262835901 0.4581367075443268 0.0 0.0 -0.0 0.0 0.0 0.0 0.0672912672162056 -0.3701019585132599 -0.9455255270004272 -0.3267461955547333 0.07832957059144974 0.12197033315896988 0.0785064771771431 -0.3678589165210724 -0.9440004825592041 -0.32786521315574646 0.07832957059144974 0.12197033315896988 -0.14999028338830142 -0.2000115222760408 0.30003196171857266 2.2214201583154956 2.221435373495068 -0.0002776801555379876 0.0 0.0 0.0 0.0 0.0 0.0 -2.9352620798104274 5.631221275480197 -2.77146866066322 -0.09107271184135401 -0.1761685688311083 0.5658759839107163 -0.149999999985009 -0.19999999999267257 0.30000000001152155 2.221400000057246 2.2213999999968266 5.947204720274495e-12 0.0 0.0 0.0 0.0 0.0 0.0
6532.487999999999 0.45809493550609653 -1.885529400329105 1.8913539821084733 -1.5775092871271372 -1.5641353746118325 0.45808487927694497 0.0 0.0 -0.0 0.0 0.0 -0.0 0.0 0.0 0.0 0.0 0.0 0.0 -5.8460745106854385e-18 -0.3114035749645834 -0.846364901061535 -0.2526174815615467 0.0004674078944194273 0.0 -6.708954748022854e-17 -3.5869018288149865 -7.146021544880584 -1.0426759266417487 0.0019403888046453637 0.0 0.4581408202648163 -1.8855693976031702 1.8913216590881348 -1.5776169935809534 -1.5641158262835901 0.4581007659435272 0.0 0.0 -0.0 0.0 0.0 0.0 0.0807495191693306 -0.3701019585132599 -0.9272250533103943 -0.303247332572937 0.06937761604785919 0.12420831620693207 0.0785064771771431 -0.3723450005054474 -0.9440004825592041 -0.32786521315574646 0.07832957059144974 0.12197033315896988 -0.14999512699920822 -0.2000109307203965 0.3000277786796454 2.2213934219745286 2.2214620846551196 -0.00027769167759621833 0.0 0.0 0.0 0.0 0.0 0.0 -3.737128200947829 5.785583715438993 -2.47216587113556 -0.17804704220141643 -0.1858559606161341 0.5762693995687598 -0.149999999985009 -0.19999999999267257 0.30000000001152155 2.221400000057246 2.2213999999968266 5.947204720274495e-12 0.0 0.0 0.0 0.0 0.0 0.0
6532.496 0.45809493550609653 -1.885529400329105 1.8913539821084733 -1.5775092871271372 -1.5641353746118325 0.45808487927694497 0.0 0.0 -0.0 0.0 0.0 -0.0 0.0 0.0 0.0 0.0 0.0 0.0 -5.8460745106854385e-18 -0.3114035749645834 -0.846364901061535 -0.2526174815615467 0.0004674078944194273 0.0 -6.708954748022854e-17 -3.5869018288149865 -7.146021544880584 -1.0426759266417487 0.0019403888046453637 0.0 0.4581408202648163 -1.8856175581561487 1.8913216590881348 -1.5775812307940882 -1.5641158262835901 0.4580644369125366 0.0 0.0 -0.0 0.0 0.0 0.0 0.0829925611615181 -0.3588867485523224 -0.9226499199867249 -0.3345791697502136 0.07497258484363556 0.12644630670547485 0.0785064771771431 -0.3678589165210724 -0.9440004825592041 -0.32786521315574646 0.07832957059144974 0.12197033315896988 -0.14998609454193695 -0.20000646558854554 0.30003546640863415 2.2213561108105484 2.221505080570304 -0.00029611628844098195 0.0 0.0 0.0 0.0 0.0 0.0 -3.3268637359345345 6.594902561899619 -1.5824622468384832 -0.12373982994108329 -0.3386156960638196 0.5866701944429303 -0.149999999985009 -0.19999999999267257 0.30000000001152155 2.221400000057246 2.2213999999968266 5.947204720274495e-12 0.0 0.0 0.0 0.0 0.0 0.0
6532.504 0.45809493550609653 -1.885529400329105 1.8913539821084733 -1.5775092871271372 -1.5641353746118325 0.45808487927694497 0.0 0.0 -0.0 0.0 0.0 -0.0 0.0 0.0 0.0 0.0 0.0 0.0 -5.8460745106854385e-18 -0.3114035749645834 -0.846364901061535 -0.2526174815615467 0.0004674078944194273 0.0 -6.708954748022854e-17 -3.5869018288149865 -7.146021544880584 -1.0426759266417487 0.0019403888046453637 0.0 0.45812883973121643 -1.8856056372271937 1.891357421875 -1.577557388936178 -1.5641277472125452 0.45808878540992737 0.0 0.0 -0.0 0.0 0.0 0.0 0.0672912672162056 -0.3678589165210724 -0.9592509269714355 -0.3256272077560425 0.08840051293373108 0.11749435216188431 0.0717773512005806 -0.3656158745288849 -0.9440004825592041 -0.32786521315574646 0.07832957059144974 0.12197033315896988 -0.149986086043832 -0.2000023223995778 0.30002008821339654 2.221388565503124 2.221456116960686 -0.0001836964323026057 0.0 0.0 0.0 0.0 0.0 0.0 -2.5720000874076985 5.977376212004803 -3.4016432133027705 -0.10373966079107054 -0.07238941377591558 0.5450905256607076 -0.149999999985009 -0.19999999999267257 0.30000000001152155 2.221400000057246 2.2213999999968266 5.947204720274495e-12 0.0 0.0 0.0 0.0 0.0 0.0
6532.512 0.45809493550609653 -1.885529400329105 1.8913539821084733 -1.5775092871271372 -1.5641353746118325 0.45808487927694497 0.0 0.0 -0.0 0.0 0.0 -0.0 0.0 0.0 0.0 0.0 0.0 0.0 -5.8460745106854385e-18 -0.3114035749645834 -0.846364901061535 -0.2526174815615467 0.0004674078944194273 0.0 -6.708954748022854e-17 -3.5869018288149865 -7.146021544880584 -1.0426759266417487 0.0019403888046453637 0.0 0.45820075273513794 -1.885653320943014 1.891345500946045 -1.5776169935809534 -1.564103905354635 0.4581007659435272 0.0 0.0 -0.0 0.0 0.0 0.0 0.0852356031537056 -0.3790741264820099 -0.9577258825302124 -0.3222702145576477 0.08728151768445969 0.12756529450416565 0.0829925611615181 -0.3678589165210724 -0.9455255270004272 -0.32786521315574646 0.07832957059144974 0.12197033315896988 -0.14996976670281273 -0.2000144149960456 0.30003937716250745 2.2213324856553713 2.221534347249907 -0.0003730767290292314 0.0 0.0 0.0 0.0 0.0 0.0 -3.5886591130083563 6.473259218504527 -3.408798516549922 -0.156422102584177 -0.14361801397153678 0.5918476981606919 -0.149999999985009 -0.19999999999267257 0.30000000001152155 2.221400000057246 2.2213999999968266 5.947204720274495e-12 0.0 0.0 0.0 0.0 0.0 0.0
6532.5199999999995 0.45809493550609653 -1.885529400329105 1.8913539821084733 -1.5775092871271372 -1.5641353746118325 0.45808487927694497 0.0 0.0 -0.0 0.0 0.0 -0.0 0.0 0.0 0.0 0.0 0.0 0.0 -5.8460745106854385e-18 -0.3114035749645834 -0.846364901061535 -0.2526174815615467 0.0004674078944194273 0.0 -6.708954748022854e-17 -3.5869018288149865 -7.146021544880584 -1.0426759266417487 0.0019403888046453637 0.0 0.4581408202648163 -1.8855813185321253 1.8913817405700684 -1.5776169935809534 -1.5641158262835901 0.4580764174461365 0.0 0.0 -0.0 0.0 0.0 0.0 0.0740203931927681 -0.3678589165210724 -0.9409503936767578 -0.3245082199573517 0.08840051293373108 0.13204127550125122 0.0740203931927681 -0.3678589165210724 -0.9470505714416504 -0.3256272077560425 0.07832957059144974 0.12197033315896988 -0.14998905429508125 -0.20000786426933817 0.30001249102066163 2.2213556738973703 2.2214779510260425 -0.00020605591701445514 0.0 0.0 0.0 0.0 0.0 0.0 -3.208047272138726 6.1562995567852665 -2.6150786035258338 -0.0909628549140771 -0.18054484356496536 0.6125896407704664 -0.149999999985009 -0.19999999999267257 0.30000000001152155 2.221400000057246 2.2213999999968266 5.947204720274495e-12 0.0 0.0 0.0 0.0 0.0 0.0
6532.527999999999 0.45809493550609653 -1.885529400329105 1.8913539821084733 -1.5775092871271372 -1.5641353746118325 0.45808487927694497 0.0 0.0 -0.0 0.0 0.0 -0.0 0.0 0.0 0.0 0.0 0.0 0.0 -5.8460745106854385e-18 -0.3114035749645834 -0.846364901061535 -0.2526174815615467 0.0004674078944194273 0.0 -6.708954748022854e-17 -3.5869018288149865 -7.146021544880584 -1.0426759266417487 0.0019403888046453637 0.0 0.4581408202648163 -1.8856175581561487 1.8913097381591797 -1.5775931517230433 -1.5641515890704554 0.45808878540992737 0.0 0.0 -0.0 0.0 0.0 0.0 0.0762634351849556 -0.3588867485523224 -0.9623009562492371 -0.3222702145576477 0.09063850343227386 0.1353982537984848 0.0717773512005806 -0.3678589165210724 -0.942475438117981 -0.3267461955547333 0.07832957059144974 0.12197033315896988 -0.14998916371206372 -0.20000471863475 0.30004004901546527 -2.221375427261925 -2.2214705015595246 0.0003135226990435906 0.0 0.0 0.0 0.0 0.0 0.0 -2.5921874841222223 7.273920897765518 -3.6017798365998637 -0.21550811645188167 -0.03999522198967099 0.6281751619555773 -0.149999999985009 -0.19999999999267257 0.30000000001152155 2.221400000057246 2.2213999999968266 5.947204720274495e-12 0.0 0.0 0.0 0.0 0.0 0.0
6532.536 0.45809493550609653 -1.885529400329105 1.8913539821084733 -1.5775092871271372 -1.5641353746118325 0.45808487927694497 0.0 0.0 -0.0 0.0 0.0 -0.0 0.0 0.0 0.0 0.0 0.0 0.0 -5.8460745106854385e-18 -0.3114035749645834 -0.846364901061535 -0.2526174815615467 0.0004674078944194273 0.0 -6.708954748022854e-17 -3.5869018288149865 -7.146021544880584 -1.0426759266417487 0.0019403888046453637 0.0 0.4581408202648163 -1.8855813185321253 1.8913216590881348 -1.5775931517230433 -1.5641515890704554 0.4581127464771271 0.0 0.0 -0.0 0.0 0.0 0.0 0.0762634351849556 -0.3745880424976349 -0.9455255270004272 -0.3233892321586609 0.09175749868154526 0.12980328500270844 0.0740203931927681 -0.3678589165210724 -0.9440004825592041 -0.32786521315574646 0.07832957059144974 0.12197033315896988 -0.14999309188749962 -0.20000662958675944 0.30002840378439405 -2.2214130950587228 -2.221454741545696 0.00024189013788864213 0.0 0.0 0.0 0.0 0.0 0.0 -3.4214010374365986 5.994853537217165 -2.8446764775131337 -0.07462119133636409 -0.16887472197110523 0.6022056286039076 -0.149999999985009 -0.19999999999267257 0.30000000001152155 2.221400000057246 2.2213999999968266 5.947204720274495e-12 0.0 0.0 0.0 0.0 0.0 0.0
6532.544 0.45809493550609653 -1.885529400329105 1.8913539821084733 -1.5775092871271372 -1.5641353746118325 0.45808487927694497 0.0 0.0 -0.0 0.0 0.0 -0.0 0.0 0.0 0.0 0.0 0.0 0.0 -5.8460745106854385e-18 -0.3114035749645834 -0.846364901061535 -0.2526174815615467 0.0004674078944194273 0.0 -6.708954748022854e-17 -3.5869018288149865 -7.146021544880584 -1.0426759266417487 0.0019403888046453637 0.0 0.4581408202648163 -1.8856056372271937 1.8913216590881348 -1.577569309865133 -1.5641515890704554 0.4581127464771271 0.0 0.0 -0.0 0.0 0.0 0.0 0.0717773512005806 -0.3633728325366974 -0.9577258825302124 -0.3189132511615753 0.08951950818300247 0.12644630670547485 0.0762634351849556 -0.3656158745288849 -0.9470505714416504 -0.32786521315574646 0.07832957059144974 0.12197033315896988 -0.14998810577537028 -0.2000041610806882 0.3000317915178778 -2.2214131135055695 -2.2214544744807614 0.00024258827286835052 0.0 0.0 0.0 0.0 0.0 0.0 -2.6601738330653033 6.521482925526854 -3.47657699606962 -0.16039174399833722 -0.043668585765426454 0.5866294033065905 -0.149999999985009 -0.19999999999267257 0.30000000001152155 2.221400000057246 2.2213999999968266 5.947204720274495e-12 0.0 0.0 0.0 0.0 0.0 0.0
6532.552 0.45809493550609653 -1.885529400329105 1.8913539821084733 -1.5775092871271372 -1.5641353746118325 0.45808487927694497 0.0 0.0 -0.0 0.0 0.0 -0.0 0.0 0.0 0.0 0.0 0.0 0.0 -5.8460745106854385e-18 -0.3114035749645834 -0.846364901061535 -0.2526174815615467 0.0004674078944194273 0.0 -6.708954748022854e-17 -3.5869018288149865 -7.146021544880584 -1.0426759266417487 0.0019403888046453637 0.0 0.4581887722015381 -1.8855693976031702 1.8913335800170898 -1.5776050726519983 -1.5641515890704554 0.4581606686115265 0.0 0.0 -0.0 0.0 0.0 0.0 0.0807495191693306 -0.3701019585132599 -0.9394253492355347 -0.3267461955547333 0.08056755363941193 0.12420831620693207 0.0762634351849556 -0.3656158745288849 -0.942475438117981 -0.32786521315574646 0.07832957059144974 0.12197033315896988 -0.14998507190586288 -0.200014586512446 0.30002320213617545 -2.2214157632968186 -2.22145751936778 0.00022416491632635171 0.0 0.0 0.0 0.0 0.0 0.0 -3.409165598030505 6.223168262308537 -2.4998482289722155 -0.12039657490427866 -0.23107245557500614 0.5762587324610571 -0.149999999985009 -0.19999999999267257 0.30000000001152155 2.221400000057246 2.2213999999968266 5.947204720274495e-12 0.0 0.0 0.0 0.0 0.0 0.0
6532.5599999999995 0.45809493550609653 -1.885529400329105 1.8913539821084733 -1.5775092871271372 -1.5641353746118325 0.45808487927694497 0.0 0.0 -0.0 0.0 0.0 -0.0 0.0 0.0 0.0 0.0 0.0 0.0 -5.8460745106854385e-18 -0.3114035749645834 -0.846364901061535 -0.2526174815615467 0.0004674078944194273 0.0 -6.708954748022854e-17 -3.5869018288149865 -7.146021544880584 -1.0426759266417487 0.0019403888046453637 0.0 0.45817679166793823 -1.8855813185321253 1.8913216590881348 -1.5776050726519983 -1.5641277472125452 0.45812472701072693 0.0 0.0 -0.0 0.0 0.0 0.0 0.0785064771771431 -0.3790741264820099 -0.9714512228965759 -0.3222702145576477 0.10406643152236938 0.13092228770256042 0.0829925611615181 -0.3656158745288849 -0.9440004825592041 -0.32786521315574646 0.07832957059144974 0.12197033315896988 -0.1499859051732101 -0.20001422681082587 0.30002942039700553 2.221388153501833 2.221483325669961 -0.0002716666743187719 0.0 0.0 0.0 0.0 0.0 0.0 -3.203169006091647 6.512971562274716 -4.015930150994446 -0.11246515652229142 -0.03090831607391603 0.6073881406808095 -0.149999999985009 -0.19999999999267257 0.30000000001152155 2.221400000057246 2.2213999999968266 5.947204720274495e-12 0.0 0.0 0.0 0.0 0.0 0.0
6532.567999999999 0.45809493550609653 -1.885529400329105 1.8913539821084733 -1.5775092871271372 -1.5641353746118325 0.45808487927694497 0.0 0.0 -0.0 0.0 0.0 -0.0 0.0 0.0 0.0 0.0 0.0 0.0 -5.8460745106854385e-18 -0.3114035749645834 -0.846364901061535 -0.2526174815615467 0.0004674078944194273 0.0 -6.708954748022854e-17 -3.5869018288149865 -7.146021544880584 -1.0426759266417487 0.0019403888046453637 0.0 0.4581168591976166 -1.8856175581561487 1.8913097381591797 -1.5776169935809534 -1.5641515890704554 0.4580764174461365 0.0 0.0 -0.0 0.0 0.0 0.0 0.0807495191693306 -0.3611297905445099 -0.9394253492355347 -0.3233892321586609 0.08951950818300247 0.1197323426604271 0.0762634351849556 -0.3656158745288849 -0.9485756158828735 -0.32786521315574646 0.07832957059144974 0.12197033315896988 -0.14999570867604398 -0.20000200612475327 0.3000420863643562 -2.221382718251719 -2.2214523919706326 0.00034899424286856205 0.0 0.0 0.0 0.0 0.0 0.0 -3.0473953451533444 6.567013986950312 -2.5693276649737435 -0.12091884577287716 -0.1633845711877352 0.5555026450579201 -0.149999999985009 -0.19999999999267257 0.30000000001152155 2.221400000057246 2.2213999999968266 5.947204720274495e-12 0.0 0.0 0.0 0.0 0.0 0.0
6532.576 0.45809493550609653 -1.885529400329105 1.8913539821084733 -1.5775092871271372 -1.5641353746118325 0.45808487927694497 0.0 0.0 -0.0 0.0 0.0 -0.0 0.0 0.0 0.0 0.0 0.0 0.0 -5.8460745106854385e-18 -0.3114035749645834 -0.846364901061535 -0.2526174815615467 0.0004674078944194273 0.0 -6.708954748022854e-17 -3.5869018288149865 -7.146021544880584 -1.0426759266417487 0.0019403888046453637 0.0 0.45812883973121643 -1.8856056372271937 1.891369342803955 -1.5775931517230433 -1.564103905354635 0.4581127464771271 0.0 0.0 -0.0 0.0 0.0 0.0 0.0740203931927681 -0.3656158745288849 -0.9607759714126587 -0.3424121141433716 0.09175749868154526 0.12532731890678406 0.0785064771771431 -0.3656158745288849 -0.9470505714416504 -0.32786521315574646 0.07832957059144974 0.12197033315896988 -0.1499869565051557 -0.2000049518009633 0.30001958110531113 2.221404367282756 2.2214191748732497 -0.00023121350155590743 0.0 0.0 0.0 0.0 0.0 0.0 -2.625383051239092 6.72576899599795 -3.1008109870723373 -0.10569101490943071 -0.16245168492207251 0.5814446414041559 -0.149999999985009 -0.19999999999267257 0.30000000001152155 2.221400000057246 2.2213999999968266 5.947204720274495e-12 0.0 0.0 0.0 0.0 0.0 0.0
6532.584 0.45809493550609653 -1.885529400329105 1.8913539821084733 -1.5775092871271372 -1.5641353746118325 0.45808487927694497 0.0 0.0 -0.0 0.0 0.0 -0.0 0.0 0.0 0.0 0.0 0.0 0.0 -5.8460745106854385e-18 -0.3114035749645834 -0.846364901061535 -0.2526174815615467 0.0004674078944194273 0.0 -6.708954748022854e-17 -3.5869018288149865 -7.146021544880584 -1.0426759266417487 0.0019403888046453637 0.0 0.458164781332016 -1.8856294790851038 1.8912978172302246 -1.577569309865133 -1.5641396681415003 0.4580764174461365 0.0 0.0 -0.0 0.0 0.0 0.0 0.0762634351849556 -0.3768310844898224 -0.9516257047653198 -0.3233892321586609 0.09175749868154526 0.10518541932106018 0.0785064771771431 -0.3656158745288849 -0.9470505714416504 -0.32786521315574646 0.07832957059144974 0.12197033315896988 -0.14998148953913312 -0.20000798743137732 0.30004423091324367 -2.2213431374240353 -2.221518722797731 0.00031953328884462144 0.0 0.0 0.0 0.0 0.0 0.0 -3.1713189999619606 5.567305004906309 -3.118004983074166 -0.05003204787028568 -0.12691842271983717 0.48799794922145046 -0.149999999985009 -0.19999999999267257 0.30000000001152155 2.221400000057246 2.2213999999968266 5.947204720274495e-12 0.0 0.0 0.0 0.0 0.0 0.0
6532.592 0.45809493550609653 -1.885529400329105 1.8913539821084733 -1.5775092871271372 -1.5641353746118325 0.45808487927694497 0.0 0.0 -0.0 0.0 0.0 -0.0 0.0 0.0 0.0 0.0 0.0 0.0 -5.8460745106854385e-18 -0.3114035749645834 -0.846364901061535 -0.2526174815615467 0.0004674078944194273 0.0 -6.708954748022854e-17 -3.5869018288149865 -7.146021544880584 -1.0426759266417487 0.0019403888046453637 0.0 0.4581887722015381 -1.8856294790851038 1.8913097381591797 -1.577569309865133 -1.5641396681415003 0.45808878540992737 0.0 0.0 -0.0 0.0 0.0 0.0 0.0785064771771431 -0.3656158745288849 -0.9623009562492371 -0.3222702145576477 0.07049661129713058 0.12085133790969849 0.0740203931927681 -0.3633728325366974 -0.9440004825592041 -0.32786521315574646 0.07832957059144974 0.12197033315896988 -0.14997580099038563 -0.2000111315731349 0.3000406699468207 -2.2213329902235315 -2.2215342950710313 0.00030180249925893264 0.0 0.0 0.0 0.0 0.0 0.0 -2.76854369509272 6.7817961505614255 -3.605935264575423 -0.2593813481737484 -0.09553285623536507 0.5606997005468878 -0.149999999985009 -0.19999999999267257 0.30000000001152155 2.221400000057246 2.2213999999968266 5.947204720274495e-12 0.0 0.0 0.0 0.0 0.0 0.0
