mkrssg/UniversalRobots/rtde_client_3.5/examples/simulation/outdated/movel_neu.csv
timestamp target_q_0 target_q_1 target_q_2 target_q_3 target_q_4 target_q_5 target_qd_0 target_qd_1 target_qd_2 target_qd_3 target_qd_4 target_qd_5 target_qdd_0 target_qdd_1 target_qdd_2 target_qdd_3 target_qdd_4 target_qdd_5 target_current_0 target_current_1 target_current_2 target_current_3 target_current_4 target_current_5 target_moment_0 target_moment_1 target_moment_2 target_moment_3 target_moment_4 target_moment_5 actual_q_0 actual_q_1 actual_q_2 actual_q_3 actual_q_4 actual_q_5 actual_qd_0 actual_qd_1 actual_qd_2 actual_qd_3 actual_qd_4 actual_qd_5 actual_current_0 actual_current_1 actual_current_2 actual_current_3 actual_current_4 actual_current_5 joint_control_output_0 joint_control_output_1 joint_control_output_2 joint_control_output_3 joint_control_output_4 joint_control_output_5 actual_TCP_pose_0 actual_TCP_pose_1 actual_TCP_pose_2 actual_TCP_pose_3 actual_TCP_pose_4 actual_TCP_pose_5 actual_TCP_speed_0 actual_TCP_speed_1 actual_TCP_speed_2 actual_TCP_speed_3 actual_TCP_speed_4 actual_TCP_speed_5 actual_TCP_force_0 actual_TCP_force_1 actual_TCP_force_2 actual_TCP_force_3 actual_TCP_force_4 actual_TCP_force_5 target_TCP_pose_0 target_TCP_pose_1 target_TCP_pose_2 target_TCP_pose_3 target_TCP_pose_4 target_TCP_pose_5 target_TCP_speed_0 target_TCP_speed_1 target_TCP_speed_2 target_TCP_speed_3 target_TCP_speed_4 target_TCP_speed_5

365.62399999999997 -1.033295061400855 -1.5640748045895814 1.628081410163944 -1.634751314706751 -1.5708093914188987 -1.033295061217462 0.0 0.0 0.0 0.0 0.0 0.0 0.0 0.0 0.0 0.0 0.0 0.0 -9.48616747144912e-19 -0.5491722720436839 -0.7660223669301722 -0.2293514877436322 -8.373859811145772e-07 0.0 -1.2455337890012694e-17 -7.2106319319335705 -7.1333534853271505 -1.0424025117948084 -3.8059192841657537e-06 0.0 -1.033294979725973 -1.5640748182879847 1.6280814409255981 -1.6347511450396937 -1.5708091894732874 -1.033294979725973 0.0 0.0 0.0 0.0 0.0 0.0 -9.486167235352531e-19 -0.5491722822189331 -0.7660223841667175 -0.2293514907360077 -8.373859827770502e-07 0.0 -9.486167235352531e-19 -0.5491722822189331 -0.7660223841667175 -0.2293514907360077 -8.373859827770502e-07 0.0 -0.25000002086277523 0.2000009362080213 0.29999998045805826 2.221403725647132 2.221403725931785 -3.7918120429614306e-07 0.0 0.0 0.0 0.0 0.0 0.0 9.592877768401953e-08 -7.674132252095987e-08 -6.829493733529873e-07 4.467118826297175e-08 3.073530597679555e-08 5.131148181088725e-13 -0.24999999997894415 0.2000009812990186 0.3000000000037671 2.2214038188111593 2.2214038186973015 3.013192244471525e-10 0.0 0.0 0.0 0.0 0.0 0.0

365.632 -1.033295061400855 -1.5640748045895814 1.628081410163944 -1.634751314706751 -1.5708093914188987 -1.033295061217462 0.0 0.0 0.0 0.0 0.0 0.0 0.0 0.0 0.0 0.0 0.0 0.0 -9.48616747144912e-19 -0.5491722720436839 -0.7660223669301722 -0.2293514877436322 -8.373859811145772e-07 0.0 -1.2455337890012694e-17 -7.2106319319335705 -7.1333534853271505 -1.0424025117948084 -3.8059192841657537e-06 0.0 -1.033294979725973 -1.5640748182879847 1.6280814409255981 -1.6347511450396937 -1.5708091894732874 -1.033294979725973 0.0 0.0 0.0 0.0 0.0 0.0 -9.486167235352531e-19 -0.5491722822189331 -0.7660223841667175 -0.2293514907360077 -8.373859827770502e-07 0.0 -9.486167235352531e-19 -0.5491722822189331 -0.7660223841667175 -0.2293514907360077 -8.373859827770502e-07 0.0 -0.25000002086277523 0.2000009362080213 0.29999998045805826 2.221403725647132 2.221403725931785 -3.7918120429614306e-07 0.0 0.0 0.0 0.0 0.0 0.0 9.592877768401953e-08 -7.674132252095987e-08 -6.829493733529873e-07 4.467118826297175e-08 3.073530597679555e-08 5.131148181088725e-13 -0.24999999997894415 0.2000009812990186 0.3000000000037671 2.2214038188111593 2.2214038186973015 3.013192244471525e-10 0.0 0.0 0.0 0.0 0.0 0.0

365.64 -1.033295061400855 -1.5640748045895814 1.628081410163944 -1.634751314706751 -1.5708093914188987 -1.033295061217462 0.0 0.0 0.0 0.0 0.0 0.0 0.0 0.0 0.0 0.0 0.0 0.0 -9.48616747144912e-19 -0.5491722720436839 -0.7660223669301722 -0.2293514877436322 -8.373859811145772e-07 0.0 -1.2455337890012694e-17 -7.2106319319335705 -7.1333534853271505 -1.0424025117948084 -3.8059192841657537e-06 0.0 -1.033294979725973 -1.5640748182879847 1.6280814409255981 -1.6347511450396937 -1.5708091894732874 -1.033294979725973 0.0 0.0 0.0 0.0 0.0 0.0 -9.486167235352531e-19 -0.5491722822189331 -0.7660223841667175 -0.2293514907360077 -8.373859827770502e-07 0.0 -9.486167235352531e-19 -0.5491722822189331 -0.7660223841667175 -0.2293514907360077 -8.373859827770502e-07 0.0 -0.25000002086277523 0.2000009362080213 0.29999998045805826 2.221403725647132 2.221403725931785 -3.7918120429614306e-07 0.0 0.0 0.0 0.0 0.0 0.0 9.592877768401953e-08 -7.674132252095987e-08 -6.829493733529873e-07 4.467118826297175e-08 3.073530597679555e-08 5.131148181088725e-13 -0.24999999997894415 0.2000009812990186 0.3000000000037671 2.2214038188111593 2.2214038186973015 3.013192244471525e-10 0.0 0.0 0.0 0.0 0.0 0.0

365.64799999999997 -1.033295061400855 -1.5640748045895814 1.628081410163944 -1.634751314706751 -1.5708093914188987 -1.033295061217462 0.0 0.0 0.0 0.0 0.0 0.0 0.0 0.0 0.0 0.0 0.0 0.0 -9.48616747144912e-19 -0.5491722720436839 -0.7660223669301722 -0.2293514877436322 -8.373859811145772e-07 0.0 -1.2455337890012694e-17 -7.2106319319335705 -7.1333534853271505 -1.0424025117948084 -3.8059192841657537e-06 0.0 -1.033294979725973 -1.5640748182879847 1.6280814409255981 -1.6347511450396937 -1.5708091894732874 -1.033294979725973 0.0 0.0 0.0 0.0 0.0 0.0 -9.486167235352531e-19 -0.5491722822189331 -0.7660223841667175 -0.2293514907360077 -8.373859827770502e-07 0.0 -9.486167235352531e-19 -0.5491722822189331 -0.7660223841667175 -0.2293514907360077 -8.373859827770502e-07 0.0 -0.25000002086277523 0.2000009362080213 0.29999998045805826 2.221403725647132 2.221403725931785 -3.7918120429614306e-07 0.0 0.0 0.0 0.0 0.0 0.0 9.592877768401953e-08 -7.674132252095987e-08 -6.829493733529873e-07 4.467118826297175e-08 3.073530597679555e-08 5.131148181088725e-13 -0.24999999997894415 0.2000009812990186 0.3000000000037671 2.2214038188111593 2.2214038186973015 3.013192244471525e-10 0.0 0.0 0.0 0.0 0.0 0.0

365.656 -1.033295061400855 -1.5640748045895814 1.628081410163944 -1.634751314706751 -1.5708093914188987 -1.033295061217462 0.0 0.0 0.0 0.0 0.0 0.0 0.0 0.0 0.0 0.0 0.0 0.0 -9.48616747144912e-19 -0.5491722720436839 -0.7660223669301722 -0.2293514877436322 -8.373859811145772e-07 0.0 -1.2455337890012694e-17 -7.2106319319335705 -7.1333534853271505 -1.0424025117948084 -3.8059192841657537e-06 0.0 -1.033294979725973 -1.5640748182879847 1.6280814409255981 -1.6347511450396937 -1.5708091894732874 -1.033294979725973 0.0 0.0 0.0 0.0 0.0 0.0 -9.486167235352531e-19 -0.5491722822189331 -0.7660223841667175 -0.2293514907360077 -8.373859827770502e-07 0.0 -9.486167235352531e-19 -0.5491722822189331 -0.7660223841667175 -0.2293514907360077 -8.373859827770502e-07 0.0 -0.25000002086277523 0.2000009362080213 0.29999998045805826 2.221403725647132 2.221403725931785 -3.7918120429614306e-07 0.0 0.0 0.0 0.0 0.0 0.0 9.592877768401953e-08 -7.674132252095987e-08 -6.829493733529873e-07 4.467118826297175e-08 3.073530597679555e-08 5.131148181088725e-13 -0.24999999997894415 0.2000009812990186 0.3000000000037671 2.2214038188111593 2.2214038186973015 3.013192244471525e-10 0.0 0.0 0.0 0.0 0.0 0.0

365.664 -1.033295061400855 -1.5640748045895814 1.628081410163944 -1.634751314706751 -1.5708093914188987 -1.033295061217462 0.0 0.0 0.0 0.0 0.0 0.0 0.0 0.0 0.0 0.0 0.0 0.0 -9.48616747144912e-19 -0.5491722720436839 -0.7660223669301722 -0.2293514877436322 -8.373859811145772e-07 0.0 -1.2455337890012694e-17 -7.2106319319335705 -7.1333534853271505 -1.0424025117948084 -3.8059192841657537e-06 0.0 -1.033294979725973 -1.5640748182879847 1.6280814409255981 -1.6347511450396937 -1.5708091894732874 -1.033294979725973 0.0 0.0 0.0 0.0 0.0 0.0 -9.486167235352531e-19 -0.5491722822189331 -0.7660223841667175 -0.2293514907360077 -8.373859827770502e-07 0.0 -9.486167235352531e-19 -0.5491722822189331 -0.7660223841667175 -0.2293514907360077 -8.373859827770502e-07 0.0 -0.25000002086277523 0.2000009362080213 0.29999998045805826 2.221403725647132 2.221403725931785 -3.7918120429614306e-07 0.0 0.0 0.0 0.0 0.0 0.0 9.592877768401953e-08 -7.674132252095987e-08 -6.829493733529873e-07 4.467118826297175e-08 3.073530597679555e-08 5.131148181088725e-13 -0.24999999997894415 0.2000009812990186 0.3000000000037671 2.2214038188111593 2.2214038186973015 3.013192244471525e-10 0.0 0.0 0.0 0.0 0.0 0.0

365.67199999999997 -1.033295061400855 -1.5640748045895814 1.628081410163944 -1.634751314706751 -1.5708093914188987 -1.033295061217462 0.0 0.0 0.0 0.0 0.0 0.0 0.0 0.0 0.0 0.0 0.0 0.0 -9.48616747144912e-19 -0.5491722720436839 -0.7660223669301722 -0.2293514877436322 -8.373859811145772e-07 0.0 -1.2455337890012694e-17 -7.2106319319335705 -7.1333534853271505 -1.0424025117948084 -3.8059192841657537e-06 0.0 -1.033294979725973 -1.5640748182879847 1.6280814409255981 -1.6347511450396937 -1.5708091894732874 -1.033294979725973 0.0 0.0 0.0 0.0 0.0 0.0 -9.486167235352531e-19 -0.5491722822189331 -0.7660223841667175 -0.2293514907360077 -8.373859827770502e-07 0.0 -9.486167235352531e-19 -0.5491722822189331 -0.7660223841667175 -0.2293514907360077 -8.373859827770502e-07 0.0 -0.25000002086277523 0.2000009362080213 0.29999998045805826 2.221403725647132 2.221403725931785 -3.7918120429614306e-07 0.0 0.0 0.0 0.0 0.0 0.0 9.592877768401953e-08 -7.674132252095987e-08 -6.829493733529873e-07 4.467118826297175e-08 3.073530597679555e-08 5.131148181088725e-13 -0.24999999997894415 0.2000009812990186 0.3000000000037671 2.2214038188111593 2.2214038186973015 3.013192244471525e-10 0.0 0.0 0.0 0.0 0.0 0.0

365.68 -1.033295061400855 -1.5640748045895814 1.628081410163944 -1.634751314706751 -1.5708093914188987 -1.033295061217462 0.0 0.0 0.0 0.0 0.0 0.0 0.0 0.0 0.0 0.0 0.0 0.0 -9.48616747144912e-19 -0.5491722720436839 -0.7660223669301722 -0.2293514877436322 -8.373859811145772e-07 0.0 -1.2455337890012694e-17 -7.2106319319335705 -7.1333534853271505 -1.0424025117948084 -3.8059192841657537e-06 0.0 -1.033294979725973 -1.5640748182879847 1.6280814409255981 -1.6347511450396937 -1.5708091894732874 -1.033294979725973 0.0 0.0 0.0 0.0 0.0 0.0 -9.486167235352531e-19 -0.5491722822189331 -0.7660223841667175 -0.2293514907360077 -8.373859827770502e-07 0.0 -9.486167235352531e-19 -0.5491722822189331 -0.7660223841667175 -0.2293514907360077 -8.373859827770502e-07 0.0 -0.25000002086277523 0.2000009362080213 0.29999998045805826 2.221403725647132 2.221403725931785 -3.7918120429614306e-07 0.0 0.0 0.0 0.0 0.0 0.0 9.592877768401953e-08 -7.674132252095987e-08 -6.829493733529873e-07 4.467118826297175e-08 3.073530597679555e-08 5.131148181088725e-13 -0.24999999997894415 0.2000009812990186 0.3000000000037671 2.2214038188111593 2.2214038186973015 3.013192244471525e-10 0.0 0.0 0.0 0.0 0.0 0.0

365.688 -1.033295061400855 -1.5640748045895814 1.628081410163944 -1.634751314706751 -1.5708093914188987 -1.033295061217462 0.0 0.0 0.0 0.0 0.0 0.0 0.0 0.0 0.0 0.0 0.0 0.0 -9.48616747144912e-19 -0.5491722720436839 -0.7660223669301722 -0.2293514877436322 -8.373859811145772e-07 0.0 -1.2455337890012694e-17 -7.2106319319335705 -7.1333534853271505 -1.0424025117948084 -3.8059192841657537e-06 0.0 -1.033294979725973 -1.5640748182879847 1.6280814409255981 -1.6347511450396937 -1.5708091894732874 -1.033294979725973 0.0 0.0 0.0 0.0 0.0 0.0 -9.486167235352531e-19 -0.5491722822189331 -0.7660223841667175 -0.2293514907360077 -8.373859827770502e-07 0.0 -9.486167235352531e-19 -0.5491722822189331 -0.7660223841667175 -0.2293514907360077 -8.373859827770502e-07 0.0 -0.25000002086277523 0.2000009362080213 0.29999998045805826 2.221403725647132 2.221403725931785 -3.7918120429614306e-07 0.0 0.0 0.0 0.0 0.0 0.0 9.592877768401953e-08 -7.674132252095987e-08 -6.829493733529873e-07 4.467118826297175e-08 3.073530597679555e-08 5.131148181088725e-13 -0.24999999997894415 0.2000009812990186 0.3000000000037671 2.2214038188111593 2.2214038186973015 3.013192244471525e-10 0.0 0.0 0.0 0.0 0.0 0.0

365.69599999999997 -1.033295061400855 -1.5640748045895814 1.628081410163944 -1.634751314706751 -1.5708093914188987 -1.033295061217462 0.0 0.0 0.0 0.0 0.0 0.0 0.0 0.0 0.0 0.0 0.0 0.0 -9.48616747144912e-19 -0.5491722720436839 -0.7660223669301722 -0.2293514877436322 -8.373859811145772e-07 0.0 -1.2455337890012694e-17 -7.2106319319335705 -7.1333534853271505 -1.0424025117948084 -3.8059192841657537e-06 0.0 -1.033294979725973 -1.5640748182879847 1.6280814409255981 -1.6347511450396937 -1.5708091894732874 -1.033294979725973 0.0 0.0 0.0 0.0 0.0 0.0 -9.486167235352531e-19 -0.5491722822189331 -0.7660223841667175 -0.2293514907360077 -8.373859827770502e-07 0.0 -9.486167235352531e-19 -0.5491722822189331 -0.7660223841667175 -0.2293514907360077 -8.373859827770502e-07 0.0 -0.25000002086277523 0.2000009362080213 0.29999998045805826 2.221403725647132 2.221403725931785 -3.7918120429614306e-07 0.0 0.0 0.0 0.0 0.0 0.0 9.592877768401953e-08 -7.674132252095987e-08 -6.829493733529873e-07 4.467118826297175e-08 3.073530597679555e-08 5.131148181088725e-13 -0.24999999997894415 0.2000009812990186 0.3000000000037671 2.2214038188111593 2.2214038186973015 3.013192244471525e-10 0.0 0.0 0.0 0.0 0.0 0.0

365.704 -1.033295061400855 -1.5640748045895814 1.628081410163944 -1.634751314706751 -1.5708093914188987 -1.033295061217462 0.0 0.0 0.0 0.0 0.0 0.0 0.0 0.0 0.0 0.0 0.0 0.0 -9.48616747144912e-19 -0.5491722720436839 -0.7660223669301722 -0.2293514877436322 -8.373859811145772e-07 0.0 -1.2455337890012694e-17 -7.2106319319335705 -7.1333534853271505 -1.0424025117948084 -3.8059192841657537e-06 0.0 -1.033294979725973 -1.5640748182879847 1.6280814409255981 -1.6347511450396937 -1.5708091894732874 -1.033294979725973 0.0 0.0 0.0 0.0 0.0 0.0 -9.486167235352531e-19 -0.5491722822189331 -0.7660223841667175 -0.2293514907360077 -8.373859827770502e-07 0.0 -9.486167235352531e-19 -0.5491722822189331 -0.7660223841667175 -0.2293514907360077 -8.373859827770502e-07 0.0 -0.25000002086277523 0.2000009362080213 0.29999998045805826 2.221403725647132 2.221403725931785 -3.7918120429614306e-07 0.0 0.0 0.0 0.0 0.0 0.0 9.592877768401953e-08 -7.674132252095987e-08 -6.829493733529873e-07 4.467118826297175e-08 3.073530597679555e-08 5.131148181088725e-13 -0.24999999997894415 0.2000009812990186 0.3000000000037671 2.2214038188111593 2.2214038186973015 3.013192244471525e-10 0.0 0.0 0.0 0.0 0.0 0.0

365.712 -1.033295061400855 -1.5640748045895814 1.628081410163944 -1.634751314706751 -1.5708093914188987 -1.033295061217462 0.0 0.0 0.0 0.0 0.0 0.0 0.0 0.0 0.0 0.0 0.0 0.0 -9.48616747144912e-19 -0.5491722720436839 -0.7660223669301722 -0.2293514877436322 -8.373859811145772e-07 0.0 -1.2455337890012694e-17 -7.2106319319335705 -7.1333534853271505 -1.0424025117948084 -3.8059192841657537e-06 0.0 -1.033294979725973 -1.5640748182879847 1.6280814409255981 -1.6347511450396937 -1.5708091894732874 -1.033294979725973 0.0 0.0 0.0 0.0 0.0 0.0 -9.486167235352531e-19 -0.5491722822189331 -0.7660223841667175 -0.2293514907360077 -8.373859827770502e-07 0.0 -9.486167235352531e-19 -0.5491722822189331 -0.7660223841667175 -0.2293514907360077 -8.373859827770502e-07 0.0 -0.25000002086277523 0.2000009362080213 0.29999998045805826 2.221403725647132 2.221403725931785 -3.7918120429614306e-07 0.0 0.0 0.0 0.0 0.0 0.0 9.592877768401953e-08 -7.674132252095987e-08 -6.829493733529873e-07 4.467118826297175e-08 3.073530597679555e-08 5.131148181088725e-13 -0.24999999997894415 0.2000009812990186 0.3000000000037671 2.2214038188111593 2.2214038186973015 3.013192244471525e-10 0.0 0.0 0.0 0.0 0.0 0.0

365.71999999999997 -1.033295061400855 -1.5640748045895814 1.628081410163944 -1.634751314706751 -1.5708093914188987 -1.033295061217462 0.0 0.0 0.0 0.0 0.0 0.0 0.0 0.0 0.0 0.0 0.0 0.0 -9.48616747144912e-19 -0.5491722720436839 -0.7660223669301722 -0.2293514877436322 -8.373859811145772e-07 0.0 -1.2455337890012694e-17 -7.2106319319335705 -7.1333534853271505 -1.0424025117948084 -3.8059192841657537e-06 0.0 -1.033294979725973 -1.5640748182879847 1.6280814409255981 -1.6347511450396937 -1.5708091894732874 -1.033294979725973 0.0 0.0 0.0 0.0 0.0 0.0 -9.486167235352531e-19 -0.5491722822189331 -0.7660223841667175 -0.2293514907360077 -8.373859827770502e-07 0.0 -9.486167235352531e-19 -0.5491722822189331 -0.7660223841667175 -0.2293514907360077 -8.373859827770502e-07 0.0 -0.25000002086277523 0.2000009362080213 0.29999998045805826 2.221403725647132 2.221403725931785 -3.7918120429614306e-07 0.0 0.0 0.0 0.0 0.0 0.0 9.592877768401953e-08 -7.674132252095987e-08 -6.829493733529873e-07 4.467118826297175e-08 3.073530597679555e-08 5.131148181088725e-13 -0.24999999997894415 0.2000009812990186 0.3000000000037671 2.2214038188111593 2.2214038186973015 3.013192244471525e-10 0.0 0.0 0.0 0.0 0.0 0.0

365.728 -1.033295061400855 -1.5640748045895814 1.628081410163944 -1.634751314706751 -1.5708093914188987 -1.033295061217462 0.0 0.0 0.0 0.0 0.0 0.0 0.0 0.0 0.0 0.0 0.0 0.0 -9.48616747144912e-19 -0.5491722720436839 -0.7660223669301722 -0.2293514877436322 -8.373859811145772e-07 0.0 -1.2455337890012694e-17 -7.2106319319335705 -7.1333534853271505 -1.0424025117948084 -3.8059192841657537e-06 0.0 -1.033294979725973 -1.5640748182879847 1.6280814409255981 -1.6347511450396937 -1.5708091894732874 -1.033294979725973 0.0 0.0 0.0 0.0 0.0 0.0 -9.486167235352531e-19 -0.5491722822189331 -0.7660223841667175 -0.2293514907360077 -8.373859827770502e-07 0.0 -9.486167235352531e-19 -0.5491722822189331 -0.7660223841667175 -0.2293514907360077 -8.373859827770502e-07 0.0 -0.25000002086277523 0.2000009362080213 0.29999998045805826 2.221403725647132 2.221403725931785 -3.7918120429614306e-07 0.0 0.0 0.0 0.0 0.0 0.0 9.592877768401953e-08 -7.674132252095987e-08 -6.829493733529873e-07 4.467118826297175e-08 3.073530597679555e-08 5.131148181088725e-13 -0.24999999997894415 0.2000009812990186 0.3000000000037671 2.2214038188111593 2.2214038186973015 3.013192244471525e-10 0.0 0.0 0.0 0.0 0.0 0.0

365.736 -1.033295061400855 -1.5640748045895814 1.628081410163944 -1.634751314706751 -1.5708093914188987 -1.033295061217462 0.0 0.0 0.0 0.0 0.0 0.0 0.0 0.0 0.0 0.0 0.0 0.0 -9.48616747144912e-19 -0.5491722720436839 -0.7660223669301722 -0.2293514877436322 -8.373859811145772e-07 0.0 -1.2455337890012694e-17 -7.2106319319335705 -7.1333534853271505 -1.0424025117948084 -3.8059192841657537e-06 0.0 -1.033294979725973 -1.5640748182879847 1.6280814409255981 -1.6347511450396937 -1.5708091894732874 -1.033294979725973 0.0 0.0 0.0 0.0 0.0 0.0 -9.486167235352531e-19 -0.5491722822189331 -0.7660223841667175 -0.2293514907360077 -8.373859827770502e-07 0.0 -9.486167235352531e-19 -0.5491722822189331 -0.7660223841667175 -0.2293514907360077 -8.373859827770502e-07 0.0 -0.25000002086277523 0.2000009362080213 0.29999998045805826 2.221403725647132 2.221403725931785 -3.7918120429614306e-07 0.0 0.0 0.0 0.0 0.0 0.0 9.592877768401953e-08 -7.674132252095987e-08 -6.829493733529873e-07 4.467118826297175e-08 3.073530597679555e-08 5.131148181088725e-13 -0.24999999997894415 0.2000009812990186 0.3000000000037671 2.2214038188111593 2.2214038186973015 3.013192244471525e-10 0.0 0.0 0.0 0.0 0.0 0.0

365.74399999999997 -1.033295061400855 -1.5640748045895814 1.628081410163944 -1.634751314706751 -1.5708093914188987 -1.033295061217462 0.0 0.0 0.0 0.0 0.0 0.0 0.0 0.0 0.0 0.0 0.0 0.0 -9.48616747144912e-19 -0.5491722720436839 -0.7660223669301722 -0.2293514877436322 -8.373859811145772e-07 0.0 -1.2455337890012694e-17 -7.2106319319335705 -7.1333534853271505 -1.0424025117948084 -3.8059192841657537e-06 0.0 -1.033294979725973 -1.5640748182879847 1.6280814409255981 -1.6347511450396937 -1.5708091894732874 -1.033294979725973 0.0 0.0 0.0 0.0 0.0 0.0 -9.486167235352531e-19 -0.5491722822189331 -0.7660223841667175 -0.2293514907360077 -8.373859827770502e-07 0.0 -9.486167235352531e-19 -0.5491722822189331 -0.7660223841667175 -0.2293514907360077 -8.373859827770502e-07 0.0 -0.25000002086277523 0.2000009362080213 0.29999998045805826 2.221403725647132 2.221403725931785 -3.7918120429614306e-07 0.0 0.0 0.0 0.0 0.0 0.0 9.592877768401953e-08 -7.674132252095987e-08 -6.829493733529873e-07 4.467118826297175e-08 3.073530597679555e-08 5.131148181088725e-13 -0.24999999997894415 0.2000009812990186 0.3000000000037671 2.2214038188111593 2.2214038186973015 3.013192244471525e-10 0.0 0.0 0.0 0.0 0.0 0.0

365.752 -1.033295061400855 -1.5640748045895814 1.628081410163944 -1.634751314706751 -1.5708093914188987 -1.033295061217462 0.0 0.0 0.0 0.0 0.0 0.0 0.0 0.0 0.0 0.0 0.0 0.0 -9.48616747144912e-19 -0.5491722720436839 -0.7660223669301722 -0.2293514877436322 -8.373859811145772e-07 0.0 -1.2455337890012694e-17 -7.2106319319335705 -7.1333534853271505 -1.0424025117948084 -3.8059192841657537e-06 0.0 -1.033294979725973 -1.5640748182879847 1.6280814409255981 -1.6347511450396937 -1.5708091894732874 -1.033294979725973 0.0 0.0 0.0 0.0 0.0 0.0 -9.486167235352531e-19 -0.5491722822189331 -0.7660223841667175 -0.2293514907360077 -8.373859827770502e-07 0.0 -9.486167235352531e-19 -0.5491722822189331 -0.7660223841667175 -0.2293514907360077 -8.373859827770502e-07 0.0 -0.25000002086277523 0.2000009362080213 0.29999998045805826 2.221403725647132 2.221403725931785 -3.7918120429614306e-07 0.0 0.0 0.0 0.0 0.0 0.0 9.592877768401953e-08 -7.674132252095987e-08 -6.829493733529873e-07 4.467118826297175e-08 3.073530597679555e-08 5.131148181088725e-13 -0.24999999997894415 0.2000009812990186 0.3000000000037671 2.2214038188111593 2.2214038186973015 3.013192244471525e-10 0.0 0.0 0.0 0.0 0.0 0.0

365.76 -1.033295061400855 -1.5640748045895814 1.628081410163944 -1.634751314706751 -1.5708093914188987 -1.033295061217462 0.0 0.0 0.0 0.0 0.0 0.0 0.0 0.0 0.0 0.0 0.0 0.0 -9.48616747144912e-19 -0.5491722720436839 -0.7660223669301722 -0.2293514877436322 -8.373859811145772e-07 0.0 -1.2455337890012694e-17 -7.2106319319335705 -7.1333534853271505 -1.0424025117948084 -3.8059192841657537e-06 0.0 -1.033294979725973 -1.5640748182879847 1.6280814409255981 -1.6347511450396937 -1.5708091894732874 -1.033294979725973 0.0 0.0 0.0 0.0 0.0 0.0 -9.486167235352531e-19 -0.5491722822189331 -0.7660223841667175 -0.2293514907360077 -8.373859827770502e-07 0.0 -9.486167235352531e-19 -0.5491722822189331 -0.7660223841667175 -0.2293514907360077 -8.373859827770502e-07 0.0 -0.25000002086277523 0.2000009362080213 0.29999998045805826 2.221403725647132 2.221403725931785 -3.7918120429614306e-07 0.0 0.0 0.0 0.0 0.0 0.0 9.592877768401953e-08 -7.674132252095987e-08 -6.829493733529873e-07 4.467118826297175e-08 3.073530597679555e-08 5.131148181088725e-13 -0.24999999997894415 0.2000009812990186 0.3000000000037671 2.2214038188111593 2.2214038186973015 3.013192244471525e-10 0.0 0.0 0.0 0.0 0.0 0.0

365.768 -1.033295061400855 -1.5640748045895814 1.628081410163944 -1.634751314706751 -1.5708093914188987 -1.033295061217462 0.0 0.0 0.0 0.0 0.0 0.0 0.0 0.0 0.0 0.0 0.0 0.0 -9.48616747144912e-19 -0.5491722720436839 -0.7660223669301722 -0.2293514877436322 -8.373859811145772e-07 0.0 -1.2455337890012694e-17 -7.2106319319335705 -7.1333534853271505 -1.0424025117948084 -3.8059192841657537e-06 0.0 -1.033294979725973 -1.5640748182879847 1.6280814409255981 -1.6347511450396937 -1.5708091894732874 -1.033294979725973 0.0 0.0 0.0 0.0 0.0 0.0 -9.486167235352531e-19 -0.5491722822189331 -0.7660223841667175 -0.2293514907360077 -8.373859827770502e-07 0.0 -9.486167235352531e-19 -0.5491722822189331 -0.7660223841667175 -0.2293514907360077 -8.373859827770502e-07 0.0 -0.25000002086277523 0.2000009362080213 0.29999998045805826 2.221403725647132 2.221403725931785 -3.7918120429614306e-07 0.0 0.0 0.0 0.0 0.0 0.0 9.592877768401953e-08 -7.674132252095987e-08 -6.829493733529873e-07 4.467118826297175e-08 3.073530597679555e-08 5.131148181088725e-13 -0.24999999997894415 0.2000009812990186 0.3000000000037671 2.2214038188111593 2.2214038186973015 3.013192244471525e-10 0.0 0.0 0.0 0.0 0.0 0.0

365.776 -1.033295061400855 -1.5640748045895814 1.628081410163944 -1.634751314706751 -1.5708093914188987 -1.033295061217462 0.0 0.0 0.0 0.0 0.0 0.0 0.0 0.0 0.0 0.0 0.0 0.0 -9.48616747144912e-19 -0.5491722720436839 -0.7660223669301722 -0.2293514877436322 -8.373859811145772e-07 0.0 -1.2455337890012694e-17 -7.2106319319335705 -7.1333534853271505 -1.0424025117948084 -3.8059192841657537e-06 0.0 -1.033294979725973 -1.5640748182879847 1.6280814409255981 -1.6347511450396937 -1.5708091894732874 -1.033294979725973 0.0 0.0 0.0 0.0 0.0 0.0 -9.486167235352531e-19 -0.5491722822189331 -0.7660223841667175 -0.2293514907360077 -8.373859827770502e-07 0.0 -9.486167235352531e-19 -0.5491722822189331 -0.7660223841667175 -0.2293514907360077 -8.373859827770502e-07 0.0 -0.25000002086277523 0.2000009362080213 0.29999998045805826 2.221403725647132 2.221403725931785 -3.7918120429614306e-07 0.0 0.0 0.0 0.0 0.0 0.0 9.592877768401953e-08 -7.674132252095987e-08 -6.829493733529873e-07 4.467118826297175e-08 3.073530597679555e-08 5.131148181088725e-13 -0.24999999997894415 0.2000009812990186 0.3000000000037671 2.2214038188111593 2.2214038186973015 3.013192244471525e-10 0.0 0.0 0.0 0.0 0.0 0.0

365.784 -1.033295061400855 -1.5640748045895814 1.628081410163944 -1.634751314706751 -1.5708093914188987 -1.033295061217462 0.0 0.0 0.0 0.0 0.0 0.0 0.0 0.0 0.0 0.0 0.0 0.0 -9.48616747144912e-19 -0.5491722720436839 -0.7660223669301722 -0.2293514877436322 -8.373859811145772e-07 0.0 -1.2455337890012694e-17 -7.2106319319335705 -7.1333534853271505 -1.0424025117948084 -3.8059192841657537e-06 0.0 -1.033294979725973 -1.5640748182879847 1.6280814409255981 -1.6347511450396937 -1.5708091894732874 -1.033294979725973 0.0 0.0 0.0 0.0 0.0 0.0 -9.486167235352531e-19 -0.5491722822189331 -0.7660223841667175 -0.2293514907360077 -8.373859827770502e-07 0.0 -9.486167235352531e-19 -0.5491722822189331 -0.7660223841667175 -0.2293514907360077 -8.373859827770502e-07 0.0 -0.25000002086277523 0.2000009362080213 0.29999998045805826 2.221403725647132 2.221403725931785 -3.7918120429614306e-07 0.0 0.0 0.0 0.0 0.0 0.0 9.592877768401953e-08 -7.674132252095987e-08 -6.829493733529873e-07 4.467118826297175e-08 3.073530597679555e-08 5.131148181088725e-13 -0.24999999997894415 0.2000009812990186 0.3000000000037671 2.2214038188111593 2.2214038186973015 3.013192244471525e-10 0.0 0.0 0.0 0.0 0.0 0.0

365.792 -1.033295061400855 -1.5640748045895814 1.628081410163944 -1.634751314706751 -1.5708093914188987 -1.033295061217462 0.0 0.0 0.0 0.0 0.0 0.0 0.0 0.0 0.0 0.0 0.0 0.0 -9.48616747144912e-19 -0.5491722720436839 -0.7660223669301722 -0.2293514877436322 -8.373859811145772e-07 0.0 -1.2455337890012694e-17 -7.2106319319335705 -7.1333534853271505 -1.0424025117948084 -3.8059192841657537e-06 0.0 -1.033294979725973 -1.5640748182879847 1.6280814409255981 -1.6347511450396937 -1.5708091894732874 -1.033294979725973 0.0 0.0 0.0 0.0 0.0 0.0 -9.486167235352531e-19 -0.5491722822189331 -0.7660223841667175 -0.2293514907360077 -8.373859827770502e-07 0.0 -9.486167235352531e-19 -0.5491722822189331 -0.7660223841667175 -0.2293514907360077 -8.373859827770502e-07 0.0 -0.25000002086277523 0.2000009362080213 0.29999998045805826 2.221403725647132 2.221403725931785 -3.7918120429614306e-07 0.0 0.0 0.0 0.0 0.0 0.0 9.592877768401953e-08 -7.674132252095987e-08 -6.829493733529873e-07 4.467118826297175e-08 3.073530597679555e-08 5.131148181088725e-13 -0.24999999997894415 0.2000009812990186 0.3000000000037671 2.2214038188111593 2.2214038186973015 3.013192244471525e-10 0.0 0.0 0.0 0.0 0.0 0.0

365.8 -1.033295061400855 -1.5640748045895814 1.628081410163944 -1.634751314706751 -1.5708093914188987 -1.033295061217462 0.0 0.0 0.0 0.0 0.0 0.0 0.0 0.0 0.0 0.0 0.0 0.0 -9.48616747144912e-19 -0.5491722720436839 -0.7660223669301722 -0.2293514877436322 -8.373859811145772e-07 0.0 -1.2455337890012694e-17 -7.2106319319335705 -7.1333534853271505 -1.0424025117948084 -3.8059192841657537e-06 0.0 -1.033294979725973 -1.5640748182879847 1.6280814409255981 -1.6347511450396937 -1.5708091894732874 -1.033294979725973 0.0 0.0 0.0 0.0 0.0 0.0 -9.486167235352531e-19 -0.5491722822189331 -0.7660223841667175 -0.2293514907360077 -8.373859827770502e-07 0.0 -9.486167235352531e-19 -0.5491722822189331 -0.7660223841667175 -0.2293514907360077 -8.373859827770502e-07 0.0 -0.25000002086277523 0.2000009362080213 0.29999998045805826 2.221403725647132 2.221403725931785 -3.7918120429614306e-07 0.0 0.0 0.0 0.0 0.0 0.0 9.592877768401953e-08 -7.674132252095987e-08 -6.829493733529873e-07 4.467118826297175e-08 3.073530597679555e-08 5.131148181088725e-13 -0.24999999997894415 0.2000009812990186 0.3000000000037671 2.2214038188111593 2.2214038186973015 3.013192244471525e-10 0.0 0.0 0.0 0.0 0.0 0.0

365.808 -1.033295061400855 -1.5640748045895814 1.628081410163944 -1.634751314706751 -1.5708093914188987 -1.033295061217462 0.0 0.0 0.0 0.0 0.0 0.0 0.0 0.0 0.0 0.0 0.0 0.0 -9.48616747144912e-19 -0.5491722720436839 -0.7660223669301722 -0.2293514877436322 -8.373859811145772e-07 0.0 -1.2455337890012694e-17 -7.2106319319335705 -7.1333534853271505 -1.0424025117948084 -3.8059192841657537e-06 0.0 -1.033294979725973 -1.5640748182879847 1.6280814409255981 -1.6347511450396937 -1.5708091894732874 -1.033294979725973 0.0 0.0 0.0 0.0 0.0 0.0 -9.486167235352531e-19 -0.5491722822189331 -0.7660223841667175 -0.2293514907360077 -8.373859827770502e-07 0.0 -9.486167235352531e-19 -0.5491722822189331 -0.7660223841667175 -0.2293514907360077 -8.373859827770502e-07 0.0 -0.25000002086277523 0.2000009362080213 0.29999998045805826 2.221403725647132 2.221403725931785 -3.7918120429614306e-07 0.0 0.0 0.0 0.0 0.0 0.0 9.592877768401953e-08 -7.674132252095987e-08 -6.829493733529873e-07 4.467118826297175e-08 3.073530597679555e-08 5.131148181088725e-13 -0.24999999997894415 0.2000009812990186 0.3000000000037671 2.2214038188111593 2.2214038186973015 3.013192244471525e-10 0.0 0.0 0.0 0.0 0.0 0.0

365.816 -1.033295061400855 -1.5640748045895814 1.628081410163944 -1.634751314706751 -1.5708093914188987 -1.033295061217462 0.0 0.0 0.0 0.0 0.0 0.0 0.0 0.0 0.0 0.0 0.0 0.0 -9.48616747144912e-19 -0.5491722720436839 -0.7660223669301722 -0.2293514877436322 -8.373859811145772e-07 0.0 -1.2455337890012694e-17 -7.2106319319335705 -7.1333534853271505 -1.0424025117948084 -3.8059192841657537e-06 0.0 -1.033294979725973 -1.5640748182879847 1.6280814409255981 -1.6347511450396937 -1.5708091894732874 -1.033294979725973 0.0 0.0 0.0 0.0 0.0 0.0 -9.486167235352531e-19 -0.5491722822189331 -0.7660223841667175 -0.2293514907360077 -8.373859827770502e-07 0.0 -9.486167235352531e-19 -0.5491722822189331 -0.7660223841667175 -0.2293514907360077 -8.373859827770502e-07 0.0 -0.25000002086277523 0.2000009362080213 0.29999998045805826 2.221403725647132 2.221403725931785 -3.7918120429614306e-07 0.0 0.0 0.0 0.0 0.0 0.0 9.592877768401953e-08 -7.674132252095987e-08 -6.829493733529873e-07 4.467118826297175e-08 3.073530597679555e-08 5.131148181088725e-13 -0.24999999997894415 0.2000009812990186 0.3000000000037671 2.2214038188111593 2.2214038186973015 3.013192244471525e-10 0.0 0.0 0.0 0.0 0.0 0.0

365.82399999999996 -1.033295061400855 -1.5640748045895814 1.628081410163944 -1.634751314706751 -1.5708093914188987 -1.033295061217462 0.0 0.0 0.0 0.0 0.0 0.0 0.0 0.0 0.0 0.0 0.0 0.0 -9.48616747144912e-19 -0.5491722720436839 -0.7660223669301722 -0.2293514877436322 -8.373859811145772e-07 0.0 -1.2455337890012694e-17 -7.2106319319335705 -7.1333534853271505 -1.0424025117948084 -3.8059192841657537e-06 0.0 -1.033294979725973 -1.5640748182879847 1.6280814409255981 -1.6347511450396937 -1.5708091894732874 -1.033294979725973 0.0 0.0 0.0 0.0 0.0 0.0 -9.486167235352531e-19 -0.5491722822189331 -0.7660223841667175 -0.2293514907360077 -8.373859827770502e-07 0.0 -9.486167235352531e-19 -0.5491722822189331 -0.7660223841667175 -0.2293514907360077 -8.373859827770502e-07 0.0 -0.25000002086277523 0.2000009362080213 0.29999998045805826 2.221403725647132 2.221403725931785 -3.7918120429614306e-07 0.0 0.0 0.0 0.0 0.0 0.0 9.592877768401953e-08 -7.674132252095987e-08 -6.829493733529873e-07 4.467118826297175e-08 3.073530597679555e-08 5.131148181088725e-13 -0.24999999997894415 0.2000009812990186 0.3000000000037671 2.2214038188111593 2.2214038186973015 3.013192244471525e-10 0.0 0.0 0.0 0.0 0.0 0.0

365.832 -1.033295061400855 -1.5640748045895814 1.628081410163944 -1.634751314706751 -1.5708093914188987 -1.033295061217462 0.0 0.0 0.0 0.0 0.0 0.0 0.0 0.0 0.0 0.0 0.0 0.0 -9.48616747144912e-19 -0.5491722720436839 -0.7660223669301722 -0.2293514877436322 -8.373859811145772e-07 0.0 -1.2455337890012694e-17 -7.2106319319335705 -7.1333534853271505 -1.0424025117948084 -3.8059192841657537e-06 0.0 -1.033294979725973 -1.5640748182879847 1.6280814409255981 -1.6347511450396937 -1.5708091894732874 -1.033294979725973 0.0 0.0 0.0 0.0 0.0 0.0 -9.486167235352531e-19 -0.5491722822189331 -0.7660223841667175 -0.2293514907360077 -8.373859827770502e-07 0.0 -9.486167235352531e-19 -0.5491722822189331 -0.7660223841667175 -0.2293514907360077 -8.373859827770502e-07 0.0 -0.25000002086277523 0.2000009362080213 0.29999998045805826 2.221403725647132 2.221403725931785 -3.7918120429614306e-07 0.0 0.0 0.0 0.0 0.0 0.0 9.592877768401953e-08 -7.674132252095987e-08 -6.829493733529873e-07 4.467118826297175e-08 3.073530597679555e-08 5.131148181088725e-13 -0.24999999997894415 0.2000009812990186 0.3000000000037671 2.2214038188111593 2.2214038186973015 3.013192244471525e-10 0.0 0.0 0.0 0.0 0.0 0.0

365.84 -1.033295061400855 -1.5640748045895814 1.628081410163944 -1.634751314706751 -1.5708093914188987 -1.033295061217462 0.0 0.0 0.0 0.0 0.0 0.0 0.0 0.0 0.0 0.0 0.0 0.0 -9.48616747144912e-19 -0.5491722720436839 -0.7660223669301722 -0.2293514877436322 -8.373859811145772e-07 0.0 -1.2455337890012694e-17 -7.2106319319335705 -7.1333534853271505 -1.0424025117948084 -3.8059192841657537e-06 0.0 -1.033294979725973 -1.5640748182879847 1.6280814409255981 -1.6347511450396937 -1.5708091894732874 -1.033294979725973 0.0 0.0 0.0 0.0 0.0 0.0 -9.486167235352531e-19 -0.5491722822189331 -0.7660223841667175 -0.2293514907360077 -8.373859827770502e-07 0.0 -9.486167235352531e-19 -0.5491722822189331 -0.7660223841667175 -0.2293514907360077 -8.373859827770502e-07 0.0 -0.25000002086277523 0.2000009362080213 0.29999998045805826 2.221403725647132 2.221403725931785 -3.7918120429614306e-07 0.0 0.0 0.0 0.0 0.0 0.0 9.592877768401953e-08 -7.674132252095987e-08 -6.829493733529873e-07 4.467118826297175e-08 3.073530597679555e-08 5.131148181088725e-13 -0.24999999997894415 0.2000009812990186 0.3000000000037671 2.2214038188111593 2.2214038186973015 3.013192244471525e-10 0.0 0.0 0.0 0.0 0.0 0.0

365.84799999999996 -1.033295061400855 -1.5640748045895814 1.628081410163944 -1.634751314706751 -1.5708093914188987 -1.033295061217462 0.0 0.0 0.0 0.0 0.0 0.0 0.0 0.0 0.0 0.0 0.0 0.0 -9.48616747144912e-19 -0.5491722720436839 -0.7660223669301722 -0.2293514877436322 -8.373859811145772e-07 0.0 -1.2455337890012694e-17 -7.2106319319335705 -7.1333534853271505 -1.0424025117948084 -3.8059192841657537e-06 0.0 -1.033294979725973 -1.5640748182879847 1.6280814409255981 -1.6347511450396937 -1.5708091894732874 -1.033294979725973 0.0 0.0 0.0 0.0 0.0 0.0 -9.486167235352531e-19 -0.5491722822189331 -0.7660223841667175 -0.2293514907360077 -8.373859827770502e-07 0.0 -9.486167235352531e-19 -0.5491722822189331 -0.7660223841667175 -0.2293514907360077 -8.373859827770502e-07 0.0 -0.25000002086277523 0.2000009362080213 0.29999998045805826 2.221403725647132 2.221403725931785 -3.7918120429614306e-07 0.0 0.0 0.0 0.0 0.0 0.0 9.592877768401953e-08 -7.674132252095987e-08 -6.829493733529873e-07 4.467118826297175e-08 3.073530597679555e-08 5.131148181088725e-13 -0.24999999997894415 0.2000009812990186 0.3000000000037671 2.2214038188111593 2.2214038186973015 3.013192244471525e-10 0.0 0.0 0.0 0.0 0.0 0.0

365.856 -1.033295061400855 -1.5640748045895814 1.628081410163944 -1.634751314706751 -1.5708093914188987 -1.033295061217462 0.0 0.0 0.0 0.0 0.0 0.0 0.0 0.0 0.0 0.0 0.0 0.0 -9.48616747144912e-19 -0.5491722720436839 -0.7660223669301722 -0.2293514877436322 -8.373859811145772e-07 0.0 -1.2455337890012694e-17 -7.2106319319335705 -7.1333534853271505 -1.0424025117948084 -3.8059192841657537e-06 0.0 -1.033294979725973 -1.5640748182879847 1.6280814409255981 -1.6347511450396937 -1.5708091894732874 -1.033294979725973 0.0 0.0 0.0 0.0 0.0 0.0 -9.486167235352531e-19 -0.5491722822189331 -0.7660223841667175 -0.2293514907360077 -8.373859827770502e-07 0.0 -9.486167235352531e-19 -0.5491722822189331 -0.7660223841667175 -0.2293514907360077 -8.373859827770502e-07 0.0 -0.25000002086277523 0.2000009362080213 0.29999998045805826 2.221403725647132 2.221403725931785 -3.7918120429614306e-07 0.0 0.0 0.0 0.0 0.0 0.0 9.592877768401953e-08 -7.674132252095987e-08 -6.829493733529873e-07 4.467118826297175e-08 3.073530597679555e-08 5.131148181088725e-13 -0.24999999997894415 0.2000009812990186 0.3000000000037671 2.2214038188111593 2.2214038186973015 3.013192244471525e-10 0.0 0.0 0.0 0.0 0.0 0.0

365.864 -1.033295061400855 -1.5640748045895814 1.628081410163944 -1.634751314706751 -1.5708093914188987 -1.033295061217462 0.0 0.0 0.0 0.0 0.0 0.0 0.0 0.0 0.0 0.0 0.0 0.0 -9.48616747144912e-19 -0.5491722720436839 -0.7660223669301722 -0.2293514877436322 -8.373859811145772e-07 0.0 -1.2455337890012694e-17 -7.2106319319335705 -7.1333534853271505 -1.0424025117948084 -3.8059192841657537e-06 0.0 -1.033294979725973 -1.5640748182879847 1.6280814409255981 -1.6347511450396937 -1.5708091894732874 -1.033294979725973 0.0 0.0 0.0 0.0 0.0 0.0 -9.486167235352531e-19 -0.5491722822189331 -0.7660223841667175 -0.2293514907360077 -8.373859827770502e-07 0.0 -9.486167235352531e-19 -0.5491722822189331 -0.7660223841667175 -0.2293514907360077 -8.373859827770502e-07 0.0 -0.25000002086277523 0.2000009362080213 0.29999998045805826 2.221403725647132 2.221403725931785 -3.7918120429614306e-07 0.0 0.0 0.0 0.0 0.0 0.0 9.592877768401953e-08 -7.674132252095987e-08 -6.829493733529873e-07 4.467118826297175e-08 3.073530597679555e-08 5.131148181088725e-13 -0.24999999997894415 0.2000009812990186 0.3000000000037671 2.2214038188111593 2.2214038186973015 3.013192244471525e-10 0.0 0.0 0.0 0.0 0.0 0.0

365.87199999999996 -1.033295061400855 -1.5640748045895814 1.628081410163944 -1.634751314706751 -1.5708093914188987 -1.033295061217462 0.0 0.0 0.0 0.0 0.0 0.0 0.0 0.0 0.0 0.0 0.0 0.0 -9.48616747144912e-19 -0.5491722720436839 -0.7660223669301722 -0.2293514877436322 -8.373859811145772e-07 0.0 -1.2455337890012694e-17 -7.2106319319335705 -7.1333534853271505 -1.0424025117948084 -3.8059192841657537e-06 0.0 -1.033294979725973 -1.5640748182879847 1.6280814409255981 -1.6347511450396937 -1.5708091894732874 -1.033294979725973 0.0 0.0 0.0 0.0 0.0 0.0 -9.486167235352531e-19 -0.5491722822189331 -0.7660223841667175 -0.2293514907360077 -8.373859827770502e-07 0.0 -9.486167235352531e-19 -0.5491722822189331 -0.7660223841667175 -0.2293514907360077 -8.373859827770502e-07 0.0 -0.25000002086277523 0.2000009362080213 0.29999998045805826 2.221403725647132 2.221403725931785 -3.7918120429614306e-07 0.0 0.0 0.0 0.0 0.0 0.0 9.592877768401953e-08 -7.674132252095987e-08 -6.829493733529873e-07 4.467118826297175e-08 3.073530597679555e-08 5.131148181088725e-13 -0.24999999997894415 0.2000009812990186 0.3000000000037671 2.2214038188111593 2.2214038186973015 3.013192244471525e-10 0.0 0.0 0.0 0.0 0.0 0.0

365.88 -1.033295061400855 -1.5640748045895814 1.628081410163944 -1.634751314706751 -1.5708093914188987 -1.033295061217462 0.0 0.0 0.0 0.0 0.0 0.0 0.0 0.0 0.0 0.0 0.0 0.0 -9.48616747144912e-19 -0.5491722720436839 -0.7660223669301722 -0.2293514877436322 -8.373859811145772e-07 0.0 -1.2455337890012694e-17 -7.2106319319335705 -7.1333534853271505 -1.0424025117948084 -3.8059192841657537e-06 0.0 -1.033294979725973 -1.5640748182879847 1.6280814409255981 -1.6347511450396937 -1.5708091894732874 -1.033294979725973 0.0 0.0 0.0 0.0 0.0 0.0 -9.486167235352531e-19 -0.5491722822189331 -0.7660223841667175 -0.2293514907360077 -8.373859827770502e-07 0.0 -9.486167235352531e-19 -0.5491722822189331 -0.7660223841667175 -0.2293514907360077 -8.373859827770502e-07 0.0 -0.25000002086277523 0.2000009362080213 0.29999998045805826 2.221403725647132 2.221403725931785 -3.7918120429614306e-07 0.0 0.0 0.0 0.0 0.0 0.0 9.592877768401953e-08 -7.674132252095987e-08 -6.829493733529873e-07 4.467118826297175e-08 3.073530597679555e-08 5.131148181088725e-13 -0.24999999997894415 0.2000009812990186 0.3000000000037671 2.2214038188111593 2.2214038186973015 3.013192244471525e-10 0.0 0.0 0.0 0.0 0.0 0.0

365.888 -1.033295061400855 -1.5640748045895814 1.628081410163944 -1.634751314706751 -1.5708093914188987 -1.033295061217462 0.0 0.0 0.0 0.0 0.0 0.0 0.0 0.0 0.0 0.0 0.0 0.0 -9.48616747144912e-19 -0.5491722720436839 -0.7660223669301722 -0.2293514877436322 -8.373859811145772e-07 0.0 -1.2455337890012694e-17 -7.2106319319335705 -7.1333534853271505 -1.0424025117948084 -3.8059192841657537e-06 0.0 -1.033294979725973 -1.5640748182879847 1.6280814409255981 -1.6347511450396937 -1.5708091894732874 -1.033294979725973 0.0 0.0 0.0 0.0 0.0 0.0 -9.486167235352531e-19 -0.5491722822189331 -0.7660223841667175 -0.2293514907360077 -8.373859827770502e-07 0.0 -9.486167235352531e-19 -0.5491722822189331 -0.7660223841667175 -0.2293514907360077 -8.373859827770502e-07 0.0 -0.25000002086277523 0.2000009362080213 0.29999998045805826 2.221403725647132 2.221403725931785 -3.7918120429614306e-07 0.0 0.0 0.0 0.0 0.0 0.0 9.592877768401953e-08 -7.674132252095987e-08 -6.829493733529873e-07 4.467118826297175e-08 3.073530597679555e-08 5.131148181088725e-13 -0.24999999997894415 0.2000009812990186 0.3000000000037671 2.2214038188111593 2.2214038186973015 3.013192244471525e-10 0.0 0.0 0.0 0.0 0.0 0.0

365.89599999999996 -1.033295061400855 -1.5640748045895814 1.628081410163944 -1.634751314706751 -1.5708093914188987 -1.033295061217462 0.0 0.0 0.0 0.0 0.0 0.0 0.0 0.0 0.0 0.0 0.0 0.0 -9.48616747144912e-19 -0.5491722720436839 -0.7660223669301722 -0.2293514877436322 -8.373859811145772e-07 0.0 -1.2455337890012694e-17 -7.2106319319335705 -7.1333534853271505 -1.0424025117948084 -3.8059192841657537e-06 0.0 -1.033294979725973 -1.5640748182879847 1.6280814409255981 -1.6347511450396937 -1.5708091894732874 -1.033294979725973 0.0 0.0 0.0 0.0 0.0 0.0 -9.486167235352531e-19 -0.5491722822189331 -0.7660223841667175 -0.2293514907360077 -8.373859827770502e-07 0.0 -9.486167235352531e-19 -0.5491722822189331 -0.7660223841667175 -0.2293514907360077 -8.373859827770502e-07 0.0 -0.25000002086277523 0.2000009362080213 0.29999998045805826 2.221403725647132 2.221403725931785 -3.7918120429614306e-07 0.0 0.0 0.0 0.0 0.0 0.0 9.592877768401953e-08 -7.674132252095987e-08 -6.829493733529873e-07 4.467118826297175e-08 3.073530597679555e-08 5.131148181088725e-13 -0.24999999997894415 0.2000009812990186 0.3000000000037671 2.2214038188111593 2.2214038186973015 3.013192244471525e-10 0.0 0.0 0.0 0.0 0.0 0.0

365.904 -1.033295061400855 -1.5640748045895814 1.628081410163944 -1.634751314706751 -1.5708093914188987 -1.033295061217462 0.0 0.0 0.0 0.0 0.0 0.0 0.0 0.0 0.0 0.0 0.0 0.0 -9.48616747144912e-19 -0.5491722720436839 -0.7660223669301722 -0.2293514877436322 -8.373859811145772e-07 0.0 -1.2455337890012694e-17 -7.2106319319335705 -7.1333534853271505 -1.0424025117948084 -3.8059192841657537e-06 0.0 -1.033294979725973 -1.5640748182879847 1.6280814409255981 -1.6347511450396937 -1.5708091894732874 -1.033294979725973 0.0 0.0 0.0 0.0 0.0 0.0 -9.486167235352531e-19 -0.5491722822189331 -0.7660223841667175 -0.2293514907360077 -8.373859827770502e-07 0.0 -9.486167235352531e-19 -0.5491722822189331 -0.7660223841667175 -0.2293514907360077 -8.373859827770502e-07 0.0 -0.25000002086277523 0.2000009362080213 0.29999998045805826 2.221403725647132 2.221403725931785 -3.7918120429614306e-07 0.0 0.0 0.0 0.0 0.0 0.0 9.592877768401953e-08 -7.674132252095987e-08 -6.829493733529873e-07 4.467118826297175e-08 3.073530597679555e-08 5.131148181088725e-13 -0.24999999997894415 0.2000009812990186 0.3000000000037671 2.2214038188111593 2.2214038186973015 3.013192244471525e-10 0.0 0.0 0.0 0.0 0.0 0.0

365.912 -1.033295061400855 -1.5640748045895814 1.628081410163944 -1.634751314706751 -1.5708093914188987 -1.033295061217462 0.0 0.0 0.0 0.0 0.0 0.0 0.0 0.0 0.0 0.0 0.0 0.0 -9.48616747144912e-19 -0.5491722720436839 -0.7660223669301722 -0.2293514877436322 -8.373859811145772e-07 0.0 -1.2455337890012694e-17 -7.2106319319335705 -7.1333534853271505 -1.0424025117948084 -3.8059192841657537e-06 0.0 -1.033294979725973 -1.5640748182879847 1.6280814409255981 -1.6347511450396937 -1.5708091894732874 -1.033294979725973 0.0 0.0 0.0 0.0 0.0 0.0 -9.486167235352531e-19 -0.5491722822189331 -0.7660223841667175 -0.2293514907360077 -8.373859827770502e-07 0.0 -9.486167235352531e-19 -0.5491722822189331 -0.7660223841667175 -0.2293514907360077 -8.373859827770502e-07 0.0 -0.25000002086277523 0.2000009362080213 0.29999998045805826 2.221403725647132 2.221403725931785 -3.7918120429614306e-07 0.0 0.0 0.0 0.0 0.0 0.0 9.592877768401953e-08 -7.674132252095987e-08 -6.829493733529873e-07 4.467118826297175e-08 3.073530597679555e-08 5.131148181088725e-13 -0.24999999997894415 0.2000009812990186 0.3000000000037671 2.2214038188111593 2.2214038186973015 3.013192244471525e-10 0.0 0.0 0.0 0.0 0.0 0.0

365.91999999999996 -1.033295061400855 -1.5640748045895814 1.628081410163944 -1.634751314706751 -1.5708093914188987 -1.033295061217462 0.0 0.0 0.0 0.0 0.0 0.0 0.0 0.0 0.0 0.0 0.0 0.0 -9.48616747144912e-19 -0.5491722720436839 -0.7660223669301722 -0.2293514877436322 -8.373859811145772e-07 0.0 -1.2455337890012694e-17 -7.2106319319335705 -7.1333534853271505 -1.0424025117948084 -3.8059192841657537e-06 0.0 -1.033294979725973 -1.5640748182879847 1.6280814409255981 -1.6347511450396937 -1.5708091894732874 -1.033294979725973 0.0 0.0 0.0 0.0 0.0 0.0 -9.486167235352531e-19 -0.5491722822189331 -0.7660223841667175 -0.2293514907360077 -8.373859827770502e-07 0.0 -9.486167235352531e-19 -0.5491722822189331 -0.7660223841667175 -0.2293514907360077 -8.373859827770502e-07 0.0 -0.25000002086277523 0.2000009362080213 0.29999998045805826 2.221403725647132 2.221403725931785 -3.7918120429614306e-07 0.0 0.0 0.0 0.0 0.0 0.0 9.592877768401953e-08 -7.674132252095987e-08 -6.829493733529873e-07 4.467118826297175e-08 3.073530597679555e-08 5.131148181088725e-13 -0.24999999997894415 0.2000009812990186 0.3000000000037671 2.2214038188111593 2.2214038186973015 3.013192244471525e-10 0.0 0.0 0.0 0.0 0.0 0.0

365.928 -1.033295061400855 -1.5640748045895814 1.628081410163944 -1.634751314706751 -1.5708093914188987 -1.033295061217462 0.0 0.0 0.0 0.0 0.0 0.0 0.0 0.0 0.0 0.0 0.0 0.0 -9.48616747144912e-19 -0.5491722720436839 -0.7660223669301722 -0.2293514877436322 -8.373859811145772e-07 0.0 -1.2455337890012694e-17 -7.2106319319335705 -7.1333534853271505 -1.0424025117948084 -3.8059192841657537e-06 0.0 -1.033294979725973 -1.5640748182879847 1.6280814409255981 -1.6347511450396937 -1.5708091894732874 -1.033294979725973 0.0 0.0 0.0 0.0 0.0 0.0 -9.486167235352531e-19 -0.5491722822189331 -0.7660223841667175 -0.2293514907360077 -8.373859827770502e-07 0.0 -9.486167235352531e-19 -0.5491722822189331 -0.7660223841667175 -0.2293514907360077 -8.373859827770502e-07 0.0 -0.25000002086277523 0.2000009362080213 0.29999998045805826 2.221403725647132 2.221403725931785 -3.7918120429614306e-07 0.0 0.0 0.0 0.0 0.0 0.0 9.592877768401953e-08 -7.674132252095987e-08 -6.829493733529873e-07 4.467118826297175e-08 3.073530597679555e-08 5.131148181088725e-13 -0.24999999997894415 0.2000009812990186 0.3000000000037671 2.2214038188111593 2.2214038186973015 3.013192244471525e-10 0.0 0.0 0.0 0.0 0.0 0.0

365.936 -1.033295061400855 -1.5640748045895814 1.628081410163944 -1.634751314706751 -1.5708093914188987 -1.033295061217462 0.0 0.0 0.0 0.0 0.0 0.0 0.0 0.0 0.0 0.0 0.0 0.0 -9.48616747144912e-19 -0.5491722720436839 -0.7660223669301722 -0.2293514877436322 -8.373859811145772e-07 0.0 -1.2455337890012694e-17 -7.2106319319335705 -7.1333534853271505 -1.0424025117948084 -3.8059192841657537e-06 0.0 -1.033294979725973 -1.5640748182879847 1.6280814409255981 -1.6347511450396937 -1.5708091894732874 -1.033294979725973 0.0 0.0 0.0 0.0 0.0 0.0 -9.486167235352531e-19 -0.5491722822189331 -0.7660223841667175 -0.2293514907360077 -8.373859827770502e-07 0.0 -9.486167235352531e-19 -0.5491722822189331 -0.7660223841667175 -0.2293514907360077 -8.373859827770502e-07 0.0 -0.25000002086277523 0.2000009362080213 0.29999998045805826 2.221403725647132 2.221403725931785 -3.7918120429614306e-07 0.0 0.0 0.0 0.0 0.0 0.0 9.592877768401953e-08 -7.674132252095987e-08 -6.829493733529873e-07 4.467118826297175e-08 3.073530597679555e-08 5.131148181088725e-13 -0.24999999997894415 0.2000009812990186 0.3000000000037671 2.2214038188111593 2.2214038186973015 3.013192244471525e-10 0.0 0.0 0.0 0.0 0.0 0.0

365.94399999999996 -1.033295061400855 -1.5640748045895814 1.628081410163944 -1.634751314706751 -1.5708093914188987 -1.033295061217462 0.0 0.0 0.0 0.0 0.0 0.0 0.0 0.0 0.0 0.0 0.0 0.0 -9.48616747144912e-19 -0.5491722720436839 -0.7660223669301722 -0.2293514877436322 -8.373859811145772e-07 0.0 -1.2455337890012694e-17 -7.2106319319335705 -7.1333534853271505 -1.0424025117948084 -3.8059192841657537e-06 0.0 -1.033294979725973 -1.5640748182879847 1.6280814409255981 -1.6347511450396937 -1.5708091894732874 -1.033294979725973 0.0 0.0 0.0 0.0 0.0 0.0 -9.486167235352531e-19 -0.5491722822189331 -0.7660223841667175 -0.2293514907360077 -8.373859827770502e-07 0.0 -9.486167235352531e-19 -0.5491722822189331 -0.7660223841667175 -0.2293514907360077 -8.373859827770502e-07 0.0 -0.25000002086277523 0.2000009362080213 0.29999998045805826 2.221403725647132 2.221403725931785 -3.7918120429614306e-07 0.0 0.0 0.0 0.0 0.0 0.0 9.592877768401953e-08 -7.674132252095987e-08 -6.829493733529873e-07 4.467118826297175e-08 3.073530597679555e-08 5.131148181088725e-13 -0.24999999997894415 0.2000009812990186 0.3000000000037671 2.2214038188111593 2.2214038186973015 3.013192244471525e-10 0.0 0.0 0.0 0.0 0.0 0.0

365.952 -1.033295061400855 -1.5640748045895814 1.628081410163944 -1.634751314706751 -1.5708093914188987 -1.033295061217462 0.0 0.0 0.0 0.0 0.0 0.0 0.0 0.0 0.0 0.0 0.0 0.0 -9.48616747144912e-19 -0.5491722720436839 -0.7660223669301722 -0.2293514877436322 -8.373859811145772e-07 0.0 -1.2455337890012694e-17 -7.2106319319335705 -7.1333534853271505 -1.0424025117948084 -3.8059192841657537e-06 0.0 -1.033294979725973 -1.5640748182879847 1.6280814409255981 -1.6347511450396937 -1.5708091894732874 -1.033294979725973 0.0 0.0 0.0 0.0 0.0 0.0 -9.486167235352531e-19 -0.5491722822189331 -0.7660223841667175 -0.2293514907360077 -8.373859827770502e-07 0.0 -9.486167235352531e-19 -0.5491722822189331 -0.7660223841667175 -0.2293514907360077 -8.373859827770502e-07 0.0 -0.25000002086277523 0.2000009362080213 0.29999998045805826 2.221403725647132 2.221403725931785 -3.7918120429614306e-07 0.0 0.0 0.0 0.0 0.0 0.0 9.592877768401953e-08 -7.674132252095987e-08 -6.829493733529873e-07 4.467118826297175e-08 3.073530597679555e-08 5.131148181088725e-13 -0.24999999997894415 0.2000009812990186 0.3000000000037671 2.2214038188111593 2.2214038186973015 3.013192244471525e-10 0.0 0.0 0.0 0.0 0.0 0.0

365.96 -1.033295061400855 -1.5640748045895814 1.628081410163944 -1.634751314706751 -1.5708093914188987 -1.033295061217462 0.0 0.0 0.0 0.0 0.0 0.0 0.0 0.0 0.0 0.0 0.0 0.0 -9.48616747144912e-19 -0.5491722720436839 -0.7660223669301722 -0.2293514877436322 -8.373859811145772e-07 0.0 -1.2455337890012694e-17 -7.2106319319335705 -7.1333534853271505 -1.0424025117948084 -3.8059192841657537e-06 0.0 -1.033294979725973 -1.5640748182879847 1.6280814409255981 -1.6347511450396937 -1.5708091894732874 -1.033294979725973 0.0 0.0 0.0 0.0 0.0 0.0 -9.486167235352531e-19 -0.5491722822189331 -0.7660223841667175 -0.2293514907360077 -8.373859827770502e-07 0.0 -9.486167235352531e-19 -0.5491722822189331 -0.7660223841667175 -0.2293514907360077 -8.373859827770502e-07 0.0 -0.25000002086277523 0.2000009362080213 0.29999998045805826 2.221403725647132 2.221403725931785 -3.7918120429614306e-07 0.0 0.0 0.0 0.0 0.0 0.0 9.592877768401953e-08 -7.674132252095987e-08 -6.829493733529873e-07 4.467118826297175e-08 3.073530597679555e-08 5.131148181088725e-13 -0.24999999997894415 0.2000009812990186 0.3000000000037671 2.2214038188111593 2.2214038186973015 3.013192244471525e-10 0.0 0.0 0.0 0.0 0.0 0.0

365.96799999999996 -1.033295061400855 -1.5640748045895814 1.628081410163944 -1.634751314706751 -1.5708093914188987 -1.033295061217462 0.0 0.0 0.0 0.0 0.0 0.0 0.0 0.0 0.0 0.0 0.0 0.0 -9.48616747144912e-19 -0.5491722720436839 -0.7660223669301722 -0.2293514877436322 -8.373859811145772e-07 0.0 -1.2455337890012694e-17 -7.2106319319335705 -7.1333534853271505 -1.0424025117948084 -3.8059192841657537e-06 0.0 -1.033294979725973 -1.5640748182879847 1.6280814409255981 -1.6347511450396937 -1.5708091894732874 -1.033294979725973 0.0 0.0 0.0 0.0 0.0 0.0 -9.486167235352531e-19 -0.5491722822189331 -0.7660223841667175 -0.2293514907360077 -8.373859827770502e-07 0.0 -9.486167235352531e-19 -0.5491722822189331 -0.7660223841667175 -0.2293514907360077 -8.373859827770502e-07 0.0 -0.25000002086277523 0.2000009362080213 0.29999998045805826 2.221403725647132 2.221403725931785 -3.7918120429614306e-07 0.0 0.0 0.0 0.0 0.0 0.0 9.592877768401953e-08 -7.674132252095987e-08 -6.829493733529873e-07 4.467118826297175e-08 3.073530597679555e-08 5.131148181088725e-13 -0.24999999997894415 0.2000009812990186 0.3000000000037671 2.2214038188111593 2.2214038186973015 3.013192244471525e-10 0.0 0.0 0.0 0.0 0.0 0.0

365.976 -1.033295061400855 -1.5640748045895814 1.628081410163944 -1.634751314706751 -1.5708093914188987 -1.033295061217462 0.0 0.0 0.0 0.0 0.0 0.0 0.0 0.0 0.0 0.0 0.0 0.0 -9.48616747144912e-19 -0.5491722720436839 -0.7660223669301722 -0.2293514877436322 -8.373859811145772e-07 0.0 -1.2455337890012694e-17 -7.2106319319335705 -7.1333534853271505 -1.0424025117948084 -3.8059192841657537e-06 0.0 -1.033294979725973 -1.5640748182879847 1.6280814409255981 -1.6347511450396937 -1.5708091894732874 -1.033294979725973 0.0 0.0 0.0 0.0 0.0 0.0 -9.486167235352531e-19 -0.5491722822189331 -0.7660223841667175 -0.2293514907360077 -8.373859827770502e-07 0.0 -9.486167235352531e-19 -0.5491722822189331 -0.7660223841667175 -0.2293514907360077 -8.373859827770502e-07 0.0 -0.25000002086277523 0.2000009362080213 0.29999998045805826 2.221403725647132 2.221403725931785 -3.7918120429614306e-07 0.0 0.0 0.0 0.0 0.0 0.0 9.592877768401953e-08 -7.674132252095987e-08 -6.829493733529873e-07 4.467118826297175e-08 3.073530597679555e-08 5.131148181088725e-13 -0.24999999997894415 0.2000009812990186 0.3000000000037671 2.2214038188111593 2.2214038186973015 3.013192244471525e-10 0.0 0.0 0.0 0.0 0.0 0.0

365.984 -1.033295061400855 -1.5640748045895814 1.628081410163944 -1.634751314706751 -1.5708093914188987 -1.033295061217462 0.0 0.0 0.0 0.0 0.0 0.0 0.0 0.0 0.0 0.0 0.0 0.0 -9.48616747144912e-19 -0.5491722720436839 -0.7660223669301722 -0.2293514877436322 -8.373859811145772e-07 0.0 -1.2455337890012694e-17 -7.2106319319335705 -7.1333534853271505 -1.0424025117948084 -3.8059192841657537e-06 0.0 -1.033294979725973 -1.5640748182879847 1.6280814409255981 -1.6347511450396937 -1.5708091894732874 -1.033294979725973 0.0 0.0 0.0 0.0 0.0 0.0 -9.486167235352531e-19 -0.5491722822189331 -0.7660223841667175 -0.2293514907360077 -8.373859827770502e-07 0.0 -9.486167235352531e-19 -0.5491722822189331 -0.7660223841667175 -0.2293514907360077 -8.373859827770502e-07 0.0 -0.25000002086277523 0.2000009362080213 0.29999998045805826 2.221403725647132 2.221403725931785 -3.7918120429614306e-07 0.0 0.0 0.0 0.0 0.0 0.0 9.592877768401953e-08 -7.674132252095987e-08 -6.829493733529873e-07 4.467118826297175e-08 3.073530597679555e-08 5.131148181088725e-13 -0.24999999997894415 0.2000009812990186 0.3000000000037671 2.2214038188111593 2.2214038186973015 3.013192244471525e-10 0.0 0.0 0.0 0.0 0.0 0.0

365.99199999999996 -1.033295061400855 -1.5640748045895814 1.628081410163944 -1.634751314706751 -1.5708093914188987 -1.033295061217462 0.0 0.0 0.0 0.0 0.0 0.0 0.0 0.0 0.0 0.0 0.0 0.0 -9.48616747144912e-19 -0.5491722720436839 -0.7660223669301722 -0.2293514877436322 -8.373859811145772e-07 0.0 -1.2455337890012694e-17 -7.2106319319335705 -7.1333534853271505 -1.0424025117948084 -3.8059192841657537e-06 0.0 -1.033294979725973 -1.5640748182879847 1.6280814409255981 -1.6347511450396937 -1.5708091894732874 -1.033294979725973 0.0 0.0 0.0 0.0 0.0 0.0 -9.486167235352531e-19 -0.5491722822189331 -0.7660223841667175 -0.2293514907360077 -8.373859827770502e-07 0.0 -9.486167235352531e-19 -0.5491722822189331 -0.7660223841667175 -0.2293514907360077 -8.373859827770502e-07 0.0 -0.25000002086277523 0.2000009362080213 0.29999998045805826 2.221403725647132 2.221403725931785 -3.7918120429614306e-07 0.0 0.0 0.0 0.0 0.0 0.0 9.592877768401953e-08 -7.674132252095987e-08 -6.829493733529873e-07 4.467118826297175e-08 3.073530597679555e-08 5.131148181088725e-13 -0.24999999997894415 0.2000009812990186 0.3000000000037671 2.2214038188111593 2.2214038186973015 3.013192244471525e-10 0.0 0.0 0.0 0.0 0.0 0.0

366.0 -1.033295061400855 -1.5640748045895814 1.628081410163944 -1.634751314706751 -1.5708093914188987 -1.033295061217462 0.0 0.0 0.0 0.0 0.0 0.0 0.0 0.0 0.0 0.0 0.0 0.0 -9.48616747144912e-19 -0.5491722720436839 -0.7660223669301722 -0.2293514877436322 -8.373859811145772e-07 0.0 -1.2455337890012694e-17 -7.2106319319335705 -7.1333534853271505 -1.0424025117948084 -3.8059192841657537e-06 0.0 -1.033294979725973 -1.5640748182879847 1.6280814409255981 -1.6347511450396937 -1.5708091894732874 -1.033294979725973 0.0 0.0 0.0 0.0 0.0 0.0 -9.486167235352531e-19 -0.5491722822189331 -0.7660223841667175 -0.2293514907360077 -8.373859827770502e-07 0.0 -9.486167235352531e-19 -0.5491722822189331 -0.7660223841667175 -0.2293514907360077 -8.373859827770502e-07 0.0 -0.25000002086277523 0.2000009362080213 0.29999998045805826 2.221403725647132 2.221403725931785 -3.7918120429614306e-07 0.0 0.0 0.0 0.0 0.0 0.0 9.592877768401953e-08 -7.674132252095987e-08 -6.829493733529873e-07 4.467118826297175e-08 3.073530597679555e-08 5.131148181088725e-13 -0.24999999997894415 0.2000009812990186 0.3000000000037671 2.2214038188111593 2.2214038186973015 3.013192244471525e-10 0.0 0.0 0.0 0.0 0.0 0.0

366.008 -1.033295061400855 -1.5640748045895814 1.628081410163944 -1.634751314706751 -1.5708093914188987 -1.033295061217462 0.0 0.0 0.0 0.0 0.0 0.0 0.0 0.0 0.0 0.0 0.0 0.0 -9.48616747144912e-19 -0.5491722720436839 -0.7660223669301722 -0.2293514877436322 -8.373859811145772e-07 0.0 -1.2455337890012694e-17 -7.2106319319335705 -7.1333534853271505 -1.0424025117948084 -3.8059192841657537e-06 0.0 -1.033294979725973 -1.5640748182879847 1.6280814409255981 -1.6347511450396937 -1.5708091894732874 -1.033294979725973 0.0 0.0 0.0 0.0 0.0 0.0 -9.486167235352531e-19 -0.5491722822189331 -0.7660223841667175 -0.2293514907360077 -8.373859827770502e-07 0.0 -9.486167235352531e-19 -0.5491722822189331 -0.7660223841667175 -0.2293514907360077 -8.373859827770502e-07 0.0 -0.25000002086277523 0.2000009362080213 0.29999998045805826 2.221403725647132 2.221403725931785 -3.7918120429614306e-07 0.0 0.0 0.0 0.0 0.0 0.0 9.592877768401953e-08 -7.674132252095987e-08 -6.829493733529873e-07 4.467118826297175e-08 3.073530597679555e-08 5.131148181088725e-13 -0.24999999997894415 0.2000009812990186 0.3000000000037671 2.2214038188111593 2.2214038186973015 3.013192244471525e-10 0.0 0.0 0.0 0.0 0.0 0.0

366.01599999999996 -1.033295061400855 -1.5640748045895814 1.628081410163944 -1.634751314706751 -1.5708093914188987 -1.033295061217462 0.0 0.0 0.0 0.0 0.0 0.0 0.0 0.0 0.0 0.0 0.0 0.0 -9.48616747144912e-19 -0.5491722720436839 -0.7660223669301722 -0.2293514877436322 -8.373859811145772e-07 0.0 -1.2455337890012694e-17 -7.2106319319335705 -7.1333534853271505 -1.0424025117948084 -3.8059192841657537e-06 0.0 -1.033294979725973 -1.5640748182879847 1.6280814409255981 -1.6347511450396937 -1.5708091894732874 -1.033294979725973 0.0 0.0 0.0 0.0 0.0 0.0 -9.486167235352531e-19 -0.5491722822189331 -0.7660223841667175 -0.2293514907360077 -8.373859827770502e-07 0.0 -9.486167235352531e-19 -0.5491722822189331 -0.7660223841667175 -0.2293514907360077 -8.373859827770502e-07 0.0 -0.25000002086277523 0.2000009362080213 0.29999998045805826 2.221403725647132 2.221403725931785 -3.7918120429614306e-07 0.0 0.0 0.0 0.0 0.0 0.0 9.592877768401953e-08 -7.674132252095987e-08 -6.829493733529873e-07 4.467118826297175e-08 3.073530597679555e-08 5.131148181088725e-13 -0.24999999997894415 0.2000009812990186 0.3000000000037671 2.2214038188111593 2.2214038186973015 3.013192244471525e-10 0.0 0.0 0.0 0.0 0.0 0.0

366.024 -1.033295061400855 -1.5640748045895814 1.628081410163944 -1.634751314706751 -1.5708093914188987 -1.033295061217462 0.0 0.0 0.0 0.0 0.0 0.0 0.0 0.0 0.0 0.0 0.0 0.0 -9.48616747144912e-19 -0.5491722720436839 -0.7660223669301722 -0.2293514877436322 -8.373859811145772e-07 0.0 -1.2455337890012694e-17 -7.2106319319335705 -7.1333534853271505 -1.0424025117948084 -3.8059192841657537e-06 0.0 -1.033294979725973 -1.5640748182879847 1.6280814409255981 -1.6347511450396937 -1.5708091894732874 -1.033294979725973 0.0 0.0 0.0 0.0 0.0 0.0 -9.486167235352531e-19 -0.5491722822189331 -0.7660223841667175 -0.2293514907360077 -8.373859827770502e-07 0.0 -9.486167235352531e-19 -0.5491722822189331 -0.7660223841667175 -0.2293514907360077 -8.373859827770502e-07 0.0 -0.25000002086277523 0.2000009362080213 0.29999998045805826 2.221403725647132 2.221403725931785 -3.7918120429614306e-07 0.0 0.0 0.0 0.0 0.0 0.0 9.592877768401953e-08 -7.674132252095987e-08 -6.829493733529873e-07 4.467118826297175e-08 3.073530597679555e-08 5.131148181088725e-13 -0.24999999997894415 0.2000009812990186 0.3000000000037671 2.2214038188111593 2.2214038186973015 3.013192244471525e-10 0.0 0.0 0.0 0.0 0.0 0.0

366.032 -1.033295061400855 -1.5640748045895814 1.628081410163944 -1.634751314706751 -1.5708093914188987 -1.033295061217462 0.0 0.0 0.0 0.0 0.0 0.0 0.0 0.0 0.0 0.0 0.0 0.0 -9.48616747144912e-19 -0.5491722720436839 -0.7660223669301722 -0.2293514877436322 -8.373859811145772e-07 0.0 -1.2455337890012694e-17 -7.2106319319335705 -7.1333534853271505 -1.0424025117948084 -3.8059192841657537e-06 0.0 -1.033294979725973 -1.5640748182879847 1.6280814409255981 -1.6347511450396937 -1.5708091894732874 -1.033294979725973 0.0 0.0 0.0 0.0 0.0 0.0 -9.486167235352531e-19 -0.5491722822189331 -0.7660223841667175 -0.2293514907360077 -8.373859827770502e-07 0.0 -9.486167235352531e-19 -0.5491722822189331 -0.7660223841667175 -0.2293514907360077 -8.373859827770502e-07 0.0 -0.25000002086277523 0.2000009362080213 0.29999998045805826 2.221403725647132 2.221403725931785 -3.7918120429614306e-07 0.0 0.0 0.0 0.0 0.0 0.0 9.592877768401953e-08 -7.674132252095987e-08 -6.829493733529873e-07 4.467118826297175e-08 3.073530597679555e-08 5.131148181088725e-13 -0.24999999997894415 0.2000009812990186 0.3000000000037671 2.2214038188111593 2.2214038186973015 3.013192244471525e-10 0.0 0.0 0.0 0.0 0.0 0.0

366.03999999999996 -1.033295061400855 -1.5640748045895814 1.628081410163944 -1.634751314706751 -1.5708093914188987 -1.033295061217462 0.0 0.0 0.0 0.0 0.0 0.0 0.0 0.0 0.0 0.0 0.0 0.0 -9.48616747144912e-19 -0.5491722720436839 -0.7660223669301722 -0.2293514877436322 -8.373859811145772e-07 0.0 -1.2455337890012694e-17 -7.2106319319335705 -7.1333534853271505 -1.0424025117948084 -3.8059192841657537e-06 0.0 -1.033294979725973 -1.5640748182879847 1.6280814409255981 -1.6347511450396937 -1.5708091894732874 -1.033294979725973 0.0 0.0 0.0 0.0 0.0 0.0 -9.486167235352531e-19 -0.5491722822189331 -0.7660223841667175 -0.2293514907360077 -8.373859827770502e-07 0.0 -9.486167235352531e-19 -0.5491722822189331 -0.7660223841667175 -0.2293514907360077 -8.373859827770502e-07 0.0 -0.25000002086277523 0.2000009362080213 0.29999998045805826 2.221403725647132 2.221403725931785 -3.7918120429614306e-07 0.0 0.0 0.0 0.0 0.0 0.0 9.592877768401953e-08 -7.674132252095987e-08 -6.829493733529873e-07 4.467118826297175e-08 3.073530597679555e-08 5.131148181088725e-13 -0.24999999997894415 0.2000009812990186 0.3000000000037671 2.2214038188111593 2.2214038186973015 3.013192244471525e-10 0.0 0.0 0.0 0.0 0.0 0.0

366.048 -1.033295061400855 -1.5640748045895814 1.628081410163944 -1.634751314706751 -1.5708093914188987 -1.033295061217462 0.0 0.0 0.0 0.0 0.0 0.0 0.0 0.0 0.0 0.0 0.0 0.0 -9.48616747144912e-19 -0.5491722720436839 -0.7660223669301722 -0.2293514877436322 -8.373859811145772e-07 0.0 -1.2455337890012694e-17 -7.2106319319335705 -7.1333534853271505 -1.0424025117948084 -3.8059192841657537e-06 0.0 -1.033294979725973 -1.5640748182879847 1.6280814409255981 -1.6347511450396937 -1.5708091894732874 -1.033294979725973 0.0 0.0 0.0 0.0 0.0 0.0 -9.486167235352531e-19 -0.5491722822189331 -0.7660223841667175 -0.2293514907360077 -8.373859827770502e-07 0.0 -9.486167235352531e-19 -0.5491722822189331 -0.7660223841667175 -0.2293514907360077 -8.373859827770502e-07 0.0 -0.25000002086277523 0.2000009362080213 0.29999998045805826 2.221403725647132 2.221403725931785 -3.7918120429614306e-07 0.0 0.0 0.0 0.0 0.0 0.0 9.592877768401953e-08 -7.674132252095987e-08 -6.829493733529873e-07 4.467118826297175e-08 3.073530597679555e-08 5.131148181088725e-13 -0.24999999997894415 0.2000009812990186 0.3000000000037671 2.2214038188111593 2.2214038186973015 3.013192244471525e-10 0.0 0.0 0.0 0.0 0.0 0.0

366.056 -1.033295061400855 -1.5640748045895814 1.628081410163944 -1.634751314706751 -1.5708093914188987 -1.033295061217462 0.0 0.0 0.0 0.0 0.0 0.0 0.0 0.0 0.0 0.0 0.0 0.0 -9.48616747144912e-19 -0.5491722720436839 -0.7660223669301722 -0.2293514877436322 -8.373859811145772e-07 0.0 -1.2455337890012694e-17 -7.2106319319335705 -7.1333534853271505 -1.0424025117948084 -3.8059192841657537e-06 0.0 -1.033294979725973 -1.5640748182879847 1.6280814409255981 -1.6347511450396937 -1.5708091894732874 -1.033294979725973 0.0 0.0 0.0 0.0 0.0 0.0 -9.486167235352531e-19 -0.5491722822189331 -0.7660223841667175 -0.2293514907360077 -8.373859827770502e-07 0.0 -9.486167235352531e-19 -0.5491722822189331 -0.7660223841667175 -0.2293514907360077 -8.373859827770502e-07 0.0 -0.25000002086277523 0.2000009362080213 0.29999998045805826 2.221403725647132 2.221403725931785 -3.7918120429614306e-07 0.0 0.0 0.0 0.0 0.0 0.0 9.592877768401953e-08 -7.674132252095987e-08 -6.829493733529873e-07 4.467118826297175e-08 3.073530597679555e-08 5.131148181088725e-13 -0.24999999997894415 0.2000009812990186 0.3000000000037671 2.2214038188111593 2.2214038186973015 3.013192244471525e-10 0.0 0.0 0.0 0.0 0.0 0.0

366.06399999999996 -1.033295061400855 -1.5640748045895814 1.628081410163944 -1.634751314706751 -1.5708093914188987 -1.033295061217462 0.0 0.0 0.0 0.0 0.0 0.0 0.0 0.0 0.0 0.0 0.0 0.0 -9.48616747144912e-19 -0.5491722720436839 -0.7660223669301722 -0.2293514877436322 -8.373859811145772e-07 0.0 -1.2455337890012694e-17 -7.2106319319335705 -7.1333534853271505 -1.0424025117948084 -3.8059192841657537e-06 0.0 -1.033294979725973 -1.5640748182879847 1.6280814409255981 -1.6347511450396937 -1.5708091894732874 -1.033294979725973 0.0 0.0 0.0 0.0 0.0 0.0 -9.486167235352531e-19 -0.5491722822189331 -0.7660223841667175 -0.2293514907360077 -8.373859827770502e-07 0.0 -9.486167235352531e-19 -0.5491722822189331 -0.7660223841667175 -0.2293514907360077 -8.373859827770502e-07 0.0 -0.25000002086277523 0.2000009362080213 0.29999998045805826 2.221403725647132 2.221403725931785 -3.7918120429614306e-07 0.0 0.0 0.0 0.0 0.0 0.0 9.592877768401953e-08 -7.674132252095987e-08 -6.829493733529873e-07 4.467118826297175e-08 3.073530597679555e-08 5.131148181088725e-13 -0.24999999997894415 0.2000009812990186 0.3000000000037671 2.2214038188111593 2.2214038186973015 3.013192244471525e-10 0.0 0.0 0.0 0.0 0.0 0.0

366.072 -1.033295061400855 -1.5640748045895814 1.628081410163944 -1.634751314706751 -1.5708093914188987 -1.033295061217462 0.0 0.0 0.0 0.0 0.0 0.0 0.0 0.0 0.0 0.0 0.0 0.0 -9.48616747144912e-19 -0.5491722720436839 -0.7660223669301722 -0.2293514877436322 -8.373859811145772e-07 0.0 -1.2455337890012694e-17 -7.2106319319335705 -7.1333534853271505 -1.0424025117948084 -3.8059192841657537e-06 0.0 -1.033294979725973 -1.5640748182879847 1.6280814409255981 -1.6347511450396937 -1.5708091894732874 -1.033294979725973 0.0 0.0 0.0 0.0 0.0 0.0 -9.486167235352531e-19 -0.5491722822189331 -0.7660223841667175 -0.2293514907360077 -8.373859827770502e-07 0.0 -9.486167235352531e-19 -0.5491722822189331 -0.7660223841667175 -0.2293514907360077 -8.373859827770502e-07 0.0 -0.25000002086277523 0.2000009362080213 0.29999998045805826 2.221403725647132 2.221403725931785 -3.7918120429614306e-07 0.0 0.0 0.0 0.0 0.0 0.0 9.592877768401953e-08 -7.674132252095987e-08 -6.829493733529873e-07 4.467118826297175e-08 3.073530597679555e-08 5.131148181088725e-13 -0.24999999997894415 0.2000009812990186 0.3000000000037671 2.2214038188111593 2.2214038186973015 3.013192244471525e-10 0.0 0.0 0.0 0.0 0.0 0.0

366.08 -1.033295061400855 -1.5640748045895814 1.628081410163944 -1.634751314706751 -1.5708093914188987 -1.033295061217462 0.0 0.0 0.0 0.0 0.0 0.0 0.0 0.0 0.0 0.0 0.0 0.0 -9.48616747144912e-19 -0.5491722720436839 -0.7660223669301722 -0.2293514877436322 -8.373859811145772e-07 0.0 -1.2455337890012694e-17 -7.2106319319335705 -7.1333534853271505 -1.0424025117948084 -3.8059192841657537e-06 0.0 -1.033294979725973 -1.5640748182879847 1.6280814409255981 -1.6347511450396937 -1.5708091894732874 -1.033294979725973 0.0 0.0 0.0 0.0 0.0 0.0 -9.486167235352531e-19 -0.5491722822189331 -0.7660223841667175 -0.2293514907360077 -8.373859827770502e-07 0.0 -9.486167235352531e-19 -0.5491722822189331 -0.7660223841667175 -0.2293514907360077 -8.373859827770502e-07 0.0 -0.25000002086277523 0.2000009362080213 0.29999998045805826 2.221403725647132 2.221403725931785 -3.7918120429614306e-07 0.0 0.0 0.0 0.0 0.0 0.0 9.592877768401953e-08 -7.674132252095987e-08 -6.829493733529873e-07 4.467118826297175e-08 3.073530597679555e-08 5.131148181088725e-13 -0.24999999997894415 0.2000009812990186 0.3000000000037671 2.2214038188111593 2.2214038186973015 3.013192244471525e-10 0.0 0.0 0.0 0.0 0.0 0.0

366.08799999999997 -1.033295061400855 -1.5640748045895814 1.628081410163944 -1.634751314706751 -1.5708093914188987 -1.033295061217462 0.0 0.0 0.0 0.0 0.0 0.0 0.0 0.0 0.0 0.0 0.0 0.0 -9.48616747144912e-19 -0.5491722720436839 -0.7660223669301722 -0.2293514877436322 -8.373859811145772e-07 0.0 -1.2455337890012694e-17 -7.2106319319335705 -7.1333534853271505 -1.0424025117948084 -3.8059192841657537e-06 0.0 -1.033294979725973 -1.5640748182879847 1.6280814409255981 -1.6347511450396937 -1.5708091894732874 -1.033294979725973 0.0 0.0 0.0 0.0 0.0 0.0 -9.486167235352531e-19 -0.5491722822189331 -0.7660223841667175 -0.2293514907360077 -8.373859827770502e-07 0.0 -9.486167235352531e-19 -0.5491722822189331 -0.7660223841667175 -0.2293514907360077 -8.373859827770502e-07 0.0 -0.25000002086277523 0.2000009362080213 0.29999998045805826 2.221403725647132 2.221403725931785 -3.7918120429614306e-07 0.0 0.0 0.0 0.0 0.0 0.0 9.592877768401953e-08 -7.674132252095987e-08 -6.829493733529873e-07 4.467118826297175e-08 3.073530597679555e-08 5.131148181088725e-13 -0.24999999997894415 0.2000009812990186 0.3000000000037671 2.2214038188111593 2.2214038186973015 3.013192244471525e-10 0.0 0.0 0.0 0.0 0.0 0.0

366.096 -1.033295061400855 -1.5640748045895814 1.628081410163944 -1.634751314706751 -1.5708093914188987 -1.033295061217462 0.0 0.0 0.0 0.0 0.0 0.0 0.0 0.0 0.0 0.0 0.0 0.0 -9.48616747144912e-19 -0.5491722720436839 -0.7660223669301722 -0.2293514877436322 -8.373859811145772e-07 0.0 -1.2455337890012694e-17 -7.2106319319335705 -7.1333534853271505 -1.0424025117948084 -3.8059192841657537e-06 0.0 -1.033294979725973 -1.5640748182879847 1.6280814409255981 -1.6347511450396937 -1.5708091894732874 -1.033294979725973 0.0 0.0 0.0 0.0 0.0 0.0 -9.486167235352531e-19 -0.5491722822189331 -0.7660223841667175 -0.2293514907360077 -8.373859827770502e-07 0.0 -9.486167235352531e-19 -0.5491722822189331 -0.7660223841667175 -0.2293514907360077 -8.373859827770502e-07 0.0 -0.25000002086277523 0.2000009362080213 0.29999998045805826 2.221403725647132 2.221403725931785 -3.7918120429614306e-07 0.0 0.0 0.0 0.0 0.0 0.0 9.592877768401953e-08 -7.674132252095987e-08 -6.829493733529873e-07 4.467118826297175e-08 3.073530597679555e-08 5.131148181088725e-13 -0.24999999997894415 0.2000009812990186 0.3000000000037671 2.2214038188111593 2.2214038186973015 3.013192244471525e-10 0.0 0.0 0.0 0.0 0.0 0.0

366.104 -1.033295061400855 -1.5640748045895814 1.628081410163944 -1.634751314706751 -1.5708093914188987 -1.033295061217462 0.0 0.0 0.0 0.0 0.0 0.0 0.0 0.0 0.0 0.0 0.0 0.0 -9.48616747144912e-19 -0.5491722720436839 -0.7660223669301722 -0.2293514877436322 -8.373859811145772e-07 0.0 -1.2455337890012694e-17 -7.2106319319335705 -7.1333534853271505 -1.0424025117948084 -3.8059192841657537e-06 0.0 -1.033294979725973 -1.5640748182879847 1.6280814409255981 -1.6347511450396937 -1.5708091894732874 -1.033294979725973 0.0 0.0 0.0 0.0 0.0 0.0 -9.486167235352531e-19 -0.5491722822189331 -0.7660223841667175 -0.2293514907360077 -8.373859827770502e-07 0.0 -9.486167235352531e-19 -0.5491722822189331 -0.7660223841667175 -0.2293514907360077 -8.373859827770502e-07 0.0 -0.25000002086277523 0.2000009362080213 0.29999998045805826 2.221403725647132 2.221403725931785 -3.7918120429614306e-07 0.0 0.0 0.0 0.0 0.0 0.0 9.592877768401953e-08 -7.674132252095987e-08 -6.829493733529873e-07 4.467118826297175e-08 3.073530597679555e-08 5.131148181088725e-13 -0.24999999997894415 0.2000009812990186 0.3000000000037671 2.2214038188111593 2.2214038186973015 3.013192244471525e-10 0.0 0.0 0.0 0.0 0.0 0.0

366.11199999999997 -1.033295061400855 -1.5640748045895814 1.628081410163944 -1.634751314706751 -1.5708093914188987 -1.033295061217462 0.0 0.0 0.0 0.0 0.0 0.0 0.0 0.0 0.0 0.0 0.0 0.0 -9.48616747144912e-19 -0.5491722720436839 -0.7660223669301722 -0.2293514877436322 -8.373859811145772e-07 0.0 -1.2455337890012694e-17 -7.2106319319335705 -7.1333534853271505 -1.0424025117948084 -3.8059192841657537e-06 0.0 -1.033294979725973 -1.5640748182879847 1.6280814409255981 -1.6347511450396937 -1.5708091894732874 -1.033294979725973 0.0 0.0 0.0 0.0 0.0 0.0 -9.486167235352531e-19 -0.5491722822189331 -0.7660223841667175 -0.2293514907360077 -8.373859827770502e-07 0.0 -9.486167235352531e-19 -0.5491722822189331 -0.7660223841667175 -0.2293514907360077 -8.373859827770502e-07 0.0 -0.25000002086277523 0.2000009362080213 0.29999998045805826 2.221403725647132 2.221403725931785 -3.7918120429614306e-07 0.0 0.0 0.0 0.0 0.0 0.0 9.592877768401953e-08 -7.674132252095987e-08 -6.829493733529873e-07 4.467118826297175e-08 3.073530597679555e-08 5.131148181088725e-13 -0.24999999997894415 0.2000009812990186 0.3000000000037671 2.2214038188111593 2.2214038186973015 3.013192244471525e-10 0.0 0.0 0.0 0.0 0.0 0.0

366.12 -1.033295061400855 -1.5640748045895814 1.628081410163944 -1.634751314706751 -1.5708093914188987 -1.033295061217462 0.0 0.0 0.0 0.0 0.0 0.0 0.0 0.0 0.0 0.0 0.0 0.0 -9.48616747144912e-19 -0.5491722720436839 -0.7660223669301722 -0.2293514877436322 -8.373859811145772e-07 0.0 -1.2455337890012694e-17 -7.2106319319335705 -7.1333534853271505 -1.0424025117948084 -3.8059192841657537e-06 0.0 -1.033294979725973 -1.5640748182879847 1.6280814409255981 -1.6347511450396937 -1.5708091894732874 -1.033294979725973 0.0 0.0 0.0 0.0 0.0 0.0 -9.486167235352531e-19 -0.5491722822189331 -0.7660223841667175 -0.2293514907360077 -8.373859827770502e-07 0.0 -9.486167235352531e-19 -0.5491722822189331 -0.7660223841667175 -0.2293514907360077 -8.373859827770502e-07 0.0 -0.25000002086277523 0.2000009362080213 0.29999998045805826 2.221403725647132 2.221403725931785 -3.7918120429614306e-07 0.0 0.0 0.0 0.0 0.0 0.0 9.592877768401953e-08 -7.674132252095987e-08 -6.829493733529873e-07 4.467118826297175e-08 3.073530597679555e-08 5.131148181088725e-13 -0.24999999997894415 0.2000009812990186 0.3000000000037671 2.2214038188111593 2.2214038186973015 3.013192244471525e-10 0.0 0.0 0.0 0.0 0.0 0.0

366.128 -1.033295061400855 -1.5640748045895814 1.628081410163944 -1.634751314706751 -1.5708093914188987 -1.033295061217462 0.0 0.0 0.0 0.0 0.0 0.0 0.0 0.0 0.0 0.0 0.0 0.0 -9.48616747144912e-19 -0.5491722720436839 -0.7660223669301722 -0.2293514877436322 -8.373859811145772e-07 0.0 -1.2455337890012694e-17 -7.2106319319335705 -7.1333534853271505 -1.0424025117948084 -3.8059192841657537e-06 0.0 -1.033294979725973 -1.5640748182879847 1.6280814409255981 -1.6347511450396937 -1.5708091894732874 -1.033294979725973 0.0 0.0 0.0 0.0 0.0 0.0 -9.486167235352531e-19 -0.5491722822189331 -0.7660223841667175 -0.2293514907360077 -8.373859827770502e-07 0.0 -9.486167235352531e-19 -0.5491722822189331 -0.7660223841667175 -0.2293514907360077 -8.373859827770502e-07 0.0 -0.25000002086277523 0.2000009362080213 0.29999998045805826 2.221403725647132 2.221403725931785 -3.7918120429614306e-07 0.0 0.0 0.0 0.0 0.0 0.0 9.592877768401953e-08 -7.674132252095987e-08 -6.829493733529873e-07 4.467118826297175e-08 3.073530597679555e-08 5.131148181088725e-13 -0.24999999997894415 0.2000009812990186 0.3000000000037671 2.2214038188111593 2.2214038186973015 3.013192244471525e-10 0.0 0.0 0.0 0.0 0.0 0.0

366.13599999999997 -1.033295061400855 -1.5640748045895814 1.628081410163944 -1.634751314706751 -1.5708093914188987 -1.033295061217462 0.0 0.0 0.0 0.0 0.0 0.0 0.0 0.0 0.0 0.0 0.0 0.0 -9.48616747144912e-19 -0.5491722720436839 -0.7660223669301722 -0.2293514877436322 -8.373859811145772e-07 0.0 -1.2455337890012694e-17 -7.2106319319335705 -7.1333534853271505 -1.0424025117948084 -3.8059192841657537e-06 0.0 -1.033294979725973 -1.5640748182879847 1.6280814409255981 -1.6347511450396937 -1.5708091894732874 -1.033294979725973 0.0 0.0 0.0 0.0 0.0 0.0 -9.486167235352531e-19 -0.5491722822189331 -0.7660223841667175 -0.2293514907360077 -8.373859827770502e-07 0.0 -9.486167235352531e-19 -0.5491722822189331 -0.7660223841667175 -0.2293514907360077 -8.373859827770502e-07 0.0 -0.25000002086277523 0.2000009362080213 0.29999998045805826 2.221403725647132 2.221403725931785 -3.7918120429614306e-07 0.0 0.0 0.0 0.0 0.0 0.0 9.592877768401953e-08 -7.674132252095987e-08 -6.829493733529873e-07 4.467118826297175e-08 3.073530597679555e-08 5.131148181088725e-13 -0.24999999997894415 0.2000009812990186 0.3000000000037671 2.2214038188111593 2.2214038186973015 3.013192244471525e-10 0.0 0.0 0.0 0.0 0.0 0.0

366.144 -1.033295061400855 -1.5640748045895814 1.628081410163944 -1.634751314706751 -1.5708093914188987 -1.033295061217462 0.0 0.0 0.0 0.0 0.0 0.0 0.0 0.0 0.0 0.0 0.0 0.0 -9.48616747144912e-19 -0.5491722720436839 -0.7660223669301722 -0.2293514877436322 -8.373859811145772e-07 0.0 -1.2455337890012694e-17 -7.2106319319335705 -7.1333534853271505 -1.0424025117948084 -3.8059192841657537e-06 0.0 -1.033294979725973 -1.5640748182879847 1.6280814409255981 -1.6347511450396937 -1.5708091894732874 -1.033294979725973 0.0 0.0 0.0 0.0 0.0 0.0 -9.486167235352531e-19 -0.5491722822189331 -0.7660223841667175 -0.2293514907360077 -8.373859827770502e-07 0.0 -9.486167235352531e-19 -0.5491722822189331 -0.7660223841667175 -0.2293514907360077 -8.373859827770502e-07 0.0 -0.25000002086277523 0.2000009362080213 0.29999998045805826 2.221403725647132 2.221403725931785 -3.7918120429614306e-07 0.0 0.0 0.0 0.0 0.0 0.0 9.592877768401953e-08 -7.674132252095987e-08 -6.829493733529873e-07 4.467118826297175e-08 3.073530597679555e-08 5.131148181088725e-13 -0.24999999997894415 0.2000009812990186 0.3000000000037671 2.2214038188111593 2.2214038186973015 3.013192244471525e-10 0.0 0.0 0.0 0.0 0.0 0.0

366.152 -1.033295061400855 -1.5640748045895814 1.628081410163944 -1.634751314706751 -1.5708093914188987 -1.033295061217462 0.0 0.0 0.0 0.0 0.0 0.0 0.0 0.0 0.0 0.0 0.0 0.0 -9.48616747144912e-19 -0.5491722720436839 -0.7660223669301722 -0.2293514877436322 -8.373859811145772e-07 0.0 -1.2455337890012694e-17 -7.2106319319335705 -7.1333534853271505 -1.0424025117948084 -3.8059192841657537e-06 0.0 -1.033294979725973 -1.5640748182879847 1.6280814409255981 -1.6347511450396937 -1.5708091894732874 -1.033294979725973 0.0 0.0 0.0 0.0 0.0 0.0 -9.486167235352531e-19 -0.5491722822189331 -0.7660223841667175 -0.2293514907360077 -8.373859827770502e-07 0.0 -9.486167235352531e-19 -0.5491722822189331 -0.7660223841667175 -0.2293514907360077 -8.373859827770502e-07 0.0 -0.25000002086277523 0.2000009362080213 0.29999998045805826 2.221403725647132 2.221403725931785 -3.7918120429614306e-07 0.0 0.0 0.0 0.0 0.0 0.0 9.592877768401953e-08 -7.674132252095987e-08 -6.829493733529873e-07 4.467118826297175e-08 3.073530597679555e-08 5.131148181088725e-13 -0.24999999997894415 0.2000009812990186 0.3000000000037671 2.2214038188111593 2.2214038186973015 3.013192244471525e-10 0.0 0.0 0.0 0.0 0.0 0.0

366.15999999999997 -1.033295061400855 -1.5640748045895814 1.628081410163944 -1.634751314706751 -1.5708093914188987 -1.033295061217462 0.0 0.0 0.0 0.0 0.0 0.0 0.0 0.0 0.0 0.0 0.0 0.0 -9.48616747144912e-19 -0.5491722720436839 -0.7660223669301722 -0.2293514877436322 -8.373859811145772e-07 0.0 -1.2455337890012694e-17 -7.2106319319335705 -7.1333534853271505 -1.0424025117948084 -3.8059192841657537e-06 0.0 -1.033294979725973 -1.5640748182879847 1.6280814409255981 -1.6347511450396937 -1.5708091894732874 -1.033294979725973 0.0 0.0 0.0 0.0 0.0 0.0 -9.486167235352531e-19 -0.5491722822189331 -0.7660223841667175 -0.2293514907360077 -8.373859827770502e-07 0.0 -9.486167235352531e-19 -0.5491722822189331 -0.7660223841667175 -0.2293514907360077 -8.373859827770502e-07 0.0 -0.25000002086277523 0.2000009362080213 0.29999998045805826 2.221403725647132 2.221403725931785 -3.7918120429614306e-07 0.0 0.0 0.0 0.0 0.0 0.0 9.592877768401953e-08 -7.674132252095987e-08 -6.829493733529873e-07 4.467118826297175e-08 3.073530597679555e-08 5.131148181088725e-13 -0.24999999997894415 0.2000009812990186 0.3000000000037671 2.2214038188111593 2.2214038186973015 3.013192244471525e-10 0.0 0.0 0.0 0.0 0.0 0.0

366.168 -1.0332950399514829 -1.5640746974258253 1.6280811777673578 -1.634750879255849 -1.5708094699348063 -1.0332950397640248 1.0724685204130043e-05 5.3581889970282644e-05 -0.00011619829860085415 0.00021772544554858765 -3.925795039237223e-05 1.0726723777827101e-05 0.0013405856505162553 0.00669773624628533 -0.014524787325106769 0.027215680693573455 -0.004907243799046529 0.0013408404722283875 3.3639563325794114e-05 -0.5488018298854468 -0.766416785603785 -0.22893075284737788 -7.685177566901323e-05 2.106609364145489e-05 0.0004416874664676767 -7.2057680263959165 -7.137026390899567 -1.0404902716913325 -0.00034929132041566514 9.574539560041247e-05 -1.033294979725973 -1.5640748182879847 1.628081202507019 -1.6347506682025355 -1.5708096663104456 -1.033294979725973 1.0724685125751421e-05 5.358189082471654e-05 -0.00011619830183917657 0.00021772545005660504 -3.925794953829609e-05 1.0726724212872796e-05 3.363956420798786e-05 -0.548801839351654 -0.7664167881011963 -0.2289307564496994 -7.685177843086421e-05 2.1066092813271098e-05 3.363956420798786e-05 -0.548801839351654 -0.7664167881011963 -0.2289307564496994 -7.685177843086421e-05 2.1066092813271098e-05 -0.2499999789837349 0.20000094222230191 0.3000000108492085 2.221403479466836 2.22140347978202 2.5503917918666793e-07 1.608337922459101e-12 -2.0025709320662717e-12 4.076069175967749e-12 -0.00011313707801970316 -0.00011313709211555157 3.990608823549541e-12 -3.454496093367458e-07 2.7639251705968906e-07 -5.8900061334636315e-08 -3.2390356493031735e-08 -3.409142824541541e-08 -3.707105372179565e-12 -0.2499999999789441 0.20000098129901864 0.30000000000376714 2.2214035925357365 2.221403592421929 2.995191179555361e-10 2.515316617057541e-21 1.1028370556859628e-20 1.916751293607267e-20 -0.00011313708501208655 -0.00011313708496760858 -7.962637179069075e-15

366.176 -1.0332948683566414 -1.5640738401140588 1.628079318593872 -1.6347473956494323 -1.5708100980615862 -1.033294868135787 4.8261014840786034e-05 0.00024111936378161297 -0.0005228927425530931 0.0009797641050878951 -0.0001766605370962207 4.827062684310575e-05 0.004692041204581999 0.02344218422641629 -0.050836805494029864 0.09525483244241344 -0.01717532333798106 0.004692987883159832 0.0001177383055091531 -0.5478762172370231 -0.7674028069555232 -0.2278788066401764 -0.000266914948112501 7.373205407542225e-05 0.0015459039513351803 -7.1936147323221125 -7.146208418931224 -1.0357091761796018 -0.0012131284391713169 0.0003351121857727941 -1.033294979725973 -1.5640738646136683 1.6280792951583862 -1.634747330342428 -1.5708101431476038 -1.033294979725973 4.826101576327346e-05 0.0002411193709122017 -0.0005228927475400269 0.0009797641541808844 -0.00017666054191067815 4.82706273032818e-05 0.00011773830192396417 -0.547876238822937 -0.7674028277397156 -0.22787880897521973 -0.00026691495440900326 7.373205153271556e-05 0.00011773830192396417 -0.547876238822937 -0.7674028277397156 -0.22787880897521973 -0.00026691495440900326 7.373205153271556e-05 -0.24999997108320196 0.20000100524384365 0.30000000876255895 2.221401762366675 2.2214017627460185 6.22486409758145e-08 3.6128357391491967e-12 -5.196396297965272e-12 -1.5717572285081812e-12 -0.0005091169781670878 -0.0005091168553042981 3.495747964574997e-12 -3.0282706074120274e-07 2.420327310950616e-07 -8.828598201514867e-07 3.576901550403925e-08 8.365272795173428e-09 -1.0467257779419854e-11 -0.24999999997894415 0.20000098129901864 0.3000000000037669 2.2214017823446723 2.221401782230405 2.920715113510963e-10 -4.1697049606158986e-17 -2.0801388306022183e-17 -4.154382664676463e-17 -0.000509116882218958 -0.0005091168820300977 -3.58318648284049e-14

366.18399999999997 -1.033294289225851 -1.5640709466642955 1.628073043872872 -1.6347356384882445 -1.5708122179831818 -1.033294288880784 0.00012869542272740951 0.0006429927022838191 -0.0013943842408207863 0.002612700689616604 -0.0004710926098607346 0.00012872499863909872 0.010054300985827935 0.05023416731277577 -0.10893643728346165 0.20411707306608862 -0.036804009095564236 0.010056796474499122 0.00025229231629594 -0.5463964732041235 -0.7689803736598378 -0.22619541432637466 -0.0005710836518207022 0.0001580034468326862 0.0033125981129656923 -7.174185693170143 -7.160899035595142 -1.0280581581133728 -0.0025955751975250915 0.0007181256658545588 -1.0332945028888147 -1.564071003590719 1.6280730962753296 -1.634735409413473 -1.5708120504962366 -1.0332945028888147 0.0001286954211536795 0.000642992730718106 -0.0013943841913715005 0.0026127006858587265 -0.00047109261504374444 0.00012872500519733876 0.00025229231687262654 -0.5463964939117432 -0.7689803838729858 -0.22619540989398956 -0.0005710836267098784 0.00015800344408489764 0.00025229231687262654 -0.5463964939117432 -0.7689803838729858 -0.22619540989398956 -0.0005710836267098784 0.00015800344408489764 -0.2499999525429188 0.20000100003216176 0.29999998189533716 2.221395547690874 2.2213955483357175 -3.4130539581351326e-07 2.385134202483795e-11 -3.0171784450554836e-11 1.3788197206858831e-11 -0.0013576453754466753 -0.0013576448081582676 9.942279322770908e-11 -6.017746137599057e-07 4.814088386507706e-07 -5.878129401936873e-07 2.1025429300316348e-08 -1.3386859403838941e-08 -1.0909623774796393e-11 -0.24999999997894415 0.20000098129901858 0.3000000000037672 2.2213956729414104 2.2213956728274824 2.9618935065855916e-10 -1.804991000390162e-20 -2.7693085956132554e-17 1.6637457961696636e-16 -0.0013576450206251882 -0.0013576450199704823 1.7687346188450328e-12

366.192 -1.0332929164824751 -1.56406408797773 1.6280581703955537 -1.6347077697263162 -1.5708172429437628 -1.0332929157720425 0.00026811241734744256 0.0013396063096110845 -0.002904984909207661 0.005443108692274788 -0.000981432289783344 0.00026819352076643156 0.01742712432750413 0.08707670091590818 -0.18882508354835936 0.35380100033227296 -0.06379245999032616 0.017433565265916603 0.0004372831107833897 -0.544364045407521 -0.7711493953003951 -0.22388023305735258 -0.000989435187799402 0.0002739006809556231 0.005741527244585907 -7.147499916200752 -7.181097398916339 -1.0175356592456675 -0.004496982928548282 0.001244878594943307 -1.0332930723773401 -1.564063851033346 1.6280581951141357 -1.6347077528582972 -1.5708172957049769 -1.0332930723773401 0.00026811243151314557 0.0013396063586696982 -0.0029049848672002554 0.005443108733743429 -0.0009814322693273425 0.000268193514784798 0.0004372831026557833 -0.5443640351295471 -0.7711493968963623 -0.22388023138046265 -0.0009894352406263351 0.00027390068862587214 0.0004372831026557833 -0.5443640351295471 -0.7711493968963623 -0.22388023138046265 -0.0009894352406263351 0.00027390068862587214 -0.2499999811380121 0.20000104941283778 0.2999999201590507 2.221380990515123 2.221380991990653 -2.6724550351021695e-08 -9.181240786964209e-12 -1.2579241176467928e-11 -2.0987201473568626e-11 -0.0028284276406330086 -0.0028284267908859676 2.953318283526679e-10 5.129107891903656e-07 -4.1061922837574605e-07 -6.621740215237724e-08 4.491167010073034e-08 4.9011283032909674e-08 3.4612216293102006e-11 -0.2499999999789441 0.20000098129901875 0.3000000000037672 2.221381191394632 2.2213811912805124 2.986752267448061e-10 1.7191885794945565e-19 3.477093599387412e-17 -1.394168869158416e-16 -0.0028284271257654633 -0.0028284271246358586 1.8204065009162693e-12

366.2 -1.0332902353880549 -1.5640506915417935 1.6280291203732136 -1.634653338812667 -1.5708270571626786 -1.0332902336762952 0.0004825916399127226 0.0024114255791176727 -0.005229035205517833 0.009797533268697147 -0.001766540687919974 0.00048280612944660243 0.02680990282066001 0.13397740868832353 -0.29050628703877146 0.5443030720527948 -0.09813854976707875 0.02682657608502136 0.0006726587322866668 -0.5417806371799021 -0.7739097441021174 -0.22093282482865165 -0.00152205682602609 0.00042147531760244666 0.008832009154923935 -7.113579766172116 -7.206802319027737 -1.0041396888462217 -0.006917748274288579 0.00191560531850312 -1.033290211354391 -1.5640504995929163 1.6280291080474854 -1.634653393422262 -1.570826832448141 -1.033290211354391 0.0004825916257686913 0.002411425579339266 -0.005229035392403603 0.009797533042728901 -0.0017665406921878457 0.00048280612099915743 0.000672658730763942 -0.5417806506156921 -0.7739097476005554 -0.22093282639980316 -0.0015220568748191 0.00042147532803937793 0.000672658730763942 -0.5417806506156921 -0.7739097476005554 -0.22093282639980316 -0.0015220568748191 0.00042147532803937793 -0.25000003804259124 0.20000099514069714 0.2999999507927885 2.2213528585256626 2.221352862187951 -3.9005357929783403e-07 -4.1710780015377955e-11 4.682431218681416e-11 -5.775769207548335e-12 -0.005091168409321679 -0.005091168846039317 2.1571172622274624e-10 -4.913190472533339e-07 3.93170461684309e-07 -1.5728130687378716e-07 -2.6923512380826096e-08 -3.6835895062280734e-08 4.832537219434823e-11 -0.24999999997894412 0.20000098129901855 0.30000000000376736 2.2213529071222413 2.221352907008419 2.993565553053756e-10 -8.333684183732652e-17 -2.0700420895376183e-16 -1.6858116632413752e-16 -0.005091168826006132 -0.005091168823909095 5.622555135505972e-13

366.20799999999997 -1.033285602597159 -1.5640275407430009 1.6279789211179572 -1.6345592830106384 -1.5708440156427805 -1.0332855982581473 0.0007882027787677868 0.0039390405829977885 -0.008540933520832503 0.016002461633999696 -0.0028852441321639845 0.000788746440147911 0.038201392356883024 0.19095187548501447 -0.4139872894143337 0.7756160456628186 -0.1398379305305013 0.03824253883766356 0.000958306758237951 -0.5386479946984486 -0.7772612495046053 -0.2173526744936842 -0.0021690310980526425 0.0006008327768495142 0.012582567735664296 -7.07244817039063 -7.238012207636785 -0.9878679055737947 -0.00985824634064926 0.002730784970781042 -1.0332854429828089 -1.5640276114093226 1.6279789209365845 -1.634559456502096 -1.5708439985858362 -1.0332854429828089 0.000788202800322324 0.003939040470868349 -0.008540933951735497 0.016002461314201355 -0.0028852440882474184 0.0007887464598752558 0.0009583067731000483 -0.5386480093002319 -0.7772612571716309 -0.21735267341136932 -0.00216903118416667 0.0006008328055031598 0.0009583067731000483 -0.5386480093002319 -0.7772612571716309 -0.21735267341136932 -0.00216903118416667 0.0006008328055031598 -0.25000003502879015 0.20000094391287712 0.30000003604820774 2.221304197542841 2.2213042070507236 6.853961602070843e-08 -1.2178866355922358e-10 1.7888660813602168e-10 2.942564638025565e-11 -0.008315573812230451 -0.008315576434071048 -7.023193749906917e-10 -4.0868022871399886e-07 3.2825775989723863e-07 -3.900606788738625e-07 5.726658519210374e-09 -1.3579208457809569e-08 1.328806333983899e-10 -0.2499999999789441 0.20000098129901858 0.3000000000037672 2.2213040319016084 2.2213040317877444 2.9966105282750517e-10 -5.029870839445007e-17 9.865900694776826e-17 -4.847080961513796e-16 -0.008315575748030721 -0.008315575744818698 8.767197870534871e-13

366.216 -1.033278246261947 -1.5639907735573306 1.627899204434149 -1.6344099280064128 -1.5708709438049828 -1.0332782354161676 0.001200997738341104 0.006003264072963042 -0.01301518171900921 0.024384277540969456 -0.004396306799109567 0.001202293952914668 0.051599369946664655 0.25802793624565673 -0.5592810247720884 1.0477269883712201 -0.18888283336819778 0.05169343909584464 0.0012940192083448993 -0.5349676341970659 -0.7812036915256592 -0.21313921260533944 -0.0029304169605213837 0.0008121613653502703 0.016990472205568527 -7.024125037007476 -7.274725016225244 -0.9687177212912677 -0.013318745085569688 0.003691273405516978 -1.0332782904254358 -1.563990894948141 1.627899169921875 -1.6344097296344202 -1.5708711783038538 -1.0332782904254358 0.0012009977363049984 0.006003263872116804 -0.013015181757509708 0.024384276941418648 -0.004396306816488504 0.0012022939044982195 0.001294019166380167 -0.5349676609039307 -0.7812036871910095 -0.21313920617103577 -0.0029304169584065676 0.0008121613645926118 0.001294019166380167 -0.5349676609039307 -0.7812036871910095 -0.21313920617103577 -0.0029304169584065676 0.0008121613645926118 -0.249999958811606 0.20000097560299857 0.3000000297612526 2.221226337980889 2.221226362038245 3.4096716896309733e-07 1.6062523023058843e-10 -1.9296142803743315e-10 4.601671589596159e-10 -0.012671353083161866 -0.012671352441641803 2.3223612040812316e-10 -1.3396012726949332e-06 1.0694976176355432e-06 -5.04269244295197e-08 -5.880550398122577e-08 -9.256647463889016e-08 3.79583447843879e-12 -0.24999999997894407 0.2000009812990183 0.30000000000376714 2.221226419861382 2.2212264197475 3.0044596516350253e-10 -1.0932586167797162e-16 5.4023300138779983e-17 -2.1999211462068907e-16 -0.012671353521329712 -0.012671353516396136 -8.91813314844809e-13

366.224 -1.0332672662104976 -1.5639358803181613 1.6277802055812827 -1.6341869889460892 -1.570911136865048 -1.0332672403218508 0.0017369994569062823 0.008685271216794731 -0.018826450058610836 0.0352691963674551 -0.006358391633622527 0.0017398842115760235 0.06700021482064727 0.3352508929789611 -0.7264085424502033 1.360614853310705 -0.24526060431412008 0.06719878233266943 0.0016794493719174673 -0.5307405097966623 -0.7857367925218709 -0.20829184300775974 -0.003806226797038028 0.0010557675357599399 0.022051170253276346 -6.968622893630177 -7.3169381593221665 -0.9466864264702679 -0.017299300792537834 0.004798463450028926 -1.0332673231707972 -1.5639360586749476 1.6277801990509033 -1.6341870466815394 -1.5709112326251429 -1.0332673231707972 0.0017369994893670082 0.008685271255671978 -0.018826449289917946 0.03526919707655907 -0.006358391605317593 0.0017398842610418797 0.0016794493421912193 -0.53074049949646 -0.7857367992401123 -0.20829184353351593 -0.0038062268868088722 0.0010557675268501043 0.0016794493421912193 -0.53074049949646 -0.7857367992401123 -0.20829184353351593 -0.0038062268868088722 0.0010557675268501043 -0.24999997106708408 0.20000098146470857 0.30000006034848076 2.221110688431175 2.2211107458361403 2.39537342366536e-07 1.7019822980907787e-11 1.9347166599872713e-11 -3.4806915679221535e-10 -0.018328210205847087 -0.01832820702574525 -1.5615567042768748e-09 6.770759891933859e-07 -5.433939297842284e-07 -2.3073895142388217e-07 5.9179586260825e-08 6.467274859741398e-08 -4.229872378329774e-11 -0.24999999997894387 0.20000098129901805 0.3000000000037674 2.2211105674862197 2.2211105673723637 3.0032157836533954e-10 -1.8934929037158543e-16 6.921647316518041e-16 -1.2095951635276642e-16 -0.018328207771937336 -0.018328207764773268 -1.6769737725200184e-12

366.23199999999997 -1.033251634227791 -1.5638577002026075 1.6276107616413735 -1.6338695720678107 -1.5709683588515855 -1.0332515759066432 0.0024121867633686437 0.01206678842909 -0.02614966492841833 0.048983177467789824 -0.008830007424330898 0.00241819013389826 0.08439841330779517 0.4226896515369086 -0.9154018587259368 1.7142476375418407 -0.3089519738385463 0.08478824029027954 0.002114060566326937 -0.5259666225116888 -0.7908602070754304 -0.20280997475316334 -0.004796399223579374 0.0013321174641161696 0.027757615235872685 -6.905941753578474 -7.364648420327822 -0.9217713352531275 -0.021799634471168252 0.006054473874407991 -1.0332515875445765 -1.5638578573810022 1.6276108026504517 -1.633869473134176 -1.5709684530841272 -1.0332515875445765 0.0024121867027133703 0.012066788040101528 -0.02614966407418251 0.04898317903280258 -0.008830007165670395 0.0024181902408599854 0.002114060567691922 -0.5259666442871094 -0.7908602356910706 -0.20280997455120087 -0.0047963992692530155 0.0013321174774318933 0.002114060567691922 -0.5259666442871094 -0.7908602356910706 -0.20280997455120087 -0.0047963992692530155 0.0013321174774318933 -0.24999998460940395 0.20000094325424458 0.3000000264637005 2.2209455442870376 2.220945673769181 1.5042456121883434e-07 3.448190863693942e-10 -4.1802071635001646e-10 2.3164932793523385e-10 -0.025455844641076385 -0.025455845971007997 -3.217646958957852e-10 -5.8947952215066824e-08 4.7548370168904116e-08 -1.2609788111578632e-06 8.917925551388983e-08 5.087401963788457e-08 7.952350644738735e-11 -0.24999999997894348 0.20000098129901733 0.3000000000037675 2.2209456136163026 2.220945613502479 2.998543470162947e-10 -6.970037621635575e-16 1.3858802292580606e-15 -8.391768003120375e-16 -0.025455844127566293 -0.025455844117613678 -1.7915990530787323e-12

366.24 -1.0332301944731643 -1.5637504160187623 1.627378309096982 -1.6334341771223997 -1.571046841147103 -1.0332300706171953 0.003242474652539808 0.016230338503194722 -0.03516012272432065 0.06585181045878974 -0.011869439864944709 0.003254227592874108 0.10378598614639556 0.5204437592630903 -1.1263072244877894 2.1085791238749896 -0.37992905507672636 0.10450468237198102 0.002597066855084873 -0.5206445715596532 -0.7965735093154367 -0.19669305810080875 -0.005900767615211368 0.0016418846763775685 0.034099487807264385 -6.836063224578246 -7.4178518334472106 -0.8939699490681758 -0.02681898881113567 0.007462365854136049 -1.0332301298724573 -1.5637505690204065 1.6273783445358276 -1.6334341208087366 -1.5710466543780726 -1.0332301298724573 0.0032424747478216887 0.01623033918440342 -0.0351601243019104 0.06585180759429932 -0.011869439855217934 0.0032542275730520487 0.0025970668066293 -0.5206445455551147 -0.7965735197067261 -0.1966930627822876 -0.005900767631828785 0.0016418846789747477 0.0025970668066293 -0.5206445455551147 -0.7965735197067261 -0.1966930627822876 -0.005900767631828785 0.0016418846789747477 -0.2500000103375199 0.2000009309787085 0.3000000305047759 2.220719276415288 2.2207195511285214 -2.6042280948272865e-07 -4.295708268990493e-11 2.0897186473566618e-10 7.283131081622379e-10 -0.03422396340346162 -0.034223968620050595 -6.142462471134454e-10 1.4993397883128388e-06 -1.2020464018858787e-06 -2.400080922349447e-07 9.784448694205823e-08 1.2251857610012118e-07 -6.037709648710337e-12 -0.2499999999789429 0.200000981299016 0.30000000000376764 2.220719339446374 2.2207193393326135 2.997666364613454e-10 -1.8271730379323056e-15 3.5043001877482527e-15 -1.0600697122404022e-15 -0.03422396821603127 -0.0342239682026415 -1.9984419629933466e-12

