mkrssg/UniversalRobots/rtde_client_3.5/examples/simulation/outdated/movel_distance-y=400_singularity_simulation.csv
timestamp target_q_0 target_q_1 target_q_2 target_q_3 target_q_4 target_q_5 target_qd_0 target_qd_1 target_qd_2 target_qd_3 target_qd_4 target_qd_5 target_qdd_0 target_qdd_1 target_qdd_2 target_qdd_3 target_qdd_4 target_qdd_5 target_current_0 target_current_1 target_current_2 target_current_3 target_current_4 target_current_5 target_moment_0 target_moment_1 target_moment_2 target_moment_3 target_moment_4 target_moment_5 actual_q_0 actual_q_1 actual_q_2 actual_q_3 actual_q_4 actual_q_5 actual_qd_0 actual_qd_1 actual_qd_2 actual_qd_3 actual_qd_4 actual_qd_5 actual_current_0 actual_current_1 actual_current_2 actual_current_3 actual_current_4 actual_current_5 joint_control_output_0 joint_control_output_1 joint_control_output_2 joint_control_output_3 joint_control_output_4 joint_control_output_5 actual_TCP_pose_0 actual_TCP_pose_1 actual_TCP_pose_2 actual_TCP_pose_3 actual_TCP_pose_4 actual_TCP_pose_5 actual_TCP_speed_0 actual_TCP_speed_1 actual_TCP_speed_2 actual_TCP_speed_3 actual_TCP_speed_4 actual_TCP_speed_5 actual_TCP_force_0 actual_TCP_force_1 actual_TCP_force_2 actual_TCP_force_3 actual_TCP_force_4 actual_TCP_force_5 target_TCP_pose_0 target_TCP_pose_1 target_TCP_pose_2 target_TCP_pose_3 target_TCP_pose_4 target_TCP_pose_5 target_TCP_speed_0 target_TCP_speed_1 target_TCP_speed_2 target_TCP_speed_3 target_TCP_speed_4 target_TCP_speed_5

198613.62399999998 0.46118125007732447 -1.884822090514823 1.892950551813394 -1.5789061053941449 -1.5707407360960062 0.4611812495598374 0.0 0.0 0.0 0.0 0.0 0.0 0.0 0.0 0.0 0.0 0.0 0.0 -8.264819496594706e-18 -0.2737451226113909 -0.7673438741883188 -0.22935359896492727 3.5630546556412405e-06 0.0 -1.085170799902885e-16 -3.594273459887562 -7.145659625216464 -1.0424121072955945 1.6194083409889436e-05 0.0 0.46118125319480896 -1.884822193776266 1.8929505348205566 -1.5789058844195765 -1.5707405249225062 0.46118125319480896 0.0 0.0 0.0 0.0 0.0 0.0 -8.264819758076654e-18 -0.2737451195716858 -0.7673438787460327 -0.22935359179973602 3.563054633559659e-06 0.0 -8.264819758076654e-18 -0.2737451195716858 -0.7673438787460327 -0.22935359179973602 3.563054633559659e-06 0.0 -0.14999996305006255 -0.2000000017290201 0.3000000092764531 2.2213998366713645 2.221399835051566 4.470064371328034e-08 0.0 0.0 0.0 0.0 0.0 0.0 1.624001725330708e-07 2.1650178383720675e-07 -3.4978436031659263e-07 -4.551019209592436e-08 6.919840814972579e-08 -4.7752115536803086e-12 -0.15000000000000013 -0.2 0.30000000000000004 2.2214000003201977 2.2213999998597047 4.07384154678336e-10 0.0 0.0 0.0 0.0 0.0 0.0

198613.63199999998 0.46118125007732447 -1.884822090514823 1.892950551813394 -1.5789061053941449 -1.5707407360960062 0.4611812495598374 0.0 0.0 0.0 0.0 0.0 0.0 0.0 0.0 0.0 0.0 0.0 0.0 -8.264819496594706e-18 -0.2737451226113909 -0.7673438741883188 -0.22935359896492727 3.5630546556412405e-06 0.0 -1.085170799902885e-16 -3.594273459887562 -7.145659625216464 -1.0424121072955945 1.6194083409889436e-05 0.0 0.46118125319480896 -1.884822193776266 1.8929505348205566 -1.5789058844195765 -1.5707405249225062 0.46118125319480896 0.0 0.0 0.0 0.0 0.0 0.0 -8.264819758076654e-18 -0.2737451195716858 -0.7673438787460327 -0.22935359179973602 3.563054633559659e-06 0.0 -8.264819758076654e-18 -0.2737451195716858 -0.7673438787460327 -0.22935359179973602 3.563054633559659e-06 0.0 -0.14999996305006255 -0.2000000017290201 0.3000000092764531 2.2213998366713645 2.221399835051566 4.470064371328034e-08 0.0 0.0 0.0 0.0 0.0 0.0 1.624001725330708e-07 2.1650178383720675e-07 -3.4978436031659263e-07 -4.551019209592436e-08 6.919840814972579e-08 -4.7752115536803086e-12 -0.15000000000000013 -0.2 0.30000000000000004 2.2214000003201977 2.2213999998597047 4.07384154678336e-10 0.0 0.0 0.0 0.0 0.0 0.0

198613.63999999998 0.46118125007732447 -1.884822090514823 1.892950551813394 -1.5789061053941449 -1.5707407360960062 0.4611812495598374 0.0 0.0 0.0 0.0 0.0 0.0 0.0 0.0 0.0 0.0 0.0 0.0 -8.264819496594706e-18 -0.2737451226113909 -0.7673438741883188 -0.22935359896492727 3.5630546556412405e-06 0.0 -1.085170799902885e-16 -3.594273459887562 -7.145659625216464 -1.0424121072955945 1.6194083409889436e-05 0.0 0.46118125319480896 -1.884822193776266 1.8929505348205566 -1.5789058844195765 -1.5707405249225062 0.46118125319480896 0.0 0.0 0.0 0.0 0.0 0.0 -8.264819758076654e-18 -0.2737451195716858 -0.7673438787460327 -0.22935359179973602 3.563054633559659e-06 0.0 -8.264819758076654e-18 -0.2737451195716858 -0.7673438787460327 -0.22935359179973602 3.563054633559659e-06 0.0 -0.14999996305006255 -0.2000000017290201 0.3000000092764531 2.2213998366713645 2.221399835051566 4.470064371328034e-08 0.0 0.0 0.0 0.0 0.0 0.0 1.624001725330708e-07 2.1650178383720675e-07 -3.4978436031659263e-07 -4.551019209592436e-08 6.919840814972579e-08 -4.7752115536803086e-12 -0.15000000000000013 -0.2 0.30000000000000004 2.2214000003201977 2.2213999998597047 4.07384154678336e-10 0.0 0.0 0.0 0.0 0.0 0.0

198613.648 0.46118125007732447 -1.884822090514823 1.892950551813394 -1.5789061053941449 -1.5707407360960062 0.4611812495598374 0.0 0.0 0.0 0.0 0.0 0.0 0.0 0.0 0.0 0.0 0.0 0.0 -8.264819496594706e-18 -0.2737451226113909 -0.7673438741883188 -0.22935359896492727 3.5630546556412405e-06 0.0 -1.085170799902885e-16 -3.594273459887562 -7.145659625216464 -1.0424121072955945 1.6194083409889436e-05 0.0 0.46118125319480896 -1.884822193776266 1.8929505348205566 -1.5789058844195765 -1.5707405249225062 0.46118125319480896 0.0 0.0 0.0 0.0 0.0 0.0 -8.264819758076654e-18 -0.2737451195716858 -0.7673438787460327 -0.22935359179973602 3.563054633559659e-06 0.0 -8.264819758076654e-18 -0.2737451195716858 -0.7673438787460327 -0.22935359179973602 3.563054633559659e-06 0.0 -0.14999996305006255 -0.2000000017290201 0.3000000092764531 2.2213998366713645 2.221399835051566 4.470064371328034e-08 0.0 0.0 0.0 0.0 0.0 0.0 1.624001725330708e-07 2.1650178383720675e-07 -3.4978436031659263e-07 -4.551019209592436e-08 6.919840814972579e-08 -4.7752115536803086e-12 -0.15000000000000013 -0.2 0.30000000000000004 2.2214000003201977 2.2213999998597047 4.07384154678336e-10 0.0 0.0 0.0 0.0 0.0 0.0

198613.656 0.46118125007732447 -1.884822090514823 1.892950551813394 -1.5789061053941449 -1.5707407360960062 0.4611812495598374 0.0 0.0 0.0 0.0 0.0 0.0 0.0 0.0 0.0 0.0 0.0 0.0 -8.264819496594706e-18 -0.2737451226113909 -0.7673438741883188 -0.22935359896492727 3.5630546556412405e-06 0.0 -1.085170799902885e-16 -3.594273459887562 -7.145659625216464 -1.0424121072955945 1.6194083409889436e-05 0.0 0.46118125319480896 -1.884822193776266 1.8929505348205566 -1.5789058844195765 -1.5707405249225062 0.46118125319480896 0.0 0.0 0.0 0.0 0.0 0.0 -8.264819758076654e-18 -0.2737451195716858 -0.7673438787460327 -0.22935359179973602 3.563054633559659e-06 0.0 -8.264819758076654e-18 -0.2737451195716858 -0.7673438787460327 -0.22935359179973602 3.563054633559659e-06 0.0 -0.14999996305006255 -0.2000000017290201 0.3000000092764531 2.2213998366713645 2.221399835051566 4.470064371328034e-08 0.0 0.0 0.0 0.0 0.0 0.0 1.624001725330708e-07 2.1650178383720675e-07 -3.4978436031659263e-07 -4.551019209592436e-08 6.919840814972579e-08 -4.7752115536803086e-12 -0.15000000000000013 -0.2 0.30000000000000004 2.2214000003201977 2.2213999998597047 4.07384154678336e-10 0.0 0.0 0.0 0.0 0.0 0.0

198613.664 0.46118125007732447 -1.884822090514823 1.892950551813394 -1.5789061053941449 -1.5707407360960062 0.4611812495598374 0.0 0.0 0.0 0.0 0.0 0.0 0.0 0.0 0.0 0.0 0.0 0.0 -8.264819496594706e-18 -0.2737451226113909 -0.7673438741883188 -0.22935359896492727 3.5630546556412405e-06 0.0 -1.085170799902885e-16 -3.594273459887562 -7.145659625216464 -1.0424121072955945 1.6194083409889436e-05 0.0 0.46118125319480896 -1.884822193776266 1.8929505348205566 -1.5789058844195765 -1.5707405249225062 0.46118125319480896 0.0 0.0 0.0 0.0 0.0 0.0 -8.264819758076654e-18 -0.2737451195716858 -0.7673438787460327 -0.22935359179973602 3.563054633559659e-06 0.0 -8.264819758076654e-18 -0.2737451195716858 -0.7673438787460327 -0.22935359179973602 3.563054633559659e-06 0.0 -0.14999996305006255 -0.2000000017290201 0.3000000092764531 2.2213998366713645 2.221399835051566 4.470064371328034e-08 0.0 0.0 0.0 0.0 0.0 0.0 1.624001725330708e-07 2.1650178383720675e-07 -3.4978436031659263e-07 -4.551019209592436e-08 6.919840814972579e-08 -4.7752115536803086e-12 -0.15000000000000013 -0.2 0.30000000000000004 2.2214000003201977 2.2213999998597047 4.07384154678336e-10 0.0 0.0 0.0 0.0 0.0 0.0

198613.672 0.46118125007732447 -1.884822090514823 1.892950551813394 -1.5789061053941449 -1.5707407360960062 0.4611812495598374 0.0 0.0 0.0 0.0 0.0 0.0 0.0 0.0 0.0 0.0 0.0 0.0 -8.264819496594706e-18 -0.2737451226113909 -0.7673438741883188 -0.22935359896492727 3.5630546556412405e-06 0.0 -1.085170799902885e-16 -3.594273459887562 -7.145659625216464 -1.0424121072955945 1.6194083409889436e-05 0.0 0.46118125319480896 -1.884822193776266 1.8929505348205566 -1.5789058844195765 -1.5707405249225062 0.46118125319480896 0.0 0.0 0.0 0.0 0.0 0.0 -8.264819758076654e-18 -0.2737451195716858 -0.7673438787460327 -0.22935359179973602 3.563054633559659e-06 0.0 -8.264819758076654e-18 -0.2737451195716858 -0.7673438787460327 -0.22935359179973602 3.563054633559659e-06 0.0 -0.14999996305006255 -0.2000000017290201 0.3000000092764531 2.2213998366713645 2.221399835051566 4.470064371328034e-08 0.0 0.0 0.0 0.0 0.0 0.0 1.624001725330708e-07 2.1650178383720675e-07 -3.4978436031659263e-07 -4.551019209592436e-08 6.919840814972579e-08 -4.7752115536803086e-12 -0.15000000000000013 -0.2 0.30000000000000004 2.2214000003201977 2.2213999998597047 4.07384154678336e-10 0.0 0.0 0.0 0.0 0.0 0.0

198613.68 0.46118125007732447 -1.884822090514823 1.892950551813394 -1.5789061053941449 -1.5707407360960062 0.4611812495598374 0.0 0.0 0.0 0.0 0.0 0.0 0.0 0.0 0.0 0.0 0.0 0.0 -8.264819496594706e-18 -0.2737451226113909 -0.7673438741883188 -0.22935359896492727 3.5630546556412405e-06 0.0 -1.085170799902885e-16 -3.594273459887562 -7.145659625216464 -1.0424121072955945 1.6194083409889436e-05 0.0 0.46118125319480896 -1.884822193776266 1.8929505348205566 -1.5789058844195765 -1.5707405249225062 0.46118125319480896 0.0 0.0 0.0 0.0 0.0 0.0 -8.264819758076654e-18 -0.2737451195716858 -0.7673438787460327 -0.22935359179973602 3.563054633559659e-06 0.0 -8.264819758076654e-18 -0.2737451195716858 -0.7673438787460327 -0.22935359179973602 3.563054633559659e-06 0.0 -0.14999996305006255 -0.2000000017290201 0.3000000092764531 2.2213998366713645 2.221399835051566 4.470064371328034e-08 0.0 0.0 0.0 0.0 0.0 0.0 1.624001725330708e-07 2.1650178383720675e-07 -3.4978436031659263e-07 -4.551019209592436e-08 6.919840814972579e-08 -4.7752115536803086e-12 -0.15000000000000013 -0.2 0.30000000000000004 2.2214000003201977 2.2213999998597047 4.07384154678336e-10 0.0 0.0 0.0 0.0 0.0 0.0

198613.688 0.46118125007732447 -1.884822090514823 1.892950551813394 -1.5789061053941449 -1.5707407360960062 0.4611812495598374 0.0 0.0 0.0 0.0 0.0 0.0 0.0 0.0 0.0 0.0 0.0 0.0 -8.264819496594706e-18 -0.2737451226113909 -0.7673438741883188 -0.22935359896492727 3.5630546556412405e-06 0.0 -1.085170799902885e-16 -3.594273459887562 -7.145659625216464 -1.0424121072955945 1.6194083409889436e-05 0.0 0.46118125319480896 -1.884822193776266 1.8929505348205566 -1.5789058844195765 -1.5707405249225062 0.46118125319480896 0.0 0.0 0.0 0.0 0.0 0.0 -8.264819758076654e-18 -0.2737451195716858 -0.7673438787460327 -0.22935359179973602 3.563054633559659e-06 0.0 -8.264819758076654e-18 -0.2737451195716858 -0.7673438787460327 -0.22935359179973602 3.563054633559659e-06 0.0 -0.14999996305006255 -0.2000000017290201 0.3000000092764531 2.2213998366713645 2.221399835051566 4.470064371328034e-08 0.0 0.0 0.0 0.0 0.0 0.0 1.624001725330708e-07 2.1650178383720675e-07 -3.4978436031659263e-07 -4.551019209592436e-08 6.919840814972579e-08 -4.7752115536803086e-12 -0.15000000000000013 -0.2 0.30000000000000004 2.2214000003201977 2.2213999998597047 4.07384154678336e-10 0.0 0.0 0.0 0.0 0.0 0.0

198613.696 0.46118125007732447 -1.884822090514823 1.892950551813394 -1.5789061053941449 -1.5707407360960062 0.4611812495598374 0.0 0.0 0.0 0.0 0.0 0.0 0.0 0.0 0.0 0.0 0.0 0.0 -8.264819496594706e-18 -0.2737451226113909 -0.7673438741883188 -0.22935359896492727 3.5630546556412405e-06 0.0 -1.085170799902885e-16 -3.594273459887562 -7.145659625216464 -1.0424121072955945 1.6194083409889436e-05 0.0 0.46118125319480896 -1.884822193776266 1.8929505348205566 -1.5789058844195765 -1.5707405249225062 0.46118125319480896 0.0 0.0 0.0 0.0 0.0 0.0 -8.264819758076654e-18 -0.2737451195716858 -0.7673438787460327 -0.22935359179973602 3.563054633559659e-06 0.0 -8.264819758076654e-18 -0.2737451195716858 -0.7673438787460327 -0.22935359179973602 3.563054633559659e-06 0.0 -0.14999996305006255 -0.2000000017290201 0.3000000092764531 2.2213998366713645 2.221399835051566 4.470064371328034e-08 0.0 0.0 0.0 0.0 0.0 0.0 1.624001725330708e-07 2.1650178383720675e-07 -3.4978436031659263e-07 -4.551019209592436e-08 6.919840814972579e-08 -4.7752115536803086e-12 -0.15000000000000013 -0.2 0.30000000000000004 2.2214000003201977 2.2213999998597047 4.07384154678336e-10 0.0 0.0 0.0 0.0 0.0 0.0

198613.704 0.46118125007732447 -1.884822090514823 1.892950551813394 -1.5789061053941449 -1.5707407360960062 0.4611812495598374 0.0 0.0 0.0 0.0 0.0 0.0 0.0 0.0 0.0 0.0 0.0 0.0 -8.264819496594706e-18 -0.2737451226113909 -0.7673438741883188 -0.22935359896492727 3.5630546556412405e-06 0.0 -1.085170799902885e-16 -3.594273459887562 -7.145659625216464 -1.0424121072955945 1.6194083409889436e-05 0.0 0.46118125319480896 -1.884822193776266 1.8929505348205566 -1.5789058844195765 -1.5707405249225062 0.46118125319480896 0.0 0.0 0.0 0.0 0.0 0.0 -8.264819758076654e-18 -0.2737451195716858 -0.7673438787460327 -0.22935359179973602 3.563054633559659e-06 0.0 -8.264819758076654e-18 -0.2737451195716858 -0.7673438787460327 -0.22935359179973602 3.563054633559659e-06 0.0 -0.14999996305006255 -0.2000000017290201 0.3000000092764531 2.2213998366713645 2.221399835051566 4.470064371328034e-08 0.0 0.0 0.0 0.0 0.0 0.0 1.624001725330708e-07 2.1650178383720675e-07 -3.4978436031659263e-07 -4.551019209592436e-08 6.919840814972579e-08 -4.7752115536803086e-12 -0.15000000000000013 -0.2 0.30000000000000004 2.2214000003201977 2.2213999998597047 4.07384154678336e-10 0.0 0.0 0.0 0.0 0.0 0.0

198613.712 0.46118125007732447 -1.884822090514823 1.892950551813394 -1.5789061053941449 -1.5707407360960062 0.4611812495598374 0.0 0.0 0.0 0.0 0.0 0.0 0.0 0.0 0.0 0.0 0.0 0.0 -8.264819496594706e-18 -0.2737451226113909 -0.7673438741883188 -0.22935359896492727 3.5630546556412405e-06 0.0 -1.085170799902885e-16 -3.594273459887562 -7.145659625216464 -1.0424121072955945 1.6194083409889436e-05 0.0 0.46118125319480896 -1.884822193776266 1.8929505348205566 -1.5789058844195765 -1.5707405249225062 0.46118125319480896 0.0 0.0 0.0 0.0 0.0 0.0 -8.264819758076654e-18 -0.2737451195716858 -0.7673438787460327 -0.22935359179973602 3.563054633559659e-06 0.0 -8.264819758076654e-18 -0.2737451195716858 -0.7673438787460327 -0.22935359179973602 3.563054633559659e-06 0.0 -0.14999996305006255 -0.2000000017290201 0.3000000092764531 2.2213998366713645 2.221399835051566 4.470064371328034e-08 0.0 0.0 0.0 0.0 0.0 0.0 1.624001725330708e-07 2.1650178383720675e-07 -3.4978436031659263e-07 -4.551019209592436e-08 6.919840814972579e-08 -4.7752115536803086e-12 -0.15000000000000013 -0.2 0.30000000000000004 2.2214000003201977 2.2213999998597047 4.07384154678336e-10 0.0 0.0 0.0 0.0 0.0 0.0

198613.72 0.46118125007732447 -1.884822090514823 1.892950551813394 -1.5789061053941449 -1.5707407360960062 0.4611812495598374 0.0 0.0 0.0 0.0 0.0 0.0 0.0 0.0 0.0 0.0 0.0 0.0 -8.264819496594706e-18 -0.2737451226113909 -0.7673438741883188 -0.22935359896492727 3.5630546556412405e-06 0.0 -1.085170799902885e-16 -3.594273459887562 -7.145659625216464 -1.0424121072955945 1.6194083409889436e-05 0.0 0.46118125319480896 -1.884822193776266 1.8929505348205566 -1.5789058844195765 -1.5707405249225062 0.46118125319480896 0.0 0.0 0.0 0.0 0.0 0.0 -8.264819758076654e-18 -0.2737451195716858 -0.7673438787460327 -0.22935359179973602 3.563054633559659e-06 0.0 -8.264819758076654e-18 -0.2737451195716858 -0.7673438787460327 -0.22935359179973602 3.563054633559659e-06 0.0 -0.14999996305006255 -0.2000000017290201 0.3000000092764531 2.2213998366713645 2.221399835051566 4.470064371328034e-08 0.0 0.0 0.0 0.0 0.0 0.0 1.624001725330708e-07 2.1650178383720675e-07 -3.4978436031659263e-07 -4.551019209592436e-08 6.919840814972579e-08 -4.7752115536803086e-12 -0.15000000000000013 -0.2 0.30000000000000004 2.2214000003201977 2.2213999998597047 4.07384154678336e-10 0.0 0.0 0.0 0.0 0.0 0.0

198613.728 0.46118125007732447 -1.884822090514823 1.892950551813394 -1.5789061053941449 -1.5707407360960062 0.4611812495598374 0.0 0.0 0.0 0.0 0.0 0.0 0.0 0.0 0.0 0.0 0.0 0.0 -8.264819496594706e-18 -0.2737451226113909 -0.7673438741883188 -0.22935359896492727 3.5630546556412405e-06 0.0 -1.085170799902885e-16 -3.594273459887562 -7.145659625216464 -1.0424121072955945 1.6194083409889436e-05 0.0 0.46118125319480896 -1.884822193776266 1.8929505348205566 -1.5789058844195765 -1.5707405249225062 0.46118125319480896 0.0 0.0 0.0 0.0 0.0 0.0 -8.264819758076654e-18 -0.2737451195716858 -0.7673438787460327 -0.22935359179973602 3.563054633559659e-06 0.0 -8.264819758076654e-18 -0.2737451195716858 -0.7673438787460327 -0.22935359179973602 3.563054633559659e-06 0.0 -0.14999996305006255 -0.2000000017290201 0.3000000092764531 2.2213998366713645 2.221399835051566 4.470064371328034e-08 0.0 0.0 0.0 0.0 0.0 0.0 1.624001725330708e-07 2.1650178383720675e-07 -3.4978436031659263e-07 -4.551019209592436e-08 6.919840814972579e-08 -4.7752115536803086e-12 -0.15000000000000013 -0.2 0.30000000000000004 2.2214000003201977 2.2213999998597047 4.07384154678336e-10 0.0 0.0 0.0 0.0 0.0 0.0

198613.736 0.46118125007732447 -1.884822090514823 1.892950551813394 -1.5789061053941449 -1.5707407360960062 0.4611812495598374 0.0 0.0 0.0 0.0 0.0 0.0 0.0 0.0 0.0 0.0 0.0 0.0 -8.264819496594706e-18 -0.2737451226113909 -0.7673438741883188 -0.22935359896492727 3.5630546556412405e-06 0.0 -1.085170799902885e-16 -3.594273459887562 -7.145659625216464 -1.0424121072955945 1.6194083409889436e-05 0.0 0.46118125319480896 -1.884822193776266 1.8929505348205566 -1.5789058844195765 -1.5707405249225062 0.46118125319480896 0.0 0.0 0.0 0.0 0.0 0.0 -8.264819758076654e-18 -0.2737451195716858 -0.7673438787460327 -0.22935359179973602 3.563054633559659e-06 0.0 -8.264819758076654e-18 -0.2737451195716858 -0.7673438787460327 -0.22935359179973602 3.563054633559659e-06 0.0 -0.14999996305006255 -0.2000000017290201 0.3000000092764531 2.2213998366713645 2.221399835051566 4.470064371328034e-08 0.0 0.0 0.0 0.0 0.0 0.0 1.624001725330708e-07 2.1650178383720675e-07 -3.4978436031659263e-07 -4.551019209592436e-08 6.919840814972579e-08 -4.7752115536803086e-12 -0.15000000000000013 -0.2 0.30000000000000004 2.2214000003201977 2.2213999998597047 4.07384154678336e-10 0.0 0.0 0.0 0.0 0.0 0.0

198613.74399999998 0.46118125007732447 -1.884822090514823 1.892950551813394 -1.5789061053941449 -1.5707407360960062 0.4611812495598374 0.0 0.0 0.0 0.0 0.0 0.0 0.0 0.0 0.0 0.0 0.0 0.0 -8.264819496594706e-18 -0.2737451226113909 -0.7673438741883188 -0.22935359896492727 3.5630546556412405e-06 0.0 -1.085170799902885e-16 -3.594273459887562 -7.145659625216464 -1.0424121072955945 1.6194083409889436e-05 0.0 0.46118125319480896 -1.884822193776266 1.8929505348205566 -1.5789058844195765 -1.5707405249225062 0.46118125319480896 0.0 0.0 0.0 0.0 0.0 0.0 -8.264819758076654e-18 -0.2737451195716858 -0.7673438787460327 -0.22935359179973602 3.563054633559659e-06 0.0 -8.264819758076654e-18 -0.2737451195716858 -0.7673438787460327 -0.22935359179973602 3.563054633559659e-06 0.0 -0.14999996305006255 -0.2000000017290201 0.3000000092764531 2.2213998366713645 2.221399835051566 4.470064371328034e-08 0.0 0.0 0.0 0.0 0.0 0.0 1.624001725330708e-07 2.1650178383720675e-07 -3.4978436031659263e-07 -4.551019209592436e-08 6.919840814972579e-08 -4.7752115536803086e-12 -0.15000000000000013 -0.2 0.30000000000000004 2.2214000003201977 2.2213999998597047 4.07384154678336e-10 0.0 0.0 0.0 0.0 0.0 0.0

198613.75199999998 0.46118125007732447 -1.884822090514823 1.892950551813394 -1.5789061053941449 -1.5707407360960062 0.4611812495598374 0.0 0.0 0.0 0.0 0.0 0.0 0.0 0.0 0.0 0.0 0.0 0.0 -8.264819496594706e-18 -0.2737451226113909 -0.7673438741883188 -0.22935359896492727 3.5630546556412405e-06 0.0 -1.085170799902885e-16 -3.594273459887562 -7.145659625216464 -1.0424121072955945 1.6194083409889436e-05 0.0 0.46118125319480896 -1.884822193776266 1.8929505348205566 -1.5789058844195765 -1.5707405249225062 0.46118125319480896 0.0 0.0 0.0 0.0 0.0 0.0 -8.264819758076654e-18 -0.2737451195716858 -0.7673438787460327 -0.22935359179973602 3.563054633559659e-06 0.0 -8.264819758076654e-18 -0.2737451195716858 -0.7673438787460327 -0.22935359179973602 3.563054633559659e-06 0.0 -0.14999996305006255 -0.2000000017290201 0.3000000092764531 2.2213998366713645 2.221399835051566 4.470064371328034e-08 0.0 0.0 0.0 0.0 0.0 0.0 1.624001725330708e-07 2.1650178383720675e-07 -3.4978436031659263e-07 -4.551019209592436e-08 6.919840814972579e-08 -4.7752115536803086e-12 -0.15000000000000013 -0.2 0.30000000000000004 2.2214000003201977 2.2213999998597047 4.07384154678336e-10 0.0 0.0 0.0 0.0 0.0 0.0

198613.75999999998 0.46118125007732447 -1.884822090514823 1.892950551813394 -1.5789061053941449 -1.5707407360960062 0.4611812495598374 0.0 0.0 0.0 0.0 0.0 0.0 0.0 0.0 0.0 0.0 0.0 0.0 -8.264819496594706e-18 -0.2737451226113909 -0.7673438741883188 -0.22935359896492727 3.5630546556412405e-06 0.0 -1.085170799902885e-16 -3.594273459887562 -7.145659625216464 -1.0424121072955945 1.6194083409889436e-05 0.0 0.46118125319480896 -1.884822193776266 1.8929505348205566 -1.5789058844195765 -1.5707405249225062 0.46118125319480896 0.0 0.0 0.0 0.0 0.0 0.0 -8.264819758076654e-18 -0.2737451195716858 -0.7673438787460327 -0.22935359179973602 3.563054633559659e-06 0.0 -8.264819758076654e-18 -0.2737451195716858 -0.7673438787460327 -0.22935359179973602 3.563054633559659e-06 0.0 -0.14999996305006255 -0.2000000017290201 0.3000000092764531 2.2213998366713645 2.221399835051566 4.470064371328034e-08 0.0 0.0 0.0 0.0 0.0 0.0 1.624001725330708e-07 2.1650178383720675e-07 -3.4978436031659263e-07 -4.551019209592436e-08 6.919840814972579e-08 -4.7752115536803086e-12 -0.15000000000000013 -0.2 0.30000000000000004 2.2214000003201977 2.2213999998597047 4.07384154678336e-10 0.0 0.0 0.0 0.0 0.0 0.0

198613.76799999998 0.46118125007732447 -1.884822090514823 1.892950551813394 -1.5789061053941449 -1.5707407360960062 0.4611812495598374 0.0 0.0 0.0 0.0 0.0 0.0 0.0 0.0 0.0 0.0 0.0 0.0 -8.264819496594706e-18 -0.2737451226113909 -0.7673438741883188 -0.22935359896492727 3.5630546556412405e-06 0.0 -1.085170799902885e-16 -3.594273459887562 -7.145659625216464 -1.0424121072955945 1.6194083409889436e-05 0.0 0.46118125319480896 -1.884822193776266 1.8929505348205566 -1.5789058844195765 -1.5707405249225062 0.46118125319480896 0.0 0.0 0.0 0.0 0.0 0.0 -8.264819758076654e-18 -0.2737451195716858 -0.7673438787460327 -0.22935359179973602 3.563054633559659e-06 0.0 -8.264819758076654e-18 -0.2737451195716858 -0.7673438787460327 -0.22935359179973602 3.563054633559659e-06 0.0 -0.14999996305006255 -0.2000000017290201 0.3000000092764531 2.2213998366713645 2.221399835051566 4.470064371328034e-08 0.0 0.0 0.0 0.0 0.0 0.0 1.624001725330708e-07 2.1650178383720675e-07 -3.4978436031659263e-07 -4.551019209592436e-08 6.919840814972579e-08 -4.7752115536803086e-12 -0.15000000000000013 -0.2 0.30000000000000004 2.2214000003201977 2.2213999998597047 4.07384154678336e-10 0.0 0.0 0.0 0.0 0.0 0.0

198613.77599999998 0.46118125007732447 -1.884822090514823 1.892950551813394 -1.5789061053941449 -1.5707407360960062 0.4611812495598374 0.0 0.0 0.0 0.0 0.0 0.0 0.0 0.0 0.0 0.0 0.0 0.0 -8.264819496594706e-18 -0.2737451226113909 -0.7673438741883188 -0.22935359896492727 3.5630546556412405e-06 0.0 -1.085170799902885e-16 -3.594273459887562 -7.145659625216464 -1.0424121072955945 1.6194083409889436e-05 0.0 0.46118125319480896 -1.884822193776266 1.8929505348205566 -1.5789058844195765 -1.5707405249225062 0.46118125319480896 0.0 0.0 0.0 0.0 0.0 0.0 -8.264819758076654e-18 -0.2737451195716858 -0.7673438787460327 -0.22935359179973602 3.563054633559659e-06 0.0 -8.264819758076654e-18 -0.2737451195716858 -0.7673438787460327 -0.22935359179973602 3.563054633559659e-06 0.0 -0.14999996305006255 -0.2000000017290201 0.3000000092764531 2.2213998366713645 2.221399835051566 4.470064371328034e-08 0.0 0.0 0.0 0.0 0.0 0.0 1.624001725330708e-07 2.1650178383720675e-07 -3.4978436031659263e-07 -4.551019209592436e-08 6.919840814972579e-08 -4.7752115536803086e-12 -0.15000000000000013 -0.2 0.30000000000000004 2.2214000003201977 2.2213999998597047 4.07384154678336e-10 0.0 0.0 0.0 0.0 0.0 0.0

198613.78399999999 0.46118125007732447 -1.884822090514823 1.892950551813394 -1.5789061053941449 -1.5707407360960062 0.4611812495598374 0.0 0.0 0.0 0.0 0.0 0.0 0.0 0.0 0.0 0.0 0.0 0.0 -8.264819496594706e-18 -0.2737451226113909 -0.7673438741883188 -0.22935359896492727 3.5630546556412405e-06 0.0 -1.085170799902885e-16 -3.594273459887562 -7.145659625216464 -1.0424121072955945 1.6194083409889436e-05 0.0 0.46118125319480896 -1.884822193776266 1.8929505348205566 -1.5789058844195765 -1.5707405249225062 0.46118125319480896 0.0 0.0 0.0 0.0 0.0 0.0 -8.264819758076654e-18 -0.2737451195716858 -0.7673438787460327 -0.22935359179973602 3.563054633559659e-06 0.0 -8.264819758076654e-18 -0.2737451195716858 -0.7673438787460327 -0.22935359179973602 3.563054633559659e-06 0.0 -0.14999996305006255 -0.2000000017290201 0.3000000092764531 2.2213998366713645 2.221399835051566 4.470064371328034e-08 0.0 0.0 0.0 0.0 0.0 0.0 1.624001725330708e-07 2.1650178383720675e-07 -3.4978436031659263e-07 -4.551019209592436e-08 6.919840814972579e-08 -4.7752115536803086e-12 -0.15000000000000013 -0.2 0.30000000000000004 2.2214000003201977 2.2213999998597047 4.07384154678336e-10 0.0 0.0 0.0 0.0 0.0 0.0

198613.792 0.46118125007732447 -1.884822090514823 1.892950551813394 -1.5789061053941449 -1.5707407360960062 0.4611812495598374 0.0 0.0 0.0 0.0 0.0 0.0 0.0 0.0 0.0 0.0 0.0 0.0 -8.264819496594706e-18 -0.2737451226113909 -0.7673438741883188 -0.22935359896492727 3.5630546556412405e-06 0.0 -1.085170799902885e-16 -3.594273459887562 -7.145659625216464 -1.0424121072955945 1.6194083409889436e-05 0.0 0.46118125319480896 -1.884822193776266 1.8929505348205566 -1.5789058844195765 -1.5707405249225062 0.46118125319480896 0.0 0.0 0.0 0.0 0.0 0.0 -8.264819758076654e-18 -0.2737451195716858 -0.7673438787460327 -0.22935359179973602 3.563054633559659e-06 0.0 -8.264819758076654e-18 -0.2737451195716858 -0.7673438787460327 -0.22935359179973602 3.563054633559659e-06 0.0 -0.14999996305006255 -0.2000000017290201 0.3000000092764531 2.2213998366713645 2.221399835051566 4.470064371328034e-08 0.0 0.0 0.0 0.0 0.0 0.0 1.624001725330708e-07 2.1650178383720675e-07 -3.4978436031659263e-07 -4.551019209592436e-08 6.919840814972579e-08 -4.7752115536803086e-12 -0.15000000000000013 -0.2 0.30000000000000004 2.2214000003201977 2.2213999998597047 4.07384154678336e-10 0.0 0.0 0.0 0.0 0.0 0.0

198613.8 0.46118125007732447 -1.884822090514823 1.892950551813394 -1.5789061053941449 -1.5707407360960062 0.4611812495598374 0.0 0.0 0.0 0.0 0.0 0.0 0.0 0.0 0.0 0.0 0.0 0.0 -8.264819496594706e-18 -0.2737451226113909 -0.7673438741883188 -0.22935359896492727 3.5630546556412405e-06 0.0 -1.085170799902885e-16 -3.594273459887562 -7.145659625216464 -1.0424121072955945 1.6194083409889436e-05 0.0 0.46118125319480896 -1.884822193776266 1.8929505348205566 -1.5789058844195765 -1.5707405249225062 0.46118125319480896 0.0 0.0 0.0 0.0 0.0 0.0 -8.264819758076654e-18 -0.2737451195716858 -0.7673438787460327 -0.22935359179973602 3.563054633559659e-06 0.0 -8.264819758076654e-18 -0.2737451195716858 -0.7673438787460327 -0.22935359179973602 3.563054633559659e-06 0.0 -0.14999996305006255 -0.2000000017290201 0.3000000092764531 2.2213998366713645 2.221399835051566 4.470064371328034e-08 0.0 0.0 0.0 0.0 0.0 0.0 1.624001725330708e-07 2.1650178383720675e-07 -3.4978436031659263e-07 -4.551019209592436e-08 6.919840814972579e-08 -4.7752115536803086e-12 -0.15000000000000013 -0.2 0.30000000000000004 2.2214000003201977 2.2213999998597047 4.07384154678336e-10 0.0 0.0 0.0 0.0 0.0 0.0

198613.808 0.46118125007732447 -1.884822090514823 1.892950551813394 -1.5789061053941449 -1.5707407360960062 0.4611812495598374 0.0 0.0 0.0 0.0 0.0 0.0 0.0 0.0 0.0 0.0 0.0 0.0 -8.264819496594706e-18 -0.2737451226113909 -0.7673438741883188 -0.22935359896492727 3.5630546556412405e-06 0.0 -1.085170799902885e-16 -3.594273459887562 -7.145659625216464 -1.0424121072955945 1.6194083409889436e-05 0.0 0.46118125319480896 -1.884822193776266 1.8929505348205566 -1.5789058844195765 -1.5707405249225062 0.46118125319480896 0.0 0.0 0.0 0.0 0.0 0.0 -8.264819758076654e-18 -0.2737451195716858 -0.7673438787460327 -0.22935359179973602 3.563054633559659e-06 0.0 -8.264819758076654e-18 -0.2737451195716858 -0.7673438787460327 -0.22935359179973602 3.563054633559659e-06 0.0 -0.14999996305006255 -0.2000000017290201 0.3000000092764531 2.2213998366713645 2.221399835051566 4.470064371328034e-08 0.0 0.0 0.0 0.0 0.0 0.0 1.624001725330708e-07 2.1650178383720675e-07 -3.4978436031659263e-07 -4.551019209592436e-08 6.919840814972579e-08 -4.7752115536803086e-12 -0.15000000000000013 -0.2 0.30000000000000004 2.2214000003201977 2.2213999998597047 4.07384154678336e-10 0.0 0.0 0.0 0.0 0.0 0.0

198613.816 0.46118125007732447 -1.884822090514823 1.892950551813394 -1.5789061053941449 -1.5707407360960062 0.4611812495598374 0.0 0.0 0.0 0.0 0.0 0.0 0.0 0.0 0.0 0.0 0.0 0.0 -8.264819496594706e-18 -0.2737451226113909 -0.7673438741883188 -0.22935359896492727 3.5630546556412405e-06 0.0 -1.085170799902885e-16 -3.594273459887562 -7.145659625216464 -1.0424121072955945 1.6194083409889436e-05 0.0 0.46118125319480896 -1.884822193776266 1.8929505348205566 -1.5789058844195765 -1.5707405249225062 0.46118125319480896 0.0 0.0 0.0 0.0 0.0 0.0 -8.264819758076654e-18 -0.2737451195716858 -0.7673438787460327 -0.22935359179973602 3.563054633559659e-06 0.0 -8.264819758076654e-18 -0.2737451195716858 -0.7673438787460327 -0.22935359179973602 3.563054633559659e-06 0.0 -0.14999996305006255 -0.2000000017290201 0.3000000092764531 2.2213998366713645 2.221399835051566 4.470064371328034e-08 0.0 0.0 0.0 0.0 0.0 0.0 1.624001725330708e-07 2.1650178383720675e-07 -3.4978436031659263e-07 -4.551019209592436e-08 6.919840814972579e-08 -4.7752115536803086e-12 -0.15000000000000013 -0.2 0.30000000000000004 2.2214000003201977 2.2213999998597047 4.07384154678336e-10 0.0 0.0 0.0 0.0 0.0 0.0

198613.824 0.46118125007732447 -1.884822090514823 1.892950551813394 -1.5789061053941449 -1.5707407360960062 0.4611812495598374 0.0 0.0 0.0 0.0 0.0 0.0 0.0 0.0 0.0 0.0 0.0 0.0 -8.264819496594706e-18 -0.2737451226113909 -0.7673438741883188 -0.22935359896492727 3.5630546556412405e-06 0.0 -1.085170799902885e-16 -3.594273459887562 -7.145659625216464 -1.0424121072955945 1.6194083409889436e-05 0.0 0.46118125319480896 -1.884822193776266 1.8929505348205566 -1.5789058844195765 -1.5707405249225062 0.46118125319480896 0.0 0.0 0.0 0.0 0.0 0.0 -8.264819758076654e-18 -0.2737451195716858 -0.7673438787460327 -0.22935359179973602 3.563054633559659e-06 0.0 -8.264819758076654e-18 -0.2737451195716858 -0.7673438787460327 -0.22935359179973602 3.563054633559659e-06 0.0 -0.14999996305006255 -0.2000000017290201 0.3000000092764531 2.2213998366713645 2.221399835051566 4.470064371328034e-08 0.0 0.0 0.0 0.0 0.0 0.0 1.624001725330708e-07 2.1650178383720675e-07 -3.4978436031659263e-07 -4.551019209592436e-08 6.919840814972579e-08 -4.7752115536803086e-12 -0.15000000000000013 -0.2 0.30000000000000004 2.2214000003201977 2.2213999998597047 4.07384154678336e-10 0.0 0.0 0.0 0.0 0.0 0.0

198613.832 0.46118125007732447 -1.884822090514823 1.892950551813394 -1.5789061053941449 -1.5707407360960062 0.4611812495598374 0.0 0.0 0.0 0.0 0.0 0.0 0.0 0.0 0.0 0.0 0.0 0.0 -8.264819496594706e-18 -0.2737451226113909 -0.7673438741883188 -0.22935359896492727 3.5630546556412405e-06 0.0 -1.085170799902885e-16 -3.594273459887562 -7.145659625216464 -1.0424121072955945 1.6194083409889436e-05 0.0 0.46118125319480896 -1.884822193776266 1.8929505348205566 -1.5789058844195765 -1.5707405249225062 0.46118125319480896 0.0 0.0 0.0 0.0 0.0 0.0 -8.264819758076654e-18 -0.2737451195716858 -0.7673438787460327 -0.22935359179973602 3.563054633559659e-06 0.0 -8.264819758076654e-18 -0.2737451195716858 -0.7673438787460327 -0.22935359179973602 3.563054633559659e-06 0.0 -0.14999996305006255 -0.2000000017290201 0.3000000092764531 2.2213998366713645 2.221399835051566 4.470064371328034e-08 0.0 0.0 0.0 0.0 0.0 0.0 1.624001725330708e-07 2.1650178383720675e-07 -3.4978436031659263e-07 -4.551019209592436e-08 6.919840814972579e-08 -4.7752115536803086e-12 -0.15000000000000013 -0.2 0.30000000000000004 2.2214000003201977 2.2213999998597047 4.07384154678336e-10 0.0 0.0 0.0 0.0 0.0 0.0

198613.84 0.46118125007732447 -1.884822090514823 1.892950551813394 -1.5789061053941449 -1.5707407360960062 0.4611812495598374 0.0 0.0 0.0 0.0 0.0 0.0 0.0 0.0 0.0 0.0 0.0 0.0 -8.264819496594706e-18 -0.2737451226113909 -0.7673438741883188 -0.22935359896492727 3.5630546556412405e-06 0.0 -1.085170799902885e-16 -3.594273459887562 -7.145659625216464 -1.0424121072955945 1.6194083409889436e-05 0.0 0.46118125319480896 -1.884822193776266 1.8929505348205566 -1.5789058844195765 -1.5707405249225062 0.46118125319480896 0.0 0.0 0.0 0.0 0.0 0.0 -8.264819758076654e-18 -0.2737451195716858 -0.7673438787460327 -0.22935359179973602 3.563054633559659e-06 0.0 -8.264819758076654e-18 -0.2737451195716858 -0.7673438787460327 -0.22935359179973602 3.563054633559659e-06 0.0 -0.14999996305006255 -0.2000000017290201 0.3000000092764531 2.2213998366713645 2.221399835051566 4.470064371328034e-08 0.0 0.0 0.0 0.0 0.0 0.0 1.624001725330708e-07 2.1650178383720675e-07 -3.4978436031659263e-07 -4.551019209592436e-08 6.919840814972579e-08 -4.7752115536803086e-12 -0.15000000000000013 -0.2 0.30000000000000004 2.2214000003201977 2.2213999998597047 4.07384154678336e-10 0.0 0.0 0.0 0.0 0.0 0.0

198613.848 0.46118125007732447 -1.884822090514823 1.892950551813394 -1.5789061053941449 -1.5707407360960062 0.4611812495598374 0.0 0.0 0.0 0.0 0.0 0.0 0.0 0.0 0.0 0.0 0.0 0.0 -8.264819496594706e-18 -0.2737451226113909 -0.7673438741883188 -0.22935359896492727 3.5630546556412405e-06 0.0 -1.085170799902885e-16 -3.594273459887562 -7.145659625216464 -1.0424121072955945 1.6194083409889436e-05 0.0 0.46118125319480896 -1.884822193776266 1.8929505348205566 -1.5789058844195765 -1.5707405249225062 0.46118125319480896 0.0 0.0 0.0 0.0 0.0 0.0 -8.264819758076654e-18 -0.2737451195716858 -0.7673438787460327 -0.22935359179973602 3.563054633559659e-06 0.0 -8.264819758076654e-18 -0.2737451195716858 -0.7673438787460327 -0.22935359179973602 3.563054633559659e-06 0.0 -0.14999996305006255 -0.2000000017290201 0.3000000092764531 2.2213998366713645 2.221399835051566 4.470064371328034e-08 0.0 0.0 0.0 0.0 0.0 0.0 1.624001725330708e-07 2.1650178383720675e-07 -3.4978436031659263e-07 -4.551019209592436e-08 6.919840814972579e-08 -4.7752115536803086e-12 -0.15000000000000013 -0.2 0.30000000000000004 2.2214000003201977 2.2213999998597047 4.07384154678336e-10 0.0 0.0 0.0 0.0 0.0 0.0

198613.856 0.46118125007732447 -1.884822090514823 1.892950551813394 -1.5789061053941449 -1.5707407360960062 0.4611812495598374 0.0 0.0 0.0 0.0 0.0 0.0 0.0 0.0 0.0 0.0 0.0 0.0 -8.264819496594706e-18 -0.2737451226113909 -0.7673438741883188 -0.22935359896492727 3.5630546556412405e-06 0.0 -1.085170799902885e-16 -3.594273459887562 -7.145659625216464 -1.0424121072955945 1.6194083409889436e-05 0.0 0.46118125319480896 -1.884822193776266 1.8929505348205566 -1.5789058844195765 -1.5707405249225062 0.46118125319480896 0.0 0.0 0.0 0.0 0.0 0.0 -8.264819758076654e-18 -0.2737451195716858 -0.7673438787460327 -0.22935359179973602 3.563054633559659e-06 0.0 -8.264819758076654e-18 -0.2737451195716858 -0.7673438787460327 -0.22935359179973602 3.563054633559659e-06 0.0 -0.14999996305006255 -0.2000000017290201 0.3000000092764531 2.2213998366713645 2.221399835051566 4.470064371328034e-08 0.0 0.0 0.0 0.0 0.0 0.0 1.624001725330708e-07 2.1650178383720675e-07 -3.4978436031659263e-07 -4.551019209592436e-08 6.919840814972579e-08 -4.7752115536803086e-12 -0.15000000000000013 -0.2 0.30000000000000004 2.2214000003201977 2.2213999998597047 4.07384154678336e-10 0.0 0.0 0.0 0.0 0.0 0.0

198613.864 0.4611809292892344 -1.8848224004839045 1.892950752376127 -1.5789059959699632 -1.5707407361019996 0.4611809287717469 -0.00016039408355781183 -0.0001549845399049509 0.00010028133993072912 5.471211635957298e-05 -2.996630191917926e-09 -0.00016039408377765442 -0.020049260444726477 -0.019373067488118862 0.01253516749134114 0.006839014544946623 -3.7457877398974075e-07 -0.0200492604722068 -0.0010307999564377513 -0.2748044188904348 -0.7670425478154598 -0.2292316267989211 -2.566810607880853e-05 -0.00031499615897444906 -0.013534403428027676 -3.608182020031409 -7.142853613767125 -1.0418577438010963 -0.00011666154212818476 -0.001431657542538871 0.4611809253692627 -1.884822193776266 1.8929507732391357 -1.5789058844195765 -1.5707405249225062 0.4611809253692627 -0.00016039407637435943 -0.0001549845328554511 0.00010028133692685515 5.471211625263095e-05 -2.996630277252166e-09 -0.00016039409092627466 -0.0010307999327778816 -0.27480441331863403 -0.7670425772666931 -0.22923162579536438 -2.5668106900411658e-05 -0.0003149961703456938 -0.0010307999327778816 -0.27480441331863403 -0.7670425772666931 -0.22923162579536438 -2.5668106900411658e-05 -0.0003149961703456938 -0.15000001075822295 -0.1999999436817104 0.29999993808671405 2.221399782971833 2.2213997813373014 3.996576787130895e-07 -3.684869449127681e-12 3.9999999833743767e-05 6.734282657895759e-12 -6.203114064692912e-11 2.601180101216136e-12 1.4330176815105522e-11 7.231360246149669e-07 9.658261027564866e-07 -1.2987505163100325e-06 -1.304676201202031e-07 1.625727046696703e-07 -6.38924814897008e-11 -0.15000000000000008 -0.19999991999999997 0.3 2.221400000321223 2.221399999861357 4.073841546785832e-10 2.1120424453434657e-20 4.000000000000001e-05 1.16001554038676e-22 2.89816027929033e-20 -4.163541436930458e-20 -5.3998350387461647e-20

198613.872 0.4611783629789676 -1.8848248802364296 1.8929523568741542 -1.5789051205728022 -1.5707407361499444 0.4611783624614766 -0.000721776148854077 -0.0006974303659903362 0.0004512641107290433 0.00024620637934520185 -1.3484618573306146e-08 -0.0007217761498433758 -0.07017275816203314 -0.06780572826067316 0.043872846349789274 0.02393678287320361 -1.3109985476735275e-06 -0.07017275825821517 -0.003607812496596582 -0.27745123746783273 -0.7662892343600606 -0.22892669063933052 -9.874531208840314e-05 -0.0011024920019679584 -0.04737057808031313 -3.642934747952644 -7.135838608207756 -1.0404718089557572 -0.00044879744344179226 -0.005010826148944371 0.46117836236953735 -1.8848250547992151 1.8929523229599 -1.57890493074526 -1.5707405249225062 0.46117836236953735 -0.0007217761594802141 -0.0006974303396418691 0.00045126411714591086 0.0002462063857819885 -1.3484618754944222e-08 -0.0007217761594802141 -0.0036078125704079866 -0.2774512469768524 -0.766289234161377 -0.22892668843269348 -9.874530951492488e-05 -0.0011024919804185629 -0.0036078125704079866 -0.2774512469768524 -0.766289234161377 -0.22892668843269348 -9.874530951492488e-05 -0.0011024919804185629 -0.14999995788879217 -0.19999927823990132 0.3000000329110344 2.2213998635193324 2.2213998619064346 -1.3306520821191554e-07 -1.7582232202382342e-12 0.00017999997064045806 -3.647373181137047e-11 -3.8576147744349605e-11 1.0704349371696071e-10 -9.977903283433216e-13 -3.748629184920682e-07 -5.056086686710118e-07 -4.2912280089357487e-08 3.532720437168825e-08 -1.843567832496948e-08 1.001778691625481e-10 -0.1500000000000001 -0.19999928 0.29999999999999993 2.221400000322914 2.221399999862343 4.1333136860349487e-10 -4.1586778527737635e-17 0.00017999999999997922 4.162318426438923e-17 -2.3071563821821124e-13 -3.7180228930655256e-13 8.523269031746397e-21

198613.88 0.4611697016090331 -1.8848332493995343 1.8929577720046267 -1.578902166058679 -1.5707407363117616 0.46116970109153915 -0.0019247613515776378 -0.001859813737239673 0.0012033536923962333 0.0006565670432082675 -3.59602859614856e-08 -0.0019247613524316061 -0.1503731503404451 -0.1452979214061671 0.09401119770839876 0.05129508298288321 -2.8094584235224317e-06 -0.15037315032352877 -0.007731151405237815 -0.28168245658840785 -0.7650839573900858 -0.22843875432680838 -0.00021566592938050905 -0.0023625292728607743 -0.10151001795077251 -3.6984906550057954 -7.1246148280079575 -1.038254138415344 -0.0009802016490344137 -0.010737695545152219 0.46116968989372253 -1.8848331610309046 1.8929578065872192 -1.5789020697223108 -1.5707405249225062 0.46116968989372253 -0.001924761338159442 -0.0018598136957734823 0.001203353749588132 0.0006565670482814312 -3.5960287192438045e-08 -0.001924761338159442 -0.0077311513014137745 -0.28168246150016785 -0.7650839686393738 -0.22843874990940094 -0.0002156659320462495 -0.002362529281526804 -0.0077311513014137745 -0.28168246150016785 -0.7650839686393738 -0.22843874990940094 -0.0002156659320462495 -0.002362529281526804 -0.14999999670311817 -0.1999971347725795 0.2999999617175669 2.2213998098201246 2.221399808191931 2.2113028897965867e-07 -2.8687437260096856e-11 0.00047999998455877446 1.117633977708942e-11 -5.136935412851362e-10 8.286033482501995e-11 -2.6608390709575628e-12 -1.3659349341718186e-08 -9.412258702325772e-09 -5.855348522074555e-07 -3.0415049673684634e-08 6.160819426314126e-08 -4.321769502237196e-11 -0.15000000000000022 -0.19999712000000003 0.30000000000000004 2.221400000320341 2.2213999998595617 4.1035776159147453e-10 -2.7548306285822142e-17 0.0004799999999999998 1.1103140921920196e-16 -8.149485463631359e-13 -7.914992708890658e-13 -1.7841634496313136e-12

198613.88799999998 0.46114917050580523 -1.8848530874054958 1.892970607559023 -1.5788951624657876 -1.570740736695365 0.4611491699882915 -0.0040100427172228255 -0.0038746091259388954 0.002506901576658078 0.001367930467060275 -7.49263716110781e-08 -0.004010042721603786 -0.26066017070564845 -0.2518494235874028 0.16294348553273055 0.08892042798150095 -4.8707607061990625e-06 -0.2606601711465225 -0.013401260027390541 -0.2874933412129995 -0.7634268227187709 -0.2277676976790251 -0.00037642450678239474 -0.004095260911124254 -0.1759585441596378 -3.7747875701266835 -7.10918325852174 -1.0352041859511691 -0.001710849383325984 -0.018612960841059734 0.4611491560935974 -1.8848531881915491 1.8929705619812012 -1.578895394002096 -1.5707405249225062 0.4611491560935974 -0.004010042641311884 -0.00387460901401937 0.0025069015100598335 0.0013679304393008351 -7.492636910910733e-08 -0.004010042641311884 -0.013401259668171406 -0.28749334812164307 -0.7634268403053284 -0.2277676910161972 -0.0003764245193451643 -0.004095260985195637 -0.013401259668171406 -0.28749334812164307 -0.7634268403053284 -0.2277676910161972 -0.0003764245193451643 -0.004095260985195637 -0.15000000219326512 -0.19999201686305576 0.30000005587925244 2.2213999440785215 2.221399942487562 -6.682323692417126e-07 -5.6664838365480147e-11 0.0009999999808970286 -9.289412382688697e-11 9.869791558475784e-10 1.4191492411103834e-09 -5.543647221994448e-12 4.550547906921052e-09 3.5225382091211104e-08 -9.098443059034599e-07 -5.0969095532827424e-08 9.700701443775937e-08 -3.428131098137314e-10 -0.15000000000000022 -0.1999920000000001 0.29999999999999993 2.221400000321691 2.221399999860889 4.0738415460877665e-10 1.0530059077108408e-16 0.0010000000000000345 2.6272171796226894e-19 -5.37894180279741e-14 5.3624326354650425e-14 -1.1151024227158354e-12

198613.89599999998 0.4611090688751113 -1.8848918334691378 1.8929956757419475 -1.5788814823558397 -1.5707407374446918 0.4611090683575441 -0.007218510163257547 -0.006974286482764816 0.004512123014708078 0.0024625647390442147 -1.348908609610701e-07 -0.007218510173150465 -0.4010584307543402 -0.38745966960324 0.25065267975625005 0.13682928399799246 -7.495561168749001e-06 -0.40105843144333486 -0.02061929269858729 -0.29487747659852853 -0.7613181285477839 -0.2269132321775746 -0.0005810124742611964 -0.0063010735784541725 -0.27073131313245113 -3.8717412677386798 -7.089546676662674 -1.0313206402470765 -0.0026407016955171374 -0.02863837941407421 0.46110907196998596 -1.8848918120013636 1.8929957151412964 -1.578881565724508 -1.5707405249225062 0.46110907196998596 -0.007218510378152132 -0.006974286399781704 0.004512122832238674 0.0024625647347420454 -1.3489085404216894e-07 -0.007218510378152132 -0.020619291812181473 -0.29487746953964233 -0.7613181471824646 -0.2269132286310196 -0.0005810124566778541 -0.006301073357462883 -0.020619291812181473 -0.29487746953964233 -0.7613181471824646 -0.2269132286310196 -0.0005810124566778541 -0.006301073357462883 -0.14999999764801636 -0.19998201903860058 0.2999999905579883 2.2213998635244687 2.221399861911971 -1.3945811405722358e-07 -2.2613971650777022e-10 0.0017999999981040678 7.075290297793466e-11 -5.839850294186287e-10 1.5385642308378022e-09 -9.978364934812436e-12 5.539490728963646e-07 8.227531963846835e-07 -8.82369016805547e-07 -1.079962514841027e-07 1.2728258101778351e-07 9.94615105610095e-10 -0.15000000000000024 -0.199982 0.3000000000000001 2.2214000003205503 2.22139999986203 4.10357761547515e-10 1.2732842743254537e-16 0.0018000000000001244 1.6557053090060187e-16 -6.720612638235211e-13 -5.329741277409541e-13 -2.3712687358384138e-18

198613.90399999998 0.46103976758355547 -1.8849587865368091 1.8930389896360205 -1.5788578393298796 -1.5707407387398478 0.4610397670659022 -0.011791456244485564 -0.011391306486884684 0.0073689546973126786 0.004023007252283726 -2.2039067969170675e-07 -0.011791456259082822 -0.5716182601535021 -0.5521275005149835 0.357103960325575 0.19505531415493896 -1.068747734132958e-05 -0.5716182607415445 -0.029387649632413103 -0.3038266779993043 -0.7587585245688201 -0.22587478609054393 -0.0008294185254804864 -0.008980758007650488 -0.38585983967358406 -3.9892442821308656 -7.065711132489767 -1.0266009027815222 -0.0037697071983088105 -0.04081754514477147 0.46103978157043457 -1.884958569203512 1.8930389881134033 -1.578857723866598 -1.5707405249225062 0.46103978157043457 -0.011791456490755081 -0.011391306295990944 0.0073689548298716545 0.004023007117211819 -2.2039067459900252e-07 -0.011791456490755081 -0.02938764914870262 -0.3038266897201538 -0.758758544921875 -0.22587478160858154 -0.000829418539069593 -0.008980757556855679 -0.02938764914870262 -0.3038266897201538 -0.758758544921875 -0.22587478160858154 -0.000829418539069593 -0.008980757556855679 -0.15000000988373297 -0.19996474795023672 0.29999994207074104 2.2213997829446277 2.221399781311244 3.8659169250609823e-07 -4.193254208168927e-10 0.002940000174479458 5.015220819975095e-10 -4.5363883012056535e-09 3.5026341184123723e-10 -1.6299471636353454e-11 -1.285572909026402e-07 -1.1541295777209359e-07 -9.856786170655836e-07 -3.7095367358479355e-08 8.302761767849997e-08 2.0438628453163595e-09 -0.15000000000000027 -0.19996471999999982 0.29999999999999993 2.2214000003219816 2.2213999998632756 4.16304975433608e-10 1.9314782956962243e-16 0.0029399999999999518 -9.627068635019778e-17 -1.8511844497686115e-13 -1.2207521061269539e-12 -1.561146463905966e-12

198613.91199999998 0.46092970492798935 -1.8850651051887688 1.8931077602755253 -1.5788202851993827 -1.5707407407973282 0.4609297044102186 -0.017970893071654656 -0.01735811317480171 0.011226835669163611 0.006132276433414146 -3.359978518283687e-07 -0.017970893090924447 -0.7724296033961364 -0.7458508359896281 0.48223512148136655 0.2636586476413024 -1.4450896517082745e-05 -0.7724296039802031 -0.03971066627326936 -0.3143308763619395 -0.7557492200303424 -0.2246513590502518 -0.001121629537340753 -0.012135727333644524 -0.5214010481680267 -4.127164406632266 -7.037687886766555 -1.0210404268833944 -0.005097806247213722 -0.055156880731414365 0.4609296917915344 -1.8850649038897913 1.8931077718734741 -1.5788200537311 -1.5707405249225062 0.4609296917915344 -0.017970893532037735 -0.017358113080263138 0.011226835660636425 0.006132276263087988 -3.359978393291385e-07 -0.017970893532037735 -0.03971066698431969 -0.3143308758735657 -0.7557492256164551 -0.22465136647224426 -0.0011216294951736927 -0.01213572733104229 -0.03971066698431969 -0.3143308758735657 -0.7557492256164551 -0.22465136647224426 -0.0011216294951736927 -0.01213572733104229 -0.15000000361603655 -0.1999372982612113 0.2999999318376057 2.221399756058107 2.221399754414991 5.538794167673915e-07 -4.3601259752224885e-10 0.004480000067354949 8.034246295891604e-10 -8.916366426547847e-09 -3.874584782679244e-12 -2.484012896362877e-11 1.696543038346327e-07 1.6397536936156856e-07 -8.394335804127794e-08 -1.441268507760929e-09 -9.815726504069e-09 1.2173679408046887e-11 -0.15000000000000052 -0.1999372799999994 0.3 2.2214000003211027 2.221399999861477 4.073841544326642e-10 2.7275065290431495e-16 0.004479999999999614 2.2061576425938664e-16 -1.0703483525038418e-12 -2.1425391701924665e-12 -5.352499915389926e-12

198613.91999999998 0.4607653794194287 -1.8852238074716556 1.893210391657044 -1.5787642051640969 -1.570740743870445 0.4607653789014399 -0.026000005039868417 -0.025107123259135215 0.016234394665222068 0.008874173745697411 -4.863555683806713e-07 -0.026000005075482644 -1.00363899602672 -0.9686262605416882 0.6259448745073071 0.34273716403540816 -1.8794714569037825e-05 -1.0036389980697746 -0.05159545852419829 -0.32637797950038977 -0.7522922407995452 -0.22324134624823253 -0.001457632191611508 -0.015768283814118458 -0.6774483704227237 -4.285342870840118 -7.005495804773525 -1.0146319186982167 -0.006624938310874304 -0.07166684993516839 0.46076539158821106 -1.885223690663473 1.8932104110717773 -1.5787642637835901 -1.5707405249225062 0.46076539158821106 -0.0260000042617321 -0.02510712295770645 0.016234394162893295 0.00887417420744896 -4.863555886913673e-07 -0.0260000042617321 -0.05159545689821243 -0.3263779878616333 -0.7522922158241272 -0.22324134409427643 -0.0014576321700587869 -0.01576828397810459 -0.05159545689821243 -0.3263779878616333 -0.7522922158241272 -0.22324134409427643 -0.0014576321700587869 -0.01576828397810459 -0.15000000793605 -0.19989634699192085 0.29999997313103366 2.221399836665893 2.2213998350463715 6.243635446192549e-09 -6.542750683426485e-10 0.006480000114819437 7.207577191542046e-10 -4.222988441552675e-09 3.9669731249984236e-09 -3.593133953315919e-11 -8.075689933166664e-07 -9.387724278705117e-07 1.0356413396853081e-06 1.1192678100739535e-07 -1.3649946604982354e-07 -7.349742625195731e-10 -0.15000000000000122 -0.19989631999999852 0.29999999999999977 2.2214000003190773 2.2213999998608256 4.0441054739167983e-10 8.703476950269261e-16 0.006479999999998628 1.2358504900488304e-16 -6.109116425293179e-13 -1.1963475432242918e-12 -4.177566495858209e-18

198613.92799999999 0.4605313384091415 -1.8854497706319115 1.893356472880799 -1.5786843102194652 -1.5707407482499445 0.46053133789081885 -0.03612376242379911 -0.03487071133898781 0.022539027046832937 0.012333691992027713 -6.762021503982543e-07 -0.03612376247549323 -1.2654696729913366 -1.220448509981574 0.7880790477013586 0.4324397807912877 -2.373082275219787e-05 -1.2654696750013235 -0.06505292694598865 -0.33995370794568874 -0.7483907354538267 -0.22164233245172058 -0.0018374151121312307 -0.01988193467168746 -0.854144930800831 -4.463592185326894 -6.969164206693125 -1.00736440099307 -0.008351051684636443 -0.0903633930828195 0.4605313241481781 -1.8854497114764612 1.893356442451477 -1.578684155141012 -1.5707405249225062 0.4605313241481781 -0.036123763769865036 -0.03487071022391319 0.02253902703523636 0.01233369205147028 -6.762021484973957e-07 -0.036123763769865036 -0.06505292654037476 -0.3399537205696106 -0.7483907341957092 -0.22164233028888702 -0.0018374151550233364 -0.01988193392753601 -0.06505292654037476 -0.3399537205696106 -0.7483907341957092 -0.22164233028888702 -0.0018374151550233364 -0.01988193392753601 -0.14999999346991885 -0.19983801362505563 0.29999998264862937 2.221399809763843 2.22139980813629 1.6204912432671755e-07 -7.828495931399856e-10 0.008999999826977462 2.268659635937231e-10 -9.015709263752187e-09 3.2335345562008183e-09 -4.991379134487782e-11 -5.315404200756302e-07 -6.50070758426689e-07 2.79391880345465e-09 4.8803914881974516e-08 -3.502859386233098e-08 3.385661818618844e-09 -0.1500000000000027 -0.19983799999999632 0.29999999999999927 2.2214000003208625 2.2213999998617173 4.0738415434884585e-10 2.7090902365649458e-15 0.008999999999996245 6.936223823416791e-16 8.403308436772729e-13 -8.40664133133365e-13 2.2302167674204034e-12

198613.936 0.46021016118225666 -1.885759730713863 1.8935567664817272 -1.5785746258889013 -1.5707407542649294 0.46021016066349135 -0.048589721495458385 -0.046881189990252474 0.03028634448297927 0.016597545752307378 -9.10418501027043e-07 -0.04858972156195932 -1.5582448839574092 -1.501309831408083 0.9684146795182917 0.5329817200349581 -2.9277043828598585e-05 -1.5582448858082611 -0.080098924374142 -0.3550414038592418 -0.7440493305136608 -0.21985085623916925 -0.0022609716489993925 -0.024481758539254234 -1.0516988770324844 -4.661693632671845 -6.928736175609313 -0.9992221416070243 -0.010276116144702238 -0.1112695925609105 0.4602101743221283 -1.8857596556292933 1.8935567140579224 -1.5785744825946253 -1.5707405249225062 0.4602101743221283 -0.04858972132205963 -0.046881191432476044 0.03028634376823902 0.016597546637058258 -9.104185210162541e-07 -0.04858972132205963 -0.08009892702102661 -0.35504141449928284 -0.7440493106842041 -0.21985085308551788 -0.0022609715815633535 -0.02448175847530365 -0.08009892702102661 -0.35504141449928284 -0.7440493106842041 -0.21985085308551788 -0.0022609715815633535 -0.02448175847530365 -0.14999999240599665 -0.19975802047196653 0.2999999866720315 2.221399809742789 2.221399808114706 1.3232806275462068e-07 -6.542928922637685e-10 0.012099999915452696 1.2745507166711529e-09 -1.2739627034884518e-08 7.541088657712735e-09 -6.71221893035678e-11 -6.997233355744812e-07 -1.1615265088488018e-06 7.898124332149291e-07 1.189806280800199e-07 -1.0472512587830459e-07 2.999758710254395e-10 -0.15000000000000566 -0.19975799999999178 0.29999999999999827 2.2214000003212875 2.2213999998612928 4.073841542783903e-10 7.012561687664267e-15 0.012099999999989845 2.136773673228614e-15 -5.484591519844949e-13 -1.6604224993675612e-12 -2.7088113653192525e-17

198613.944 0.4597824349356829 -1.886172281977042 1.8938231918742423 -1.5784284762502034 -1.5707407622842569 0.4597824344163324 -0.0636490377864358 -0.061370783410004404 0.03961948046348013 0.021754839561955275 -1.1940956155872825e-06 -0.06364903787349055 -1.8824145363721765 -1.811199177468991 1.166641997562607 0.6446617262059872 -3.5459639320029934e-05 -1.8824145389414033 -0.09675559409072218 -0.37162181049848086 -0.7392745350412362 -0.2178621449391687 -0.002728303208697229 -0.029574823978479384 -1.2704009504111822 -4.879394371845054 -6.884272325211 -0.9901834487485216 -0.012400138083528904 -0.1344175749821888 0.4597824215888977 -1.886172119771139 1.8938231468200684 -1.5784285704242151 -1.5707405249225062 0.4597824215888977 -0.06364903599023819 -0.06137078255414963 0.039619479328393936 0.02175484038889408 -1.1940956028411165e-06 -0.06364903599023819 -0.09675559401512146 -0.3716218173503876 -0.7392745614051819 -0.21786214411258698 -0.0027283031959086657 -0.02957482449710369 -0.09675559401512146 -0.3716218173503876 -0.7392745614051819 -0.21786214411258698 -0.0027283031959086657 -0.02957482449710369 -0.15000002585077543 -0.19965155117192498 0.29999998531661604 2.2213998366818246 2.221399835062438 -8.466823398916903e-08 -1.4920761580506504e-09 0.015840001230762197 2.379149111447642e-09 -7.77264812120326e-09 1.2397549001667348e-08 -8.789601571536007e-11 1.98350552430997e-07 2.548611238384686e-07 -1.1666864942220852e-06 -6.66797543971067e-08 1.0886939146010044e-07 -2.3644577598170085e-09 -0.15000000000001168 -0.199651519999983 0.2999999999999962 2.2214000003207657 2.221399999861814 4.073841541930814e-10 1.656335913033321e-14 0.01583999999997527 5.325639629787225e-15 -9.808211894835118e-13 -1.429252344528709e-12 4.607859233063394e-18

198613.952 0.45922672183940516 -1.8867078760752367 1.8941688026992511 -1.5782384621020924 -1.570740772718362 0.4592267213192949 -0.08155772050119385 -0.07857159284784336 0.05067823468771133 0.027897889008852643 -1.5325922836167393e-06 -0.08155772061264832 -2.238585339344757 -2.1501011797298695 1.3823442780289 0.7678811808621709 -4.23120835036821e-05 -2.2385853423947215 -0.11505288875939285 -0.38967281860940567 -0.7340751947912076 -0.2156698211671508 -0.003239423045503967 -0.03517066304606818 -1.510644429410828 -5.116404108341497 -6.8358550289346836 -0.9802193372047003 -0.01472317774181553 -0.15985066354437988 0.45922672748565674 -1.8867080847369593 1.8941688537597656 -1.578238312398092 -1.5707410017596644 0.45922672748565674 -0.08155772089958191 -0.07857159525156021 0.05067823454737663 0.02789788879454136 -1.5325922504416667e-06 -0.08155772089958191 -0.11505288630723953 -0.38967281579971313 -0.7340751886367798 -0.21566982567310333 -0.0032394230365753174 -0.03517066314816475 -0.11505288630723953 -0.38967281579971313 -0.7340751886367798 -0.21566982567310333 -0.0032394230365753174 -0.03517066314816475 -0.14999996467498364 -0.19951324300963652 0.3000000184852253 2.221400156101278 2.2214001544934563 1.0393296763406473e-07 2.9126643425915197e-09 0.020279997280778724 -3.1939323604430898e-09 7.634138395097006e-09 -1.398873041910881e-08 -1.1041882536213859e-10 -4.2152989007200356e-08 1.5550095486372233e-07 3.6502944285585836e-07 1.018946262606938e-08 -4.971827601023373e-08 -4.6155573350240106e-10 -0.1500000000000225 -0.199513279999967 0.2999999999999925 2.2214000003209025 2.221399999861678 4.1333136802351573e-10 3.7535419859910794e-14 0.0202799999999448 1.244464241321232e-14 -5.537708161768413e-13 -2.0566823117716895e-12 2.6698478497455547e-17

198613.96 0.45851951514978084 -1.8873888209233067 1.8946077567259314 -1.5779964319973239 -1.570740786021732 0.4585195146287433 -0.10257815797175057 -0.09871555139132317 0.06359803926547489 0.035123209376547 -1.9316277388947153e-06 -0.10257815810553479 -2.6275546838195902 -2.5179948179349756 1.6149755722204449 0.9031650459617943 -4.9879431909746996e-05 -2.6275546866108086 -0.1350302840569957 -0.4091691742628387 -0.7284629963330379 -0.21326558211319252 -0.003794360615987806 -0.04128180363186315 -1.7729476296683535 -5.372391258071072 -6.783593114452516 -0.9692920707044599 -0.017245368999664577 -0.18762579750681802 0.45851951837539673 -1.8873890081988733 1.8946077823638916 -1.577996555958883 -1.5707410017596644 0.45851951837539673 -0.10257815569639206 -0.09871555119752884 0.06359803676605225 0.03512321040034294 -1.9316278212500038e-06 -0.10257815569639206 -0.13503028452396393 -0.40916916728019714 -0.7284629940986633 -0.2132655829191208 -0.0037943606730550528 -0.0412818044424057 -0.13503028452396393 -0.40916916728019714 -0.7284629940986633 -0.2132655829191208 -0.0037943606730550528 -0.0412818044424057 -0.14999998949269738 -0.19933749591046443 0.30000004463687346 2.221400210204071 2.2214002086089937 -3.1563882878415443e-07 2.5823723247108408e-09 0.02547999849381758 -3.656070705788723e-09 3.549746234305848e-08 -5.729739225053883e-09 -1.3880621025280431e-10 2.5151336353309525e-07 2.6879887581677144e-07 1.1723739296078917e-07 -1.6196734707091366e-08 8.22780392811219e-09 -3.6849225110198677e-09 -0.1500000000000417 -0.19933751999993912 0.29999999999998567 2.2214000003217795 2.2213999998608003 4.044105470309112e-10 7.832753551414321e-14 0.025479999999884498 2.6432394560031206e-14 -7.399775043870481e-13 -2.071732189840552e-12 -6.244522368810401e-12

198613.968 0.4576351820952896 -1.8882392791552753 1.8951552768238 -1.577693444754229 -1.570740802696136 0.4576351815730332 -0.12698094664369325 -0.12203436477680145 0.07850872953515667 0.04353268571854773 -2.397387247198602e-06 -0.12698094682014419 -3.0503485839928346 -2.9148516731847853 1.8638362837102227 1.0511845427500914 -5.821993853798582e-05 -3.050348589326174 -0.15673870620860383 -0.4300821406283527 -0.7224530216761975 -0.21063885314165132 -0.004393166313781288 -0.04792436561452455 -2.0579792125189686 -5.646978506450271 -6.727627028453087 -0.9573535875288051 -0.019966940896135953 -0.21781624171801411 0.45763519406318665 -1.8882392088519495 1.8951553106307983 -1.577693287526266 -1.5707410017596644 0.45763519406318665 -0.1269809454679489 -0.12203436344861984 0.07850872725248337 0.043532684445381165 -2.3973873339855345e-06 -0.1269809454679489 -0.15673871338367462 -0.43008214235305786 -0.7224529981613159 -0.2106388509273529 -0.004393166396766901 -0.04792436584830284 -0.15673871338367462 -0.43008214235305786 -0.7224529981613159 -0.2106388509273529 -0.004393166396766901 -0.04792436584830284 -0.15000000008001732 -0.19911798483476287 0.29999996084000186 2.2214000746834954 2.22140007304965 4.897203486199064e-07 1.2887758235050527e-09 0.03149999978050896 2.474173873203845e-09 -1.9587925263735443e-08 -3.534110824205603e-08 -1.7170903067464938e-10 -2.985923877139149e-07 -1.0314517022056318e-06 9.74673287809156e-07 1.1644975181010075e-07 -9.021895880664905e-08 -1.0539614447395724e-09 -0.1500000000000735 -0.19911799999989258 0.2999999999999742 2.2214000003227587 2.2213999998624985 4.133313678122888e-10 1.5590990960540175e-13 0.03149999999977164 5.3933039746905634e-14 -1.7796127502329389e-12 -1.2324714021849236e-12 3.3452711222870316e-12

198613.976 0.456545890983606 -1.8892852660463646 1.8958276013825728 -1.5773197219514312 -1.5707408232947664 0.45654589045990596 -0.15504705945627392 -0.14875943367603592 0.09553310215377284 0.05323493714660767 -2.9366467260659808e-06 -0.15504705966014937 -3.508264101572584 -3.3406336124043086 2.128046577327021 1.212781428507493 -6.740743485842237e-05 -3.5082641050006473 -0.18024269839974405 -0.4523791034537233 -0.7160643540041093 -0.20777641799938182 -0.005035916573032429 -0.05511872716078795 -2.3665866299886393 -5.939737628347387 -6.668134477357067 -0.9443438198071904 -0.02288824082443239 -0.2505146149457812 0.456545889377594 -1.8892853895770472 1.8958276510238647 -1.5773199240313929 -1.5707410017596644 0.456545889377594 -0.15504705905914307 -0.14875943958759308 0.0955331027507782 0.05323493853211403 -2.9366467515501427e-06 -0.15504705905914307 -0.18024270236492157 -0.45237910747528076 -0.7160643339157104 -0.20777641236782074 -0.005035916343331337 -0.055118728429079056 -0.18024270236492157 -0.45237910747528076 -0.7160643339157104 -0.20777641236782074 -0.005035916343331337 -0.055118728429079056 -0.1500000014860296 -0.19884798404779197 0.30000002988455765 2.2214001833441603 2.2214001817426703 -3.193102585108424e-07 3.0033821448130406e-09 0.038400000330343576 -3.229167981718803e-09 4.8869276241570926e-08 -2.449985846604094e-09 -2.0948458450493947e-10 -4.174933278873317e-07 -9.389208937620939e-07 7.520510991527797e-07 9.485123961963201e-08 -6.837054020632936e-08 -5.757648022638832e-09 -0.15000000000012498 -0.1988479999998178 0.2999999999999557 2.221400000321493 2.2213999998610867 4.1035776063088447e-10 2.934842141155734e-13 0.03839999999957023 1.0346499054656521e-13 -3.073225170646807e-12 -3.352489651238859e-12 -7.136576987460015e-12

198613.984 0.4552215196768353 -1.890554646729531 1.896641922417777 -1.5768645888131214 -1.5707408484275165 0.455221519151368 -0.18707039382801233 -0.17912175125485671 0.11478524289406392 0.06434688668332293 -3.556930847102612e-06 -0.18707039407829357 -4.0029167964673 -3.7952896973525996 2.406517592536385 1.3889936920894073 -7.753551512957891e-05 -4.002916802268025 -0.20562285835480698 -0.47602310641155654 -0.7093207353714853 -0.20466202862128363 -0.005722719276166012 -0.06289027064896653 -2.6998281301986156 -6.250183387183737 -6.605336551926347 -0.9301889200837342 -0.026009759110174523 -0.28583628009955286 0.4552215337753296 -1.8905547300921839 1.8966419696807861 -1.5768645445453089 -1.5707410017596644 0.4552215337753296 -0.18707039952278137 -0.17912174761295319 0.11478524655103683 0.06434688717126846 -3.5569307783589466e-06 -0.18707039952278137 -0.2056228518486023 -0.4760231077671051 -0.7093207240104675 -0.204662024974823 -0.005722719244658947 -0.06289026886224747 -0.2056228518486023 -0.4760231077671051 -0.7093207240104675 -0.204662024974823 -0.005722719244658947 -0.06289026886224747 -0.14999998484564697 -0.19852030208445634 0.3000000006155961 2.2214001015956275 2.221400099972251 9.062663221718051e-08 1.2075252312845097e-09 0.04623999817119742 -5.392650016792472e-09 1.4660414084873522e-08 -3.3430061137693966e-08 -2.5248334061770284e-10 -4.532342264833276e-07 2.3822759425628395e-08 4.1598930428882254e-07 6.502543247815443e-09 -5.405976550061879e-08 8.123141580573319e-09 -0.1500000000002056 -0.19852031999970152 0.29999999999992594 2.221400000320001 2.2213999998599014 4.0738415352020133e-10 5.305861187491122e-13 0.04623999999922561 1.8847448496690088e-13 -1.6516704765892961e-12 -1.7620023121394035e-12 -3.791245732609992e-12

198613.992 0.453629542240756 -1.8920771324796828 1.8976163094584129 -1.5763164018077518 -1.570740878767463 0.4536295417131343 -0.22336074497466749 -0.21335176758311702 0.13636860627776046 0.07699554617262401 -4.2666752597777875e-06 -0.22336074527727645 -4.536293893331894 -4.278752041032539 2.6979204229620675 1.5810824361626348 -8.871805158439692e-05 -4.53629389987286 -0.2329785881812824 -0.5009722978431107 -0.702251277519696 -0.20127599840768523 -0.006453719283757083 -0.07127021749355805 -3.059008862820238 -6.577766270680043 -6.539504346518913 -0.9147994127629293 -0.029332154144675944 -0.32392313850822135 0.4536295533180237 -1.8920772711383265 1.8976162672042847 -1.5763161818133753 -1.5707410017596644 0.4536295533180237 -0.22336074709892273 -0.213351771235466 0.13636860251426697 0.07699554413557053 -4.2666752051445656e-06 -0.22336074709892273 -0.23297858238220215 -0.5009722709655762 -0.7022512555122375 -0.2012760043144226 -0.0064537194557487965 -0.07127021998167038 -0.23297858238220215 -0.5009722709655762 -0.7022512555122375 -0.2012760043144226 -0.0064537194557487965 -0.07127021998167038 -0.14999997072142193 -0.19812725725004693 0.30000002457438407 2.2214000741307207 2.2214000725001775 1.2137393867734088e-07 5.101250842469681e-09 0.05507999459871474 -4.715049558818606e-09 5.006987302997505e-11 -2.002202447405018e-08 -3.0108759363207775e-10 5.50996915530573e-07 1.1600121331343657e-06 1.0924877583401513e-06 -4.307733607370074e-08 -6.31549888019468e-08 -1.1307645221551184e-08 -0.1500000000003286 -0.1981272799995258 0.29999999999987964 2.221400000320418 2.221399999862162 4.073841534977859e-10 9.246758912924312e-13 0.05507999999865688 3.335040732688141e-13 2.655423908220707e-13 -2.6554054097573297e-13 -1.5937771935536915e-17

198614.0 0.45173489018433066 -1.8938842757613195 1.8987696171690895 -1.5756624612167895 -1.570740915058919 0.4517348896541459 -0.2642472570996386 -0.251679209563811 0.16037382887645218 0.09132002303542847 -5.075445718810945e-06 -0.26424725745657746 -5.110814015621388 -4.790930247586749 3.000652824836466 1.790559607850557 -0.00010109630737914468 -5.110814022412625 -0.2624312074764702 -0.5271792648161944 -0.6948912269052008 -0.19759478457142848 -0.007229104128592399 -0.08029656697434946 -3.4457217541660534 -6.921863747036632 -6.47096608318661 -0.8980682958771424 -0.032856278264452456 -0.36494789689841833 0.45173490047454834 -1.8938844839679163 1.8987696170806885 -1.5756624380694788 -1.5707410017596644 0.45173490047454834 -0.26424726843833923 -0.2516792118549347 0.16037382185459137 0.09132002294063568 -5.075445642432896e-06 -0.26424726843833923 -0.26243120431900024 -0.5271792411804199 -0.6948912143707275 -0.1975947916507721 -0.007229104172438383 -0.08029656857252121 -0.26243120431900024 -0.5271792411804199 -0.6948912143707275 -0.1975947916507721 -0.007229104172438383 -0.08029656857252121 -0.1499999716248503 -0.1976607008694251 0.3000000441134162 2.221400101705334 2.2214001000799186 -2.2977606677300466e-07 2.3304438678784994e-09 0.06497999462908151 -9.475097957106588e-09 4.991061938905131e-08 9.205685583186423e-09 -3.5567498886434137e-10 6.603980776244031e-07 1.0981854101618294e-06 7.034902290161315e-07 -4.98630480785396e-08 -2.896455583437363e-08 -7.264546984876924e-09 -0.15000000000051175 -0.19766071999926688 0.2999999999998086 2.221400000320758 2.221399999861822 4.133313673020845e-10 1.5601671813555681e-12 0.06497999999774756 5.718709059512755e-13 -3.1389220955258024e-13 -3.501557365911333e-12 -7.036472099430924e-17

198614.008 0.4494997842557686 -1.896009463631085 1.9001213745119938 -1.574888906887347 -1.5707409581273835 0.4494997837226265 -0.31008241342426585 -0.2943328411593491 0.18687625765199087 0.1074737522963177 -5.994198996118134e-06 -0.3100824138327175 -5.729394540578407 -5.331703949442261 3.3128035969423353 2.019216157611154 -0.00011484415966339867 -5.729394547017506 -0.2941274931566682 -0.554590222606402 -0.6872827855587053 -0.19359056652155154 -0.008049109602626912 -0.09001515432758615 -3.8618939851470535 -7.2817696228220585 -6.400114755679776 -0.8798691248404518 -0.036583203143939313 -0.40911887641887906 0.44949978590011597 -1.8960092703448694 1.9001213312149048 -1.5748890081988733 -1.5707410017596644 0.44949978590011597 -0.31008240580558777 -0.2943328320980072 0.18687625229358673 0.10747375339269638 -5.994199000269873e-06 -0.31008240580558777 -0.294127494096756 -0.5545902252197266 -0.6872828006744385 -0.19359056651592255 -0.00804910995066166 -0.09001515060663223 -0.294127494096756 -0.5545902252197266 -0.6872828006744385 -0.19359056651592255 -0.00804910995066166 -0.09001515060663223 -0.15000003771291404 -0.19711201462808453 0.29999997890713215 2.2214000186960288 2.2214000170505566 9.519029619797854e-08 -3.7143518963779005e-09 0.07600001034208888 1.262785957215838e-08 -5.631004255928164e-09 -2.3070314739732962e-08 -4.1662408684648225e-10 1.5326757885744004e-07 2.3183201957856442e-07 -6.592174480803632e-07 -4.487319504907265e-08 6.256148598474707e-08 1.6907283056321852e-08 -0.15000000000077882 -0.19711199999889445 0.29999999999970184 2.2214000003229866 2.221399999862271 4.103577601922695e-10 2.5580425865885865e-12 0.07599999999633433 9.57298400871835e-13 -8.406671759024624e-13 -3.176119221826186e-12 -8.920814445218667e-12

198614.016 0.4468835322378008 -1.8984879089470255 1.9016916531032073 -1.5739805953710775 -1.5707410088915301 0.4468835317011862 -0.3440444154492828 -0.3252763272075817 0.20565064209350792 0.11964471686091456 -6.700529660865493e-06 -0.34404441590597473 -4.245250253127122 -3.8679357560290755 2.3467980551896312 1.5213705705746077 -8.829133309341987e-05 -4.245250259157153 -0.2178750163727383 -0.47239526271780324 -0.7105284303604446 -0.2025325499314391 -0.00584882691607619 -0.06669759851609126 -2.8606989649740537 -6.202549799484757 -6.6165828492025325 -0.9205104394383907 -0.026582918333566283 -0.3031405852556348 0.44688352942466736 -1.8984878698932093 1.9016916751861572 -1.5739806334124964 -1.5707410017596644 0.44688352942466736 -0.34404441714286804 -0.32527631521224976 0.20565064251422882 0.11964471638202667 -6.700529866066063e-06 -0.34404441714286804 -0.21787501871585846 -0.47239527106285095 -0.7105284333229065 -0.2025325447320938 -0.005848826840519905 -0.06669759750366211 -0.21787501871585846 -0.47239527106285095 -0.7105284333229065 -0.2025325447320938 -0.005848826840519905 -0.06669759750366211 -0.15000000668239155 -0.1964720031610016 0.29999998805370676 2.221399990738165 2.22139998908385 3.090603077199651e-08 -3.4399439790238354e-09 0.08400000134388427 2.0113669360295673e-10 -3.0712241730789787e-09 -1.1989747105191613e-08 -4.6128826713259796e-10 -2.4671428642769653e-07 -4.975735780483128e-07 -2.415814426583101e-07 2.1937413168501908e-08 1.984556237161033e-08 4.601577864226789e-09 -0.1500000000011611 -0.19647199999836998 0.2999999999995435 2.221400000319756 2.2213999998601466 4.1035775990316297e-10 3.893440876606736e-12 0.08399999999447225 1.4909424069730723e-12 -4.1833511881623485e-12 -3.849683128961176e-12 -4.460549524144472e-12

198614.024 0.44399399745995943 -1.9012138471717908 1.9034110664373518 -1.572973910719564 -1.57074106539834 0.4439939969195164 -0.37840999897757754 -0.3562056659320078 0.22415564348688385 0.13207093383342391 -7.4302872495648275e-06 -0.37840999947796794 -4.29569794103684 -3.866167340553263 2.313125174171992 1.5532771215636694 -9.121969858741678e-05 -4.295697946499151 -0.22041745561889095 -0.46971871313808583 -0.7112804020900293 -0.20203859355884926 -0.005853384030591708 -0.06749018773721999 -2.894081192276038 -6.167406703503067 -6.623585360342771 -0.9182654077249698 -0.026603630419039313 -0.30674290326566483 0.4439939856529236 -1.9012139479266565 1.9034110307693481 -1.5729740301715296 -1.5707410017596644 0.4439939856529236 -0.3784100115299225 -0.35620567202568054 0.22415564954280853 0.13207092881202698 -7.430287041643169e-06 -0.3784100115299225 -0.22041745483875275 -0.46971872448921204 -0.7112804055213928 -0.20203858613967896 -0.005853383801877499 -0.06749019026756287 -0.22041745483875275 -0.46971872448921204 -0.7112804055213928 -0.20203858613967896 -0.005853383801877499 -0.06749019026756287 -0.14999999808704872 -0.19576800198820285 0.3000000429656645 2.2214000190883136 2.221400017443006 -4.117841842979221e-07 -9.878436750074706e-10 0.09200000113212953 -8.303065520284266e-09 7.492032140694358e-08 6.790642104550907e-08 -5.061950228283426e-10 -4.171240620385829e-07 -5.527783626790586e-07 -3.093156718093578e-07 2.0386231123325895e-08 2.0573352560178064e-08 -1.1500423756934327e-08 -0.15000000000157337 -0.19576799999781486 0.29999999999936566 2.221400000321656 2.221399999863601 4.0738415289656267e-10 5.804697404062635e-12 0.09199999999184993 2.2825510831043792e-12 6.628771075362205e-13 -6.628012331388739e-13 -4.4605842999291545e-12

198614.03199999998 0.44082778461324607 -1.9041871550062064 1.9052773561961567 -1.5718667177739434 -1.570741127845519 0.44082778406859574 -0.4132209761704935 -0.38711826779738623 0.24236544107314567 0.14477563600760224 -8.18607496306454e-06 -0.4132209767189369 -4.351372149114497 -3.8640752331723025 2.276224698282727 1.5880877717722903 -9.447346418746405e-05 -4.3513721551211235 -0.22322877196916835 -0.46678907912815726 -0.7121063106685401 -0.20150064907101625 -0.005858619888139653 -0.06836489141490298 -2.9309937759551805 -6.128940608952705 -6.631276386207579 -0.9158204500277688 -0.026627427391594717 -0.3107184314807341 0.44082778692245483 -1.904187027608053 1.9052773714065552 -1.571866814290182 -1.5707410017596644 0.44082778692245483 -0.41322097182273865 -0.38711827993392944 0.24236543476581573 0.1447756290435791 -8.186075319827069e-06 -0.41322097182273865 -0.22322876751422882 -0.4667890667915344 -0.7121062874794006 -0.20150065422058105 -0.005858619697391987 -0.06836488842964172 -0.22322876751422882 -0.4667890667915344 -0.7121062874794006 -0.20150065422058105 -0.005858619697391987 -0.06836488842964172 -0.15000001822871623 -0.1950000205732823 0.2999999758125687 2.2213999060048453 2.2213999043272716 1.652516292937885e-09 -7.518130471454947e-09 0.10000000715678231 1.648707719256683e-08 -5.029939390710232e-08 6.19665065369359e-08 -5.513230360253401e-10 -3.4693794700393644e-08 4.353421244165111e-07 1.1225449686691352e-06 1.6000220578758745e-08 -1.1028454329726319e-07 1.3573261270830567e-08 -0.1500000000020153 -0.1949999999972332 0.2999999999991666 2.221400000322187 2.2213999998603926 4.1333136654424435e-10 7.866327675959654e-12 0.09999999998907426 3.171966460602128e-12 -2.1875696673523157e-12 -5.84457290002982e-12 3.4423418976414766e-18

198614.03999999998 0.43738116023007684 -1.907407686944575 1.9072880573152442 -1.570656696823363 -1.5707411964522793 0.4373811596809245 -0.448520088437525 -0.4180111624525913 0.2602541684383698 0.15778172098806328 -8.970644100022955e-06 -0.4485200890205031 -4.412389033378934 -3.8616118319006327 2.236090920653015 1.6257606225576309 -9.807114211980189e-05 -4.412389037695773 -0.22631585435403404 -0.4636036570179958 -0.7130061168596344 -0.20091940300571942 -0.0058645257507361215 -0.06932353443668693 -2.9715271676684667 -6.087116016646284 -6.639655561420288 -0.9131786866609947 -0.02665426953709567 -0.31507546401474207 0.43738114833831787 -1.907407585774557 1.9072880744934082 -1.5706566015826624 -1.5707410017596644 0.43738114833831787 -0.44852009415626526 -0.4180111587047577 0.2602541744709015 0.157781720161438 -8.970643648353871e-06 -0.44852009415626526 -0.22631585597991943 -0.4636036455631256 -0.7130061388015747 -0.20091940462589264 -0.005864525679498911 -0.06932353228330612 -0.22631585597991943 -0.4636036455631256 -0.7130061388015747 -0.20091940462589264 -0.005864525679498911 -0.06932353228330612 -0.1500000007901961 -0.19416801510387013 0.2999999646743008 2.2213998200174387 2.2213998183200587 2.114998327406709e-07 -8.031943781453071e-09 0.107999999862363 7.1824296747120546e-09 -1.1997937960978494e-07 3.041397355595366e-08 -5.967317364796287e-10 8.609018948744679e-07 1.0372561823320154e-06 -9.237754876357504e-07 -1.1493911726271718e-07 1.3539532829905e-07 9.776691325297616e-09 -0.15000000000248673 -0.1941679999966282 0.29999999999894417 2.2214000003200383 2.2213999998598646 4.1035775941009565e-10 1.0075893236491803e-11 0.10799999998616593 4.167193066297367e-12 -2.984259536933413e-12 -1.031991713100891e-12 -8.920671140796518e-12

198614.04799999998 0.433650044915892 -1.9108752720237918 1.9094404976037038 -1.5693413464753974 -1.5707412714601903 0.4336500443618728 -0.4843510900559604 -0.44888094685663354 0.2777959097794179 0.17111170308958917 -9.786848857401107e-06 -0.48435109068668064 -4.478875202304423 -3.8587230505052816 2.1927176676310167 1.6662477626907362 -0.000102025594672269 -4.478875208272191 -0.2296862339610176 -0.46015938194067363 -0.7139797646049727 -0.20029563930272012 -0.005871092213540251 -0.07036810604996531 -3.015780251908161 -6.041892684881045 -6.648722363954428 -0.910343680630863 -0.026684114110540436 -0.3198230419970923 0.43365004658699036 -1.91087514558901 1.909440517425537 -1.5693414847003382 -1.5707414785968226 0.43365004658699036 -0.48435109853744507 -0.4488809406757355 0.2777959108352661 0.17111170291900635 -9.786848750081845e-06 -0.48435109853744507 -0.22968623042106628 -0.46015939116477966 -0.7139797806739807 -0.20029564201831818 -0.005871092434972525 -0.07036810368299484 -0.22968623042106628 -0.46015939116477966 -0.7139797806739807 -0.20029564201831818 -0.005871092434972525 -0.07036810368299484 -0.15000003260532813 -0.19327199679768392 0.29999997839872206 2.2214001364750215 2.221400134789766 1.2434935978161172e-07 -1.5717683822088283e-09 0.11600001654448262 1.1405325216085887e-08 4.159476552014788e-08 -9.908706199155458e-08 -6.29667776144531e-10 -1.821396863923299e-07 1.4688464647499164e-07 -6.436758802024358e-07 -3.084336299495729e-08 2.331008258455467e-08 1.075564202003075e-08 -0.15000000000298747 -0.1932719999960036 0.29999999999869637 2.2214000003205006 2.2213999998594023 4.0738415243461296e-10 1.243293296695955e-11 0.115999999983141 5.279397368184482e-12 2.3928144011533486e-13 -2.397339957884153e-13 -4.460595196160988e-12

198614.05599999998 0.42963000491147857 -1.9145897101380251 1.9117317973354722 -1.5679179869329811 -1.570741353134184 0.4296300043522115 -0.5207588318554722 -0.47972372845022687 0.29496469658320446 0.18478765977896716 -1.0637678150456178e-05 -0.5207588325337185 -4.55096772493898 -3.8553476991991658 2.146098350473316 1.7094945861722486 -0.00010635366163188391 -4.550967730879727 -0.23334809127757786 -0.4564527957414892 -0.7150271765558179 -0.19963025012910537 -0.005878309299921205 -0.0715007596829326 -3.063860438474597 -5.993225208085754 -6.658476073523088 -0.907319486836784 -0.026716915768141874 -0.3249709527589287 0.42963001132011414 -1.9145897070514124 1.9117318391799927 -1.5679181257831019 -1.5707414785968226 0.42963001132011414 -0.5207588076591492 -0.47972372174263 0.2949647009372711 0.18478766083717346 -1.0637678315106314e-05 -0.5207588076591492 -0.233348086476326 -0.45645278692245483 -0.7150271534919739 -0.1996302455663681 -0.00587830925360322 -0.071500763297081 -0.233348086476326 -0.45645278692245483 -0.7150271534919739 -0.1996302455663681 -0.00587830925360322 -0.071500763297081 -0.15000001071277394 -0.19231199512546446 0.29999999868564803 2.2214001072299596 2.2214001055352965 -6.923651536168646e-08 4.9085647605159386e-09 0.12400000165226199 -2.491307390783648e-09 7.672794565834399e-08 -5.004463560695176e-08 -6.746609397447617e-10 -1.6289328857525574e-07 1.019408874492189e-07 9.102117423122716e-07 1.5567083357067063e-08 -6.502362803887437e-08 -1.6422969502906586e-08 -0.15000000000351774 -0.1923119999953632 0.2999999999984207 2.2214000003202385 2.221399999859664 4.0441054548796703e-10 1.4936779746497358e-11 0.12399999998001815 6.51835719293988e-12 -4.543295159789749e-13 4.538833307199224e-13 -1.1584700213007615e-16

198614.06399999998 0.42531624298628457 -1.9185507678770195 1.914158868815818 -1.5663837637227296 -1.5707414417637535 0.4253162424213904 -0.5577893447318085 -0.5105350628176796 0.3117345047828044 0.19883117220596844 -1.1526279502623595e-05 -0.5577893454573133 -4.628814109542037 -3.8514167959315877 2.096226024949993 1.7554390533751594 -0.00011107516902092713 -4.628814115449353 -0.2373102622592551 -0.4524800112715711 -0.7161482491457305 -0.19892424761335395 -0.005886166388143323 -0.0727238128805043 -3.11588374346402 -5.941062547995729 -6.6689157256948715 -0.9041107054026937 -0.026752626234111405 -0.33052972954189197 0.4253162443637848 -1.9185507933246058 1.914158821105957 -1.5663836638080042 -1.5707414785968226 0.4253162443637848 -0.5577893257141113 -0.5105350613594055 0.31173449754714966 0.19883117079734802 -1.1526279195095412e-05 -0.5577893257141113 -0.2373102605342865 -0.4524800181388855 -0.7161482572555542 -0.1989242434501648 -0.0058861663565039635 -0.07272381335496902 -0.2373102605342865 -0.4524800181388855 -0.7161482572555542 -0.1989242434501648 -0.0058861663565039635 -0.07272381335496902 -0.1499999936167991 -0.19128799411581235 0.30000001120194947 2.2214000186584086 2.221400016940867 6.012822006721529e-08 7.875133375399585e-09 0.1319999941645255 -1.0151991502122739e-09 -8.082680124617496e-09 -1.8327947845904656e-08 -7.199175423551821e-10 -1.9517712143023314e-07 -1.1229803250245919e-07 -4.418897678385414e-07 -1.4042019950302553e-08 3.5663584685619894e-08 -2.158501983583567e-09 -0.15000000000407743 -0.19128799999471094 0.29999999999811455 2.2214000003226877 2.221399999859892 4.073841524426674e-10 1.7588056652085705e-11 0.13199999997681602 7.896727236412672e-12 -6.126450954584588e-14 6.123885406600023e-14 4.460170405749808e-12

198614.072 0.4207035886654035 -1.922758173842107 1.9167184159279922 -1.5647356519258242 -1.5707415376641576 0.42070358809456493 -0.5954899226407075 -0.5413098853464251 0.32807925265536864 0.2132632589428988 -1.245595449458141e-05 -0.595489923404224 -4.712572238612378 -3.846852816093191 2.0430934840705293 1.804010842116295 -0.00011620937399472675 -4.712572243363841 -0.2415822428034123 -0.4482366735751068 -0.7173428464994094 -0.1981787773149779 -0.005894652093869683 -0.07403974613462745 -3.171974848008804 -5.885347524041153 -6.6800400551717996 -0.9007225428965745 -0.02679119376663771 -0.33651064618188176 0.42070358991622925 -1.9227584044085901 1.9167183637619019 -1.5647357145892542 -1.5707414785968226 0.42070358991622925 -0.5954899191856384 -0.5413098931312561 0.3280792534351349 0.21326325833797455 -1.245595467480598e-05 -0.5954899191856384 -0.2415822446346283 -0.4482366740703583 -0.7173428535461426 -0.19817878305912018 -0.005894652102142572 -0.0740397498011589 -0.2415822446346283 -0.4482366740703583 -0.7173428535461426 -0.19817878305912018 -0.005894652102142572 -0.0740397498011589 -0.14999997514504165 -0.19019999446524954 0.3000000704019758 2.2214000490330954 2.2214000473233373 -5.395473427954432e-07 7.135940149661288e-09 0.1399999862382316 -2.712509114523372e-08 1.7026843293492027e-07 1.2305314291425393e-07 -7.65480039001832e-10 2.1028411282902118e-07 -4.749050411891207e-09 -1.864427850253106e-07 4.51752009956199e-09 7.901412319872311e-09 -1.6664528664722012e-08 -0.15000000000466673 -0.19019999999405124 0.29999999999777544 2.2214000003220358 2.2213999998605445 4.103577592653707e-10 2.0386611310079476e-11 0.1399999999735547 9.427424985498848e-12 -3.735086235618157e-12 -2.8114030149206613e-13 1.205632815803881e-16

198614.08 0.41578648779632016 -1.9272116133893924 1.9194069336664723 -1.5629704609682982 -1.5707416411778432 0.41578648721923456 -0.6339092045874596 -0.5720424362744142 0.34397279962745586 0.22810430223301237 -1.343019310845801e-05 -0.6339092053885917 -4.802410243344005 -3.8415688659986373 1.986693371510903 1.8551304112641962 -0.00012177982673457506 -4.802410248045966 -0.24617419070905386 -0.44371791719259246 -0.7186107935190557 -0.19739513308424797 -0.005903754278644144 -0.07545120100818883 -3.232267124009877 -5.826016252738739 -6.691847431408151 -0.8971608798679069 -0.026832563196437634 -0.34292570858221827 0.415786474943161 -1.9272115866290491 1.9194068908691406 -1.5629704634295862 -1.5707414785968226 0.415786474943161 -0.6339092254638672 -0.5720424652099609 0.3439728021621704 0.22810430824756622 -1.3430192666419316e-05 -0.6339092254638672 -0.2461741864681244 -0.44371792674064636 -0.7186108231544495 -0.19739513099193573 -0.005903754383325577 -0.07545120269060135 -0.2461741864681244 -0.44371792674064636 -0.7186108231544495 -0.19739513099193573 -0.005903754383325577 -0.07545120269060135 -0.15000000400825853 -0.18904801331551924 0.3000000072717032 2.2213998984911245 2.2213998967451762 -1.189388050475129e-07 -5.227329025710475e-09 0.14800000695155358 8.410029805433273e-09 -3.913862991558207e-08 1.176657256369114e-07 -8.112372716401368e-10 2.2008527324431274e-08 3.4792962199100443e-07 -1.3400064596508948e-06 -7.89711658513572e-08 1.1493058077771772e-07 -7.654627597641834e-09 -0.15000000000528563 -0.18904799999338884 0.2999999999974004 2.2214000003217724 2.2213999998608074 4.103577591107529e-10 2.3332879379817533e-11 0.14799999997025629 1.1123021191943457e-11 -2.7571589546152043e-12 -1.259619305370962e-12 -4.460609182369013e-12

198614.088 0.41055899146547464 -1.9319107227450623 1.9222207076653666 -1.561084840034506 -1.5707417526758531 0.41055899088181325 -0.673097255063769 -0.6027261785589584 0.35938894629089213 0.24337396582033582 -1.4452664556693182e-05 -0.673097255906503 -4.898506309538683 -3.8354677855680226 1.9270183329295336 1.9087079484154321 -0.00012780893102939646 -4.8985063147389125 -0.25109692467928474 -0.43891831990910946 -0.7199518676799043 -0.1965747737537587 -0.005913459894403443 -0.07696097698934247 -3.296902621039009 -5.762997540406607 -6.704335782208805 -0.8934323467108332 -0.026876675220063647 -0.3497876404165615 0.4105589985847473 -1.931910816823141 1.9222207069396973 -1.561085049306051 -1.5707419554339808 0.4105589985847473 -0.6730972528457642 -0.60272616147995 0.35938894748687744 0.24337396025657654 -1.4452664800046477e-05 -0.6730972528457642 -0.2510969340801239 -0.4389183223247528 -0.719951868057251 -0.19657477736473083 -0.005913459695875645 -0.0769609734416008 -0.2510969340801239 -0.4389183223247528 -0.719951868057251 -0.19657477736473083 -0.005913459695875645 -0.0769609734416008 -0.1500000082898689 -0.18783198713772334 0.30000003806555064 2.221400213094609 2.2214002113612943 -3.274546107238023e-07 6.088340204488818e-09 0.1560000049717016 -1.647162701819328e-08 2.4720540288734404e-07 -5.5101901095788975e-08 -8.397913307139383e-10 1.305855006162411e-07 -5.518518787037853e-07 6.145966665318473e-08 5.4667925459054736e-08 -8.802682427480266e-09 1.6127097753472408e-08 -0.15000000000593447 -0.18783199999272893 0.29999999999698623 2.221400000319899 2.2213999998600036 4.1035775896022504e-10 2.6427621976259997e-11 0.1559999999669443 1.2998235968064757e-11 -2.3622406862617416e-12 -1.6540870308845227e-12 -4.460457123014322e-12

198614.096 0.40501474428007395 -1.9368550824326363 1.9251558137325402 -1.5590752841743907 -1.5707418725594469 0.4050147436895061 -0.7131056421767089 -0.6333537078943379 0.3743014358850072 0.2590911034862242 -1.5527251982678676e-05 -0.7131056430604791 -5.001048389117482 -3.828441166922436 1.864061199264383 1.964642208236049 -0.0001343234282481868 -5.001048394247004 -0.2563619190435491 -0.4338318522828498 -0.7213657896909368 -0.19571934156403129 -0.00592375499295987 -0.07857202699405848 -3.3660319970417993 -5.696212220473818 -6.717502506759942 -0.8895444074085221 -0.02692346644300261 -0.35710986268799577 0.4050147533416748 -1.9368551413165491 1.925155758857727 -1.559075180684225 -1.5707419554339808 0.4050147533416748 -0.7131056189537048 -0.6333537101745605 0.3743014335632324 0.2590911090373993 -1.552725188957993e-05 -0.7131056189537048 -0.2563619315624237 -0.4338318407535553 -0.7213658094406128 -0.19571934640407562 -0.0059237550012767315 -0.07857202738523483 -0.2563619315624237 -0.4338318407535553 -0.7213658094406128 -0.19571934640407562 -0.0059237550012767315 -0.07857202738523483 -0.14999998919006213 -0.18655199005392012 0.3000000199945901 2.221400058085437 2.221400056314428 3.376422788223966e-08 1.4277053218570736e-08 0.16399999140635543 -7.841669140607218e-09 3.039215480804241e-08 -5.230558393289117e-08 -8.850144377113914e-10 1.1452947909672413e-06 3.1665970596640913e-07 -7.731004042407913e-07 -4.330457123496537e-08 1.3421164187986657e-07 -1.7852464357933356e-09 -0.15000000000661295 -0.1865519999920772 0.29999999999652965 2.221400000321731 2.2213999998608487 4.1333136588894116e-10 2.967163058182457e-11 0.16399999996364473 1.5069084009858016e-11 4.4823991153960016e-13 -4.4839483753998925e-13 -4.460068544955703e-12

198614.104 0.3991469720368402 -1.9420442099468653 1.9282081174027679 -1.5569381411832177 -1.570742001261749 0.39914697143906996 -0.7539875126118668 -0.6639166542341123 0.3886839576233142 0.27527365723047514 -1.665804892060933e-05 -0.7539875135315418 -5.110233804394737 -3.820368292471801 1.797815217288376 2.022819218031366 -0.00014134961724133167 -5.110233808882842 -0.2619812935036823 -0.42845182318894015 -0.7228522126081588 -0.19483068268774775 -0.005934624572327048 -0.08028745117511488 -3.439814383703349 -5.625572438470785 -6.731344374249696 -0.8855054528158134 -0.02697286868122643 -0.36490646559089707 0.3991469740867615 -1.9420440832721155 1.9282081127166748 -1.5569379965411585 -1.5707419554339808 0.3991469740867615 -0.7539874911308289 -0.6639166474342346 0.388683944940567 0.2752736508846283 -1.6658048480167054e-05 -0.7539874911308289 -0.2619812786579132 -0.4284518361091614 -0.7228522300720215 -0.19483068585395813 -0.005934624467045069 -0.08028744906187057 -0.2619812786579132 -0.4284518361091614 -0.7228522300720215 -0.19483068585395813 -0.005934624467045069 -0.08028744906187057 -0.15000000488047255 -0.18520800658800243 0.2999999624251002 2.221399899949961 2.2213998981466148 3.612485966946569e-07 -3.1584760056389887e-09 0.17199999982331257 2.2111754979486438e-08 -2.0341623040001553e-07 -3.502717044179553e-08 -9.305006371538097e-10 -5.922077736531737e-07 6.323030198732086e-07 -6.910469487826551e-07 -6.867633475444442e-08 -7.233522208354241e-09 9.602128843852332e-09 -0.15000000000732147 -0.18520799999143991 0.2999999999960273 2.221400000321156 2.2213999998614242 4.1035775880927296e-10 3.3063946873873895e-11 0.1719999999603861 1.735191789901666e-11 -2.300262040615903e-12 -1.7158264832603455e-12 -8.920950187330662e-12

198614.112 0.39294846880745443 -1.9474775516033525 1.931373273526067 -1.5546696193408787 -1.5707421392497016 0.39294846820213825 -0.7957976623102265 -0.6944055740823658 0.4025101522372307 0.29193854400556646 -1.7849406465319324e-05 -0.7957976632739392 -5.226268712294965 -3.811114981031691 1.7282743267395608 2.0831108468864143 -0.00014891969308874928 -5.226268717799673 -0.26796779618681593 -0.42277082083997936 -0.7244107094128034 -0.1939108699135847 -0.0059460525913874965 -0.08211048852187487 -3.518417163932893 -5.550980877628929 -6.745857408193909 -0.8813249037572424 -0.027024809027856173 -0.37319217033192126 0.3929484784603119 -1.9474776426898401 1.9313732385635376 -1.5546696821795862 -1.5707419554339808 0.3929484784603119 -0.7957976460456848 -0.6944055557250977 0.4025101661682129 0.29193854331970215 -1.7849406503955834e-05 -0.7957976460456848 -0.2679677903652191 -0.42277082800865173 -0.7244107127189636 -0.1939108669757843 -0.005946052726358175 -0.08211048692464828 -0.2679677903652191 -0.42277082800865173 -0.7244107127189636 -0.1939108669757843 -0.005946052726358175 -0.08211048692464828 -0.14999998729621683 -0.18380001320159997 0.30000003483050575 2.2213999319755935 2.221399930176391 -3.841572952960326e-07 -7.616069164939046e-09 0.17999998900249087 -2.2374599142141355e-08 9.494752397366832e-08 1.6349241345706984e-07 -9.761268886286992e-10 -4.1120959528369336e-07 5.410787142795898e-08 -2.012292109733989e-07 -1.668799110710459e-08 -5.713778847227655e-09 7.258942878118494e-09 -0.1500000000080596 -0.18379999999082397 0.2999999999954758 2.2214000003220105 2.2213999998605694 4.103577586618096e-10 3.660667913388988e-11 0.17999999995719962 1.9863908724943105e-11 -1.437300583397163e-12 -2.579347132698353e-12 -4.460020785850005e-12

198614.12 0.38641158347979415 -1.9531544734872046 1.9346467259108182 -1.5522657961070845 -1.570742287025972 0.386411582866613 -0.8385926015857763 -0.724809832824524 0.4157536202012942 0.30910152980184835 -1.910591766203305e-05 -0.8385926025881419 -5.3493674094437225 -3.80053234276978 1.655433495507938 2.145373224535237 -0.00015706389958921577 -5.349367414275344 -0.2743347789869126 -0.4167806493729161 -0.7260407587515156 -0.19296222770661764 -0.005958021761108139 -0.08404450581983706 -3.6020156480981624 -5.472329926266388 -6.761036753645864 -0.8770133249265771 -0.02707920890423649 -0.38198227895115944 0.38641157746315 -1.9531543890582483 1.934646725654602 -1.5522659460650843 -1.570742432271139 0.38641157746315 -0.8385925889015198 -0.7248098254203796 0.41575363278388977 0.30910152196884155 -1.910591709020082e-05 -0.8385925889015198 -0.27433478832244873 -0.41678065061569214 -0.726040780544281 -0.19296222925186157 -0.005958021618425846 -0.08404450863599777 -0.27433478832244873 -0.41678065061569214 -0.726040780544281 -0.19296222925186157 -0.005958021618425846 -0.08404450863599777 -0.1500000285656414 -0.1823279974177237 0.29999999533739063 2.221400113707611 2.2214001118914037 -6.184068745981368e-09 4.198323459580118e-09 0.188000020799808 9.333071700382804e-09 1.0158005603819706e-07 -1.0328982815173119e-07 -1.0002539621231654e-09 5.726824356178748e-07 -2.0642736616722943e-07 -9.272486010266548e-07 -9.674844430597589e-09 1.1394498794312848e-07 -1.2804563183466154e-08 -0.15000000000882752 -0.1823279999902373 0.29999999999487104 2.22140000032087 2.2213999998590324 4.103577585118508e-10 4.029766332271524e-11 0.18799999995411992 2.262120956159145e-11 -2.7189930276746183e-12 -1.2974471542745264e-12 -4.459969448877138e-12

198614.128 0.3795282058059033 -1.9590742514176949 1.938023707044926 -1.5497226278786655 -1.5707424451311152 0.37952820518455216 -0.8824306130496219 -0.7551174762700167 0.4283879331180446 0.3267770897993034 -2.0432458396621415e-05 -0.8824306140895631 -5.479751432980698 -3.7884554306865796 1.5792891145937973 2.209444999681884 -0.0001658175918235457 -5.479751437677649 -0.2810961628009026 -0.4104722604598495 -0.7277417287836242 -0.1919873598092458 -0.005970513563460881 -0.0860929836986244 -3.690792617575852 -5.3895007798378245 -6.7768765267788655 -0.8725825503330222 -0.0271359841459297 -0.39129261091024786 0.3795281946659088 -1.9590743223773401 1.9380236864089966 -1.5497224966632288 -1.570742432271139 0.3795281946659088 -0.8824306130409241 -0.7551174759864807 0.42838793992996216 0.3267771005630493 -2.043245876848232e-05 -0.8824306130409241 -0.2810961604118347 -0.4104722738265991 -0.7277417182922363 -0.19198736548423767 -0.0059705134481191635 -0.0860929861664772 -0.2810961604118347 -0.4104722738265991 -0.7277417182922363 -0.19198736548423767 -0.0059705134481191635 -0.0860929861664772 -0.14999998337391315 -0.18079199201387192 0.3000000095955638 2.221399981599425 2.221399979753569 4.9612218426322606e-08 1.0397959461891025e-08 0.19599998453196282 -1.52030680336272e-08 -3.0062231787073244e-08 -1.8999442031153543e-08 -1.0450132938892923e-09 -7.387248999254887e-07 -7.55961662013927e-07 5.99560084245881e-07 9.091744664062245e-08 -1.3179539920238242e-07 -1.120715189460224e-08 -0.1500000000096247 -0.18079199998968853 0.2999999999942096 2.2214000003216876 2.2213999998608926 4.103577584923579e-10 4.413720918638431e-11 0.19599999995118664 2.5645100217489796e-11 -1.0085545786727158e-12 1.0087044504357805e-12 -4.4598545234468545e-12

198614.136 0.3723139970345466 -1.9652155287266497 1.9414877245457256 -1.5470449799643191 -1.5707426135749412 0.372313996404758 -0.9091587379903397 -0.7699188667406635 0.4317695519643411 0.33819814843399465 -2.1404189376714414e-05 -0.9091587390454373 -3.341015617589732 -1.8501738088308461 0.4227023557870635 1.4276323293364035 -0.00012146637251162485 -3.341015619484272 -0.17159259115168216 -0.3010115781923319 -0.7555379027591625 -0.20564131331895294 -0.0029973322626473302 -0.052491067621675117 -2.2530107218215867 -3.952282021665318 -7.035720058073874 -0.934639769034641 -0.013622875133732115 -0.2385719023405134 0.3723140060901642 -1.9652155081378382 1.9414876699447632 -1.5470450560199183 -1.570742432271139 0.3723140060901642 -0.9091587662696838 -0.7699188590049744 0.43176954984664917 0.33819815516471863 -2.140419019269757e-05 -0.9091587662696838 -0.1715925931930542 -0.3010115921497345 -0.7555379271507263 -0.20564131438732147 -0.002997332252562046 -0.052491068840026855 -0.1715925931930542 -0.3010115921497345 -0.7555379271507263 -0.20564131438732147 -0.002997332252562046 -0.052491068840026855 -0.1500000054621584 -0.1791973534702337 0.30000001851967806 2.2213999148462342 2.2213999129889035 -2.72259686793114e-07 -2.0901055755792604e-08 0.20000001184649854 2.0083645284493705e-09 3.774069767484406e-08 1.7844011587775512e-07 -1.0684321609952599e-09 -1.1576608537586933e-07 -3.5392339403963057e-07 -1.0370394031284956e-06 -1.4057699366487703e-09 6.84556924823872e-08 -5.540319985351786e-09 -0.14999999993561378 -0.17919733337897162 0.2999999999460722 2.2214000003221925 2.2213999998603873 4.1035775824421425e-10 4.8123015310133147e-11 0.1999999999484428 2.895202011197823e-11 -2.234868533354059e-12 -1.7822702730551615e-12 -4.460452731995523e-12

198614.144 0.3650058620300182 -1.9713719449135407 1.9449201648766448 -1.5443206121985718 -1.5707427870621142 0.36500586139181607 -0.917929278015391 -0.7692118361643412 0.42635925585267065 0.34290172581157435 -2.1970417953157297e-05 -0.9179292790636294 -1.096317503131411 0.08837882204028313 -0.676287013958804 0.587947172197463 -7.077857205536039e-05 -1.0963175022740135 -0.05655779899243321 -0.19217166276225733 -0.7818541708827701 -0.2201189578856668 1.9315718535553763e-05 -0.017224366091282833 -0.7426039007706481 -2.523213932068439 -7.280782410094533 -1.0004406635903556 8.778994074409185e-05 -0.07828474388488048 0.36500585079193115 -1.9713719526873987 1.9449201822280884 -1.5443204084979456 -1.5707429091082972 0.36500585079193115 -0.9179292917251587 -0.7692118287086487 0.42635926604270935 0.34290173649787903 -2.197041794715915e-05 -0.9179292917251587 -0.056557800620794296 -0.19217166304588318 -0.7818541526794434 -0.2201189547777176 1.9315719328005798e-05 -0.01722436584532261 -0.056557800620794296 -0.19217166304588318 -0.7818541526794434 -0.2201189547777176 1.9315719328005798e-05 -0.01722436584532261 -0.14999998760558805 -0.17759740440512928 0.2999999789642263 2.2214000182724245 2.2214000163840333 3.844895956270263e-07 1.3667096921691341e-08 0.19998665554255685 -6.523735062988936e-09 -1.3277774296577528e-07 -2.0099807679670248e-07 -1.046729369413163e-09 -3.0227742478405584e-07 -4.92939049767953e-07 7.410442465194654e-07 5.791239891564898e-08 -7.063999051510038e-08 1.123215740623276e-09 -0.14999999993772214 -0.17759742226649355 0.2999999999479435 2.221400000323569 2.221399999861688 4.0441054419864883e-10 -3.219318243433916e-10 0.19998666689485822 2.6963921478860317e-10 -2.9924099460438255e-12 -1.023879667414642e-12 -4.461147705588087e-12

