mkrssg/UniversalRobots/rtde_client_3.5/examples/roboter/michi_movel_neu/movel_non_singularity.csv
timestamp target_q_0 target_q_1 target_q_2 target_q_3 target_q_4 target_q_5 target_qd_0 target_qd_1 target_qd_2 target_qd_3 target_qd_4 target_qd_5 target_qdd_0 target_qdd_1 target_qdd_2 target_qdd_3 target_qdd_4 target_qdd_5 target_current_0 target_current_1 target_current_2 target_current_3 target_current_4 target_current_5 target_moment_0 target_moment_1 target_moment_2 target_moment_3 target_moment_4 target_moment_5 actual_q_0 actual_q_1 actual_q_2 actual_q_3 actual_q_4 actual_q_5 actual_qd_0 actual_qd_1 actual_qd_2 actual_qd_3 actual_qd_4 actual_qd_5 actual_current_0 actual_current_1 actual_current_2 actual_current_3 actual_current_4 actual_current_5 joint_control_output_0 joint_control_output_1 joint_control_output_2 joint_control_output_3 joint_control_output_4 joint_control_output_5 actual_TCP_pose_0 actual_TCP_pose_1 actual_TCP_pose_2 actual_TCP_pose_3 actual_TCP_pose_4 actual_TCP_pose_5 actual_TCP_speed_0 actual_TCP_speed_1 actual_TCP_speed_2 actual_TCP_speed_3 actual_TCP_speed_4 actual_TCP_speed_5 actual_TCP_force_0 actual_TCP_force_1 actual_TCP_force_2 actual_TCP_force_3 actual_TCP_force_4 actual_TCP_force_5 target_TCP_pose_0 target_TCP_pose_1 target_TCP_pose_2 target_TCP_pose_3 target_TCP_pose_4 target_TCP_pose_5 target_TCP_speed_0 target_TCP_speed_1 target_TCP_speed_2 target_TCP_speed_3 target_TCP_speed_4 target_TCP_speed_5
6673.08 2.118646307606494 -1.40281505794281 1.8805336864108488 -3.2781602887468964 -1.0854527922577866 -0.6706776974867843 0.0 0.0 0.0 -0.0 0.0 -0.0 0.0 0.0 0.0 0.0 0.0 0.0 2.5935680669899855e-17 -0.6888032370184852 -0.7120206035710825 -0.14332746956171996 0.01095256235976847 0.0 2.9763785537712544e-16 -7.933979533909596 -6.011726817990887 -0.5915825825461467 0.04546827222820569 0.0 2.1186413764953613 -1.4027388731585901 1.8806390762329102 -3.2782395521747034 -1.085491959248678 -0.6706483999835413 0.0 0.0 -0.0 0.0 0.0 0.0 -0.0560760572552681 -0.6302948594093323 -0.6572927236557007 -0.10854240506887436 0.13092228770256042 0.002237987704575062 -0.0560760572552681 -0.6258087754249573 -0.6588177680969238 -0.11525636911392212 0.13316026329994202 0.0033569815568625927 0.3000004452326442 -0.2000095176473283 0.34995211522157527 -1.6275737449800964 1.6277358685319845 -1.627482961819696 0.0 0.0 0.0 0.0 0.0 0.0 3.5791877223145083 2.911524694731032 2.1808788395705667 -0.12325641395527938 0.3586210430760125 -0.8677980254209838 0.2999999999776341 -0.20000000000006898 0.34999999999209913 -1.6275987284298632 1.6275987284683486 -1.6275987284942297 0.0 0.0 0.0 0.0 0.0 0.0
6673.088 2.118646307606494 -1.40281505794281 1.8805336864108488 -3.2781602887468964 -1.0854527922577866 -0.6706776974867843 0.0 0.0 0.0 -0.0 0.0 -0.0 0.0 0.0 0.0 0.0 0.0 0.0 2.5935680669899855e-17 -0.6888032370184852 -0.7120206035710825 -0.14332746956171996 0.01095256235976847 0.0 2.9763785537712544e-16 -7.933979533909596 -6.011726817990887 -0.5915825825461467 0.04546827222820569 0.0 2.1186413764953613 -1.4027512709247034 1.880627155303955 -3.278191391621725 -1.0855158011065882 -0.6706002394305628 0.0 0.0 -0.0 0.0 0.0 0.0 -0.0538330152630806 -0.6258087754249573 -0.6649179458618164 -0.11749435216188431 0.1353982537984848 0.001118993852287531 -0.0560760572552681 -0.6258087754249573 -0.660342812538147 -0.11525636911392212 0.13316026329994202 0.0033569815568625927 0.29999980498365575 -0.20001180207578034 0.34995460172369186 -1.6275224089402474 1.6278052632000772 -1.6274426910295463 0.0 0.0 0.0 0.0 0.0 0.0 3.038821205192753 3.1928372357878345 2.2903145767409328 -0.07553146030184603 0.4360092404775155 -0.8729796520378785 0.2999999999776341 -0.20000000000006898 0.34999999999209913 -1.6275987284298632 1.6275987284683486 -1.6275987284942297 0.0 0.0 0.0 0.0 0.0 0.0
6673.096 2.118646307606494 -1.40281505794281 1.8805336864108488 -3.2781602887468964 -1.0854527922577866 -0.6706776974867843 0.0 0.0 0.0 -0.0 0.0 -0.0 0.0 0.0 0.0 0.0 0.0 0.0 2.5935680669899855e-17 -0.6888032370184852 -0.7120206035710825 -0.14332746956171996 0.01095256235976847 0.0 2.9763785537712544e-16 -7.933979533909596 -6.011726817990887 -0.5915825825461467 0.04546827222820569 0.0 2.1186892986297607 -1.4027631918536585 1.8805913925170898 -3.2781675497638147 -1.0854681173907679 -0.6706121603595179 0.0 0.0 -0.0 0.0 0.0 0.0 -0.0560760572552681 -0.6347809433937073 -0.6664429903030396 -0.12532731890678406 0.1365172564983368 0.002237987704575062 -0.0560760572552681 -0.6258087754249573 -0.660342812538147 -0.11525636911392212 0.13316026329994202 0.0033569815568625927 0.3000117356969999 -0.1999945378865947 0.34996702094676 -1.627564951779268 1.6276800263774132 -1.6274304288974115 0.0 0.0 0.0 0.0 0.0 0.0 3.505836154614932 3.0038265177200945 2.19355516923332 -0.07792923378572637 0.4478824898236289 -0.8807989997486938 0.2999999999776341 -0.20000000000006898 0.34999999999209913 -1.6275987284298632 1.6275987284683486 -1.6275987284942297 0.0 0.0 0.0 0.0 0.0 0.0
6673.103999999999 2.118646307606494 -1.40281505794281 1.8805336864108488 -3.2781602887468964 -1.0854527922577866 -0.6706776974867843 0.0 0.0 0.0 -0.0 0.0 -0.0 0.0 0.0 0.0 0.0 0.0 0.0 2.5935680669899855e-17 -0.6888032370184852 -0.7120206035710825 -0.14332746956171996 0.01095256235976847 0.0 2.9763785537712544e-16 -7.933979533909596 -6.011726817990887 -0.5915825825461467 0.04546827222820569 0.0 2.1186413764953613 -1.402811352406637 1.8806509971618652 -3.27820331255068 -1.0854199568377894 -0.6706245581256312 0.0 0.0 -0.0 0.0 0.0 0.0 -0.0628051832318306 -0.6325379014015198 -0.6664429903030396 -0.11525636911392212 0.13316026329994202 0.0033569815568625927 -0.0560760572552681 -0.6258087754249573 -0.660342812538147 -0.11525636911392212 0.13316026329994202 0.0033569815568625927 0.29999687985284124 -0.19999359709790177 0.3499697811671146 -1.6275545486224041 1.627656231913766 -1.627465302852048 0.0 0.0 0.0 0.0 0.0 0.0 3.625357424555402 3.251936238298523 2.024381592816257 -0.11395417757305557 0.40216200101292837 -0.8925028446572162 0.2999999999776341 -0.20000000000006898 0.34999999999209913 -1.6275987284298632 1.6275987284683486 -1.6275987284942297 0.0 0.0 0.0 0.0 0.0 0.0
6673.112 2.118646307606494 -1.40281505794281 1.8805336864108488 -3.2781602887468964 -1.0854527922577866 -0.6706776974867843 0.0 0.0 0.0 -0.0 0.0 -0.0 0.0 0.0 0.0 0.0 0.0 0.0 2.5935680669899855e-17 -0.6888032370184852 -0.7120206035710825 -0.14332746956171996 0.01095256235976847 0.0 2.9763785537712544e-16 -7.933979533909596 -6.011726817990887 -0.5915825825461467 0.04546827222820569 0.0 2.1186654567718506 -1.4027989546405237 1.880627155303955 -3.2782157103167933 -1.0854681173907679 -0.6706483999835413 0.0 0.0 -0.0 0.0 0.0 0.0 -0.0538330152630806 -0.6235657334327698 -0.652717649936676 -0.1186133474111557 0.13875523209571838 0.004475975409150124 -0.0560760572552681 -0.6258087754249573 -0.660342812538147 -0.11525636911392212 0.13092228770256042 0.0033569815568625927 0.30000107689649214 -0.19999204732611525 0.349973159777561 -1.6275835755433106 1.627650064826669 -1.6275175249271534 0.0 0.0 0.0 0.0 0.0 0.0 3.4625438751209026 2.9486675574387413 2.7034288519052008 -0.07551636226027525 0.4766567988519803 -0.8844136797036214 0.2999999999776341 -0.20000000000006898 0.34999999999209913 -1.6275987284298632 1.6275987284683486 -1.6275987284942297 0.0 0.0 0.0 0.0 0.0 0.0
6673.12 2.118646307606494 -1.40281505794281 1.8805336864108488 -3.2781602887468964 -1.0854527922577866 -0.6706776974867843 0.0 0.0 0.0 -0.0 0.0 -0.0 0.0 0.0 0.0 0.0 0.0 0.0 2.5935680669899855e-17 -0.6888032370184852 -0.7120206035710825 -0.14332746956171996 0.01095256235976847 0.0 2.9763785537712544e-16 -7.933979533909596 -6.011726817990887 -0.5915825825461467 0.04546827222820569 0.0 2.1186773777008057 -1.4027512709247034 1.880603313446045 -3.27820331255068 -1.085503880177633 -0.6706121603595179 0.0 0.0 -0.0 0.0 0.0 0.0 -0.0605621412396431 -0.6280518174171448 -0.6481425166130066 -0.1186133474111557 0.13316026329994202 0.004475975409150124 -0.0560760572552681 -0.6258087754249573 -0.6557676792144775 -0.11525636911392212 0.134279265999794 0.0033569815568625927 0.3000077236648035 -0.20000045600144858 0.3499627395816257 -1.6275517384108218 1.6277213759571543 -1.6274681002145277 0.0 0.0 0.0 0.0 0.0 0.0 4.0637445972130735 2.822016825489534 2.711782967387493 -0.08739449306091462 0.45276895904497627 -0.8801227517935495 0.2999999999776341 -0.20000000000006898 0.34999999999209913 -1.6275987284298632 1.6275987284683486 -1.6275987284942297 0.0 0.0 0.0 0.0 0.0 0.0
6673.128 2.118646307606494 -1.40281505794281 1.8805336864108488 -3.2781602887468964 -1.0854527922577866 -0.6706776974867843 0.0 0.0 0.0 -0.0 0.0 -0.0 0.0 0.0 0.0 0.0 0.0 0.0 2.5935680669899855e-17 -0.6888032370184852 -0.7120206035710825 -0.14332746956171996 0.01095256235976847 0.0 2.9763785537712544e-16 -7.933979533909596 -6.011726817990887 -0.5915825825461467 0.04546827222820569 0.0 2.1186892986297607 -1.4027751127826136 1.880603313446045 -3.27820331255068 -1.0854561964618128 -0.6706002394305628 0.0 0.0 -0.0 0.0 0.0 0.0 -0.0583190992474556 -0.6302948594093323 -0.6511926054954529 -0.10966140031814575 0.1376362442970276 0.004475975409150124 -0.0560760572552681 -0.6258087754249573 -0.6588177680969238 -0.11525636911392212 0.13316026329994202 0.004475975409150124 0.30000971787399994 -0.19998955415658634 0.34997113357319387 -1.6275486718666843 1.627647930547924 -1.6274617324015621 0.0 0.0 0.0 0.0 0.0 0.0 4.008511018773852 2.8554676547192734 2.3700053684079725 -0.13271760901256688 0.3896931032489292 -0.9079348000196015 0.2999999999776341 -0.20000000000006898 0.34999999999209913 -1.6275987284298632 1.6275987284683486 -1.6275987284942297 0.0 0.0 0.0 0.0 0.0 0.0
6673.1359999999995 2.118646307606494 -1.40281505794281 1.8805336864108488 -3.2781602887468964 -1.0854527922577866 -0.6706776974867843 0.0 0.0 0.0 -0.0 0.0 -0.0 0.0 0.0 0.0 0.0 0.0 0.0 2.5935680669899855e-17 -0.6888032370184852 -0.7120206035710825 -0.14332746956171996 0.01095256235976847 0.0 2.9763785537712544e-16 -7.933979533909596 -6.011726817990887 -0.5915825825461467 0.04546827222820569 0.0 2.1186654567718506 -1.4027512709247034 1.880627155303955 -3.27820331255068 -1.0854681173907679 -0.6706364790545862 0.0 0.0 -0.0 0.0 0.0 0.0 -0.0538330152630806 -0.6235657334327698 -0.6496675610542297 -0.12756529450416565 0.134279265999794 0.008951950818300247 -0.0560760572552681 -0.6258087754249573 -0.6572927236557007 -0.11525636911392212 0.13316026329994202 0.004475975409150124 0.3000063387024376 -0.20000071636000907 0.3499563571783013 -1.6275793565856798 1.6277006200076187 -1.627439452482117 0.0 0.0 0.0 0.0 0.0 0.0 3.5017584238047226 2.7754926348147944 2.9878605275402683 -0.0467906130796028 0.5442977837591341 -0.8403485752673129 0.2999999999776341 -0.20000000000006898 0.34999999999209913 -1.6275987284298632 1.6275987284683486 -1.6275987284942297 0.0 0.0 0.0 0.0 0.0 0.0
6673.143999999999 2.118646307606494 -1.40281505794281 1.8805336864108488 -3.2781602887468964 -1.0854527922577866 -0.6706776974867843 0.0 0.0 0.0 -0.0 0.0 -0.0 0.0 0.0 0.0 0.0 0.0 0.0 2.5935680669899855e-17 -0.6888032370184852 -0.7120206035710825 -0.14332746956171996 0.01095256235976847 0.0 2.9763785537712544e-16 -7.933979533909596 -6.011726817990887 -0.5915825825461467 0.04546827222820569 0.0 2.1186892986297607 -1.4027751127826136 1.8806390762329102 -3.27820331255068 -1.0854561964618128 -0.6706483999835413 0.0 0.0 -0.0 0.0 0.0 0.0 -0.0605621412396431 -0.6190796494483948 -0.660342812538147 -0.12420831620693207 0.1365172564983368 0.004475975409150124 -0.0560760572552681 -0.6258087754249573 -0.6572927236557007 -0.11525636911392212 0.13204127550125122 0.0033569815568625927 0.3000088970804371 -0.19998828021797244 0.34996088983994816 -1.627605320103013 1.627647303424265 -1.6274421505455192 0.0 0.0 0.0 0.0 0.0 0.0 3.196744853414921 3.4136823368124385 2.736940415227297 -0.042390084296726985 0.5357510381788061 -0.8841917136989195 0.2999999999776341 -0.20000000000006898 0.34999999999209913 -1.6275987284298632 1.6275987284683486 -1.6275987284942297 0.0 0.0 0.0 0.0 0.0 0.0
6673.152 2.118646307606494 -1.40281505794281 1.8805336864108488 -3.2781602887468964 -1.0854527922577866 -0.6706776974867843 0.0 0.0 0.0 -0.0 0.0 -0.0 0.0 0.0 0.0 0.0 0.0 0.0 2.5935680669899855e-17 -0.6888032370184852 -0.7120206035710825 -0.14332746956171996 0.01095256235976847 0.0 2.9763785537712544e-16 -7.933979533909596 -6.011726817990887 -0.5915825825461467 0.04546827222820569 0.0 2.1186532974243164 -1.4027631918536585 1.880627155303955 -3.2782276312457483 -1.085480038319723 -0.6706002394305628 0.0 0.0 -0.0 0.0 0.0 0.0 -0.0538330152630806 -0.6258087754249573 -0.6588177680969238 -0.12308932095766068 0.134279265999794 0.006713963113725185 -0.0560760572552681 -0.6258087754249573 -0.660342812538147 -0.11525636911392212 0.13316026329994202 0.004475975409150124 0.30000146259724386 -0.20000199951979986 0.34996247326510405 -1.6275269919313835 1.627719724677948 -1.6274771671632344 0.0 0.0 0.0 0.0 0.0 0.0 3.2430563020830996 2.9787182759754507 2.581502572396955 -0.0660705584041719 0.49346066328096816 -0.8495665829500202 0.2999999999776341 -0.20000000000006898 0.34999999999209913 -1.6275987284298632 1.6275987284683486 -1.6275987284942297 0.0 0.0 0.0 0.0 0.0 0.0
6673.16 2.118646307606494 -1.40281505794281 1.8805336864108488 -3.2781602887468964 -1.0854527922577866 -0.6706776974867843 0.0 0.0 0.0 -0.0 0.0 -0.0 0.0 0.0 0.0 0.0 0.0 0.0 2.5935680669899855e-17 -0.6888032370184852 -0.7120206035710825 -0.14332746956171996 0.01095256235976847 0.0 2.9763785537712544e-16 -7.933979533909596 -6.011726817990887 -0.5915825825461467 0.04546827222820569 0.0 2.1186413764953613 -1.4027751127826136 1.880615234375 -3.2782276312457483 -1.0854442755328577 -0.6706245581256312 0.0 0.0 -0.0 0.0 0.0 0.0 -0.0583190992474556 -0.6235657334327698 -0.6633929014205933 -0.11189938336610794 0.12868429720401764 0.002237987704575062 -0.0560760572552681 -0.6258087754249573 -0.6618678569793701 -0.11525636911392212 0.13316026329994202 0.002237987704575062 0.29999967260294313 -0.2000015155054191 0.3499702336859672 -1.627547836939946 1.6276640743430824 -1.6275058634495483 0.0 0.0 0.0 0.0 0.0 0.0 3.079438193677219 3.29428518455617 2.2637938005311913 -0.08896639130382938 0.41075590539411316 -0.8537832055208673 0.2999999999776341 -0.20000000000006898 0.34999999999209913 -1.6275987284298632 1.6275987284683486 -1.6275987284942297 0.0 0.0 0.0 0.0 0.0 0.0
6673.168 2.118646307606494 -1.40281505794281 1.8805336864108488 -3.2781602887468964 -1.0854527922577866 -0.6706776974867843 0.0 0.0 0.0 -0.0 0.0 -0.0 0.0 0.0 0.0 0.0 0.0 0.0 2.5935680669899855e-17 -0.6888032370184852 -0.7120206035710825 -0.14332746956171996 0.01095256235976847 0.0 2.9763785537712544e-16 -7.933979533909596 -6.011726817990887 -0.5915825825461467 0.04546827222820569 0.0 2.1186294555664062 -1.4027388731585901 1.880603313446045 -3.27820331255068 -1.085480038319723 -0.6706483999835413 0.0 0.0 -0.0 0.0 0.0 0.0 -0.0583190992474556 -0.6325379014015198 -0.6588177680969238 -0.11413737386465073 0.134279265999794 0.006713963113725185 -0.0560760572552681 -0.6258087754249573 -0.6557676792144775 -0.11525636911392212 0.13316026329994202 0.004475975409150124 0.3000004447312301 -0.20001528748728958 0.34995898222331356 -1.627568829852382 1.6277365942053321 -1.627482361927697 0.0 0.0 0.0 0.0 0.0 0.0 3.7429668274588517 2.93560036418659 2.2065524217749775 -0.12453870020107344 0.4079835812719133 -0.8789384239112941 0.2999999999776341 -0.20000000000006898 0.34999999999209913 -1.6275987284298632 1.6275987284683486 -1.6275987284942297 0.0 0.0 0.0 0.0 0.0 0.0
6673.1759999999995 2.118646307606494 -1.40281505794281 1.8805336864108488 -3.2781602887468964 -1.0854527922577866 -0.6706776974867843 0.0 0.0 0.0 -0.0 0.0 -0.0 0.0 0.0 0.0 0.0 0.0 0.0 2.5935680669899855e-17 -0.6888032370184852 -0.7120206035710825 -0.14332746956171996 0.01095256235976847 0.0 2.9763785537712544e-16 -7.933979533909596 -6.011726817990887 -0.5915825825461467 0.04546827222820569 0.0 2.1186654567718506 -1.4027751127826136 1.880615234375 -3.2782157103167933 -1.085491959248678 -0.6705763975726526 0.0 0.0 -0.0 0.0 0.0 0.0 -0.0538330152630806 -0.6258087754249573 -0.6557676792144775 -0.10630441457033157 0.1376362442970276 0.0033569815568625927 -0.0560760572552681 -0.6258087754249573 -0.6572927236557007 -0.11525636911392212 0.13316026329994202 0.002237987704575062 0.3000027712772391 -0.19999815308907543 0.3499684783576678 -1.6275049491424658 1.6277237912997975 -1.6274798925981975 0.0 0.0 0.0 0.0 0.0 0.0 3.4258096600586345 3.0084607052575043 2.2866712500526902 -0.12666288234669076 0.3810747741528081 -0.895031152222691 0.2999999999776341 -0.20000000000006898 0.34999999999209913 -1.6275987284298632 1.6275987284683486 -1.6275987284942297 0.0 0.0 0.0 0.0 0.0 0.0
6673.183999999999 2.118646307606494 -1.40281505794281 1.8805336864108488 -3.2781602887468964 -1.0854527922577866 -0.6706776974867843 0.0 0.0 0.0 -0.0 0.0 -0.0 0.0 0.0 0.0 0.0 0.0 0.0 2.5935680669899855e-17 -0.6888032370184852 -0.7120206035710825 -0.14332746956171996 0.01095256235976847 0.0 2.9763785537712544e-16 -7.933979533909596 -6.011726817990887 -0.5915825825461467 0.04546827222820569 0.0 2.11871337890625 -1.4027870337115687 1.8806629180908203 -3.2782157103167933 -1.0855158011065882 -0.6705883185016077 0.0 0.0 -0.0 0.0 0.0 0.0 -0.0560760572552681 -0.6302948594093323 -0.6572927236557007 -0.11413737386465073 0.1365172564983368 0.002237987704575062 -0.0560760572552681 -0.6258087754249573 -0.6572927236557007 -0.11525636911392212 0.13204127550125122 0.004475975409150124 0.30000900387444546 -0.19998170359645825 0.34995842132266797 -1.6275462702897883 1.6277170272701096 -1.627431141416622 0.0 0.0 0.0 0.0 0.0 0.0 3.6633511228724562 2.938473628411102 2.305787166081738 -0.10737848667501282 0.4029141890180571 -0.8926394553814906 0.2999999999776341 -0.20000000000006898 0.34999999999209913 -1.6275987284298632 1.6275987284683486 -1.6275987284942297 0.0 0.0 0.0 0.0 0.0 0.0
6673.192 2.118646307606494 -1.40281505794281 1.8805336864108488 -3.2781602887468964 -1.0854527922577866 -0.6706776974867843 0.0 0.0 0.0 -0.0 0.0 -0.0 0.0 0.0 0.0 0.0 0.0 0.0 2.5935680669899855e-17 -0.6888032370184852 -0.7120206035710825 -0.14332746956171996 0.01095256235976847 0.0 2.9763785537712544e-16 -7.933979533909596 -6.011726817990887 -0.5915825825461467 0.04546827222820569 0.0 2.1186532974243164 -1.4027388731585901 1.880615234375 -3.2782157103167933 -1.0854561964618128 -0.6706245581256312 0.0 0.0 -0.0 0.0 0.0 0.0 -0.0560760572552681 -0.6347809433937073 -0.6511926054954529 -0.11301837861537933 0.1376362442970276 0.004475975409150124 -0.0560760572552681 -0.6258087754249573 -0.6572927236557007 -0.11525636911392212 0.13204127550125122 0.006713963113725185 0.3000056124067252 -0.20000546998489174 0.349957071625462 -1.6275597175730463 1.6276990037962258 -1.6274480038452475 0.0 0.0 0.0 0.0 0.0 0.0 4.125498467214422 2.6522181594323238 2.3304535776087754 -0.1318779099031763 0.3856836804258584 -0.8992703038003631 0.2999999999776341 -0.20000000000006898 0.34999999999209913 -1.6275987284298632 1.6275987284683486 -1.6275987284942297 0.0 0.0 0.0 0.0 0.0 0.0
6673.2 2.118646307606494 -1.40281505794281 1.8805336864108488 -3.2781602887468964 -1.0854527922577866 -0.6706776974867843 0.0 0.0 0.0 -0.0 0.0 -0.0 0.0 0.0 0.0 0.0 0.0 0.0 2.5935680669899855e-17 -0.6888032370184852 -0.7120206035710825 -0.14332746956171996 0.01095256235976847 0.0 2.9763785537712544e-16 -7.933979533909596 -6.011726817990887 -0.5915825825461467 0.04546827222820569 0.0 2.1186892986297607 -1.4027751127826136 1.880615234375 -3.2782276312457483 -1.0854442755328577 -0.6706483999835413 0.0 0.0 -0.0 0.0 0.0 0.0 -0.0605621412396431 -0.6325379014015198 -0.6572927236557007 -0.12532731890678406 0.1376362442970276 0.0033569815568625927 -0.0560760572552681 -0.6258087754249573 -0.6572927236557007 -0.11525636911392212 0.134279265999794 0.004475975409150124 0.30000925675796564 -0.19998713865114237 0.3499702336859672 -1.6276000537893245 1.6275994876932807 -1.6274941558306133 0.0 0.0 0.0 0.0 0.0 0.0 3.9749837221340583 2.949667776907803 2.4984903353652377 -0.07740149987392068 0.4725806667900782 -0.9006183935262069 0.2999999999776341 -0.20000000000006898 0.34999999999209913 -1.6275987284298632 1.6275987284683486 -1.6275987284942297 0.0 0.0 0.0 0.0 0.0 0.0
6673.208 2.118646307606494 -1.40281505794281 1.8805336864108488 -3.2781602887468964 -1.0854527922577866 -0.6706776974867843 0.0 0.0 0.0 -0.0 0.0 -0.0 0.0 0.0 0.0 0.0 0.0 0.0 2.5935680669899855e-17 -0.6888032370184852 -0.7120206035710825 -0.14332746956171996 0.01095256235976847 0.0 2.9763785537712544e-16 -7.933979533909596 -6.011726817990887 -0.5915825825461467 0.04546827222820569 0.0 2.1186294555664062 -1.4027388731585901 1.8805913925170898 -3.2782276312457483 -1.0854318777667444 -0.6706002394305628 0.0 0.0 -0.0 0.0 0.0 0.0 -0.0605621412396431 -0.6280518174171448 -0.6664429903030396 -0.10630441457033157 0.1376362442970276 0.0033569815568625927 -0.0560760572552681 -0.6258087754249573 -0.6618678569793701 -0.11525636911392212 0.13316026329994202 0.004475975409150124 0.3000020980524066 -0.20001122185157827 0.3499653642398183 -1.6275185881390621 1.627686390426205 -1.627478785353485 0.0 0.0 0.0 0.0 0.0 0.0 3.379688762006417 3.400512248223437 1.938341282380863 -0.13850081523392269 0.37395127845431814 -0.9168816230056209 0.2999999999776341 -0.20000000000006898 0.34999999999209913 -1.6275987284298632 1.6275987284683486 -1.6275987284942297 0.0 0.0 0.0 0.0 0.0 0.0
6673.215999999999 2.118646307606494 -1.40281505794281 1.8805336864108488 -3.2781602887468964 -1.0854527922577866 -0.6706776974867843 0.0 0.0 0.0 -0.0 0.0 -0.0 0.0 0.0 0.0 0.0 0.0 0.0 2.5935680669899855e-17 -0.6888032370184852 -0.7120206035710825 -0.14332746956171996 0.01095256235976847 0.0 2.9763785537712544e-16 -7.933979533909596 -6.011726817990887 -0.5915825825461467 0.04546827222820569 0.0 2.118701219558716 -1.4027388731585901 1.8806390762329102 -3.2782157103167933 -1.085480038319723 -0.6706483999835413 0.0 0.0 -0.0 0.0 0.0 0.0 -0.0583190992474556 -0.6213226914405823 -0.6542426943778992 -0.10406643152236938 0.1376362442970276 0.0033569815568625927 -0.0560760572552681 -0.6258087754249573 -0.6572927236557007 -0.11525636911392212 0.134279265999794 0.004475975409150124 0.3000136184986627 -0.19999188777280363 0.3499499446580876 -1.6276121052005967 1.6276768380483575 -1.6274193658152836 0.0 0.0 0.0 0.0 0.0 0.0 3.4667783721480925 3.2247617337013916 2.392446020277553 -0.12453422537647965 0.39486590272281896 -0.9104064107121405 0.2999999999776341 -0.20000000000006898 0.34999999999209913 -1.6275987284298632 1.6275987284683486 -1.6275987284942297 0.0 0.0 0.0 0.0 0.0 0.0
6673.223999999999 2.118646307606494 -1.40281505794281 1.8805336864108488 -3.2781602887468964 -1.0854527922577866 -0.6706776974867843 0.0 0.0 0.0 -0.0 0.0 -0.0 0.0 0.0 0.0 0.0 0.0 0.0 2.5935680669899855e-17 -0.6888032370184852 -0.7120206035710825 -0.14332746956171996 0.01095256235976847 0.0 2.9763785537712544e-16 -7.933979533909596 -6.011726817990887 -0.5915825825461467 0.04546827222820569 0.0 2.1186413764953613 -1.402811352406637 1.8806390762329102 -3.2782157103167933 -1.0854681173907679 -0.6706121603595179 0.0 0.0 -0.0 0.0 0.0 0.0 -0.0560760572552681 -0.6280518174171448 -0.6557676792144775 -0.11078038811683655 0.14211222529411316 0.0033569815568625927 -0.0560760572552681 -0.6258087754249573 -0.6572927236557007 -0.11525636911392212 0.13316026329994202 0.004475975409150124 0.2999947125046113 -0.19999674761198882 0.3499738002010316 -1.6275312962693675 1.627695710106986 -1.6275122012581165 0.0 0.0 0.0 0.0 0.0 0.0 3.6935245979373135 3.0226463790650953 2.3285448887032025 -0.12224348029216758 0.40745964572364857 -0.9239385490895277 0.2999999999776341 -0.20000000000006898 0.34999999999209913 -1.6275987284298632 1.6275987284683486 -1.6275987284942297 0.0 0.0 0.0 0.0 0.0 0.0
6673.232 2.118646307606494 -1.40281505794281 1.8805336864108488 -3.2781602887468964 -1.0854527922577866 -0.6706776974867843 0.0 0.0 0.0 -0.0 0.0 -0.0 0.0 0.0 0.0 0.0 0.0 0.0 2.5935680669899855e-17 -0.6888032370184852 -0.7120206035710825 -0.14332746956171996 0.01095256235976847 0.0 2.9763785537712544e-16 -7.933979533909596 -6.011726817990887 -0.5915825825461467 0.04546827222820569 0.0 2.118617296218872 -1.4027388731585901 1.880627155303955 -3.2782276312457483 -1.0854681173907679 -0.6706002394305628 0.0 0.0 -0.0 0.0 0.0 0.0 -0.0560760572552681 -0.6347809433937073 -0.6542426943778992 -0.10742340981960297 0.14099322259426117 0.006713963113725185 -0.0560760572552681 -0.6258087754249573 -0.6572927236557007 -0.11525636911392212 0.13092228770256042 0.004475975409150124 0.2999972780983432 -0.20001609498080608 0.34995466787481994 -1.6275120004660502 1.6277635406352526 -1.627459535818061 0.0 0.0 0.0 0.0 0.0 0.0 4.033280902251116 2.7775522497624636 2.1215529980083185 -0.1630528033116049 0.36458070248592417 -0.9184469215200395 0.2999999999776341 -0.20000000000006898 0.34999999999209913 -1.6275987284298632 1.6275987284683486 -1.6275987284942297 0.0 0.0 0.0 0.0 0.0 0.0
6673.24 2.118646307606494 -1.40281505794281 1.8805336864108488 -3.2781602887468964 -1.0854527922577866 -0.6706776974867843 0.0 0.0 0.0 -0.0 0.0 -0.0 0.0 0.0 0.0 0.0 0.0 0.0 2.5935680669899855e-17 -0.6888032370184852 -0.7120206035710825 -0.14332746956171996 0.01095256235976847 0.0 2.9763785537712544e-16 -7.933979533909596 -6.011726817990887 -0.5915825825461467 0.04546827222820569 0.0 2.118617296218872 -1.4027751127826136 1.880627155303955 -3.2781675497638147 -1.085491959248678 -0.6706002394305628 0.0 0.0 -0.0 0.0 0.0 0.0 -0.0583190992474556 -0.6258087754249573 -0.6557676792144775 -0.13204127550125122 0.1376362442970276 0.004475975409150124 -0.0560760572552681 -0.6258087754249573 -0.6572927236557007 -0.11525636911392212 0.134279265999794 0.002237987704575062 0.29999425726380513 -0.20001449085321754 0.3499603784281315 -1.6275122519572662 1.627806206923711 -1.6274427216721563 0.0 0.0 0.0 0.0 0.0 0.0 3.6247715144810844 3.015381088381862 2.864119838540758 -0.031814110975482056 0.5513851614384812 -0.8792102619572137 0.2999999999776341 -0.20000000000006898 0.34999999999209913 -1.6275987284298632 1.6275987284683486 -1.6275987284942297 0.0 0.0 0.0 0.0 0.0 0.0
6673.248 2.118646307606494 -1.40281505794281 1.8805336864108488 -3.2781602887468964 -1.0854527922577866 -0.6706776974867843 0.0 0.0 0.0 -0.0 0.0 -0.0 0.0 0.0 0.0 0.0 0.0 0.0 2.5935680669899855e-17 -0.6888032370184852 -0.7120206035710825 -0.14332746956171996 0.01095256235976847 0.0 2.9763785537712544e-16 -7.933979533909596 -6.011726817990887 -0.5915825825461467 0.04546827222820569 0.0 2.1186413764953613 -1.4027631918536585 1.8806390762329102 -3.2782157103167933 -1.085480038319723 -0.6706002394305628 0.0 0.0 -0.0 0.0 0.0 0.0 -0.0538330152630806 -0.6280518174171448 -0.6542426943778992 -0.12085133790969849 0.1376362442970276 0.0033569815568625927 -0.0560760572552681 -0.6258087754249573 -0.6572927236557007 -0.11525636911392212 0.134279265999794 0.0033569815568625927 0.29999914931224214 -0.20000572395330657 0.34995789897585405 -1.6275237555566135 1.6277499808558085 -1.6274543126352525 0.0 0.0 0.0 0.0 0.0 0.0 3.6018243161326122 2.8428444594137083 2.597198449782366 -0.07661315812443313 0.46116881252000264 -0.8805653978722053 0.2999999999776341 -0.20000000000006898 0.34999999999209913 -1.6275987284298632 1.6275987284683486 -1.6275987284942297 0.0 0.0 0.0 0.0 0.0 0.0
6673.255999999999 2.118646307606494 -1.40281505794281 1.8805336864108488 -3.2781602887468964 -1.0854527922577866 -0.6706776974867843 0.0 0.0 0.0 -0.0 0.0 -0.0 0.0 0.0 0.0 0.0 0.0 0.0 2.5935680669899855e-17 -0.6888032370184852 -0.7120206035710825 -0.14332746956171996 0.01095256235976847 0.0 2.9763785537712544e-16 -7.933979533909596 -6.011726817990887 -0.5915825825461467 0.04546827222820569 0.0 2.1186413764953613 -1.4027870337115687 1.8805789947509766 -3.27817947069277 -1.0854442755328577 -0.6706002394305628 0.0 0.0 -0.0 0.0 0.0 0.0 -0.0583190992474556 -0.6258087754249573 -0.660342812538147 -0.11637535691261292 0.1353982537984848 0.0033569815568625927 -0.0560760572552681 -0.6258087754249573 -0.6572927236557007 -0.11637535691261292 0.13092228770256042 0.004475975409150124 0.30000067034347255 -0.20000310228809595 0.3499798280182749 -1.6275218631385275 1.627677769757036 -1.6274941136135452 0.0 0.0 0.0 0.0 0.0 0.0 3.4025059066926047 3.1851414168795906 2.388326091154382 -0.08810577298538631 0.4438548114272981 -0.8856627201473187 0.2999999999776341 -0.20000000000006898 0.34999999999209913 -1.6275987284298632 1.6275987284683486 -1.6275987284942297 0.0 0.0 0.0 0.0 0.0 0.0
6673.264 2.118646307606494 -1.40281505794281 1.8805336864108488 -3.2781602887468964 -1.0854527922577866 -0.6706776974867843 0.0 0.0 0.0 -0.0 0.0 -0.0 0.0 0.0 0.0 0.0 0.0 0.0 2.5935680669899855e-17 -0.6888032370184852 -0.7120206035710825 -0.14332746956171996 0.01095256235976847 0.0 2.9763785537712544e-16 -7.933979533909596 -6.011726817990887 -0.5915825825461467 0.04546827222820569 0.0 2.1186532974243164 -1.4027989546405237 1.880615234375 -3.2782157103167933 -1.085480038319723 -0.6706364790545862 0.0 0.0 -0.0 0.0 0.0 0.0 -0.0515899695456028 -0.6302948594093323 -0.660342812538147 -0.11749435216188431 0.13316026329994202 0.007832957431674004 -0.0560760572552681 -0.6258087754249573 -0.6572927236557007 -0.11637535691261292 0.13204127550125122 0.004475975409150124 0.2999984031416285 -0.19999694190495534 0.3499764254667653 -1.6275607346223409 1.6276734706707894 -1.6275378404430203 0.0 0.0 0.0 0.0 0.0 0.0 3.269722370350911 2.8391085271879577 2.299550896869643 -0.10187715796830832 0.43568405915657443 -0.8418528336382268 0.2999999999776341 -0.20000000000006898 0.34999999999209913 -1.6275987284298632 1.6275987284683486 -1.6275987284942297 0.0 0.0 0.0 0.0 0.0 0.0
6673.272 2.118646307606494 -1.40281505794281 1.8805336864108488 -3.2781602887468964 -1.0854527922577866 -0.6706776974867843 0.0 0.0 0.0 -0.0 0.0 -0.0 0.0 0.0 0.0 0.0 0.0 0.0 2.5935680669899855e-17 -0.6888032370184852 -0.7120206035710825 -0.14332746956171996 0.01095256235976847 0.0 2.9763785537712544e-16 -7.933979533909596 -6.011726817990887 -0.5915825825461467 0.04546827222820569 0.0 2.1186892986297607 -1.4027631918536585 1.880615234375 -3.2782276312457483 -1.0854318777667444 -0.6706483999835413 0.0 0.0 -0.0 0.0 0.0 0.0 -0.0515899695456028 -0.6280518174171448 -0.6649179458618164 -0.1197323426604271 0.13875523209571838 0.002237987704575062 -0.0560760572552681 -0.6258087754249573 -0.6572927236557007 -0.11525636911392212 0.13204127550125122 0.0033569815568625927 0.3000110187437736 -0.19998830184977462 0.34996648943990005 -1.6276034200065683 1.6275952101082016 -1.6274737075004568 0.0 0.0 0.0 0.0 0.0 0.0 3.0921663156237122 3.0858500463912706 2.2827508049695355 -0.07857230300559084 0.44641270083105783 -0.880376440794672 0.2999999999776341 -0.20000000000006898 0.34999999999209913 -1.6275987284298632 1.6275987284683486 -1.6275987284942297 0.0 0.0 0.0 0.0 0.0 0.0
6673.28 2.118646307606494 -1.40281505794281 1.8805336864108488 -3.2781602887468964 -1.0854527922577866 -0.6706776974867843 0.0 0.0 0.0 -0.0 0.0 -0.0 0.0 0.0 0.0 0.0 0.0 0.0 2.5935680669899855e-17 -0.6888032370184852 -0.7120206035710825 -0.14332746956171996 0.01095256235976847 0.0 2.9763785537712544e-16 -7.933979533909596 -6.011726817990887 -0.5915825825461467 0.04546827222820569 0.0 2.1186654567718506 -1.4027989546405237 1.880627155303955 -3.27820331255068 -1.085491959248678 -0.6706121603595179 0.0 0.0 -0.0 0.0 0.0 0.0 -0.0583190992474556 -0.6235657334327698 -0.6557676792144775 -0.11078038811683655 0.134279265999794 0.0055949692614376545 -0.0560760572552681 -0.6258087754249573 -0.6572927236557007 -0.11413737386465073 0.13204127550125122 0.0055949692614376545 0.30000040428861835 -0.19999428753113968 0.3499716558765367 -1.6275433301767361 1.6277043175298065 -1.6274967500534556 0.0 0.0 0.0 0.0 0.0 0.0 3.452079616411511 3.134654989686284 2.4446043442987824 -0.10722731916436995 0.4286361744271928 -0.8804003906487907 0.2999999999776341 -0.20000000000006898 0.34999999999209913 -1.6275987284298632 1.6275987284683486 -1.6275987284942297 0.0 0.0 0.0 0.0 0.0 0.0
6673.288 2.118646307606494 -1.40281505794281 1.8805336864108488 -3.2781602887468964 -1.0854527922577866 -0.6706776974867843 0.0 0.0 0.0 -0.0 0.0 -0.0 0.0 0.0 0.0 0.0 0.0 0.0 2.5935680669899855e-17 -0.6888032370184852 -0.7120206035710825 -0.14332746956171996 0.01095256235976847 0.0 2.9763785537712544e-16 -7.933979533909596 -6.011726817990887 -0.5915825825461467 0.04546827222820569 0.0 2.1186654567718506 -1.4027631918536585 1.880627155303955 -3.27820331255068 -1.0854681173907679 -0.6706002394305628 0.0 0.0 -0.0 0.0 0.0 0.0 -0.0605621412396431 -0.6325379014015198 -0.6588177680969238 -0.11078038811683655 0.12868429720401764 0.0 -0.0560760572552681 -0.6258087754249573 -0.6588177680969238 -0.11525636911392212 0.13204127550125122 0.002237987704575062 0.3000051128805149 -0.19999869811187135 0.3499602563481822 -1.6275388623361517 1.6277121002880952 -1.6274361803622164 0.0 0.0 0.0 0.0 0.0 0.0 3.7937866590536657 2.982266094439081 2.131674295289631 -0.11641930000941962 0.3526822375251731 -0.8741926043456003 0.2999999999776341 -0.20000000000006898 0.34999999999209913 -1.6275987284298632 1.6275987284683486 -1.6275987284942297 0.0 0.0 0.0 0.0 0.0 0.0
6673.295999999999 2.118646307606494 -1.40281505794281 1.8805336864108488 -3.2781602887468964 -1.0854527922577866 -0.6706776974867843 0.0 0.0 0.0 -0.0 0.0 -0.0 0.0 0.0 0.0 0.0 0.0 0.0 2.5935680669899855e-17 -0.6888032370184852 -0.7120206035710825 -0.14332746956171996 0.01095256235976847 0.0 2.9763785537712544e-16 -7.933979533909596 -6.011726817990887 -0.5915825825461467 0.04546827222820569 0.0 2.1186532974243164 -1.4028227964984339 1.8806390762329102 -3.27817947069277 -1.0854561964618128 -0.6706002394305628 0.0 0.0 -0.0 0.0 0.0 0.0 -0.0560760572552681 -0.6280518174171448 -0.660342812538147 -0.11749435216188431 0.1353982537984848 0.004475975409150124 -0.0560760572552681 -0.6258087754249573 -0.660342812538147 -0.11525636911392212 0.1353982537984848 0.004475975409150124 0.29999748277777 -0.1999921530709209 0.3499741666813726 -1.6275303552387184 1.6276953880694431 -1.6274649896194038 0.0 0.0 0.0 0.0 0.0 0.0 3.4066498835035595 3.0529603678850408 2.3562320159701833 -0.09194481094689964 0.44176314831564073 -0.8756513811329849 0.2999999999776341 -0.20000000000006898 0.34999999999209913 -1.6275987284298632 1.6275987284683486 -1.6275987284942297 0.0 0.0 0.0 0.0 0.0 0.0
6673.304 2.118646307606494 -1.40281505794281 1.8805336864108488 -3.2781602887468964 -1.0854527922577866 -0.6706776974867843 0.0 0.0 0.0 -0.0 0.0 -0.0 0.0 0.0 0.0 0.0 0.0 0.0 2.5935680669899855e-17 -0.6888032370184852 -0.7120206035710825 -0.14332746956171996 0.01095256235976847 0.0 2.9763785537712544e-16 -7.933979533909596 -6.011726817990887 -0.5915825825461467 0.04546827222820569 0.0 2.1186294555664062 -1.4027751127826136 1.880615234375 -3.27817947069277 -1.0854442755328577 -0.6705763975726526 0.0 0.0 -0.0 0.0 0.0 0.0 -0.0628051832318306 -0.6213226914405823 -0.6633929014205933 -0.10630441457033157 0.134279265999794 0.0055949692614376545 -0.0560760572552681 -0.6258087754249573 -0.6588177680969238 -0.11525636911392212 0.13316026329994202 0.004475975409150124 0.2999986803992318 -0.2000074062241135 0.34996554848866357 -1.6274965356345543 1.6277390537482763 -1.6274304012735612 0.0 0.0 0.0 0.0 0.0 0.0 3.2228577930313205 3.5368094531323964 2.1941840570005713 -0.12120810580741821 0.41471932086143165 -0.8975174441615327 0.2999999999776341 -0.20000000000006898 0.34999999999209913 -1.6275987284298632 1.6275987284683486 -1.6275987284942297 0.0 0.0 0.0 0.0 0.0 0.0
6673.312 2.118646307606494 -1.40281505794281 1.8805336864108488 -3.2781602887468964 -1.0854527922577866 -0.6706776974867843 0.0 0.0 0.0 -0.0 0.0 -0.0 0.0 0.0 0.0 0.0 0.0 0.0 2.5935680669899855e-17 -0.6888032370184852 -0.7120206035710825 -0.14332746956171996 0.01095256235976847 0.0 2.9763785537712544e-16 -7.933979533909596 -6.011726817990887 -0.5915825825461467 0.04546827222820569 0.0 2.1186294555664062 -1.4027751127826136 1.880627155303955 -3.27817947069277 -1.085491959248678 -0.6706245581256312 0.0 0.0 -0.0 0.0 0.0 0.0 -0.0515899695456028 -0.6302948594093323 -0.6633929014205933 -0.11525636911392212 0.13316026329994202 0.001118993852287531 -0.0560760572552681 -0.6258087754249573 -0.660342812538147 -0.11525636911392212 0.13316026329994202 0.0033569815568625927 0.2999963447570875 -0.20001027026589785 0.34996153817900955 -1.627543355316205 1.627770884820914 -1.6274629509489507 0.0 0.0 0.0 0.0 0.0 0.0 3.1824473167205474 2.9526686240969804 2.166692261541073 -0.09407117268078938 0.39362643103208983 -0.8585022766199573 0.2999999999776341 -0.20000000000006898 0.34999999999209913 -1.6275987284298632 1.6275987284683486 -1.6275987284942297 0.0 0.0 0.0 0.0 0.0 0.0
6673.32 2.118646307606494 -1.40281505794281 1.8805336864108488 -3.2781602887468964 -1.0854527922577866 -0.6706776974867843 0.0 0.0 0.0 -0.0 0.0 -0.0 0.0 0.0 0.0 0.0 0.0 0.0 2.5935680669899855e-17 -0.6888032370184852 -0.7120206035710825 -0.14332746956171996 0.01095256235976847 0.0 2.9763785537712544e-16 -7.933979533909596 -6.011726817990887 -0.5915825825461467 0.04546827222820569 0.0 2.1186654567718506 -1.4027631918536585 1.880627155303955 -3.2781675497638147 -1.0854561964618128 -0.6706245581256312 0.0 0.0 -0.0 0.0 0.0 0.0 -0.0583190992474556 -0.6213226914405823 -0.6511926054954529 -0.11637535691261292 0.13092228770256042 0.002237987704575062 -0.0560760572552681 -0.6258087754249573 -0.660342812538147 -0.11525636911392212 0.13316026329994202 0.0033569815568625927 0.30000666202075305 -0.19999959439825452 0.3499569260686583 -1.6275716389178665 1.6277123624049865 -1.6273991832553112 0.0 0.0 0.0 0.0 0.0 0.0 3.508071176896282 3.0380193939782587 2.7526135772069775 -0.0663280340173201 0.45700082815959325 -0.8626452930938047 0.2999999999776341 -0.20000000000006898 0.34999999999209913 -1.6275987284298632 1.6275987284683486 -1.6275987284942297 0.0 0.0 0.0 0.0 0.0 0.0
6673.3279999999995 2.118646307606494 -1.40281505794281 1.8805336864108488 -3.2781602887468964 -1.0854527922577866 -0.6706776974867843 0.0 0.0 0.0 -0.0 0.0 -0.0 0.0 0.0 0.0 0.0 0.0 0.0 2.5935680669899855e-17 -0.6888032370184852 -0.7120206035710825 -0.14332746956171996 0.01095256235976847 0.0 2.9763785537712544e-16 -7.933979533909596 -6.011726817990887 -0.5915825825461467 0.04546827222820569 0.0 2.118617296218872 -1.40271503130068 1.8805913925170898 -3.27820331255068 -1.0854561964618128 -0.6706002394305628 0.0 0.0 -0.0 0.0 0.0 0.0 -0.0560760572552681 -0.6213226914405823 -0.660342812538147 -0.10966140031814575 0.1353982537984848 0.002237987704575062 -0.0560760572552681 -0.6258087754249573 -0.660342812538147 -0.11525636911392212 0.13316026329994202 0.004475975409150124 0.3000017687442628 -0.2000217522549455 0.34995489613708025 -1.6275153987472843 1.6277601433812334 -1.6274387648454613 0.0 0.0 0.0 0.0 0.0 0.0 3.099870559688072 3.288847373779775 2.3533576634167486 -0.09637620084172838 0.4177421225891027 -0.885169281162648 0.2999999999776341 -0.20000000000006898 0.34999999999209913 -1.6275987284298632 1.6275987284683486 -1.6275987284942297 0.0 0.0 0.0 0.0 0.0 0.0
6673.335999999999 2.118646307606494 -1.40281505794281 1.8805336864108488 -3.2781602887468964 -1.0854527922577866 -0.6706776974867843 0.0 0.0 0.0 -0.0 0.0 -0.0 0.0 0.0 0.0 0.0 0.0 0.0 2.5935680669899855e-17 -0.6888032370184852 -0.7120206035710825 -0.14332746956171996 0.01095256235976847 0.0 2.9763785537712544e-16 -7.933979533909596 -6.011726817990887 -0.5915825825461467 0.04546827222820569 0.0 2.1186654567718506 -1.4027751127826136 1.8805670738220215 -3.2782157103167933 -1.085491959248678 -0.6706364790545862 0.0 0.0 -0.0 0.0 0.0 0.0 -0.0560760572552681 -0.6302948594093323 -0.6649179458618164 -0.11637535691261292 0.13204127550125122 0.0033569815568625927 -0.0560760572552681 -0.6258087754249573 -0.6588177680969238 -0.11525636911392212 0.13316026329994202 0.004475975409150124 0.3000038763367846 -0.19999986830160885 0.34998227334203263 -1.6275624340522172 1.6276550593081573 -1.627567005867865 0.0 0.0 0.0 0.0 0.0 0.0 3.2817690864863267 3.087489803248053 2.1497322111703876 -0.09706398856315666 0.41204452478946996 -0.8610800050047172 0.2999999999776341 -0.20000000000006898 0.34999999999209913 -1.6275987284298632 1.6275987284683486 -1.6275987284942297 0.0 0.0 0.0 0.0 0.0 0.0
6673.344 2.118646307606494 -1.40281505794281 1.8805336864108488 -3.2781602887468964 -1.0854527922577866 -0.6706776974867843 0.0 0.0 0.0 -0.0 0.0 -0.0 0.0 0.0 0.0 0.0 0.0 0.0 2.5935680669899855e-17 -0.6888032370184852 -0.7120206035710825 -0.14332746956171996 0.01095256235976847 0.0 2.9763785537712544e-16 -7.933979533909596 -6.011726817990887 -0.5915825825461467 0.04546827222820569 0.0 2.1186892986297607 -1.4027512709247034 1.880627155303955 -3.27820331255068 -1.085491959248678 -0.6706483999835413 0.0 0.0 -0.0 0.0 0.0 0.0 -0.0515899695456028 -0.6347809433937073 -0.6466174721717834 -0.12197033315896988 0.1353982537984848 0.002237987704575062 -0.0560760572552681 -0.6258087754249573 -0.6572927236557007 -0.11525636911392212 0.13316026329994202 0.0033569815568625927 0.300010076056867 -0.19999520800869994 0.3499560593245839 -1.6276021800725966 1.627693413372546 -1.6274453909346416 0.0 0.0 0.0 0.0 0.0 0.0 4.1081169048653035 2.3659973780636614 2.656752279898014 -0.08578470507514564 0.42542378594292507 -0.8676170824434452 0.2999999999776341 -0.20000000000006898 0.34999999999209913 -1.6275987284298632 1.6275987284683486 -1.6275987284942297 0.0 0.0 0.0 0.0 0.0 0.0
6673.352 2.118646307606494 -1.40281505794281 1.8805336864108488 -3.2781602887468964 -1.0854527922577866 -0.6706776974867843 0.0 0.0 0.0 -0.0 0.0 -0.0 0.0 0.0 0.0 0.0 0.0 0.0 2.5935680669899855e-17 -0.6888032370184852 -0.7120206035710825 -0.14332746956171996 0.01095256235976847 0.0 2.9763785537712544e-16 -7.933979533909596 -6.011726817990887 -0.5915825825461467 0.04546827222820569 0.0 2.1186413764953613 -1.4027751127826136 1.880603313446045 -3.2782157103167933 -1.085503880177633 -0.6706121603595179 0.0 0.0 -0.0 0.0 0.0 0.0 -0.0538330152630806 -0.6258087754249573 -0.6618678569793701 -0.1197323426604271 0.1353982537984848 0.001118993852287531 -0.0560760572552681 -0.6258087754249573 -0.6588177680969238 -0.11525636911392212 0.13316026329994202 0.004475975409150124 0.29999771320738694 -0.2000066239795385 0.3499717440529627 -1.6275265240832189 1.627733407054994 -1.6275291866352144 0.0 0.0 0.0 0.0 0.0 0.0 3.1649430635542846 3.1030184910037284 2.423230860764889 -0.06658354501283673 0.4507322964672538 -0.8712370270906286 0.2999999999776341 -0.20000000000006898 0.34999999999209913 -1.6275987284298632 1.6275987284683486 -1.6275987284942297 0.0 0.0 0.0 0.0 0.0 0.0
6673.36 2.118646307606494 -1.40281505794281 1.8805336864108488 -3.2781602887468964 -1.0854527922577866 -0.6706776974867843 0.0 0.0 0.0 -0.0 0.0 -0.0 0.0 0.0 0.0 0.0 0.0 0.0 2.5935680669899855e-17 -0.6888032370184852 -0.7120206035710825 -0.14332746956171996 0.01095256235976847 0.0 2.9763785537712544e-16 -7.933979533909596 -6.011726817990887 -0.5915825825461467 0.04546827222820569 0.0 2.1186654567718506 -1.4027388731585901 1.8806390762329102 -3.27820331255068 -1.0854561964618128 -0.6706364790545862 0.0 0.0 -0.0 0.0 0.0 0.0 -0.0560760572552681 -0.6258087754249573 -0.652717649936676 -0.10854240506887436 0.13204127550125122 0.0055949692614376545 -0.0560760572552681 -0.6258087754249573 -0.6572927236557007 -0.11525636911392212 0.13316026329994202 0.004475975409150124 0.30000785533859314 -0.20000156830153237 0.34994903639581015 -1.627584419545375 1.62770592021037 -1.6274043324546719 0.0 0.0 0.0 0.0 0.0 0.0 3.5528735386546413 2.919254782588865 2.4201169085265883 -0.11885211618862573 0.39806252383658075 -0.8648473570057884 0.2999999999776341 -0.20000000000006898 0.34999999999209913 -1.6275987284298632 1.6275987284683486 -1.6275987284942297 0.0 0.0 0.0 0.0 0.0 0.0
6673.3679999999995 2.118646307606494 -1.40281505794281 1.8805336864108488 -3.2781602887468964 -1.0854527922577866 -0.6706776974867843 0.0 0.0 0.0 -0.0 0.0 -0.0 0.0 0.0 0.0 0.0 0.0 0.0 2.5935680669899855e-17 -0.6888032370184852 -0.7120206035710825 -0.14332746956171996 0.01095256235976847 0.0 2.9763785537712544e-16 -7.933979533909596 -6.011726817990887 -0.5915825825461467 0.04546827222820569 0.0 2.1186654567718506 -1.4027751127826136 1.880603313446045 -3.2781551519977015 -1.0854681173907679 -0.6706121603595179 0.0 0.0 -0.0 0.0 0.0 0.0 -0.0538330152630806 -0.6280518174171448 -0.6557676792144775 -0.11301837861537933 0.134279265999794 0.002237987704575062 -0.0560760572552681 -0.6258087754249573 -0.6572927236557007 -0.11525636911392212 0.13316026329994202 0.004475975409150124 0.3000058262566069 -0.19999984344409016 0.3499662993894907 -1.6275534527098654 1.6277146952042694 -1.6274271439959807 0.0 0.0 0.0 0.0 0.0 0.0 3.492540570442806 2.8897109012696993 2.3802947350728174 -0.100957260506257 0.4016420461112308 -0.8727666724091525 0.2999999999776341 -0.20000000000006898 0.34999999999209913 -1.6275987284298632 1.6275987284683486 -1.6275987284942297 0.0 0.0 0.0 0.0 0.0 0.0
6673.375999999999 2.118646307606494 -1.40281505794281 1.8805336864108488 -3.2781602887468964 -1.0854527922577866 -0.6706776974867843 0.0 0.0 0.0 -0.0 0.0 -0.0 0.0 0.0 0.0 0.0 0.0 0.0 2.5935680669899855e-17 -0.6888032370184852 -0.7120206035710825 -0.14332746956171996 0.01095256235976847 0.0 2.9763785537712544e-16 -7.933979533909596 -6.011726817990887 -0.5915825825461467 0.04546827222820569 0.0 2.1186413764953613 -1.4027870337115687 1.880615234375 -3.27820331255068 -1.085491959248678 -0.6706121603595179 0.0 0.0 -0.0 0.0 0.0 0.0 -0.0605621412396431 -0.6190796494483948 -0.6618678569793701 -0.10742340981960297 0.134279265999794 0.0033569815568625927 -0.0560760572552681 -0.6258087754249573 -0.6633929014205933 -0.11525636911392212 0.13316026329994202 0.0033569815568625927 0.29999708768726197 -0.20000395458859394 0.34997117138000317 -1.6275299154818048 1.6277300696559227 -1.6275084431352085 0.0 0.0 0.0 0.0 0.0 0.0 3.0987260274500583 3.5069892986009883 2.3187578477558346 -0.1028336509070388 0.42201766420731573 -0.8925891711260155 0.2999999999776341 -0.20000000000006898 0.34999999999209913 -1.6275987284298632 1.6275987284683486 -1.6275987284942297 0.0 0.0 0.0 0.0 0.0 0.0
6673.384 2.118646307606494 -1.40281505794281 1.8805336864108488 -3.2781602887468964 -1.0854527922577866 -0.6706776974867843 0.0 0.0 0.0 -0.0 0.0 -0.0 0.0 0.0 0.0 0.0 0.0 0.0 2.5935680669899855e-17 -0.6888032370184852 -0.7120206035710825 -0.14332746956171996 0.01095256235976847 0.0 2.9763785537712544e-16 -7.933979533909596 -6.011726817990887 -0.5915825825461467 0.04546827222820569 0.0 2.1186773777008057 -1.4027751127826136 1.8806509971618652 -3.2782157103167933 -1.0854681173907679 -0.6706245581256312 0.0 0.0 -0.0 0.0 0.0 0.0 -0.0538330152630806 -0.6302948594093323 -0.660342812538147 -0.11413737386465073 0.13875523209571838 0.0033569815568625927 -0.0560760572552681 -0.6258087754249573 -0.6557676792144775 -0.11525636911392212 0.13316026329994202 0.0033569815568625927 0.30000536555820184 -0.19999165832855956 0.3499585324639584 -1.6275714592872983 1.6276854433238732 -1.6274427799516407 0.0 0.0 0.0 0.0 0.0 0.0 3.469586721082749 2.9765540568279727 2.2231038580167866 -0.1112689779610069 0.4080931817583065 -0.8941995885068239 0.2999999999776341 -0.20000000000006898 0.34999999999209913 -1.6275987284298632 1.6275987284683486 -1.6275987284942297 0.0 0.0 0.0 0.0 0.0 0.0
6673.392 2.118646307606494 -1.40281505794281 1.8805336864108488 -3.2781602887468964 -1.0854527922577866 -0.6706776974867843 0.0 0.0 0.0 -0.0 0.0 -0.0 0.0 0.0 0.0 0.0 0.0 0.0 2.5935680669899855e-17 -0.6888032370184852 -0.7120206035710825 -0.14332746956171996 0.01095256235976847 0.0 2.9763785537712544e-16 -7.933979533909596 -6.011726817990887 -0.5915825825461467 0.04546827222820569 0.0 2.1186654567718506 -1.4027751127826136 1.8806509971618652 -3.2782157103167933 -1.085480038319723 -0.6706603209124964 0.0 0.0 -0.0 0.0 0.0 0.0 -0.0605621412396431 -0.6168366074562073 -0.6588177680969238 -0.10854240506887436 0.13987423479557037 0.004475975409150124 -0.0560760572552681 -0.6258087754249573 -0.6618678569793701 -0.11525636911392212 0.13316026329994202 0.0033569815568625927 0.30000246596229824 -0.1999960568560494 0.3499583835407161 -1.6276015018064873 1.627690770401706 -1.627471829299762 0.0 0.0 0.0 0.0 0.0 0.0 3.1935367165701862 3.5325976933120837 2.483588178853688 -0.10019054003869673 0.45502626289005865 -0.9192279053040997 0.2999999999776341 -0.20000000000006898 0.34999999999209913 -1.6275987284298632 1.6275987284683486 -1.6275987284942297 0.0 0.0 0.0 0.0 0.0 0.0
6673.4 2.118646307606494 -1.40281505794281 1.8805336864108488 -3.2781602887468964 -1.0854527922577866 -0.6706776974867843 0.0 0.0 0.0 -0.0 0.0 -0.0 0.0 0.0 0.0 0.0 0.0 0.0 2.5935680669899855e-17 -0.6888032370184852 -0.7120206035710825 -0.14332746956171996 0.01095256235976847 0.0 2.9763785537712544e-16 -7.933979533909596 -6.011726817990887 -0.5915825825461467 0.04546827222820569 0.0 2.1186773777008057 -1.4027388731585901 1.880627155303955 -3.2782395521747034 -1.085480038319723 -0.6706245581256312 0.0 0.0 -0.0 0.0 0.0 0.0 -0.0493469275534153 -0.6190796494483948 -0.660342812538147 -0.11637535691261292 0.1353982537984848 0.0033569815568625927 -0.0560760572552681 -0.6258087754249573 -0.660342812538147 -0.11525636911392212 0.13316026329994202 0.004475975409150124 0.300008434768429 -0.19999831969743764 0.34995567868112154 -1.627568184404693 1.6276893888134416 -1.6274623337961163 0.0 0.0 0.0 0.0 0.0 0.0 2.707017651208205 3.1480581583416054 2.563046941128703 -0.061727222534033 0.46871875662402523 -0.8508946041984875 0.2999999999776341 -0.20000000000006898 0.34999999999209913 -1.6275987284298632 1.6275987284683486 -1.6275987284942297 0.0 0.0 0.0 0.0 0.0 0.0
6673.407999999999 2.118646307606494 -1.40281505794281 1.8805336864108488 -3.2781602887468964 -1.0854527922577866 -0.6706776974867843 0.0 0.0 0.0 -0.0 0.0 -0.0 0.0 0.0 0.0 0.0 0.0 0.0 2.5935680669899855e-17 -0.6888032370184852 -0.7120206035710825 -0.14332746956171996 0.01095256235976847 0.0 2.9763785537712544e-16 -7.933979533909596 -6.011726817990887 -0.5915825825461467 0.04546827222820569 0.0 2.1186654567718506 -1.4027512709247034 1.880615234375 -3.278191391621725 -1.0854681173907679 -0.6706121603595179 0.0 0.0 -0.0 0.0 0.0 0.0 -0.0583190992474556 -0.6235657334327698 -0.6572927236557007 -0.1186133474111557 0.13316026329994202 0.0033569815568625927 -0.0560760572552681 -0.6258087754249573 -0.660342812538147 -0.11525636911392212 0.13316026329994202 0.004475975409150124 0.30000695689373974 -0.20000171392424532 0.3499586120165148 -1.6275533332992413 1.6277141932791055 -1.6274276442149371 0.0 0.0 0.0 0.0 0.0 0.0 3.390977864589613 3.1407617812661472 2.5794296882698866 -0.0699687081087035 0.46633649859428666 -0.8700581921754827 0.2999999999776341 -0.20000000000006898 0.34999999999209913 -1.6275987284298632 1.6275987284683486 -1.6275987284942297 0.0 0.0 0.0 0.0 0.0 0.0
6673.415999999999 2.118646307606494 -1.40281505794281 1.8805336864108488 -3.2781602887468964 -1.0854527922577866 -0.6706776974867843 0.0 0.0 0.0 -0.0 0.0 -0.0 0.0 0.0 0.0 0.0 0.0 0.0 2.5935680669899855e-17 -0.6888032370184852 -0.7120206035710825 -0.14332746956171996 0.01095256235976847 0.0 2.9763785537712544e-16 -7.933979533909596 -6.011726817990887 -0.5915825825461467 0.04546827222820569 0.0 2.118617296218872 -1.40271503130068 1.880615234375 -3.27820331255068 -1.0854318777667444 -0.6706245581256312 0.0 0.0 -0.0 0.0 0.0 0.0 -0.0605621412396431 -0.6235657334327698 -0.6542426943778992 -0.11413737386465073 0.13987423479557037 0.0055949692614376545 -0.0560760572552681 -0.6258087754249573 -0.6557676792144775 -0.11749435216188431 0.13316026329994202 0.0033569815568625927 0.30000227309233124 -0.20001922542302766 0.34994837087804 -1.6275481093926967 1.6277386045769964 -1.627409954292072 0.0 0.0 0.0 0.0 0.0 0.0 3.692513622117465 3.1878064890291005 2.560250111992608 -0.1014499362946243 0.46168097853225687 -0.9156680427658282 0.2999999999776341 -0.20000000000006898 0.34999999999209913 -1.6275987284298632 1.6275987284683486 -1.6275987284942297 0.0 0.0 0.0 0.0 0.0 0.0
6673.424 2.118646307606494 -1.40281505794281 1.8805336864108488 -3.2781602887468964 -1.0854527922577866 -0.6706776974867843 0.0 0.0 0.0 -0.0 0.0 -0.0 0.0 0.0 0.0 0.0 0.0 0.0 2.5935680669899855e-17 -0.6888032370184852 -0.7120206035710825 -0.14332746956171996 0.01095256235976847 0.0 2.9763785537712544e-16 -7.933979533909596 -6.011726817990887 -0.5915825825461467 0.04546827222820569 0.0 2.1186532974243164 -1.4027512709247034 1.880627155303955 -3.27820331255068 -1.0854442755328577 -0.6705883185016077 0.0 0.0 -0.0 0.0 0.0 0.0 -0.0515899695456028 -0.6235657334327698 -0.6542426943778992 -0.13204127550125122 0.1376362442970276 0.006713963113725185 -0.0560760572552681 -0.6258087754249573 -0.6572927236557007 -0.11413737386465073 0.13316026329994202 0.0033569815568625927 0.300004937771256 -0.20000271982774742 0.3499566550459847 -1.6275242376225298 1.6277154993015441 -1.627410215452138 0.0 0.0 0.0 0.0 0.0 0.0 3.283838321993875 2.857548723828833 2.964279077589573 -0.026111242450154868 0.5652949685790604 -0.8502456571316113 0.2999999999776341 -0.20000000000006898 0.34999999999209913 -1.6275987284298632 1.6275987284683486 -1.6275987284942297 0.0 0.0 0.0 0.0 0.0 0.0
6673.432 2.118646307606494 -1.40281505794281 1.8805336864108488 -3.2781602887468964 -1.0854527922577866 -0.6706776974867843 0.0 0.0 0.0 -0.0 0.0 -0.0 0.0 0.0 0.0 0.0 0.0 0.0 2.5935680669899855e-17 -0.6888032370184852 -0.7120206035710825 -0.14332746956171996 0.01095256235976847 0.0 2.9763785537712544e-16 -7.933979533909596 -6.011726817990887 -0.5915825825461467 0.04546827222820569 0.0 2.1186413764953613 -1.4027751127826136 1.880615234375 -3.27817947069277 -1.0854681173907679 -0.6706364790545862 0.0 0.0 -0.0 0.0 0.0 0.0 -0.0560760572552681 -0.6235657334327698 -0.660342812538147 -0.1186133474111557 0.13987423479557037 0.0033569815568625927 -0.0560760572552681 -0.6258087754249573 -0.660342812538147 -0.11525636911392212 0.13316026329994202 0.0033569815568625927 0.3000000336649049 -0.2000054743364517 0.34996525063142714 -1.627564286036616 1.6277177923473398 -1.6274655498014876 0.0 0.0 0.0 0.0 0.0 0.0 3.2685075093884537 3.2225822567139746 2.496112534193413 -0.07582517631739567 0.4743747803490194 -0.8989618910760611 0.2999999999776341 -0.20000000000006898 0.34999999999209913 -1.6275987284298632 1.6275987284683486 -1.6275987284942297 0.0 0.0 0.0 0.0 0.0 0.0
6673.44 2.118646307606494 -1.40281505794281 1.8805336864108488 -3.2781602887468964 -1.0854527922577866 -0.6706776974867843 0.0 0.0 0.0 -0.0 0.0 -0.0 0.0 0.0 0.0 0.0 0.0 0.0 2.5935680669899855e-17 -0.6888032370184852 -0.7120206035710825 -0.14332746956171996 0.01095256235976847 0.0 2.9763785537712544e-16 -7.933979533909596 -6.011726817990887 -0.5915825825461467 0.04546827222820569 0.0 2.118701219558716 -1.4027512709247034 1.8805913925170898 -3.27820331255068 -1.0854561964618128 -0.6706483999835413 0.0 0.0 -0.0 0.0 0.0 0.0 -0.0605621412396431 -0.6280518174171448 -0.660342812538147 -0.11301837861537933 0.13092228770256042 0.0033569815568625927 -0.0560760572552681 -0.6258087754249573 -0.660342812538147 -0.11525636911392212 0.13316026329994202 0.0033569815568625927 0.30001482741590574 -0.1999904389811254 0.34996674982558235 -1.6276085657036752 1.6276170175109348 -1.6274649912821841 0.0 0.0 0.0 0.0 0.0 0.0 3.5355946164381904 3.1523140504908502 2.2555457737152564 -0.10480296555821814 0.4063840343048182 -0.8735712105381847 0.2999999999776341 -0.20000000000006898 0.34999999999209913 -1.6275987284298632 1.6275987284683486 -1.6275987284942297 0.0 0.0 0.0 0.0 0.0 0.0
6673.447999999999 2.118646307606494 -1.40281505794281 1.8805336864108488 -3.2781602887468964 -1.0854527922577866 -0.6706776974867843 0.0 0.0 0.0 -0.0 0.0 -0.0 0.0 0.0 0.0 0.0 0.0 0.0 2.5935680669899855e-17 -0.6888032370184852 -0.7120206035710825 -0.14332746956171996 0.01095256235976847 0.0 2.9763785537712544e-16 -7.933979533909596 -6.011726817990887 -0.5915825825461467 0.04546827222820569 0.0 2.1186532974243164 -1.4027751127826136 1.880615234375 -3.278191391621725 -1.0854681173907679 -0.6706245581256312 0.0 0.0 -0.0 0.0 0.0 0.0 -0.0515899695456028 -0.6347809433937073 -0.6572927236557007 -0.10742340981960297 0.12980328500270844 0.0033569815568625927 -0.0560760572552681 -0.6258087754249573 -0.660342812538147 -0.11525636911392212 0.13316026329994202 0.0033569815568625927 0.3000020733342387 -0.20000132518665106 0.3499664103561057 -1.6275564522194237 1.627702905800209 -1.6274682763928947 0.0 0.0 0.0 0.0 0.0 0.0 3.5756758899587098 2.654841535851283 2.0412092555805947 -0.14005102623565774 0.326941400102302 -0.8477882157465562 0.2999999999776341 -0.20000000000006898 0.34999999999209913 -1.6275987284298632 1.6275987284683486 -1.6275987284942297 0.0 0.0 0.0 0.0 0.0 0.0
6673.456 2.118646307606494 -1.40281505794281 1.8805336864108488 -3.2781602887468964 -1.0854527922577866 -0.6706776974867843 0.0 0.0 0.0 -0.0 0.0 -0.0 0.0 0.0 0.0 0.0 0.0 0.0 2.5935680669899855e-17 -0.6888032370184852 -0.7120206035710825 -0.14332746956171996 0.01095256235976847 0.0 2.9763785537712544e-16 -7.933979533909596 -6.011726817990887 -0.5915825825461467 0.04546827222820569 0.0 2.1186654567718506 -1.4027512709247034 1.8806872367858887 -3.2782395521747034 -1.0854561964618128 -0.6705644766436976 0.0 0.0 -0.0 0.0 0.0 0.0 -0.0605621412396431 -0.6235657334327698 -0.6588177680969238 -0.11525636911392212 0.13875523209571838 0.002237987704575062 -0.0560760572552681 -0.6258087754249573 -0.660342812538147 -0.11525636911392212 0.13316026329994202 0.0033569815568625927 0.30000442738519423 -0.19999601173273313 0.3499428224599225 -1.6275072129943793 1.6277456066214433 -1.627369870052617 0.0 0.0 0.0 0.0 0.0 0.0 3.5092905558854106 3.3067283009081385 2.461648865185353 -0.0877958661906011 0.4520144801963871 -0.9146223809394946 0.2999999999776341 -0.20000000000006898 0.34999999999209913 -1.6275987284298632 1.6275987284683486 -1.6275987284942297 0.0 0.0 0.0 0.0 0.0 0.0
6673.464 2.118646307606494 -1.40281505794281 1.8805336864108488 -3.2781602887468964 -1.0854527922577866 -0.6706776974867843 0.0 0.0 0.0 -0.0 0.0 -0.0 0.0 0.0 0.0 0.0 0.0 0.0 2.5935680669899855e-17 -0.6888032370184852 -0.7120206035710825 -0.14332746956171996 0.01095256235976847 0.0 2.9763785537712544e-16 -7.933979533909596 -6.011726817990887 -0.5915825825461467 0.04546827222820569 0.0 2.1186413764953613 -1.4027512709247034 1.8805913925170898 -3.27817947069277 -1.0854681173907679 -0.6706121603595179 0.0 0.0 -0.0 0.0 0.0 0.0 -0.0583190992474556 -0.6302948594093323 -0.6557676792144775 -0.1197323426604271 0.1376362442970276 0.004475975409150124 -0.0560760572552681 -0.6258087754249573 -0.660342812538147 -0.11525636911392212 0.13316026329994202 0.0033569815568625927 0.3000030324563151 -0.2000103603573732 0.3499642814675583 -1.627538242175357 1.6277312747098038 -1.6274536985777797 0.0 0.0 0.0 0.0 0.0 0.0 3.827453456201027 2.935013187337335 2.4721728844258686 -0.0936384514763495 0.45159176841867593 -0.8956496245788875 0.2999999999776341 -0.20000000000006898 0.34999999999209913 -1.6275987284298632 1.6275987284683486 -1.6275987284942297 0.0 0.0 0.0 0.0 0.0 0.0
6673.472 2.118646307606494 -1.40281505794281 1.8805336864108488 -3.2781602887468964 -1.0854527922577866 -0.6706776974867843 0.0 0.0 0.0 -0.0 0.0 -0.0 0.0 0.0 0.0 0.0 0.0 0.0 2.5935680669899855e-17 -0.6888032370184852 -0.7120206035710825 -0.14332746956171996 0.01095256235976847 0.0 2.9763785537712544e-16 -7.933979533909596 -6.011726817990887 -0.5915825825461467 0.04546827222820569 0.0 2.1186532974243164 -1.4027870337115687 1.8806509971618652 -3.2782157103167933 -1.0854561964618128 -0.6706483999835413 0.0 0.0 -0.0 0.0 0.0 0.0 -0.0515899695456028 -0.6258087754249573 -0.6557676792144775 -0.1186133474111557 0.14099322259426117 0.004475975409150124 -0.0560760572552681 -0.6258087754249573 -0.660342812538147 -0.11525636911392212 0.13316026329994202 0.0033569815568625927 0.2999998392933854 -0.19999604199782092 0.3499625804787779 -1.6275834938058462 1.6276767675404007 -1.6274745579692775 0.0 0.0 0.0 0.0 0.0 0.0 3.380193243350296 2.925355065572999 2.563142013348187 -0.08349629714841547 0.46594555597425563 -0.8898216535934845 0.2999999999776341 -0.20000000000006898 0.34999999999209913 -1.6275987284298632 1.6275987284683486 -1.6275987284942297 0.0 0.0 0.0 0.0 0.0 0.0
6673.48 2.118646307606494 -1.40281505794281 1.8805336864108488 -3.2781602887468964 -1.0854527922577866 -0.6706776974867843 0.0 0.0 0.0 -0.0 0.0 -0.0 0.0 0.0 0.0 0.0 0.0 0.0 2.5935680669899855e-17 -0.6888032370184852 -0.7120206035710825 -0.14332746956171996 0.01095256235976847 0.0 2.9763785537712544e-16 -7.933979533909596 -6.011726817990887 -0.5915825825461467 0.04546827222820569 0.0 2.1186413764953613 -1.4027512709247034 1.880603313446045 -3.27820331255068 -1.0854561964618128 -0.6705763975726526 0.0 0.0 -0.0 0.0 0.0 0.0 -0.0493469275534153 -0.6325379014015198 -0.660342812538147 -0.11078038811683655 0.14211222529411316 0.004475975409150124 -0.0560760572552681 -0.6258087754249573 -0.6618678569793701 -0.11525636911392212 0.13316026329994202 0.0033569815568625927 0.3000025852607473 -0.20000796776998997 0.34996333524783335 -1.6274998357115156 1.6277299179071811 -1.6274447472830336 0.0 0.0 0.0 0.0 0.0 0.0 3.4246430338937373 2.8337306830048385 2.090198391734613 -0.13468969767491068 0.3811908180911244 -0.900134046302336 0.2999999999776341 -0.20000000000006898 0.34999999999209913 -1.6275987284298632 1.6275987284683486 -1.6275987284942297 0.0 0.0 0.0 0.0 0.0 0.0
6673.487999999999 2.118646307606494 -1.40281505794281 1.8805336864108488 -3.2781602887468964 -1.0854527922577866 -0.6706776974867843 0.0 0.0 0.0 -0.0 0.0 -0.0 0.0 0.0 0.0 0.0 0.0 0.0 2.5935680669899855e-17 -0.6888032370184852 -0.7120206035710825 -0.14332746956171996 0.01095256235976847 0.0 2.9763785537712544e-16 -7.933979533909596 -6.011726817990887 -0.5915825825461467 0.04546827222820569 0.0 2.1186892986297607 -1.4027388731585901 1.880615234375 -3.27820331255068 -1.0854199568377894 -0.6705883185016077 0.0 0.0 -0.0 0.0 0.0 0.0 -0.0583190992474556 -0.6235657334327698 -0.6618678569793701 -0.10966140031814575 0.134279265999794 0.0055949692614376545 -0.0560760572552681 -0.6258087754249573 -0.6618678569793701 -0.11525636911392212 0.13204127550125122 0.0033569815568625927 0.30001473794636824 -0.1999927654707044 0.34995631828435825 -1.6275476394156436 1.6276518145860646 -1.627380154845508 0.0 0.0 0.0 0.0 0.0 0.0 3.201815078864631 3.3006322183700822 2.2540720678796475 -0.1119950872516287 0.42011807125662776 -0.8801845852522518 0.2999999999776341 -0.20000000000006898 0.34999999999209913 -1.6275987284298632 1.6275987284683486 -1.6275987284942297 0.0 0.0 0.0 0.0 0.0 0.0
6673.496 2.118646307606494 -1.40281505794281 1.8805336864108488 -3.2781602887468964 -1.0854527922577866 -0.6706776974867843 0.0 0.0 0.0 -0.0 0.0 -0.0 0.0 0.0 0.0 0.0 0.0 0.0 2.5935680669899855e-17 -0.6888032370184852 -0.7120206035710825 -0.14332746956171996 0.01095256235976847 0.0 2.9763785537712544e-16 -7.933979533909596 -6.011726817990887 -0.5915825825461467 0.04546827222820569 0.0 2.1186532974243164 -1.4027631918536585 1.880627155303955 -3.2782276312457483 -1.0854318777667444 -0.6706121603595179 0.0 0.0 -0.0 0.0 0.0 0.0 -0.0672912672162056 -0.6258087754249573 -0.6664429903030396 -0.11749435216188431 0.13875523209571838 0.002237987704575062 -0.0560760572552681 -0.6258087754249573 -0.6618678569793701 -0.11525636911392212 0.13204127550125122 0.002237987704575062 0.30000354514238464 -0.19999867781485206 0.3499630748949422 -1.6275462621366648 1.6276626687840339 -1.6274592593572965 0.0 0.0 0.0 0.0 0.0 0.0 3.5891827224821578 3.609083722675258 2.2461846255492004 -0.09069710649886288 0.4596143741590743 -0.9347309825677241 0.2999999999776341 -0.20000000000006898 0.34999999999209913 -1.6275987284298632 1.6275987284683486 -1.6275987284942297 0.0 0.0 0.0 0.0 0.0 0.0
6673.504 2.118646307606494 -1.40281505794281 1.8805336864108488 -3.2781602887468964 -1.0854527922577866 -0.6706776974867843 0.0 0.0 0.0 -0.0 0.0 -0.0 0.0 0.0 0.0 0.0 0.0 0.0 2.5935680669899855e-17 -0.6888032370184852 -0.7120206035710825 -0.14332746956171996 0.01095256235976847 0.0 2.9763785537712544e-16 -7.933979533909596 -6.011726817990887 -0.5915825825461467 0.04546827222820569 0.0 2.1186294555664062 -1.4027274290667933 1.8806390762329102 -3.278191391621725 -1.085491959248678 -0.6706364790545862 0.0 0.0 -0.0 0.0 0.0 0.0 -0.0538330152630806 -0.6280518174171448 -0.6511926054954529 -0.11749435216188431 0.1353982537984848 0.002237987704575062 -0.0560760572552681 -0.6258087754249573 -0.6618678569793701 -0.11525636911392212 0.1353982537984848 0.002237987704575062 0.30000062944323524 -0.20001734559371898 0.34994368654182506 -1.6275628702426403 1.6277990192925922 -1.6274113438396633 0.0 0.0 0.0 0.0 0.0 0.0 3.698524776128761 2.7597942670801445 2.6048449551411177 -0.08439327948664137 0.4327106597104435 -0.8750381241120995 0.2999999999776341 -0.20000000000006898 0.34999999999209913 -1.6275987284298632 1.6275987284683486 -1.6275987284942297 0.0 0.0 0.0 0.0 0.0 0.0
6673.512 2.118646307606494 -1.40281505794281 1.8805336864108488 -3.2781602887468964 -1.0854527922577866 -0.6706776974867843 0.0 0.0 0.0 -0.0 0.0 -0.0 0.0 0.0 0.0 0.0 0.0 0.0 2.5935680669899855e-17 -0.6888032370184852 -0.7120206035710825 -0.14332746956171996 0.01095256235976847 0.0 2.9763785537712544e-16 -7.933979533909596 -6.011726817990887 -0.5915825825461467 0.04546827222820569 0.0 2.1186294555664062 -1.4027751127826136 1.880615234375 -3.2781675497638147 -1.0854442755328577 -0.6706245581256312 0.0 0.0 -0.0 0.0 0.0 0.0 -0.0515899695456028 -0.6347809433937073 -0.652717649936676 -0.11413737386465073 0.13204127550125122 0.002237987704575062 -0.0560760572552681 -0.6258087754249573 -0.6618678569793701 -0.11525636911392212 0.134279265999794 0.002237987704575062 0.29999902494066005 -0.20000797908016726 0.3499643887662795 -1.6275498115495974 1.6277209964297927 -1.6274394981449714 0.0 0.0 0.0 0.0 0.0 0.0 3.805589967706573 2.529798965736806 2.31581364337879 -0.11314883684864527 0.3692976541063072 -0.8562759158533508 0.2999999999776341 -0.20000000000006898 0.34999999999209913 -1.6275987284298632 1.6275987284683486 -1.6275987284942297 0.0 0.0 0.0 0.0 0.0 0.0
6673.5199999999995 2.118646307606494 -1.40281505794281 1.8805336864108488 -3.2781602887468964 -1.0854527922577866 -0.6706776974867843 0.0 0.0 0.0 -0.0 0.0 -0.0 0.0 0.0 0.0 0.0 0.0 0.0 2.5935680669899855e-17 -0.6888032370184852 -0.7120206035710825 -0.14332746956171996 0.01095256235976847 0.0 2.9763785537712544e-16 -7.933979533909596 -6.011726817990887 -0.5915825825461467 0.04546827222820569 0.0 2.1186413764953613 -1.4027989546405237 1.880603313446045 -3.2782157103167933 -1.0854199568377894 -0.6706483999835413 0.0 0.0 -0.0 0.0 0.0 0.0 -0.0560760572552681 -0.6235657334327698 -0.6572927236557007 -0.10966140031814575 0.1376362442970276 0.0 -0.0560760572552681 -0.6258087754249573 -0.6618678569793701 -0.11525636911392212 0.13316026329994202 0.002237987704575062 0.299998890511858 -0.1999967987736128 0.34998059051729824 -1.6275732822400628 1.627607966402386 -1.6275341935664291 0.0 0.0 0.0 0.0 0.0 0.0 3.375028655457439 3.1707818969802286 2.3780373363206175 -0.09983958146431055 0.4016908894485567 -0.9046936887963057 0.2999999999776341 -0.20000000000006898 0.34999999999209913 -1.6275987284298632 1.6275987284683486 -1.6275987284942297 0.0 0.0 0.0 0.0 0.0 0.0
6673.527999999999 2.118646307606494 -1.40281505794281 1.8805336864108488 -3.2781602887468964 -1.0854527922577866 -0.6706776974867843 0.0 0.0 0.0 -0.0 0.0 -0.0 0.0 0.0 0.0 0.0 0.0 0.0 2.5935680669899855e-17 -0.6888032370184852 -0.7120206035710825 -0.14332746956171996 0.01095256235976847 0.0 2.9763785537712544e-16 -7.933979533909596 -6.011726817990887 -0.5915825825461467 0.04546827222820569 0.0 2.118605375289917 -1.4027512709247034 1.880615234375 -3.2782276312457483 -1.0854318777667444 -0.6705763975726526 0.0 0.0 -0.0 0.0 0.0 0.0 -0.0560760572552681 -0.6280518174171448 -0.6618678569793701 -0.11189938336610794 0.1376362442970276 0.002237987704575062 -0.0560760572552681 -0.6258087754249573 -0.6618678569793701 -0.11525636911392212 0.134279265999794 0.0055949692614376545 0.29999545974047614 -0.20001549745738575 0.34996259029596166 -1.6274812761034942 1.627733861616733 -1.6274651569886067 0.0 0.0 0.0 0.0 0.0 0.0 3.3864463014068975 3.1436569577688576 2.1889092897969693 -0.11067560034408704 0.40095471185565945 -0.8988922666872874 0.2999999999776341 -0.20000000000006898 0.34999999999209913 -1.6275987284298632 1.6275987284683486 -1.6275987284942297 0.0 0.0 0.0 0.0 0.0 0.0
6673.536 2.118646307606494 -1.40281505794281 1.8805336864108488 -3.2781602887468964 -1.0854527922577866 -0.6706776974867843 0.0 0.0 0.0 -0.0 0.0 -0.0 0.0 0.0 0.0 0.0 0.0 0.0 2.5935680669899855e-17 -0.6888032370184852 -0.7120206035710825 -0.14332746956171996 0.01095256235976847 0.0 2.9763785537712544e-16 -7.933979533909596 -6.011726817990887 -0.5915825825461467 0.04546827222820569 0.0 2.1186294555664062 -1.4027631918536585 1.880615234375 -3.27817947069277 -1.0854561964618128 -0.6705644766436976 0.0 0.0 -0.0 0.0 0.0 0.0 -0.0583190992474556 -0.6213226914405823 -0.6588177680969238 -0.11301837861537933 0.13092228770256042 0.0033569815568625927 -0.0560760572552681 -0.6258087754249573 -0.6618678569793701 -0.11525636911392212 0.13092228770256042 0.002237987704575062 0.29999939068196335 -0.20001024676007037 0.34996150039977675 -1.6274838520284383 1.6277668724467858 -1.6274161262245588 0.0 0.0 0.0 0.0 0.0 0.0 3.1880025189237355 3.2496502007581785 2.470370845259968 -0.08265499925792984 0.43859473522633846 -0.8621326736912175 0.2999999999776341 -0.20000000000006898 0.34999999999209913 -1.6275987284298632 1.6275987284683486 -1.6275987284942297 0.0 0.0 0.0 0.0 0.0 0.0
6673.544 2.118646307606494 -1.40281505794281 1.8805336864108488 -3.2781602887468964 -1.0854527922577866 -0.6706776974867843 0.0 0.0 0.0 -0.0 0.0 -0.0 0.0 0.0 0.0 0.0 0.0 0.0 2.5935680669899855e-17 -0.6888032370184852 -0.7120206035710825 -0.14332746956171996 0.01095256235976847 0.0 2.9763785537712544e-16 -7.933979533909596 -6.011726817990887 -0.5915825825461467 0.04546827222820569 0.0 2.1186654567718506 -1.4027512709247034 1.880603313446045 -3.2782157103167933 -1.085503880177633 -0.6706364790545862 0.0 0.0 -0.0 0.0 0.0 0.0 -0.0583190992474556 -0.6235657334327698 -0.6618678569793701 -0.11301837861537933 0.134279265999794 0.0033569815568625927 -0.0560760572552681 -0.6258087754249573 -0.6572927236557007 -0.11525636911392212 0.13316026329994202 0.0033569815568625927 0.3000049810974472 -0.20000343658401512 0.3499639457028481 -1.627569359394279 1.6277114849303975 -1.6275006092140143 0.0 0.0 0.0 0.0 0.0 0.0 3.2168664147972637 3.2948016410895047 2.3294801136245047 -0.09326473963913832 0.43198364260494343 -0.8814476650986086 0.2999999999776341 -0.20000000000006898 0.34999999999209913 -1.6275987284298632 1.6275987284683486 -1.6275987284942297 0.0 0.0 0.0 0.0 0.0 0.0
6673.552 2.118646307606494 -1.40281505794281 1.8805336864108488 -3.2781602887468964 -1.0854527922577866 -0.6706776974867843 0.0 0.0 0.0 -0.0 0.0 -0.0 0.0 0.0 0.0 0.0 0.0 0.0 2.5935680669899855e-17 -0.6888032370184852 -0.7120206035710825 -0.14332746956171996 0.01095256235976847 0.0 2.9763785537712544e-16 -7.933979533909596 -6.011726817990887 -0.5915825825461467 0.04546827222820569 0.0 2.1186294555664062 -1.4027631918536585 1.8805913925170898 -3.2781675497638147 -1.085480038319723 -0.6706245581256312 0.0 0.0 -0.0 0.0 0.0 0.0 -0.0560760572552681 -0.6302948594093323 -0.6633929014205933 -0.11637535691261292 0.13204127550125122 0.004475975409150124 -0.0560760572552681 -0.6258087754249573 -0.6618678569793701 -0.11525636911392212 0.13092228770256042 0.004475975409150124 0.29999925135604527 -0.20001331333017697 0.3499668720233882 -1.6275432845598246 1.6277496744493045 -1.6274714173480573 0.0 0.0 0.0 0.0 0.0 0.0 3.3376405334944854 3.042896969344752 2.1911322150424635 -0.0997845980295383 0.4170572650860274 -0.8589070653527953 0.2999999999776341 -0.20000000000006898 0.34999999999209913 -1.6275987284298632 1.6275987284683486 -1.6275987284942297 0.0 0.0 0.0 0.0 0.0 0.0
6673.5599999999995 2.118646307606494 -1.40281505794281 1.8805336864108488 -3.2781602887468964 -1.0854527922577866 -0.6706776974867843 0.0 0.0 0.0 -0.0 0.0 -0.0 0.0 0.0 0.0 0.0 0.0 0.0 2.5935680669899855e-17 -0.6888032370184852 -0.7120206035710825 -0.14332746956171996 0.01095256235976847 0.0 2.9763785537712544e-16 -7.933979533909596 -6.011726817990887 -0.5915825825461467 0.04546827222820569 0.0 2.1186532974243164 -1.4027388731585901 1.8805913925170898 -3.2782395521747034 -1.0854681173907679 -0.6706002394305628 0.0 0.0 -0.0 0.0 0.0 0.0 -0.0583190992474556 -0.6280518174171448 -0.6618678569793701 -0.1197323426604271 0.134279265999794 0.0055949692614376545 -0.0560760572552681 -0.6258087754249573 -0.6618678569793701 -0.11525636911392212 0.134279265999794 0.0033569815568625927 0.3000049549779918 -0.2000059958092858 0.34996607123868423 -1.6275252615921605 1.6276900399720249 -1.6274993477224171 0.0 0.0 0.0 0.0 0.0 0.0 3.418011721604286 3.1284073984515435 2.3648980097404424 -0.08633589124470574 0.46036249671492585 -0.8717669818451282 0.2999999999776341 -0.20000000000006898 0.34999999999209913 -1.6275987284298632 1.6275987284683486 -1.6275987284942297 0.0 0.0 0.0 0.0 0.0 0.0
6673.567999999999 2.118646307606494 -1.40281505794281 1.8805336864108488 -3.2781602887468964 -1.0854527922577866 -0.6706776974867843 0.0 0.0 0.0 -0.0 0.0 -0.0 0.0 0.0 0.0 0.0 0.0 0.0 2.5935680669899855e-17 -0.6888032370184852 -0.7120206035710825 -0.14332746956171996 0.01095256235976847 0.0 2.9763785537712544e-16 -7.933979533909596 -6.011726817990887 -0.5915825825461467 0.04546827222820569 0.0 2.1186413764953613 -1.4027388731585901 1.880615234375 -3.27817947069277 -1.085491959248678 -0.6706483999835413 0.0 0.0 -0.0 0.0 0.0 0.0 -0.0583190992474556 -0.6190796494483948 -0.6588177680969238 -0.13204127550125122 0.1353982537984848 0.004475975409150124 -0.0560760572552681 -0.6258087754249573 -0.6572927236557007 -0.11525636911392212 0.13316026329994202 0.0033569815568625927 0.3000027290031847 -0.20001325429037492 0.349953099211844 -1.6275789725369012 1.6277625640906366 -1.6274394645306327 0.0 0.0 0.0 0.0 0.0 0.0 3.1525059704085665 3.2726178274428555 2.9547917785777376 -0.009039866732755107 0.5810003889517712 -0.861943680581165 0.2999999999776341 -0.20000000000006898 0.34999999999209913 -1.6275987284298632 1.6275987284683486 -1.6275987284942297 0.0 0.0 0.0 0.0 0.0 0.0
6673.576 2.118646307606494 -1.40281505794281 1.8805336864108488 -3.2781602887468964 -1.0854527922577866 -0.6706776974867843 0.0 0.0 0.0 -0.0 0.0 -0.0 0.0 0.0 0.0 0.0 0.0 0.0 2.5935680669899855e-17 -0.6888032370184852 -0.7120206035710825 -0.14332746956171996 0.01095256235976847 0.0 2.9763785537712544e-16 -7.933979533909596 -6.011726817990887 -0.5915825825461467 0.04546827222820569 0.0 2.1186532974243164 -1.4027870337115687 1.880615234375 -3.27820331255068 -1.085480038319723 -0.6706245581256312 0.0 0.0 -0.0 0.0 0.0 0.0 -0.0583190992474556 -0.6280518174171448 -0.6542426943778992 -0.11301837861537933 0.13875523209571838 0.0055949692614376545 -0.0560760572552681 -0.6258087754249573 -0.6618678569793701 -0.11525636911392212 0.13316026329994202 0.0033569815568625927 0.2999999874040579 -0.19999955613858397 0.3499713202844642 -1.6275514405473757 1.627697922642498 -1.627502807806788 0.0 0.0 0.0 0.0 0.0 0.0 3.7906321611017666 2.993731931314661 2.4202242861707703 -0.11688325146123066 0.4277152842499328 -0.9058507144431487 0.2999999999776341 -0.20000000000006898 0.34999999999209913 -1.6275987284298632 1.6275987284683486 -1.6275987284942297 0.0 0.0 0.0 0.0 0.0 0.0
6673.584 2.118646307606494 -1.40281505794281 1.8805336864108488 -3.2781602887468964 -1.0854527922577866 -0.6706776974867843 0.0 0.0 0.0 -0.0 0.0 -0.0 0.0 0.0 0.0 0.0 0.0 0.0 2.5935680669899855e-17 -0.6888032370184852 -0.7120206035710825 -0.14332746956171996 0.01095256235976847 0.0 2.9763785537712544e-16 -7.933979533909596 -6.011726817990887 -0.5915825825461467 0.04546827222820569 0.0 2.1186413764953613 -1.4027989546405237 1.8805913925170898 -3.2782276312457483 -1.085480038319723 -0.6706245581256312 0.0 0.0 -0.0 0.0 0.0 0.0 -0.0605621412396431 -0.6347809433937073 -0.660342812538147 -0.11413737386465073 0.13316026329994202 0.001118993852287531 -0.0560760572552681 -0.6258087754249573 -0.6618678569793701 -0.11525636911392212 0.13316026329994202 0.0033569815568625927 0.29999622136271664 -0.20000079426550652 0.3499844143421414 -1.6275362325478206 1.6276666476542563 -1.6275808227763078 0.0 0.0 0.0 0.0 0.0 0.0 3.896996191388925 2.9791585712277695 2.107321974584308 -0.11776570703774154 0.3738400658730365 -0.8938837830548231 0.2999999999776341 -0.20000000000006898 0.34999999999209913 -1.6275987284298632 1.6275987284683486 -1.6275987284942297 0.0 0.0 0.0 0.0 0.0 0.0
6673.592 2.118646307606494 -1.40281505794281 1.8805336864108488 -3.2781602887468964 -1.0854527922577866 -0.6706776974867843 0.0 0.0 0.0 -0.0 0.0 -0.0 0.0 0.0 0.0 0.0 0.0 0.0 2.5935680669899855e-17 -0.6888032370184852 -0.7120206035710825 -0.14332746956171996 0.01095256235976847 0.0 2.9763785537712544e-16 -7.933979533909596 -6.011726817990887 -0.5915825825461467 0.04546827222820569 0.0 2.1186413764953613 -1.4027751127826136 1.8806872367858887 -3.2782276312457483 -1.0854442755328577 -0.6705763975726526 0.0 0.0 -0.0 0.0 0.0 0.0 -0.0538330152630806 -0.6190796494483948 -0.6633929014205933 -0.1186133474111557 0.13316026329994202 0.007832957431674004 -0.0560760572552681 -0.6258087754249573 -0.660342812538147 -0.11525636911392212 0.13316026329994202 0.004475975409150124 0.2999980199667442 -0.1999989501888986 0.34994960985732754 -1.627506500800471 1.6277436298204462 -1.6273958812839715 0.0 0.0 0.0 0.0 0.0 0.0 2.7156535897052856 3.3006321082633874 2.5302129697633107 -0.06484744361343414 0.5011456137604219 -0.8406399626557842 0.2999999999776341 -0.20000000000006898 0.34999999999209913 -1.6275987284298632 1.6275987284683486 -1.6275987284942297 0.0 0.0 0.0 0.0 0.0 0.0
6673.599999999999 2.118646307606494 -1.40281505794281 1.8805336864108488 -3.2781602887468964 -1.0854527922577866 -0.6706776974867843 0.0 0.0 0.0 -0.0 0.0 -0.0 0.0 0.0 0.0 0.0 0.0 0.0 2.5935680669899855e-17 -0.6888032370184852 -0.7120206035710825 -0.14332746956171996 0.01095256235976847 0.0 2.9763785537712544e-16 -7.933979533909596 -6.011726817990887 -0.5915825825461467 0.04546827222820569 0.0 2.1186294555664062 -1.4027631918536585 1.8806390762329102 -3.2782276312457483 -1.0854561964618128 -0.6706002394305628 0.0 0.0 -0.0 0.0 0.0 0.0 -0.0560760572552681 -0.6258087754249573 -0.6588177680969238 -0.10742340981960297 0.13316026329994202 0.002237987704575062 -0.0560760572552681 -0.6258087754249573 -0.660342812538147 -0.11525636911392212 0.13316026329994202 0.0033569815568625927 0.2999974515146359 -0.20000708297451833 0.3499593565450847 -1.627518627354505 1.6277290233375468 -1.627462691821302 0.0 0.0 0.0 0.0 0.0 0.0 3.33860951941781 3.1072007071886683 2.2294259057144306 -0.11636581115908419 0.37767131956682926 -0.8783655554572409 0.2999999999776341 -0.20000000000006898 0.34999999999209913 -1.6275987284298632 1.6275987284683486 -1.6275987284942297 0.0 0.0 0.0 0.0 0.0 0.0
6673.607999999999 2.118646307606494 -1.40281505794281 1.8805336864108488 -3.2781602887468964 -1.0854527922577866 -0.6706776974867843 0.0 0.0 0.0 -0.0 0.0 -0.0 0.0 0.0 0.0 0.0 0.0 0.0 2.5935680669899855e-17 -0.6888032370184852 -0.7120206035710825 -0.14332746956171996 0.01095256235976847 0.0 2.9763785537712544e-16 -7.933979533909596 -6.011726817990887 -0.5915825825461467 0.04546827222820569 0.0 2.118617296218872 -1.4027274290667933 1.880615234375 -3.2781675497638147 -1.0854561964618128 -0.6706121603595179 0.0 0.0 -0.0 0.0 0.0 0.0 -0.0583190992474556 -0.6235657334327698 -0.652717649936676 -0.10854240506887436 0.1365172564983368 0.0033569815568625927 -0.0560760572552681 -0.6258087754249573 -0.660342812538147 -0.11525636911392212 0.13316026329994202 0.0033569815568625927 0.30000098029492794 -0.20002052219421299 0.34994864299592154 -1.6275349179909684 1.6277882021636167 -1.6273878621185012 0.0 0.0 0.0 0.0 0.0 0.0 3.620746860115113 3.090298189878628 2.4767894510985524 -0.11261721222926475 0.4100760478914418 -0.900922587113103 0.2999999999776341 -0.20000000000006898 0.34999999999209913 -1.6275987284298632 1.6275987284683486 -1.6275987284942297 0.0 0.0 0.0 0.0 0.0 0.0
6673.616 2.118646307606494 -1.40281505794281 1.8805336864108488 -3.2781602887468964 -1.0854527922577866 -0.6706776974867843 0.0 0.0 0.0 -0.0 0.0 -0.0 0.0 0.0 0.0 0.0 0.0 0.0 2.5935680669899855e-17 -0.6888032370184852 -0.7120206035710825 -0.14332746956171996 0.01095256235976847 0.0 2.9763785537712544e-16 -7.933979533909596 -6.011726817990887 -0.5915825825461467 0.04546827222820569 0.0 2.1186413764953613 -1.4027512709247034 1.8806753158569336 -3.27820331255068 -1.085480038319723 -0.6706245581256312 0.0 0.0 -0.0 0.0 0.0 0.0 -0.0515899695456028 -0.6302948594093323 -0.6633929014205933 -0.11189938336610794 0.13092228770256042 0.006713963113725185 -0.0560760572552681 -0.6258087754249573 -0.660342812538147 -0.11525636911392212 0.13316026329994202 0.0033569815568625927 0.29999990138567806 -0.2000070464522121 0.3499424134239066 -1.6275584132342769 1.6277807933678545 -1.627393326796486 0.0 0.0 0.0 0.0 0.0 0.0 3.115672453161634 2.9267401457158475 2.0916218486327596 -0.11877818851894761 0.3917252728436801 -0.8373685343532106 0.2999999999776341 -0.20000000000006898 0.34999999999209913 -1.6275987284298632 1.6275987284683486 -1.6275987284942297 0.0 0.0 0.0 0.0 0.0 0.0
6673.624 2.118646307606494 -1.40281505794281 1.8805336864108488 -3.2781602887468964 -1.0854527922577866 -0.6706776974867843 0.0 0.0 0.0 -0.0 0.0 -0.0 0.0 0.0 0.0 0.0 0.0 0.0 2.5935680669899855e-17 -0.6888032370184852 -0.7120206035710825 -0.14332746956171996 0.01095256235976847 0.0 2.9763785537712544e-16 -7.933979533909596 -6.011726817990887 -0.5915825825461467 0.04546827222820569 0.0 2.118725299835205 -1.4027751127826136 1.880603313446045 -3.2782514731036585 -1.085503880177633 -0.6706002394305628 0.0 0.0 -0.0 0.0 0.0 0.0 -0.0583190992474556 -0.6302948594093323 -0.6618678569793701 -0.12197033315896988 0.1376362442970276 0.004475975409150124 -0.0560760572552681 -0.6258087754249573 -0.6618678569793701 -0.11525636911392212 0.13316026329994202 0.0033569815568625927 0.300013463468767 -0.19997972780625642 0.3499752231526881 -1.6275553712691837 1.6276239049713943 -1.6275255412220733 0.0 0.0 0.0 0.0 0.0 0.0 3.5793093978577564 3.087871675019179 2.3570217462830216 -0.08525114977877608 0.4639796777314148 -0.8917988181401683 0.2999999999776341 -0.20000000000006898 0.34999999999209913 -1.6275987284298632 1.6275987284683486 -1.6275987284942297 0.0 0.0 0.0 0.0 0.0 0.0
6673.632 2.118646307606494 -1.40281505794281 1.8805336864108488 -3.2781602887468964 -1.0854527922577866 -0.6706776974867843 0.0 0.0 0.0 -0.0 0.0 -0.0 0.0 0.0 0.0 0.0 0.0 0.0 2.5935680669899855e-17 -0.6888032370184852 -0.7120206035710825 -0.14332746956171996 0.01095256235976847 0.0 2.9763785537712544e-16 -7.933979533909596 -6.011726817990887 -0.5915825825461467 0.04546827222820569 0.0 2.1186413764953613 -1.4027631918536585 1.880627155303955 -3.278191391621725 -1.085491959248678 -0.6706002394305628 0.0 0.0 -0.0 0.0 0.0 0.0 -0.0538330152630806 -0.6235657334327698 -0.6557676792144775 -0.11413737386465073 0.13204127550125122 0.002237987704575062 -0.0560760572552681 -0.6258087754249573 -0.6618678569793701 -0.11525636911392212 0.13316026329994202 0.0033569815568625927 0.29999961028811734 -0.20000813947332202 0.34995879876188707 -1.6275239382098192 1.627771602941641 -1.6274453038962449 0.0 0.0 0.0 0.0 0.0 0.0 3.2508684334559668 2.996097037309983 2.5211748708782244 -0.080462238320728 0.42767046853001967 -0.8563570891467768 0.2999999999776341 -0.20000000000006898 0.34999999999209913 -1.6275987284298632 1.6275987284683486 -1.6275987284942297 0.0 0.0 0.0 0.0 0.0 0.0
6673.639999999999 2.118646307606494 -1.40281505794281 1.8805336864108488 -3.2781602887468964 -1.0854527922577866 -0.6706776974867843 0.0 0.0 0.0 -0.0 0.0 -0.0 0.0 0.0 0.0 0.0 0.0 0.0 2.5935680669899855e-17 -0.6888032370184852 -0.7120206035710825 -0.14332746956171996 0.01095256235976847 0.0 2.9763785537712544e-16 -7.933979533909596 -6.011726817990887 -0.5915825825461467 0.04546827222820569 0.0 2.1186413764953613 -1.4027512709247034 1.880627155303955 -3.27820331255068 -1.0854442755328577 -0.6706245581256312 0.0 0.0 -0.0 0.0 0.0 0.0 -0.0560760572552681 -0.6302948594093323 -0.6572927236557007 -0.12980328500270844 0.1365172564983368 0.002237987704575062 -0.0560760572552681 -0.6258087754249573 -0.6618678569793701 -0.11637535691261292 0.13316026329994202 0.0033569815568625927 0.3000025535317336 -0.20000629615108614 0.3499566550459847 -1.627556400314571 1.6277080815552143 -1.6274336300407535 0.0 0.0 0.0 0.0 0.0 0.0 3.6727373941167976 2.873819586456918 2.657694561686704 -0.04616674903928619 0.5009691603332812 -0.8751915280458735 0.2999999999776341 -0.20000000000006898 0.34999999999209913 -1.6275987284298632 1.6275987284683486 -1.6275987284942297 0.0 0.0 0.0 0.0 0.0 0.0
6673.648 2.118646307606494 -1.40281505794281 1.8805336864108488 -3.2781602887468964 -1.0854527922577866 -0.6706776974867843 0.0 0.0 0.0 -0.0 0.0 -0.0 0.0 0.0 0.0 0.0 0.0 0.0 2.5935680669899855e-17 -0.6888032370184852 -0.7120206035710825 -0.14332746956171996 0.01095256235976847 0.0 2.9763785537712544e-16 -7.933979533909596 -6.011726817990887 -0.5915825825461467 0.04546827222820569 0.0 2.118617296218872 -1.4027870337115687 1.8806390762329102 -3.27817947069277 -1.085503880177633 -0.6706121603595179 0.0 0.0 -0.0 0.0 0.0 0.0 -0.0515899695456028 -0.6168366074562073 -0.6572927236557007 -0.11413737386465073 0.13092228770256042 0.002237987704575062 -0.0560760572552681 -0.6258087754249573 -0.6618678569793701 -0.11637535691261292 0.13316026329994202 0.002237987704575062 0.2999918978505303 -0.20001229711866572 0.3499618737881754 -1.6275216992343144 1.6278033171120339 -1.6274687160134442 0.0 0.0 0.0 0.0 0.0 0.0 2.762252485631737 3.1645609017126373 2.6534137323531835 -0.05730298980913616 0.45721501107731577 -0.8380174298289143 0.2999999999776341 -0.20000000000006898 0.34999999999209913 -1.6275987284298632 1.6275987284683486 -1.6275987284942297 0.0 0.0 0.0 0.0 0.0 0.0
6673.656 2.118646307606494 -1.40281505794281 1.8805336864108488 -3.2781602887468964 -1.0854527922577866 -0.6706776974867843 0.0 0.0 0.0 -0.0 0.0 -0.0 0.0 0.0 0.0 0.0 0.0 0.0 2.5935680669899855e-17 -0.6888032370184852 -0.7120206035710825 -0.14332746956171996 0.01095256235976847 0.0 2.9763785537712544e-16 -7.933979533909596 -6.011726817990887 -0.5915825825461467 0.04546827222820569 0.0 2.1186413764953613 -1.4027631918536585 1.880627155303955 -3.27820331255068 -1.085491959248678 -0.6705883185016077 0.0 0.0 -0.0 0.0 0.0 0.0 -0.0583190992474556 -0.6258087754249573 -0.6588177680969238 -0.10966140031814575 0.13875523209571838 0.004475975409150124 -0.0560760572552681 -0.6258087754249573 -0.660342812538147 -0.11413737386465073 0.13316026329994202 0.002237987704575062 0.299999265743689 -0.20000756662762922 0.3499599585047971 -1.6275094644342556 1.6277694795663866 -1.627453826177969 0.0 0.0 0.0 0.0 0.0 0.0 3.503025410109453 3.1979152831600772 2.2784752190713538 -0.12061912828289217 0.412386799330531 -0.9096102480218728 0.2999999999776341 -0.20000000000006898 0.34999999999209913 -1.6275987284298632 1.6275987284683486 -1.6275987284942297 0.0 0.0 0.0 0.0 0.0 0.0
6673.664 2.118646307606494 -1.40281505794281 1.8805336864108488 -3.2781602887468964 -1.0854527922577866 -0.6706776974867843 0.0 0.0 0.0 -0.0 0.0 -0.0 0.0 0.0 0.0 0.0 0.0 0.0 2.5935680669899855e-17 -0.6888032370184852 -0.7120206035710825 -0.14332746956171996 0.01095256235976847 0.0 2.9763785537712544e-16 -7.933979533909596 -6.011726817990887 -0.5915825825461467 0.04546827222820569 0.0 2.1186654567718506 -1.4027388731585901 1.880603313446045 -3.27820331255068 -1.085503880177633 -0.6706483999835413 0.0 0.0 -0.0 0.0 0.0 0.0 -0.0583190992474556 -0.6235657334327698 -0.6572927236557007 -0.11413737386465073 0.1365172564983368 0.0 -0.0560760572552681 -0.6258087754249573 -0.6572927236557007 -0.11525636911392212 0.13316026329994202 0.002237987704575062 0.3000066143225036 -0.20000613136151157 0.3499586843864468 -1.627585661586857 1.6277230075014832 -1.6274765934699948 0.0 0.0 0.0 0.0 0.0 0.0 3.456346341252421 3.2006945924028747 2.478431689165171 -0.08264625095373589 0.4302084942820531 -0.9011264315591043 0.2999999999776341 -0.20000000000006898 0.34999999999209913 -1.6275987284298632 1.6275987284683486 -1.6275987284942297 0.0 0.0 0.0 0.0 0.0 0.0
6673.672 2.118646307606494 -1.40281505794281 1.8805336864108488 -3.2781602887468964 -1.0854527922577866 -0.6706776974867843 0.0 0.0 0.0 -0.0 0.0 -0.0 0.0 0.0 0.0 0.0 0.0 0.0 2.5935680669899855e-17 -0.6888032370184852 -0.7120206035710825 -0.14332746956171996 0.01095256235976847 0.0 2.9763785537712544e-16 -7.933979533909596 -6.011726817990887 -0.5915825825461467 0.04546827222820569 0.0 2.1186294555664062 -1.4027631918536585 1.8806390762329102 -3.278191391621725 -1.085480038319723 -0.6706245581256312 0.0 0.0 -0.0 0.0 0.0 0.0 -0.0538330152630806 -0.6302948594093323 -0.671018123626709 -0.11413737386465073 0.1365172564983368 0.0 -0.0560760572552681 -0.6258087754249573 -0.6618678569793701 -0.11525636911392212 0.13316026329994202 0.002237987704575062 0.29999746788856135 -0.20001046881282575 0.34995553310298205 -1.6275466416739668 1.6277670755596945 -1.6274427225391883 0.0 0.0 0.0 0.0 0.0 0.0 3.02019455118953 3.251156119126013 1.9339632957035444 -0.1011306666535181 0.38802824839896793 -0.8867381300578873 0.2999999999776341 -0.20000000000006898 0.34999999999209913 -1.6275987284298632 1.6275987284683486 -1.6275987284942297 0.0 0.0 0.0 0.0 0.0 0.0
6673.679999999999 2.118646307606494 -1.40281505794281 1.8805336864108488 -3.2781602887468964 -1.0854527922577866 -0.6706776974867843 0.0 0.0 0.0 -0.0 0.0 -0.0 0.0 0.0 0.0 0.0 0.0 0.0 2.5935680669899855e-17 -0.6888032370184852 -0.7120206035710825 -0.14332746956171996 0.01095256235976847 0.0 2.9763785537712544e-16 -7.933979533909596 -6.011726817990887 -0.5915825825461467 0.04546827222820569 0.0 2.1186532974243164 -1.4027989546405237 1.8806390762329102 -3.27820331255068 -1.085503880177633 -0.6706002394305628 0.0 0.0 -0.0 0.0 0.0 0.0 -0.0515899695456028 -0.6258087754249573 -0.6679680347442627 -0.11189938336610794 0.134279265999794 0.002237987704575062 -0.0560760572552681 -0.6258087754249573 -0.6618678569793701 -0.11525636911392212 0.13316026329994202 0.004475975409150124 0.2999971833862039 -0.1999983328844518 0.3499680923711973 -1.6275238771248313 1.6277451854022003 -1.6274884007183716 0.0 0.0 0.0 0.0 0.0 0.0 2.793119319050052 3.224567032102748 2.08239196628975 -0.09770103108321974 0.4005756400693731 -0.8621705688158562 0.2999999999776341 -0.20000000000006898 0.34999999999209913 -1.6275987284298632 1.6275987284683486 -1.6275987284942297 0.0 0.0 0.0 0.0 0.0 0.0
6673.688 2.118646307606494 -1.40281505794281 1.8805336864108488 -3.2781602887468964 -1.0854527922577866 -0.6706776974867843 0.0 0.0 0.0 -0.0 0.0 -0.0 0.0 0.0 0.0 0.0 0.0 0.0 2.5935680669899855e-17 -0.6888032370184852 -0.7120206035710825 -0.14332746956171996 0.01095256235976847 0.0 2.9763785537712544e-16 -7.933979533909596 -6.011726817990887 -0.5915825825461467 0.04546827222820569 0.0 2.1186413764953613 -1.4027388731585901 1.880603313446045 -3.2782395521747034 -1.0854442755328577 -0.6706002394305628 0.0 0.0 -0.0 0.0 0.0 0.0 -0.0605621412396431 -0.6258087754249573 -0.6588177680969238 -0.11078038811683655 0.13875523209571838 0.002237987704575062 -0.0560760572552681 -0.6258087754249573 -0.660342812538147 -0.11525636911392212 0.13316026329994202 0.002237987704575062 0.300003328101915 -0.20000750307269954 0.34996295451288406 -1.6275235373681538 1.6276865754759273 -1.627479076690999 0.0 0.0 0.0 0.0 0.0 0.0 3.611734465626346 3.259563426342168 2.3032443391265778 -0.11211052939282415 0.4125614930740126 -0.9209990036121727 0.2999999999776341 -0.20000000000006898 0.34999999999209913 -1.6275987284298632 1.6275987284683486 -1.6275987284942297 0.0 0.0 0.0 0.0 0.0 0.0
6673.696 2.118646307606494 -1.40281505794281 1.8805336864108488 -3.2781602887468964 -1.0854527922577866 -0.6706776974867843 0.0 0.0 0.0 -0.0 0.0 -0.0 0.0 0.0 0.0 0.0 0.0 0.0 2.5935680669899855e-17 -0.6888032370184852 -0.7120206035710825 -0.14332746956171996 0.01095256235976847 0.0 2.9763785537712544e-16 -7.933979533909596 -6.011726817990887 -0.5915825825461467 0.04546827222820569 0.0 2.1186532974243164 -1.4027870337115687 1.880615234375 -3.27820331255068 -1.085503880177633 -0.6706364790545862 0.0 0.0 -0.0 0.0 0.0 0.0 -0.0538330152630806 -0.6280518174171448 -0.6679680347442627 -0.11413737386465073 0.13316026329994202 0.0033569815568625927 -0.0560760572552681 -0.6258087754249573 -0.660342812538147 -0.11525636911392212 0.13316026329994202 0.0033569815568625927 0.2999989563839476 -0.20000120051676712 0.34997102247903317 -1.6275609836436662 1.6277162436847792 -1.6275203376524296 0.0 0.0 0.0 0.0 0.0 0.0 2.971864085211322 3.1943970242143926 2.074716551609578 -0.09887048297916548 0.40821755423719047 -0.8600211568756035 0.2999999999776341 -0.20000000000006898 0.34999999999209913 -1.6275987284298632 1.6275987284683486 -1.6275987284942297 0.0 0.0 0.0 0.0 0.0 0.0
6673.704 2.118646307606494 -1.40281505794281 1.8805336864108488 -3.2781602887468964 -1.0854527922577866 -0.6706776974867843 0.0 0.0 0.0 -0.0 0.0 -0.0 0.0 0.0 0.0 0.0 0.0 0.0 2.5935680669899855e-17 -0.6888032370184852 -0.7120206035710825 -0.14332746956171996 0.01095256235976847 0.0 2.9763785537712544e-16 -7.933979533909596 -6.011726817990887 -0.5915825825461467 0.04546827222820569 0.0 2.1186773777008057 -1.4027870337115687 1.8806509971618652 -3.278191391621725 -1.0854442755328577 -0.6706121603595179 0.0 0.0 -0.0 0.0 0.0 0.0 -0.0538330152630806 -0.6235657334327698 -0.6618678569793701 -0.11301837861537933 0.1353982537984848 0.001118993852287531 -0.0560760572552681 -0.6258087754249573 -0.660342812538147 -0.11525636911392212 0.13316026329994202 0.0033569815568625927 0.3000058735527609 -0.199989164248169 0.3499603635786252 -1.6275632004998668 1.6276765609613395 -1.6274101566624337 0.0 0.0 0.0 0.0 0.0 0.0 3.0557993437324726 3.196083332936949 2.3301699953076973 -0.0859937596301185 0.4201393175780588 -0.8772995276286664 0.2999999999776341 -0.20000000000006898 0.34999999999209913 -1.6275987284298632 1.6275987284683486 -1.6275987284942297 0.0 0.0 0.0 0.0 0.0 0.0
6673.7119999999995 2.118646307606494 -1.40281505794281 1.8805336864108488 -3.2781602887468964 -1.0854527922577866 -0.6706776974867843 0.0 0.0 0.0 -0.0 0.0 -0.0 0.0 0.0 0.0 0.0 0.0 0.0 2.5935680669899855e-17 -0.6888032370184852 -0.7120206035710825 -0.14332746956171996 0.01095256235976847 0.0 2.9763785537712544e-16 -7.933979533909596 -6.011726817990887 -0.5915825825461467 0.04546827222820569 0.0 2.118605375289917 -1.4027512709247034 1.880615234375 -3.2782157103167933 -1.0854561964618128 -0.6706364790545862 0.0 0.0 -0.0 0.0 0.0 0.0 -0.0560760572552681 -0.6302948594093323 -0.6557676792144775 -0.10630441457033157 0.13316026329994202 0.004475975409150124 -0.0560760572552681 -0.6258087754249573 -0.6618678569793701 -0.11525636911392212 0.13316026329994202 0.0033569815568625927 0.29999475263944636 -0.20001774760143737 0.3499611267842688 -1.627544030932402 1.6277346254107345 -1.6274920182751131 0.0 0.0 0.0 0.0 0.0 0.0 3.659781795006834 2.892065541441643 2.1715610107079883 -0.13985995114578245 0.35781611763200605 -0.8780935088583182 0.2999999999776341 -0.20000000000006898 0.34999999999209913 -1.6275987284298632 1.6275987284683486 -1.6275987284942297 0.0 0.0 0.0 0.0 0.0 0.0
6673.719999999999 2.118646307606494 -1.40281505794281 1.8805336864108488 -3.2781602887468964 -1.0854527922577866 -0.6706776974867843 0.0 0.0 0.0 -0.0 0.0 -0.0 0.0 0.0 0.0 0.0 0.0 0.0 2.5935680669899855e-17 -0.6888032370184852 -0.7120206035710825 -0.14332746956171996 0.01095256235976847 0.0 2.9763785537712544e-16 -7.933979533909596 -6.011726817990887 -0.5915825825461467 0.04546827222820569 0.0 2.1186773777008057 -1.4027751127826136 1.8806629180908203 -3.2782157103167933 -1.085503880177633 -0.6705644766436976 0.0 0.0 -0.0 0.0 0.0 0.0 -0.0628051832318306 -0.6280518174171448 -0.6633929014205933 -0.10854240506887436 0.13875523209571838 0.006713963113725185 -0.0560760572552681 -0.6258087754249573 -0.6618678569793701 -0.11525636911392212 0.13316026329994202 0.0055949692614376545 0.30000354544087343 -0.1999937001801687 0.3499546711326938 -1.6275039915724412 1.6277650706875224 -1.6274168391124342 0.0 0.0 0.0 0.0 0.0 0.0 3.5974911301106594 3.3671332722865412 2.070847716016368 -0.1406250973851392 0.406612712891852 -0.921511329718906 0.2999999999776341 -0.20000000000006898 0.34999999999209913 -1.6275987284298632 1.6275987284683486 -1.6275987284942297 0.0 0.0 0.0 0.0 0.0 0.0
6673.728 2.118646307606494 -1.40281505794281 1.8805336864108488 -3.2781602887468964 -1.0854527922577866 -0.6706776974867843 0.0 0.0 0.0 -0.0 0.0 -0.0 0.0 0.0 0.0 0.0 0.0 0.0 2.5935680669899855e-17 -0.6888032370184852 -0.7120206035710825 -0.14332746956171996 0.01095256235976847 0.0 2.9763785537712544e-16 -7.933979533909596 -6.011726817990887 -0.5915825825461467 0.04546827222820569 0.0 2.1186773777008057 -1.4028227964984339 1.8805789947509766 -3.2782276312457483 -1.085503880177633 -0.6706245581256312 0.0 0.0 -0.0 0.0 0.0 0.0 -0.0560760572552681 -0.6302948594093323 -0.660342812538147 -0.11413737386465073 0.1376362442970276 0.002237987704575062 -0.0560760572552681 -0.6258087754249573 -0.6618678569793701 -0.11525636911392212 0.13316026329994202 0.0033569815568625927 0.30000022277642013 -0.19998804262051048 0.34999546591891395 -1.6275479130552308 1.6276265769499025 -1.6276186524839291 0.0 0.0 0.0 0.0 0.0 0.0 3.5550733856041665 3.029201472325646 2.222740604982751 -0.10868553562460714 0.4038843475120315 -0.8982009950780022 0.2999999999776341 -0.20000000000006898 0.34999999999209913 -1.6275987284298632 1.6275987284683486 -1.6275987284942297 0.0 0.0 0.0 0.0 0.0 0.0
6673.736 2.118646307606494 -1.40281505794281 1.8805336864108488 -3.2781602887468964 -1.0854527922577866 -0.6706776974867843 0.0 0.0 0.0 -0.0 0.0 -0.0 0.0 0.0 0.0 0.0 0.0 0.0 2.5935680669899855e-17 -0.6888032370184852 -0.7120206035710825 -0.14332746956171996 0.01095256235976847 0.0 2.9763785537712544e-16 -7.933979533909596 -6.011726817990887 -0.5915825825461467 0.04546827222820569 0.0 2.1186892986297607 -1.4027512709247034 1.880615234375 -3.278191391621725 -1.0854442755328577 -0.6706002394305628 0.0 0.0 -0.0 0.0 0.0 0.0 -0.0605621412396431 -0.6258087754249573 -0.6557676792144775 -0.1197323426604271 0.1376362442970276 0.0 -0.0560760572552681 -0.6258087754249573 -0.6557676792144775 -0.11525636911392212 0.13316026329994202 0.0033569815568625927 0.30001275613099604 -0.1999929167082531 0.34995890988415385 -1.6275570689374936 1.6276703462620525 -1.6273985227306196 0.0 0.0 0.0 0.0 0.0 0.0 3.738235549536306 3.1402810941262556 2.5872719206822343 -0.07023106707063488 0.45843193517943204 -0.9104901522878451 0.2999999999776341 -0.20000000000006898 0.34999999999209913 -1.6275987284298632 1.6275987284683486 -1.6275987284942297 0.0 0.0 0.0 0.0 0.0 0.0
