mkrssg/UniversalRobots/rtde_client_3.5/examples/roboter/michi_movel_neu/movel_singularity.csv
timestamp target_q_0 target_q_1 target_q_2 target_q_3 target_q_4 target_q_5 target_qd_0 target_qd_1 target_qd_2 target_qd_3 target_qd_4 target_qd_5 target_qdd_0 target_qdd_1 target_qdd_2 target_qdd_3 target_qdd_4 target_qdd_5 target_current_0 target_current_1 target_current_2 target_current_3 target_current_4 target_current_5 target_moment_0 target_moment_1 target_moment_2 target_moment_3 target_moment_4 target_moment_5 actual_q_0 actual_q_1 actual_q_2 actual_q_3 actual_q_4 actual_q_5 actual_qd_0 actual_qd_1 actual_qd_2 actual_qd_3 actual_qd_4 actual_qd_5 actual_current_0 actual_current_1 actual_current_2 actual_current_3 actual_current_4 actual_current_5 joint_control_output_0 joint_control_output_1 joint_control_output_2 joint_control_output_3 joint_control_output_4 joint_control_output_5 actual_TCP_pose_0 actual_TCP_pose_1 actual_TCP_pose_2 actual_TCP_pose_3 actual_TCP_pose_4 actual_TCP_pose_5 actual_TCP_speed_0 actual_TCP_speed_1 actual_TCP_speed_2 actual_TCP_speed_3 actual_TCP_speed_4 actual_TCP_speed_5 actual_TCP_force_0 actual_TCP_force_1 actual_TCP_force_2 actual_TCP_force_3 actual_TCP_force_4 actual_TCP_force_5 target_TCP_pose_0 target_TCP_pose_1 target_TCP_pose_2 target_TCP_pose_3 target_TCP_pose_4 target_TCP_pose_5 target_TCP_speed_0 target_TCP_speed_1 target_TCP_speed_2 target_TCP_speed_3 target_TCP_speed_4 target_TCP_speed_5
6883.023999999999 1.6788797675175093 -1.8134368088825958 2.2452425546432897 -3.086304270181042 -0.6796436956938443 -0.8985071128283657 0.0 -0.0 0.0 -0.0 0.0 -0.0 0.0 0.0 0.0 0.0 0.0 0.0 -1.853434052301213e-17 -0.29782787236756275 -0.7334827071983453 -0.15741113106048782 0.025546459324926607 0.0 -2.1270008041473856e-16 -3.4305301093244838 -6.192935484284256 -0.6497127432656802 0.10605311605613185 0.0 1.678823709487915 -1.8134225050555628 2.2453598976135254 -3.0863564650165003 -0.6797078291522425 -0.8985021750079554 0.0 0.0 -0.0 0.0 0.0 0.0 0.0650482252240181 -0.2512207329273224 -0.7015189528465271 -0.2741535007953644 0.01678490824997425 -0.08840051293373108 0.0628051832318306 -0.2534637749195099 -0.6862685084342957 -0.2719154953956604 0.022379877045750618 -0.10406643152236938 0.1999852958087663 -0.20001086408636753 0.34996665445388814 -1.6275348974490982 1.627782947728286 -1.6275491306769525 0.0 0.0 0.0 0.0 0.0 0.0 -8.357259885871335 1.7433160341938638 5.606273853621835 1.0812203569973555 0.7385992422800102 0.485927758232033 0.19999999995866163 -0.19999999999522225 0.34999999992375186 -1.6275987285220286 1.6275987281600475 -1.6275987284607218 0.0 0.0 0.0 0.0 0.0 0.0
6883.031999999999 1.6788797675175093 -1.8134368088825958 2.2452425546432897 -3.086304270181042 -0.6796436956938443 -0.8985071128283657 0.0 -0.0 0.0 -0.0 0.0 -0.0 0.0 0.0 0.0 0.0 0.0 0.0 -1.853434052301213e-17 -0.29782787236756275 -0.7334827071983453 -0.15741113106048782 0.025546459324926607 0.0 -2.1270008041473856e-16 -3.4305301093244838 -6.192935484284256 -0.6497127432656802 0.10605311605613185 0.0 1.6788835525512695 -1.8134225050555628 2.2452878952026367 -3.086320702229635 -0.6797440687762659 -0.8985021750079554 0.0 0.0 -0.0 0.0 0.0 0.0 0.0583190992474556 -0.2557068169116974 -0.6908436417579651 -0.2730345129966736 0.024617865681648254 -0.10630441457033157 0.0628051832318306 -0.2534637749195099 -0.6862685084342957 -0.2730345129966736 0.022379877045750618 -0.10406643152236938 0.19999617473119435 -0.20000570944516946 0.3499826150351829 -1.6275828423733827 1.6277382298543734 -1.627569092139732 0.0 0.0 0.0 0.0 0.0 0.0 -6.722051837064774 1.2986866981686847 5.808914112866394 1.072107558432854 0.641525840971296 0.3343227978439125 0.19999999995866163 -0.19999999999522225 0.34999999992375186 -1.6275987285220286 1.6275987281600475 -1.6275987284607218 0.0 0.0 0.0 0.0 0.0 0.0
6883.04 1.6788797675175093 -1.8134368088825958 2.2452425546432897 -3.086304270181042 -0.6796436956938443 -0.8985071128283657 0.0 -0.0 0.0 -0.0 0.0 -0.0 0.0 0.0 0.0 0.0 0.0 0.0 -1.853434052301213e-17 -0.29782787236756275 -0.7334827071983453 -0.15741113106048782 0.025546459324926607 0.0 -2.1270008041473856e-16 -3.4305301093244838 -6.192935484284256 -0.6497127432656802 0.10605311605613185 0.0 1.6788955926895142 -1.8133867422686976 2.2452640533447266 -3.08633262315859 -0.6797078291522425 -0.8985140959369105 0.0 0.0 -0.0 0.0 0.0 0.0 0.0583190992474556 -0.2579498589038849 -0.671018123626709 -0.2741535007953644 0.017903901636600494 -0.09175749868154526 0.0628051832318306 -0.2534637749195099 -0.6862685084342957 -0.2730345129966736 0.019022895023226738 -0.10406643152236938 0.20000104829626258 -0.2000084053837492 0.3499834853756399 -1.6276011604984537 1.627677209468109 -1.6275606358778711 0.0 0.0 0.0 0.0 0.0 0.0 -6.513867023149221 0.5630751127161718 6.456292651136915 1.0841193360043446 0.7401216546768311 0.43981896642167934 0.19999999995866163 -0.19999999999522225 0.34999999992375186 -1.6275987285220286 1.6275987281600475 -1.6275987284607218 0.0 0.0 0.0 0.0 0.0 0.0
6883.048 1.6788797675175093 -1.8134368088825958 2.2452425546432897 -3.086304270181042 -0.6796436956938443 -0.8985071128283657 0.0 -0.0 0.0 -0.0 0.0 -0.0 0.0 0.0 0.0 0.0 0.0 0.0 -1.853434052301213e-17 -0.29782787236756275 -0.7334827071983453 -0.15741113106048782 0.025546459324926607 0.0 -2.1270008041473856e-16 -3.4305301093244838 -6.192935484284256 -0.6497127432656802 0.10605311605613185 0.0 1.6788716316223145 -1.8134105841266077 2.2452878952026367 -3.086404625569479 -0.6796720663653772 -0.8985021750079554 0.0 0.0 -0.0 0.0 0.0 0.0 0.0628051832318306 -0.2534637749195099 -0.6969438195228577 -0.2730345129966736 0.022379877045750618 -0.11413737386465073 0.0605621412396431 -0.2534637749195099 -0.6862685084342957 -0.2730345129966736 0.021260883659124374 -0.10406643152236938 0.19999688572013566 -0.2000017070771704 0.3499893254253956 -1.627600404012762 1.6276245939038312 -1.6276391003128552 0.0 0.0 0.0 0.0 0.0 0.0 -7.25879747264026 1.5715535144763657 5.665282819001167 1.0825979148740938 0.5857034684886778 0.32934992480256653 0.19999999995866163 -0.19999999999522225 0.34999999992375186 -1.6275987285220286 1.6275987281600475 -1.6275987284607218 0.0 0.0 0.0 0.0 0.0 0.0
6883.056 1.6788797675175093 -1.8134368088825958 2.2452425546432897 -3.086304270181042 -0.6796436956938443 -0.8985071128283657 0.0 -0.0 0.0 -0.0 0.0 -0.0 0.0 0.0 0.0 0.0 0.0 0.0 -1.853434052301213e-17 -0.29782787236756275 -0.7334827071983453 -0.15741113106048782 0.025546459324926607 0.0 -2.1270008041473856e-16 -3.4305301093244838 -6.192935484284256 -0.6497127432656802 0.10605311605613185 0.0 1.6788476705551147 -1.8133986631976526 2.245312213897705 -3.08633262315859 -0.6797078291522425 -0.8984783331500452 0.0 0.0 -0.0 0.0 0.0 0.0 0.0538330152630806 -0.2534637749195099 -0.6725431680679321 -0.27751046419143677 0.015665914863348007 -0.11078038811683655 0.0605621412396431 -0.2534637749195099 -0.6862685084342957 -0.2730345129966736 0.02014188840985298 -0.10406643152236938 0.19999096133702357 -0.20001380358398585 0.3499726660617407 -1.6275227658320455 1.6277705797364246 -1.627525869405068 0.0 0.0 0.0 0.0 0.0 0.0 -6.2836874725531935 0.9377793625173783 6.62221670355759 1.1376394981174502 0.6868514606839388 0.37660583420686566 0.19999999995866163 -0.19999999999522225 0.34999999992375186 -1.6275987285220286 1.6275987281600475 -1.6275987284607218 0.0 0.0 0.0 0.0 0.0 0.0
6883.063999999999 1.6788797675175093 -1.8134368088825958 2.2452425546432897 -3.086304270181042 -0.6796436956938443 -0.8985071128283657 0.0 -0.0 0.0 -0.0 0.0 -0.0 0.0 0.0 0.0 0.0 0.0 0.0 -1.853434052301213e-17 -0.29782787236756275 -0.7334827071983453 -0.15741113106048782 0.025546459324926607 0.0 -2.1270008041473856e-16 -3.4305301093244838 -6.192935484284256 -0.6497127432656802 0.10605311605613185 0.0 1.6788476705551147 -1.8133986631976526 2.245312213897705 -3.086320702229635 -0.6796959082232874 -0.8984902540790003 0.0 0.0 -0.0 0.0 0.0 0.0 0.0583190992474556 -0.2669220268726349 -0.6969438195228577 -0.28086745738983154 0.02685585245490074 -0.09623347222805023 0.0628051832318306 -0.2557068169116974 -0.6862685084342957 -0.2730345129966736 0.02349887043237686 -0.10406643152236938 0.19999156453500436 -0.20001367294567612 0.3499719970838569 -1.627530747254456 1.6277576513898335 -1.6275155340093754 0.0 0.0 0.0 0.0 0.0 0.0 -6.4987004164335636 0.8742448007904461 5.490412229115181 1.053792643397653 0.6832201275707014 0.37459377722039366 0.19999999995866163 -0.19999999999522225 0.34999999992375186 -1.6275987285220286 1.6275987281600475 -1.6275987284607218 0.0 0.0 0.0 0.0 0.0 0.0
6883.072 1.6788797675175093 -1.8134368088825958 2.2452425546432897 -3.086304270181042 -0.6796436956938443 -0.8985071128283657 0.0 -0.0 0.0 -0.0 0.0 -0.0 0.0 0.0 0.0 0.0 0.0 0.0 -1.853434052301213e-17 -0.29782787236756275 -0.7334827071983453 -0.15741113106048782 0.025546459324926607 0.0 -2.1270008041473856e-16 -3.4305301093244838 -6.192935484284256 -0.6497127432656802 0.10605311605613185 0.0 1.6788476705551147 -1.8133867422686976 2.2452878952026367 -3.086320702229635 -0.6796839872943323 -0.8984783331500452 0.0 0.0 -0.0 0.0 0.0 0.0 0.0717773512005806 -0.2534637749195099 -0.6969438195228577 -0.2730345129966736 0.02014188840985298 -0.09847146272659302 0.0672912672162056 -0.2579498589038849 -0.6862685084342957 -0.2730345129966736 0.02014188840985298 -0.10406643152236938 0.19999248453511978 -0.20001621129493682 0.3499765129365358 -1.6275221916237497 1.6277430894578149 -1.627520897419359 0.0 0.0 0.0 0.0 0.0 0.0 -8.27413935448045 1.4599923274077515 5.668651547898928 1.0751297613312554 0.6575240717305084 0.4394132090983884 0.19999999995866163 -0.19999999999522225 0.34999999992375186 -1.6275987285220286 1.6275987281600475 -1.6275987284607218 0.0 0.0 0.0 0.0 0.0 0.0
6883.08 1.6788797675175093 -1.8134368088825958 2.2452425546432897 -3.086304270181042 -0.6796436956938443 -0.8985071128283657 0.0 -0.0 0.0 -0.0 0.0 -0.0 0.0 0.0 0.0 0.0 0.0 0.0 -1.853434052301213e-17 -0.29782787236756275 -0.7334827071983453 -0.15741113106048782 0.025546459324926607 0.0 -2.1270008041473856e-16 -3.4305301093244838 -6.192935484284256 -0.6497127432656802 0.10605311605613185 0.0 1.6788356304168701 -1.8133748213397425 2.245299816131592 -3.0863564650165003 -0.6797321478473108 -0.8985260168658655 0.0 0.0 -0.0 0.0 0.0 0.0 0.0650482252240181 -0.2624359428882599 -0.6832184791564941 -0.2719154953956604 0.01007094420492649 -0.09735246747732162 0.0650482252240181 -0.2467346489429474 -0.6862685084342957 -0.2730345129966736 0.02014188840985298 -0.10406643152236938 0.19998789232635672 -0.20002167228122125 0.34997219433453935 -1.6275724955691244 1.6277769589210376 -1.6275743990725622 0.0 0.0 0.0 0.0 0.0 0.0 -7.058085182279174 0.5966730868817799 5.8517805811031085 1.0418134891929416 0.5987710336462361 0.45546516806041665 0.19999999995866163 -0.19999999999522225 0.34999999992375186 -1.6275987285220286 1.6275987281600475 -1.6275987284607218 0.0 0.0 0.0 0.0 0.0 0.0
6883.088 1.6788797675175093 -1.8134368088825958 2.2452425546432897 -3.086304270181042 -0.6796436956938443 -0.8985071128283657 0.0 -0.0 0.0 -0.0 0.0 -0.0 0.0 0.0 0.0 0.0 0.0 0.0 -1.853434052301213e-17 -0.29782787236756275 -0.7334827071983453 -0.15741113106048782 0.025546459324926607 0.0 -2.1270008041473856e-16 -3.4305301093244838 -6.192935484284256 -0.6497127432656802 0.10605311605613185 0.0 1.678823709487915 -1.8133867422686976 2.2452878952026367 -3.08633262315859 -0.6796959082232874 -0.8984301725970667 0.0 0.0 -0.0 0.0 0.0 0.0 0.0672912672162056 -0.2646789848804474 -0.6771183013916016 -0.27639147639274597 0.027974845841526985 -0.10742340981960297 0.0650482252240181 -0.2534637749195099 -0.6862685084342957 -0.2730345129966736 0.02349887043237686 -0.10406643152236938 0.19998708868305073 -0.20002113388777928 0.34997718190369187 -1.627462059443509 1.6278018509766095 -1.6275252633553794 0.0 0.0 0.0 0.0 0.0 0.0 -6.407854230015709 0.365136035986849 6.114454594934896 1.0674457468673377 0.6166091030936405 0.3428450481821768 0.19999999995866163 -0.19999999999522225 0.34999999992375186 -1.6275987285220286 1.6275987281600475 -1.6275987284607218 0.0 0.0 0.0 0.0 0.0 0.0
6883.096 1.6788797675175093 -1.8134368088825958 2.2452425546432897 -3.086304270181042 -0.6796436956938443 -0.8985071128283657 0.0 -0.0 0.0 -0.0 0.0 -0.0 0.0 0.0 0.0 0.0 0.0 0.0 -1.853434052301213e-17 -0.29782787236756275 -0.7334827071983453 -0.15741113106048782 0.025546459324926607 0.0 -2.1270008041473856e-16 -3.4305301093244838 -6.192935484284256 -0.6497127432656802 0.10605311605613185 0.0 1.6788955926895142 -1.8134105841266077 2.2453360557556152 -3.086344544087545 -0.6796720663653772 -0.8984540144549769 0.0 0.0 -0.0 0.0 0.0 0.0 0.0650482252240181 -0.2601929008960724 -0.7015189528465271 -0.27639147639274597 0.021260883659124374 -0.09847146272659302 0.0605621412396431 -0.2534637749195099 -0.6862685084342957 -0.2730345129966736 0.022379877045750618 -0.10406643152236938 0.2000017355830344 -0.1999981393526781 0.34997072220455167 -1.627522228867822 1.6276920006989284 -1.6274825131722515 0.0 0.0 0.0 0.0 0.0 0.0 -7.526268077273797 1.2926507817698292 5.408068716355038 1.0570812022929728 0.6444821004132073 0.4097297717184596 0.19999999995866163 -0.19999999999522225 0.34999999992375186 -1.6275987285220286 1.6275987281600475 -1.6275987284607218 0.0 0.0 0.0 0.0 0.0 0.0
6883.103999999999 1.6788797675175093 -1.8134368088825958 2.2452425546432897 -3.086304270181042 -0.6796436956938443 -0.8985071128283657 0.0 -0.0 0.0 -0.0 0.0 -0.0 0.0 0.0 0.0 0.0 0.0 0.0 -1.853434052301213e-17 -0.29782787236756275 -0.7334827071983453 -0.15741113106048782 0.025546459324926607 0.0 -2.1270008041473856e-16 -3.4305301093244838 -6.192935484284256 -0.6497127432656802 0.10605311605613185 0.0 1.678823709487915 -1.8134344259845179 2.245299816131592 -3.0863688627826136 -0.6796601454364222 -0.8984664122210901 0.0 0.0 -0.0 0.0 0.0 0.0 0.0605621412396431 -0.2512207329273224 -0.6938937306404114 -0.2741535007953644 0.024617865681648254 -0.11525636911392212 0.0672912672162056 -0.2534637749195099 -0.6862685084342957 -0.2730345129966736 0.02014188840985298 -0.10406643152236938 0.19998746159179245 -0.2000072236687955 0.3499885392015654 -1.6275262304783733 1.6276969479359835 -1.6276155275581996 0.0 0.0 0.0 0.0 0.0 0.0 -7.11330124123318 1.6380287701325946 5.863478891583583 1.1036285512903763 0.6206618756542496 0.3158715519444235 0.19999999995866163 -0.19999999999522225 0.34999999992375186 -1.6275987285220286 1.6275987281600475 -1.6275987284607218 0.0 0.0 0.0 0.0 0.0 0.0
6883.112 1.6788797675175093 -1.8134368088825958 2.2452425546432897 -3.086304270181042 -0.6796436956938443 -0.8985071128283657 0.0 -0.0 0.0 -0.0 0.0 -0.0 0.0 0.0 0.0 0.0 0.0 0.0 -1.853434052301213e-17 -0.29782787236756275 -0.7334827071983453 -0.15741113106048782 0.025546459324926607 0.0 -2.1270008041473856e-16 -3.4305301093244838 -6.192935484284256 -0.6497127432656802 0.10605311605613185 0.0 1.678823709487915 -1.8134344259845179 2.245299816131592 -3.08633262315859 -0.6797078291522425 -0.8984664122210901 0.0 0.0 -0.0 0.0 0.0 0.0 0.0605621412396431 -0.2444916069507599 -0.6649179458618164 -0.2741535007953644 0.021260883659124374 -0.09847146272659302 0.0650482252240181 -0.2534637749195099 -0.6862685084342957 -0.2730345129966736 0.02014188840985298 -0.10406643152236938 0.19998547899753688 -0.20001202291720224 0.3499840138394522 -1.627514419417368 1.6277735878064699 -1.6275858396366305 0.0 0.0 0.0 0.0 0.0 0.0 -7.181177305419834 1.1312057745953445 7.051140503336404 1.1598282940974227 0.8140162798205848 0.4308422064256137 0.19999999995866163 -0.19999999999522225 0.34999999992375186 -1.6275987285220286 1.6275987281600475 -1.6275987284607218 0.0 0.0 0.0 0.0 0.0 0.0
6883.12 1.6788797675175093 -1.8134368088825958 2.2452425546432897 -3.086304270181042 -0.6796436956938443 -0.8985071128283657 0.0 -0.0 0.0 -0.0 0.0 -0.0 0.0 0.0 0.0 0.0 0.0 0.0 -1.853434052301213e-17 -0.29782787236756275 -0.7334827071983453 -0.15741113106048782 0.025546459324926607 0.0 -2.1270008041473856e-16 -3.4305301093244838 -6.192935484284256 -0.6497127432656802 0.10605311605613185 0.0 1.6788116693496704 -1.8134344259845179 2.2452759742736816 -3.086344544087545 -0.6796959082232874 -0.8984664122210901 0.0 0.0 -0.0 0.0 0.0 0.0 0.0650482252240181 -0.2243042290210724 -0.6938937306404114 -0.2707965075969696 0.015665914863348007 -0.09735246747732162 0.0650482252240181 -0.2534637749195099 -0.6862685084342957 -0.2730345129966736 0.02014188840985298 -0.10406643152236938 0.19998367574412976 -0.2000139945327088 0.34999204813964785 -1.6275205351257436 1.6277510167284996 -1.627629097555311 0.0 0.0 0.0 0.0 0.0 0.0 -9.67180584895048 3.003012738335747 6.54801295720981 1.2045915208679785 0.8626386702376251 0.49696555632556366 0.19999999995866163 -0.19999999999522225 0.34999999992375186 -1.6275987285220286 1.6275987281600475 -1.6275987284607218 0.0 0.0 0.0 0.0 0.0 0.0
6883.128 1.6788797675175093 -1.8134368088825958 2.2452425546432897 -3.086304270181042 -0.6796436956938443 -0.8985071128283657 0.0 -0.0 0.0 -0.0 0.0 -0.0 0.0 0.0 0.0 0.0 0.0 0.0 -1.853434052301213e-17 -0.29782787236756275 -0.7334827071983453 -0.15741113106048782 0.025546459324926607 0.0 -2.1270008041473856e-16 -3.4305301093244838 -6.192935484284256 -0.6497127432656802 0.10605311605613185 0.0 1.6788116693496704 -1.813446346913473 2.245299816131592 -3.0863564650165003 -0.6797321478473108 -0.8985021750079554 0.0 0.0 -0.0 0.0 0.0 0.0 0.0605621412396431 -0.2534637749195099 -0.6771183013916016 -0.27862948179244995 0.021260883659124374 -0.10406643152236938 0.0628051832318306 -0.2534637749195099 -0.6862685084342957 -0.2730345129966736 0.024617865681648254 -0.10406643152236938 0.19998159130172455 -0.20001237278137218 0.3499879662665367 -1.6275599811882298 1.6277724495527803 -1.6276548503753383 0.0 0.0 0.0 0.0 0.0 0.0 -6.927769070483645 1.019346958856063 6.4964698005608605 1.1346990087020754 0.7315995844338283 0.40253403826695744 0.19999999995866163 -0.19999999999522225 0.34999999992375186 -1.6275987285220286 1.6275987281600475 -1.6275987284607218 0.0 0.0 0.0 0.0 0.0 0.0
6883.1359999999995 1.6788797675175093 -1.8134368088825958 2.2452425546432897 -3.086304270181042 -0.6796436956938443 -0.8985071128283657 0.0 -0.0 0.0 -0.0 0.0 -0.0 0.0 0.0 0.0 0.0 0.0 0.0 -1.853434052301213e-17 -0.29782787236756275 -0.7334827071983453 -0.15741113106048782 0.025546459324926607 0.0 -2.1270008041473856e-16 -3.4305301093244838 -6.192935484284256 -0.6497127432656802 0.10605311605613185 0.0 1.6788476705551147 -1.8134105841266077 2.245299816131592 -3.08633262315859 -0.6796959082232874 -0.8984664122210901 0.0 0.0 -0.0 0.0 0.0 0.0 0.0650482252240181 -0.2332763969898224 -0.6832184791564941 -0.26632052659988403 0.02349887043237686 -0.09735246747732162 0.0628051832318306 -0.2534637749195099 -0.6862685084342957 -0.2730345129966736 0.022379877045750618 -0.10406643152236938 0.19999131644565862 -0.20001119004182116 0.349979110547671 -1.6275185905217668 1.6277488109660743 -1.627544644817323 0.0 0.0 0.0 0.0 0.0 0.0 -8.502996255014185 2.2065301066262077 6.534265365790345 1.1422566974756074 0.7992793696388362 0.4224300989363466 0.19999999995866163 -0.19999999999522225 0.34999999992375186 -1.6275987285220286 1.6275987281600475 -1.6275987284607218 0.0 0.0 0.0 0.0 0.0 0.0
6883.143999999999 1.6788797675175093 -1.8134368088825958 2.2452425546432897 -3.086304270181042 -0.6796436956938443 -0.8985071128283657 0.0 -0.0 0.0 -0.0 0.0 -0.0 0.0 0.0 0.0 0.0 0.0 0.0 -1.853434052301213e-17 -0.29782787236756275 -0.7334827071983453 -0.15741113106048782 0.025546459324926607 0.0 -2.1270008041473856e-16 -3.4305301093244838 -6.192935484284256 -0.6497127432656802 0.10605311605613185 0.0 1.6788476705551147 -1.8134105841266077 2.24532413482666 -3.086296860371725 -0.6797078291522425 -0.8984540144549769 0.0 0.0 -0.0 0.0 0.0 0.0 0.0650482252240181 -0.2601929008960724 -0.6908436417579651 -0.27862948179244995 0.019022895023226738 -0.10406643152236938 0.0628051832318306 -0.2534637749195099 -0.6862685084342957 -0.2730345129966736 0.022379877045750618 -0.10406643152236938 0.19999083121743544 -0.2000128225046352 0.3499688971072421 -1.6274835278125341 1.6278060906814562 -1.627473911824369 0.0 0.0 0.0 0.0 0.0 0.0 -7.238232183566692 1.002006555978275 5.834646708783555 1.0880751263434685 0.6435322350122217 0.410369684814622 0.19999999995866163 -0.19999999999522225 0.34999999992375186 -1.6275987285220286 1.6275987281600475 -1.6275987284607218 0.0 0.0 0.0 0.0 0.0 0.0
6883.152 1.6788797675175093 -1.8134368088825958 2.2452425546432897 -3.086304270181042 -0.6796436956938443 -0.8985071128283657 0.0 -0.0 0.0 -0.0 0.0 -0.0 0.0 0.0 0.0 0.0 0.0 0.0 -1.853434052301213e-17 -0.29782787236756275 -0.7334827071983453 -0.15741113106048782 0.025546459324926607 0.0 -2.1270008041473856e-16 -3.4305301093244838 -6.192935484284256 -0.6497127432656802 0.10605311605613185 0.0 1.6788595914840698 -1.813446346913473 2.2452878952026367 -3.0863564650165003 -0.6797078291522425 -0.8984664122210901 0.0 0.0 -0.0 0.0 0.0 0.0 0.0672912672162056 -0.2736511528491974 -0.6740682125091553 -0.2719154953956604 0.02349887043237686 -0.10294743627309799 0.0628051832318306 -0.2534637749195099 -0.6862685084342957 -0.2730345129966736 0.022379877045750618 -0.10406643152236938 0.19999234393292203 -0.20000173791773299 0.3499920169736856 -1.6275519946671109 1.627706029751103 -1.6276219444115463 0.0 0.0 0.0 0.0 0.0 0.0 -5.821120323075224 -0.25266483449623367 5.841466266749669 0.9976382640446846 0.5327250512066988 0.3489264858407189 0.19999999995866163 -0.19999999999522225 0.34999999992375186 -1.6275987285220286 1.6275987281600475 -1.6275987284607218 0.0 0.0 0.0 0.0 0.0 0.0
6883.16 1.6788797675175093 -1.8134368088825958 2.2452425546432897 -3.086304270181042 -0.6796436956938443 -0.8985071128283657 0.0 -0.0 0.0 -0.0 0.0 -0.0 0.0 0.0 0.0 0.0 0.0 0.0 -1.853434052301213e-17 -0.29782787236756275 -0.7334827071983453 -0.15741113106048782 0.025546459324926607 0.0 -2.1270008041473856e-16 -3.4305301093244838 -6.192935484284256 -0.6497127432656802 0.10605311605613185 0.0 1.678823709487915 -1.8133748213397425 2.2453360557556152 -3.0863927046405237 -0.6797202269183558 -0.8984664122210901 0.0 0.0 -0.0 0.0 0.0 0.0 0.0650482252240181 -0.2444916069507599 -0.681693434715271 -0.2752724885940552 0.021260883659124374 -0.11301837861537933 0.0628051832318306 -0.2534637749195099 -0.6862685084342957 -0.2730345129966736 0.022379877045750618 -0.10406643152236938 0.1999856757974806 -0.20002008854055808 0.3499655389082079 -1.6275016066888686 1.6278091923304805 -1.627548461925974 0.0 0.0 0.0 0.0 0.0 0.0 -7.70199303995115 1.611598092725984 6.507144540317447 1.1579687825535372 0.6977837580746193 0.38127935595303886 0.19999999995866163 -0.19999999999522225 0.34999999992375186 -1.6275987285220286 1.6275987281600475 -1.6275987284607218 0.0 0.0 0.0 0.0 0.0 0.0
6883.168 1.6788797675175093 -1.8134368088825958 2.2452425546432897 -3.086304270181042 -0.6796436956938443 -0.8985071128283657 0.0 -0.0 0.0 -0.0 0.0 -0.0 0.0 0.0 0.0 0.0 0.0 0.0 -1.853434052301213e-17 -0.29782787236756275 -0.7334827071983453 -0.15741113106048782 0.025546459324926607 0.0 -2.1270008041473856e-16 -3.4305301093244838 -6.192935484284256 -0.6497127432656802 0.10605311605613185 0.0 1.6788716316223145 -1.8134587446795862 2.245312213897705 -3.08633262315859 -0.6797078291522425 -0.8984420935260218 0.0 0.0 -0.0 0.0 0.0 0.0 0.0605621412396431 -0.2646789848804474 -0.6969438195228577 -0.2730345129966736 0.025736859068274498 -0.10966140031814575 0.0628051832318306 -0.2534637749195099 -0.6862685084342957 -0.2719154953956604 0.022379877045750618 -0.10406643152236938 0.19999448620185858 -0.19999717490560046 0.3499859142308353 -1.6275194513982991 1.6277286142197616 -1.627564131178098 0.0 0.0 0.0 0.0 0.0 0.0 -6.373532102867401 0.9740828314723542 5.342695987164283 1.0240065150087951 0.5439857188626852 0.30062235466398096 0.19999999995866163 -0.19999999999522225 0.34999999992375186 -1.6275987285220286 1.6275987281600475 -1.6275987284607218 0.0 0.0 0.0 0.0 0.0 0.0
6883.1759999999995 1.6788797675175093 -1.8134368088825958 2.2452425546432897 -3.086304270181042 -0.6796436956938443 -0.8985071128283657 0.0 -0.0 0.0 -0.0 0.0 -0.0 0.0 0.0 0.0 0.0 0.0 0.0 -1.853434052301213e-17 -0.29782787236756275 -0.7334827071983453 -0.15741113106048782 0.025546459324926607 0.0 -2.1270008041473856e-16 -3.4305301093244838 -6.192935484284256 -0.6497127432656802 0.10605311605613185 0.0 1.6788356304168701 -1.8133986631976526 2.2453360557556152 -3.0863564650165003 -0.6797078291522425 -0.8984540144549769 0.0 0.0 -0.0 0.0 0.0 0.0 0.0695343092083931 -0.2691650688648224 -0.6908436417579651 -0.26632052659988403 0.015665914863348007 -0.11189938336610794 0.0628051832318306 -0.2557068169116974 -0.6862685084342957 -0.2730345129966736 0.022379877045750618 -0.10406643152236938 0.1999883069312871 -0.20001408676354904 0.3499680545857939 -1.6274899951940207 1.6277969346677814 -1.6275198948984697 0.0 0.0 0.0 0.0 0.0 0.0 -6.5942103575235 0.433591949409102 5.245398777928428 0.9731475744694701 0.40726447068788635 0.33752162710867595 0.19999999995866163 -0.19999999999522225 0.34999999992375186 -1.6275987285220286 1.6275987281600475 -1.6275987284607218 0.0 0.0 0.0 0.0 0.0 0.0
6883.183999999999 1.6788797675175093 -1.8134368088825958 2.2452425546432897 -3.086304270181042 -0.6796436956938443 -0.8985071128283657 0.0 -0.0 0.0 -0.0 0.0 -0.0 0.0 0.0 0.0 0.0 0.0 0.0 -1.853434052301213e-17 -0.29782787236756275 -0.7334827071983453 -0.15741113106048782 0.025546459324926607 0.0 -2.1270008041473856e-16 -3.4305301093244838 -6.192935484284256 -0.6497127432656802 0.10605311605613185 0.0 1.6788716316223145 -1.8133986631976526 2.245299816131592 -3.08633262315859 -0.6796959082232874 -0.8984664122210901 0.0 0.0 -0.0 0.0 0.0 0.0 0.0628051832318306 -0.2400055229663849 -0.6877935528755188 -0.27751046419143677 0.015665914863348007 -0.11078038811683655 0.0605621412396431 -0.2579498589038849 -0.6862685084342957 -0.2730345129966736 0.02349887043237686 -0.10406643152236938 0.19999636038010596 -0.200008746497872 0.3499764818881771 -1.6275275429026221 1.6277303965131429 -1.6275195970647527 0.0 0.0 0.0 0.0 0.0 0.0 -8.22654162104652 2.040275664240804 6.487622197551534 1.1868670871401235 0.7410606077120298 0.4292164182026557 0.19999999995866163 -0.19999999999522225 0.34999999992375186 -1.6275987285220286 1.6275987281600475 -1.6275987284607218 0.0 0.0 0.0 0.0 0.0 0.0
6883.192 1.6788797675175093 -1.8134368088825958 2.2452425546432897 -3.086304270181042 -0.6796436956938443 -0.8985071128283657 0.0 -0.0 0.0 -0.0 0.0 -0.0 0.0 0.0 0.0 0.0 0.0 0.0 -1.853434052301213e-17 -0.29782787236756275 -0.7334827071983453 -0.15741113106048782 0.025546459324926607 0.0 -2.1270008041473856e-16 -3.4305301093244838 -6.192935484284256 -0.6497127432656802 0.10605311605613185 0.0 1.6788116693496704 -1.8134105841266077 2.2452878952026367 -3.0863807837115687 -0.6797078291522425 -0.8984783331500452 0.0 0.0 -0.0 0.0 0.0 0.0 0.0538330152630806 -0.2489776909351349 -0.6969438195228577 -0.268558531999588 0.014546919614076614 -0.09511447697877884 0.0628051832318306 -0.2534637749195099 -0.6862685084342957 -0.2730345129966736 0.019022895023226738 -0.10406643152236938 0.19998338870362503 -0.20001712837887434 0.3499862179106615 -1.6275338531015606 1.6277575057650726 -1.627638142513795 0.0 0.0 0.0 0.0 0.0 0.0 -7.339279387716193 1.8120532035574637 5.672962568411011 1.0643124921709939 0.6884441825060518 0.412930045862913 0.19999999995866163 -0.19999999999522225 0.34999999992375186 -1.6275987285220286 1.6275987281600475 -1.6275987284607218 0.0 0.0 0.0 0.0 0.0 0.0
6883.2 1.6788797675175093 -1.8134368088825958 2.2452425546432897 -3.086304270181042 -0.6796436956938443 -0.8985071128283657 0.0 -0.0 0.0 -0.0 0.0 -0.0 0.0 0.0 0.0 0.0 0.0 0.0 -1.853434052301213e-17 -0.29782787236756275 -0.7334827071983453 -0.15741113106048782 0.025546459324926607 0.0 -2.1270008041473856e-16 -3.4305301093244838 -6.192935484284256 -0.6497127432656802 0.10605311605613185 0.0 1.6788595914840698 -1.8134225050555628 2.2452759742736816 -3.086344544087545 -0.6796839872943323 -0.8985021750079554 0.0 0.0 -0.0 0.0 0.0 0.0 0.0628051832318306 -0.2355194389820099 -0.7243945598602295 -0.2730345129966736 0.019022895023226738 -0.11525636911392212 0.0650482252240181 -0.2557068169116974 -0.6862685084342957 -0.2707965075969696 0.02349887043237686 -0.10406643152236938 0.1999940541768784 -0.20000602121760153 0.34998977346295806 -1.6275807376445919 1.6276734298927213 -1.6276070387612587 0.0 0.0 0.0 0.0 0.0 0.0 -9.223202685171684 3.336601332507202 5.239454866340159 1.1395402880318863 0.6505301051825834 0.36927949186945813 0.19999999995866163 -0.19999999999522225 0.34999999992375186 -1.6275987285220286 1.6275987281600475 -1.6275987284607218 0.0 0.0 0.0 0.0 0.0 0.0
6883.208 1.6788797675175093 -1.8134368088825958 2.2452425546432897 -3.086304270181042 -0.6796436956938443 -0.8985071128283657 0.0 -0.0 0.0 -0.0 0.0 -0.0 0.0 0.0 0.0 0.0 0.0 0.0 -1.853434052301213e-17 -0.29782787236756275 -0.7334827071983453 -0.15741113106048782 0.025546459324926607 0.0 -2.1270008041473856e-16 -3.4305301093244838 -6.192935484284256 -0.6497127432656802 0.10605311605613185 0.0 1.6788476705551147 -1.8134225050555628 2.2452640533447266 -3.0863688627826136 -0.6796959082232874 -0.8984420935260218 0.0 0.0 -0.0 0.0 0.0 0.0 0.0628051832318306 -0.2444916069507599 -0.6725431680679321 -0.2741535007953644 0.019022895023226738 -0.12756529450416565 0.0628051832318306 -0.2557068169116974 -0.6862685084342957 -0.2719154953956604 0.02349887043237686 -0.10406643152236938 0.1999910651138622 -0.200008358694482 0.3499948349533598 -1.6275235258754905 1.6277110605597205 -1.627627058901975 0.0 0.0 0.0 0.0 0.0 0.0 -7.030811037891951 1.3883072056058663 6.7891159616580605 1.1709272461715459 0.6153689373781166 0.32045578681028924 0.19999999995866163 -0.19999999999522225 0.34999999992375186 -1.6275987285220286 1.6275987281600475 -1.6275987284607218 0.0 0.0 0.0 0.0 0.0 0.0
6883.215999999999 1.6788797675175093 -1.8134368088825958 2.2452425546432897 -3.086304270181042 -0.6796436956938443 -0.8985071128283657 0.0 -0.0 0.0 -0.0 0.0 -0.0 0.0 0.0 0.0 0.0 0.0 0.0 -1.853434052301213e-17 -0.29782787236756275 -0.7334827071983453 -0.15741113106048782 0.025546459324926607 0.0 -2.1270008041473856e-16 -3.4305301093244838 -6.192935484284256 -0.6497127432656802 0.10605311605613185 0.0 1.678823709487915 -1.8134587446795862 2.24532413482666 -3.0863807837115687 -0.6797078291522425 -0.8984420935260218 0.0 0.0 -0.0 0.0 0.0 0.0 0.0628051832318306 -0.2557068169116974 -0.6847434639930725 -0.28086745738983154 0.019022895023226738 -0.07721057534217834 0.0650482252240181 -0.2557068169116974 -0.6862685084342957 -0.2741535007953644 0.022379877045750618 -0.10406643152236938 0.1999845928523798 -0.20000384975582078 0.34998671806801174 -1.6275061074394428 1.6277576545978085 -1.6276281101998429 0.0 0.0 0.0 0.0 0.0 0.0 -7.787445488993822 1.0427227621813404 6.233687014142349 1.1133422726675184 0.8719738793271923 0.5408744380944728 0.19999999995866163 -0.19999999999522225 0.34999999992375186 -1.6275987285220286 1.6275987281600475 -1.6275987284607218 0.0 0.0 0.0 0.0 0.0 0.0
6883.223999999999 1.6788797675175093 -1.8134368088825958 2.2452425546432897 -3.086304270181042 -0.6796436956938443 -0.8985071128283657 0.0 -0.0 0.0 -0.0 0.0 -0.0 0.0 0.0 0.0 0.0 0.0 0.0 -1.853434052301213e-17 -0.29782787236756275 -0.7334827071983453 -0.15741113106048782 0.025546459324926607 0.0 -2.1270008041473856e-16 -3.4305301093244838 -6.192935484284256 -0.6497127432656802 0.10605311605613185 0.0 1.6787997484207153 -1.8134225050555628 2.24532413482666 -3.086344544087545 -0.6796959082232874 -0.8984783331500452 0.0 0.0 -0.0 0.0 0.0 0.0 0.0628051832318306 -0.2714081108570099 -0.6954187750816345 -0.2730345129966736 0.02349887043237686 -0.09959045052528381 0.0628051832318306 -0.2512207329273224 -0.6862685084342957 -0.2741535007953644 0.022379877045750618 -0.10406643152236938 0.19998129241124643 -0.2000168899739674 0.34997597154662335 -1.6275044605802376 1.6277937679947114 -1.627573213653783 0.0 0.0 0.0 0.0 0.0 0.0 -6.307721714262585 0.5164923625128759 5.203483160704395 0.988046362980795 0.5480453727638519 0.35024591751704726 0.19999999995866163 -0.19999999999522225 0.34999999992375186 -1.6275987285220286 1.6275987281600475 -1.6275987284607218 0.0 0.0 0.0 0.0 0.0 0.0
6883.232 1.6788797675175093 -1.8134368088825958 2.2452425546432897 -3.086304270181042 -0.6796436956938443 -0.8985071128283657 0.0 -0.0 0.0 -0.0 0.0 -0.0 0.0 0.0 0.0 0.0 0.0 0.0 -1.853434052301213e-17 -0.29782787236756275 -0.7334827071983453 -0.15741113106048782 0.025546459324926607 0.0 -2.1270008041473856e-16 -3.4305301093244838 -6.192935484284256 -0.6497127432656802 0.10605311605613185 0.0 1.6788476705551147 -1.8133748213397425 2.2453360557556152 -3.08633262315859 -0.6796839872943323 -0.8985140959369105 0.0 0.0 -0.0 0.0 0.0 0.0 0.0583190992474556 -0.2534637749195099 -0.6679680347442627 -0.27639147639274597 0.02349887043237686 -0.09847146272659302 0.0583190992474556 -0.2557068169116974 -0.6862685084342957 -0.2730345129966736 0.022379877045750618 -0.10406643152236938 0.19999242437274223 -0.20001611430120023 0.34996145928828076 -1.6275426804226563 1.6277524867129343 -1.627484192034798 0.0 0.0 0.0 0.0 0.0 0.0 -6.51830314982341 0.7590760830012102 6.749156226726737 1.1260822787932563 0.7726968770547742 0.4015626247947557 0.19999999995866163 -0.19999999999522225 0.34999999992375186 -1.6275987285220286 1.6275987281600475 -1.6275987284607218 0.0 0.0 0.0 0.0 0.0 0.0
6883.24 1.6788797675175093 -1.8134368088825958 2.2452425546432897 -3.086304270181042 -0.6796436956938443 -0.8985071128283657 0.0 -0.0 0.0 -0.0 0.0 -0.0 0.0 0.0 0.0 0.0 0.0 0.0 -1.853434052301213e-17 -0.29782787236756275 -0.7334827071983453 -0.15741113106048782 0.025546459324926607 0.0 -2.1270008041473856e-16 -3.4305301093244838 -6.192935484284256 -0.6497127432656802 0.10605311605613185 0.0 1.6788356304168701 -1.8134105841266077 2.245312213897705 -3.0863927046405237 -0.6797202269183558 -0.8985140959369105 0.0 0.0 -0.0 0.0 0.0 0.0 0.0650482252240181 -0.2400055229663849 -0.6893185973167419 -0.26408255100250244 0.025736859068274498 -0.10854240506887436 0.0605621412396431 -0.2534637749195099 -0.6862685084342957 -0.2719154953956604 0.02014188840985298 -0.10406643152236938 0.19998742993573446 -0.20001156889422486 0.3499800822203919 -1.6275813002065205 1.6277336087501342 -1.6276328151570896 0.0 0.0 0.0 0.0 0.0 0.0 -7.89940220447041 2.033575925664366 6.070697323716842 1.094897282480566 0.658619676813375 0.3363047651407759 0.19999999995866163 -0.19999999999522225 0.34999999992375186 -1.6275987285220286 1.6275987281600475 -1.6275987284607218 0.0 0.0 0.0 0.0 0.0 0.0
6883.248 1.6788797675175093 -1.8134368088825958 2.2452425546432897 -3.086304270181042 -0.6796436956938443 -0.8985071128283657 0.0 -0.0 0.0 -0.0 0.0 -0.0 0.0 0.0 0.0 0.0 0.0 0.0 -1.853434052301213e-17 -0.29782787236756275 -0.7334827071983453 -0.15741113106048782 0.025546459324926607 0.0 -2.1270008041473856e-16 -3.4305301093244838 -6.192935484284256 -0.6497127432656802 0.10605311605613185 0.0 1.6788116693496704 -1.8134706656085413 2.2453360557556152 -3.0863564650165003 -0.6796959082232874 -0.8984540144549769 0.0 0.0 -0.0 0.0 0.0 0.0 0.0672912672162056 -0.2400055229663849 -0.6740682125091553 -0.2719154953956604 0.027974845841526985 -0.09175749868154526 0.0628051832318306 -0.2512207329273224 -0.6862685084342957 -0.2707965075969696 0.02349887043237686 -0.10406643152236938 0.1999825381758629 -0.2000039555392142 0.34998428504750245 -1.6275027997462015 1.6277652565901906 -1.6276097231978848 0.0 0.0 0.0 0.0 0.0 0.0 -8.129842606582246 1.579229787410424 6.80644259439132 1.1514450980749733 0.8571708363613036 0.4443435700955252 0.19999999995866163 -0.19999999999522225 0.34999999992375186 -1.6275987285220286 1.6275987281600475 -1.6275987284607218 0.0 0.0 0.0 0.0 0.0 0.0
6883.255999999999 1.6788797675175093 -1.8134368088825958 2.2452425546432897 -3.086304270181042 -0.6796436956938443 -0.8985071128283657 0.0 -0.0 0.0 -0.0 0.0 -0.0 0.0 0.0 0.0 0.0 0.0 0.0 -1.853434052301213e-17 -0.29782787236756275 -0.7334827071983453 -0.15741113106048782 0.025546459324926607 0.0 -2.1270008041473856e-16 -3.4305301093244838 -6.192935484284256 -0.6497127432656802 0.10605311605613185 0.0 1.6788476705551147 -1.8134225050555628 2.24532413482666 -3.086320702229635 -0.6797078291522425 -0.8984301725970667 0.0 0.0 -0.0 0.0 0.0 0.0 0.0650482252240181 -0.2646789848804474 -0.6694930791854858 -0.2707965075969696 0.015665914863348007 -0.12197033315896988 0.0650482252240181 -0.2579498589038849 -0.6862685084342957 -0.2730345129966736 0.02014188840985298 -0.10406643152236938 0.1999904575549645 -0.20000925920956342 0.34997357168693183 -1.6274711824462287 1.627797502461642 -1.6275024848616801 0.0 0.0 0.0 0.0 0.0 0.0 -5.900591420634063 0.14254835312450925 6.225464131530611 1.0535492395389416 0.46523222229857764 0.31468716842522265 0.19999999995866163 -0.19999999999522225 0.34999999992375186 -1.6275987285220286 1.6275987281600475 -1.6275987284607218 0.0 0.0 0.0 0.0 0.0 0.0
6883.264 1.6788797675175093 -1.8134368088825958 2.2452425546432897 -3.086304270181042 -0.6796436956938443 -0.8985071128283657 0.0 -0.0 0.0 -0.0 0.0 -0.0 0.0 0.0 0.0 0.0 0.0 0.0 -1.853434052301213e-17 -0.29782787236756275 -0.7334827071983453 -0.15741113106048782 0.025546459324926607 0.0 -2.1270008041473856e-16 -3.4305301093244838 -6.192935484284256 -0.6497127432656802 0.10605311605613185 0.0 1.6788476705551147 -1.813446346913473 2.2453360557556152 -3.086320702229635 -0.6797202269183558 -0.8985140959369105 0.0 0.0 -0.0 0.0 0.0 0.0 0.0672912672162056 -0.2400055229663849 -0.6877935528755188 -0.2730345129966736 0.017903901636600494 -0.10518541932106018 0.0628051832318306 -0.2512207329273224 -0.6862685084342957 -0.2730345129966736 0.02014188840985298 -0.10406643152236938 0.19998932888117588 -0.2000048749930822 0.3499751320220956 -1.6275658287394605 1.6277577107788783 -1.6275595552772328 0.0 0.0 0.0 0.0 0.0 0.0 -8.499134215506635 1.980427416762061 6.3674939368977554 1.1548560582655338 0.7338418714116495 0.43796519846284304 0.19999999995866163 -0.19999999999522225 0.34999999992375186 -1.6275987285220286 1.6275987281600475 -1.6275987284607218 0.0 0.0 0.0 0.0 0.0 0.0
6883.272 1.6788797675175093 -1.8134368088825958 2.2452425546432897 -3.086304270181042 -0.6796436956938443 -0.8985071128283657 0.0 -0.0 0.0 -0.0 0.0 -0.0 0.0 0.0 0.0 0.0 0.0 0.0 -1.853434052301213e-17 -0.29782787236756275 -0.7334827071983453 -0.15741113106048782 0.025546459324926607 0.0 -2.1270008041473856e-16 -3.4305301093244838 -6.192935484284256 -0.6497127432656802 0.10605311605613185 0.0 1.678823709487915 -1.8134225050555628 2.245299816131592 -3.086344544087545 -0.6796839872943323 -0.8984540144549769 0.0 0.0 -0.0 0.0 0.0 0.0 0.0650482252240181 -0.2444916069507599 -0.6679680347442627 -0.268558531999588 0.02014188840985298 -0.0850435346364975 0.0628051832318306 -0.2534637749195099 -0.6862685084342957 -0.2719154953956604 0.02014188840985298 -0.10406643152236938 0.19998675349784958 -0.20001228784881472 0.3499831160489951 -1.6275003705386253 1.627753214123082 -1.6275742990815099 0.0 0.0 0.0 0.0 0.0 0.0 -7.739226967048785 1.1286275266068144 6.797072438132166 1.113190380064687 0.8295285116700669 0.4852524967572473 0.19999999995866163 -0.19999999999522225 0.34999999992375186 -1.6275987285220286 1.6275987281600475 -1.6275987284607218 0.0 0.0 0.0 0.0 0.0 0.0
6883.28 1.6788797675175093 -1.8134368088825958 2.2452425546432897 -3.086304270181042 -0.6796436956938443 -0.8985071128283657 0.0 -0.0 0.0 -0.0 0.0 -0.0 0.0 0.0 0.0 0.0 0.0 0.0 -1.853434052301213e-17 -0.29782787236756275 -0.7334827071983453 -0.15741113106048782 0.025546459324926607 0.0 -2.1270008041473856e-16 -3.4305301093244838 -6.192935484284256 -0.6497127432656802 0.10605311605613185 0.0 1.6787997484207153 -1.8134225050555628 2.2452759742736816 -3.08633262315859 -0.6797321478473108 -0.8984664122210901 0.0 0.0 -0.0 0.0 0.0 0.0 0.0650482252240181 -0.2557068169116974 -0.6877935528755188 -0.2707965075969696 0.01342792622745037 -0.09399548172950745 0.0628051832318306 -0.2534637749195099 -0.6862685084342957 -0.2730345129966736 0.02014188840985298 -0.10406643152236938 0.19997995574819324 -0.2000215784440632 0.3499873206730058 -1.6275062836386183 1.6278196849978812 -1.6276164672384104 0.0 0.0 0.0 0.0 0.0 0.0 -7.579000192079458 1.094031048570282 5.857048236167996 1.058602020187793 0.6589949700322766 0.4602018606183322 0.19999999995866163 -0.19999999999522225 0.34999999992375186 -1.6275987285220286 1.6275987281600475 -1.6275987284607218 0.0 0.0 0.0 0.0 0.0 0.0
6883.288 1.6788797675175093 -1.8134368088825958 2.2452425546432897 -3.086304270181042 -0.6796436956938443 -0.8985071128283657 0.0 -0.0 0.0 -0.0 0.0 -0.0 0.0 0.0 0.0 0.0 0.0 0.0 -1.853434052301213e-17 -0.29782787236756275 -0.7334827071983453 -0.15741113106048782 0.025546459324926607 0.0 -2.1270008041473856e-16 -3.4305301093244838 -6.192935484284256 -0.6497127432656802 0.10605311605613185 0.0 1.6788476705551147 -1.8134706656085413 2.245312213897705 -3.0863688627826136 -0.6797202269183558 -0.8984783331500452 0.0 0.0 -0.0 0.0 0.0 0.0 0.0628051832318306 -0.2512207329273224 -0.6984688639640808 -0.27751046419143677 0.034688808023929596 -0.11189938336610794 0.0583190992474556 -0.2534637749195099 -0.6862685084342957 -0.2730345129966736 0.02349887043237686 -0.10406643152236938 0.1999886929487051 -0.19999853902591344 0.3499912843198336 -1.627563065574645 1.6277187648782803 -1.6276503398183348 0.0 0.0 0.0 0.0 0.0 0.0 -7.3153640234730855 1.782672913455777 5.796393067086234 1.1147170630603955 0.6848986333107727 0.2984315388050774 0.19999999995866163 -0.19999999999522225 0.34999999992375186 -1.6275987285220286 1.6275987281600475 -1.6275987284607218 0.0 0.0 0.0 0.0 0.0 0.0
6883.295999999999 1.6788797675175093 -1.8134368088825958 2.2452425546432897 -3.086304270181042 -0.6796436956938443 -0.8985071128283657 0.0 -0.0 0.0 -0.0 0.0 -0.0 0.0 0.0 0.0 0.0 0.0 0.0 -1.853434052301213e-17 -0.29782787236756275 -0.7334827071983453 -0.15741113106048782 0.025546459324926607 0.0 -2.1270008041473856e-16 -3.4305301093244838 -6.192935484284256 -0.6497127432656802 0.10605311605613185 0.0 1.678823709487915 -1.8133867422686976 2.24532413482666 -3.0863927046405237 -0.6797321478473108 -0.8985021750079554 0.0 0.0 -0.0 0.0 0.0 0.0 0.0605621412396431 -0.2489776909351349 -0.6786433458328247 -0.2752724885940552 0.019022895023226738 -0.1186133474111557 0.0628051832318306 -0.2534637749195099 -0.6877935528755188 -0.2707965075969696 0.022379877045750618 -0.10406643152236938 0.19998494428178218 -0.20001893314159733 0.3499711423096577 -1.6275490895479054 1.6277883676537772 -1.6275953803998973 0.0 0.0 0.0 0.0 0.0 0.0 -6.942385274791947 1.3208299544491138 6.481948530718708 1.1432605455217586 0.6390012756043479 0.34520752659431864 0.19999999995866163 -0.19999999999522225 0.34999999992375186 -1.6275987285220286 1.6275987281600475 -1.6275987284607218 0.0 0.0 0.0 0.0 0.0 0.0
6883.304 1.6788797675175093 -1.8134368088825958 2.2452425546432897 -3.086304270181042 -0.6796436956938443 -0.8985071128283657 0.0 -0.0 0.0 -0.0 0.0 -0.0 0.0 0.0 0.0 0.0 0.0 0.0 -1.853434052301213e-17 -0.29782787236756275 -0.7334827071983453 -0.15741113106048782 0.025546459324926607 0.0 -2.1270008041473856e-16 -3.4305301093244838 -6.192935484284256 -0.6497127432656802 0.10605311605613185 0.0 1.6787877082824707 -1.813446346913473 2.2452878952026367 -3.0863927046405237 -0.6797321478473108 -0.8985021750079554 0.0 0.0 -0.0 0.0 0.0 0.0 0.0672912672162056 -0.2512207329273224 -0.671018123626709 -0.2741535007953644 0.024617865681648254 -0.10294743627309799 0.0650482252240181 -0.2624359428882599 -0.6847434639930725 -0.2719154953956604 0.022379877045750618 -0.10406643152236938 0.19997667497836347 -0.20001577219595704 0.34999440463617537 -1.6275644025817861 1.627768601009586 -1.6277205682229954 0.0 0.0 0.0 0.0 0.0 0.0 -7.231553438638307 0.9014418341703717 6.649736724329123 1.123435733803859 0.7239992217490029 0.4003186766388987 0.19999999995866163 -0.19999999999522225 0.34999999992375186 -1.6275987285220286 1.6275987281600475 -1.6275987284607218 0.0 0.0 0.0 0.0 0.0 0.0
6883.312 1.6788797675175093 -1.8134368088825958 2.2452425546432897 -3.086304270181042 -0.6796436956938443 -0.8985071128283657 0.0 -0.0 0.0 -0.0 0.0 -0.0 0.0 0.0 0.0 0.0 0.0 0.0 -1.853434052301213e-17 -0.29782787236756275 -0.7334827071983453 -0.15741113106048782 0.025546459324926607 0.0 -2.1270008041473856e-16 -3.4305301093244838 -6.192935484284256 -0.6497127432656802 0.10605311605613185 0.0 1.678823709487915 -1.8133986631976526 2.245299816131592 -3.0863564650165003 -0.6796720663653772 -0.8984783331500452 0.0 0.0 -0.0 0.0 0.0 0.0 0.0672912672162056 -0.2646789848804474 -0.6969438195228577 -0.27862948179244995 0.02685585245490074 -0.09623347222805023 0.0650482252240181 -0.2512207329273224 -0.6862685084342957 -0.2707965075969696 0.017903901636600494 -0.10406643152236938 0.1999877372841015 -0.20001563940206593 0.3499792356696151 -1.6275216296844712 1.627733238294452 -1.6275699590967192 0.0 0.0 0.0 0.0 0.0 0.0 -7.243801992725505 0.9160416301201142 5.496265328691119 1.0521268779440436 0.6640828634614317 0.3998378665282893 0.19999999995866163 -0.19999999999522225 0.34999999992375186 -1.6275987285220286 1.6275987281600475 -1.6275987284607218 0.0 0.0 0.0 0.0 0.0 0.0
6883.32 1.6788797675175093 -1.8134368088825958 2.2452425546432897 -3.086304270181042 -0.6796436956938443 -0.8985071128283657 0.0 -0.0 0.0 -0.0 0.0 -0.0 0.0 0.0 0.0 0.0 0.0 0.0 -1.853434052301213e-17 -0.29782787236756275 -0.7334827071983453 -0.15741113106048782 0.025546459324926607 0.0 -2.1270008041473856e-16 -3.4305301093244838 -6.192935484284256 -0.6497127432656802 0.10605311605613185 0.0 1.6788356304168701 -1.8133867422686976 2.2452878952026367 -3.08633262315859 -0.6797078291522425 -0.8984902540790003 0.0 0.0 -0.0 0.0 0.0 0.0 0.0672912672162056 -0.2489776909351349 -0.6877935528755188 -0.2730345129966736 0.012308932840824127 -0.10294743627309799 0.0628051832318306 -0.2512207329273224 -0.6862685084342957 -0.2741535007953644 0.02014188840985298 -0.10406643152236938 0.1999889310106131 -0.20001948791821414 0.34997682793680207 -1.6275334208619476 1.627769235144422 -1.6275514255651231 0.0 0.0 0.0 0.0 0.0 0.0 -8.08834603373947 1.4695543379762679 6.111099147102395 1.1119666549031977 0.6666796478269771 0.4580935027771036 0.19999999995866163 -0.19999999999522225 0.34999999992375186 -1.6275987285220286 1.6275987281600475 -1.6275987284607218 0.0 0.0 0.0 0.0 0.0 0.0
6883.3279999999995 1.6788797675175093 -1.8134368088825958 2.2452425546432897 -3.086304270181042 -0.6796436956938443 -0.8985071128283657 0.0 -0.0 0.0 -0.0 0.0 -0.0 0.0 0.0 0.0 0.0 0.0 0.0 -1.853434052301213e-17 -0.29782787236756275 -0.7334827071983453 -0.15741113106048782 0.025546459324926607 0.0 -2.1270008041473856e-16 -3.4305301093244838 -6.192935484284256 -0.6497127432656802 0.10605311605613185 0.0 1.678823709487915 -1.8134225050555628 2.2453360557556152 -3.086344544087545 -0.6797078291522425 -0.8984664122210901 0.0 0.0 -0.0 0.0 0.0 0.0 0.0672912672162056 -0.2444916069507599 -0.6923686861991882 -0.2730345129966736 0.01678490824997425 -0.11637535691261292 0.0628051832318306 -0.2534637749195099 -0.6862685084342957 -0.2730345129966736 0.02014188840985298 -0.10406643152236938 0.1999854808840755 -0.2000123813643883 0.34997228888373383 -1.6275010228189628 1.627795626995388 -1.6275451323580967 0.0 0.0 0.0 0.0 0.0 0.0 -8.135818427308042 1.8870421004678297 6.081711362224031 1.1355142979844794 0.6226047995202523 0.3840446682006912 0.19999999995866163 -0.19999999999522225 0.34999999992375186 -1.6275987285220286 1.6275987281600475 -1.6275987284607218 0.0 0.0 0.0 0.0 0.0 0.0
6883.335999999999 1.6788797675175093 -1.8134368088825958 2.2452425546432897 -3.086304270181042 -0.6796436956938443 -0.8985071128283657 0.0 -0.0 0.0 -0.0 0.0 -0.0 0.0 0.0 0.0 0.0 0.0 0.0 -1.853434052301213e-17 -0.29782787236756275 -0.7334827071983453 -0.15741113106048782 0.025546459324926607 0.0 -2.1270008041473856e-16 -3.4305301093244838 -6.192935484284256 -0.6497127432656802 0.10605311605613185 0.0 1.6788116693496704 -1.8134225050555628 2.245299816131592 -3.0863564650165003 -0.6796959082232874 -0.8984664122210901 0.0 0.0 -0.0 0.0 0.0 0.0 0.0605621412396431 -0.2557068169116974 -0.6908436417579651 -0.2696775197982788 0.012308932840824127 -0.10406643152236938 0.0628051832318306 -0.2534637749195099 -0.6862685084342957 -0.2730345129966736 0.02014188840985298 -0.10406643152236938 0.1999837421099476 -0.2000148262804909 0.34998378501921035 -1.627511721939591 1.6277654919772884 -1.6276023111873898 0.0 0.0 0.0 0.0 0.0 0.0 -7.1335707044641765 1.2319699010531562 5.720969138330348 1.0538723500082956 0.5883609903159221 0.40119108955228416 0.19999999995866163 -0.19999999999522225 0.34999999992375186 -1.6275987285220286 1.6275987281600475 -1.6275987284607218 0.0 0.0 0.0 0.0 0.0 0.0
6883.344 1.6788797675175093 -1.8134368088825958 2.2452425546432897 -3.086304270181042 -0.6796436956938443 -0.8985071128283657 0.0 -0.0 0.0 -0.0 0.0 -0.0 0.0 0.0 0.0 0.0 0.0 0.0 -1.853434052301213e-17 -0.29782787236756275 -0.7334827071983453 -0.15741113106048782 0.025546459324926607 0.0 -2.1270008041473856e-16 -3.4305301093244838 -6.192935484284256 -0.6497127432656802 0.10605311605613185 0.0 1.678823709487915 -1.8134105841266077 2.2453479766845703 -3.086344544087545 -0.6797202269183558 -0.8984664122210901 0.0 0.0 -0.0 0.0 0.0 0.0 0.0628051832318306 -0.2489776909351349 -0.6755932569503784 -0.2696775197982788 0.021260883659124374 -0.09847146272659302 0.0605621412396431 -0.2534637749195099 -0.6862685084342957 -0.2730345129966736 0.02014188840985298 -0.10406643152236938 0.1999851064806655 -0.2000150424525462 0.3499659634365317 -1.6274926250281043 1.627824286682407 -1.6275212063398807 0.0 0.0 0.0 0.0 0.0 0.0 -7.226256989004489 1.155623588214067 6.436214057112878 1.0977595493414087 0.7190729382161667 0.4061364396730301 0.19999999995866163 -0.19999999999522225 0.34999999992375186 -1.6275987285220286 1.6275987281600475 -1.6275987284607218 0.0 0.0 0.0 0.0 0.0 0.0
6883.352 1.6788797675175093 -1.8134368088825958 2.2452425546432897 -3.086304270181042 -0.6796436956938443 -0.8985071128283657 0.0 -0.0 0.0 -0.0 0.0 -0.0 0.0 0.0 0.0 0.0 0.0 0.0 -1.853434052301213e-17 -0.29782787236756275 -0.7334827071983453 -0.15741113106048782 0.025546459324926607 0.0 -2.1270008041473856e-16 -3.4305301093244838 -6.192935484284256 -0.6497127432656802 0.10605311605613185 0.0 1.678823709487915 -1.8134225050555628 2.2453360557556152 -3.0863564650165003 -0.6796839872943323 -0.8984783331500452 0.0 0.0 -0.0 0.0 0.0 0.0 0.0650482252240181 -0.2736511528491974 -0.6740682125091553 -0.27639147639274597 0.022379877045750618 -0.1186133474111557 0.0650482252240181 -0.2534637749195099 -0.6862685084342957 -0.2730345129966736 0.02014188840985298 -0.10406643152236938 0.1999865039849001 -0.200010297748931 0.34997401975222403 -1.6275174070007274 1.627754472009055 -1.6275588138530792 0.0 0.0 0.0 0.0 0.0 0.0 -5.489093799478489 -0.18593031055720993 5.961728442305327 1.0362884219279231 0.4784704605555629 0.2980813978496427 0.19999999995866163 -0.19999999999522225 0.34999999992375186 -1.6275987285220286 1.6275987281600475 -1.6275987284607218 0.0 0.0 0.0 0.0 0.0 0.0
6883.36 1.6788797675175093 -1.8134368088825958 2.2452425546432897 -3.086304270181042 -0.6796436956938443 -0.8985071128283657 0.0 -0.0 0.0 -0.0 0.0 -0.0 0.0 0.0 0.0 0.0 0.0 0.0 -1.853434052301213e-17 -0.29782787236756275 -0.7334827071983453 -0.15741113106048782 0.025546459324926607 0.0 -2.1270008041473856e-16 -3.4305301093244838 -6.192935484284256 -0.6497127432656802 0.10605311605613185 0.0 1.6788476705551147 -1.8133986631976526 2.2453360557556152 -3.086344544087545 -0.6796839872943323 -0.8984420935260218 0.0 0.0 -0.0 0.0 0.0 0.0 0.0583190992474556 -0.2467346489429474 -0.6893185973167419 -0.2741535007953644 0.01678490824997425 -0.11301837861537933 0.0650482252240181 -0.2534637749195099 -0.6862685084342957 -0.2730345129966736 0.02014188840985298 -0.10406643152236938 0.19999186039038536 -0.2000108101439277 0.3499677395947565 -1.627478766599868 1.6277707891303563 -1.6274893664210714 0.0 0.0 0.0 0.0 0.0 0.0 -7.346138173925298 1.7459481295369486 6.15027409332758 1.1313433807882343 0.657828503782575 0.369738056077421 0.19999999995866163 -0.19999999999522225 0.34999999992375186 -1.6275987285220286 1.6275987281600475 -1.6275987284607218 0.0 0.0 0.0 0.0 0.0 0.0
6883.3679999999995 1.6788797675175093 -1.8134368088825958 2.2452425546432897 -3.086304270181042 -0.6796436956938443 -0.8985071128283657 0.0 -0.0 0.0 -0.0 0.0 -0.0 0.0 0.0 0.0 0.0 0.0 0.0 -1.853434052301213e-17 -0.29782787236756275 -0.7334827071983453 -0.15741113106048782 0.025546459324926607 0.0 -2.1270008041473856e-16 -3.4305301093244838 -6.192935484284256 -0.6497127432656802 0.10605311605613185 0.0 1.6788716316223145 -1.8134344259845179 2.245299816131592 -3.0863688627826136 -0.6797202269183558 -0.8984540144549769 0.0 0.0 -0.0 0.0 0.0 0.0 0.0650482252240181 -0.2489776909351349 -0.671018123626709 -0.2741535007953644 0.022379877045750618 -0.09959045052528381 0.0628051832318306 -0.2534637749195099 -0.6877935528755188 -0.2730345129966736 0.02014188840985298 -0.10406643152236938 0.1999943141684639 -0.2000013597725087 0.34998675543601215 -1.6275415987258877 1.6277210978316365 -1.6276000565575413 0.0 0.0 0.0 0.0 0.0 0.0 -7.332318093100222 1.0289867321634758 6.714184966965536 1.132359480034204 0.7585453638721282 0.42370465296812737 0.19999999995866163 -0.19999999999522225 0.34999999992375186 -1.6275987285220286 1.6275987281600475 -1.6275987284607218 0.0 0.0 0.0 0.0 0.0 0.0
6883.375999999999 1.6788797675175093 -1.8134368088825958 2.2452425546432897 -3.086304270181042 -0.6796436956938443 -0.8985071128283657 0.0 -0.0 0.0 -0.0 0.0 -0.0 0.0 0.0 0.0 0.0 0.0 0.0 -1.853434052301213e-17 -0.29782787236756275 -0.7334827071983453 -0.15741113106048782 0.025546459324926607 0.0 -2.1270008041473856e-16 -3.4305301093244838 -6.192935484284256 -0.6497127432656802 0.10605311605613185 0.0 1.6788835525512695 -1.8133867422686976 2.24532413482666 -3.0863564650165003 -0.6797078291522425 -0.8984783331500452 0.0 0.0 -0.0 0.0 0.0 0.0 0.0650482252240181 -0.2400055229663849 -0.6832184791564941 -0.27862948179244995 0.022379877045750618 -0.08840051293373108 0.0560760572552681 -0.2534637749195099 -0.6862685084342957 -0.2730345129966736 0.02014188840985298 -0.10406643152236938 0.199998205349934 -0.20000730601573824 0.34996875460130683 -1.627542740922617 1.627732050557567 -1.6275084063445655 0.0 0.0 0.0 0.0 0.0 0.0 -8.577983047100668 1.8641323009246693 6.675333672848555 1.1830683480613247 0.9077025970011485 0.5058587254304782 0.19999999995866163 -0.19999999999522225 0.34999999992375186 -1.6275987285220286 1.6275987281600475 -1.6275987284607218 0.0 0.0 0.0 0.0 0.0 0.0
6883.384 1.6788797675175093 -1.8134368088825958 2.2452425546432897 -3.086304270181042 -0.6796436956938443 -0.8985071128283657 0.0 -0.0 0.0 -0.0 0.0 -0.0 0.0 0.0 0.0 0.0 0.0 0.0 -1.853434052301213e-17 -0.29782787236756275 -0.7334827071983453 -0.15741113106048782 0.025546459324926607 0.0 -2.1270008041473856e-16 -3.4305301093244838 -6.192935484284256 -0.6497127432656802 0.10605311605613185 0.0 1.6788716316223145 -1.8133986631976526 2.2452878952026367 -3.086344544087545 -0.6797078291522425 -0.8985021750079554 0.0 0.0 -0.0 0.0 0.0 0.0 0.0650482252240181 -0.2467346489429474 -0.6755932569503784 -0.27639147639274597 0.022379877045750618 -0.1197323426604271 0.0628051832318306 -0.2534637749195099 -0.6862685084342957 -0.2730345129966736 0.022379877045750618 -0.10406643152236938 0.19999581918444523 -0.20000933195158527 0.3499804795770252 -1.627575025544581 1.6277094979476767 -1.6275665001653519 0.0 0.0 0.0 0.0 0.0 0.0 -7.2621399926612185 1.3350246273163373 6.681315325069553 1.1651813279944803 0.6650380629007019 0.3485189843505 0.19999999995866163 -0.19999999999522225 0.34999999992375186 -1.6275987285220286 1.6275987281600475 -1.6275987284607218 0.0 0.0 0.0 0.0 0.0 0.0
6883.392 1.6788797675175093 -1.8134368088825958 2.2452425546432897 -3.086304270181042 -0.6796436956938443 -0.8985071128283657 0.0 -0.0 0.0 -0.0 0.0 -0.0 0.0 0.0 0.0 0.0 0.0 0.0 -1.853434052301213e-17 -0.29782787236756275 -0.7334827071983453 -0.15741113106048782 0.025546459324926607 0.0 -2.1270008041473856e-16 -3.4305301093244838 -6.192935484284256 -0.6497127432656802 0.10605311605613185 0.0 1.6788835525512695 -1.813446346913473 2.2452640533447266 -3.0863688627826136 -0.6797321478473108 -0.8984420935260218 0.0 0.0 -0.0 0.0 0.0 0.0 0.0650482252240181 -0.2400055229663849 -0.7045690417289734 -0.2730345129966736 0.02685585245490074 -0.09623347222805023 0.0628051832318306 -0.2534637749195099 -0.6862685084342957 -0.2730345129966736 0.022379877045750618 -0.10406643152236938 0.19999609067738014 -0.199998728932526 0.34999901631716035 -1.627553473449935 1.6276995115644193 -1.627644769491611 0.0 0.0 0.0 0.0 0.0 0.0 -8.751747908402413 2.482733561798612 5.790244623513971 1.1262302069874184 0.7853979528603476 0.41682401091609106 0.19999999995866163 -0.19999999999522225 0.34999999992375186 -1.6275987285220286 1.6275987281600475 -1.6275987284607218 0.0 0.0 0.0 0.0 0.0 0.0
6883.4 1.6788797675175093 -1.8134368088825958 2.2452425546432897 -3.086304270181042 -0.6796436956938443 -0.8985071128283657 0.0 -0.0 0.0 -0.0 0.0 -0.0 0.0 0.0 0.0 0.0 0.0 0.0 -1.853434052301213e-17 -0.29782787236756275 -0.7334827071983453 -0.15741113106048782 0.025546459324926607 0.0 -2.1270008041473856e-16 -3.4305301093244838 -6.192935484284256 -0.6497127432656802 0.10605311605613185 0.0 1.6788595914840698 -1.8133986631976526 2.2452759742736816 -3.08633262315859 -0.6797078291522425 -0.8984540144549769 0.0 0.0 -0.0 0.0 0.0 0.0 0.0695343092083931 -0.2601929008960724 -0.6755932569503784 -0.2752724885940552 0.021260883659124374 -0.10630441457033157 0.0628051832318306 -0.2534637749195099 -0.6862685084342957 -0.2730345129966736 0.022379877045750618 -0.10406643152236938 0.19999353414372137 -0.20001280217708087 0.34998278536012695 -1.6275167635231969 1.6277492463755125 -1.6275489422775797 0.0 0.0 0.0 0.0 0.0 0.0 -6.974222512994695 0.5252362693473052 6.266853254349191 1.0857013235156943 0.6268103151770259 0.3951899144465607 0.19999999995866163 -0.19999999999522225 0.34999999992375186 -1.6275987285220286 1.6275987281600475 -1.6275987284607218 0.0 0.0 0.0 0.0 0.0 0.0
6883.407999999999 1.6788797675175093 -1.8134368088825958 2.2452425546432897 -3.086304270181042 -0.6796436956938443 -0.8985071128283657 0.0 -0.0 0.0 -0.0 0.0 -0.0 0.0 0.0 0.0 0.0 0.0 0.0 -1.853434052301213e-17 -0.29782787236756275 -0.7334827071983453 -0.15741113106048782 0.025546459324926607 0.0 -2.1270008041473856e-16 -3.4305301093244838 -6.192935484284256 -0.6497127432656802 0.10605311605613185 0.0 1.6788955926895142 -1.8134587446795862 2.245299816131592 -3.086296860371725 -0.6797078291522425 -0.8984664122210901 0.0 0.0 -0.0 0.0 0.0 0.0 0.0605621412396431 -0.2646789848804474 -0.6984688639640808 -0.27639147639274597 0.02349887043237686 -0.1186133474111557 0.0628051832318306 -0.2557068169116974 -0.6862685084342957 -0.2730345129966736 0.022379877045750618 -0.10406643152236938 0.19999952620301853 -0.19999467810700325 0.34998630734643993 -1.6275502355137381 1.6277037905389786 -1.6275380777038377 0.0 0.0 0.0 0.0 0.0 0.0 -6.376118551347475 1.044549792542095 5.381213324584101 1.050218108227384 0.51049647333999 0.28702544896366794 0.19999999995866163 -0.19999999999522225 0.34999999992375186 -1.6275987285220286 1.6275987281600475 -1.6275987284607218 0.0 0.0 0.0 0.0 0.0 0.0
6883.415999999999 1.6788797675175093 -1.8134368088825958 2.2452425546432897 -3.086304270181042 -0.6796436956938443 -0.8985071128283657 0.0 -0.0 0.0 -0.0 0.0 -0.0 0.0 0.0 0.0 0.0 0.0 0.0 -1.853434052301213e-17 -0.29782787236756275 -0.7334827071983453 -0.15741113106048782 0.025546459324926607 0.0 -2.1270008041473856e-16 -3.4305301093244838 -6.192935484284256 -0.6497127432656802 0.10605311605613185 0.0 1.6788356304168701 -1.8134225050555628 2.24532413482666 -3.0863564650165003 -0.6796959082232874 -0.8985021750079554 0.0 0.0 -0.0 0.0 0.0 0.0 0.0695343092083931 -0.2601929008960724 -0.6755932569503784 -0.27862948179244995 0.02014188840985298 -0.12085133790969849 0.0672912672162056 -0.2534637749195099 -0.6862685084342957 -0.2730345129966736 0.02014188840985298 -0.10406643152236938 0.19998840818063698 -0.2000091066398141 0.3499769944779329 -1.6275543708325657 1.627734761099923 -1.6275807428964264 0.0 0.0 0.0 0.0 0.0 0.0 -6.800284646373579 0.5672327610644652 6.357435192650188 1.1169316616549652 0.5655553037460169 0.3519788644476703 0.19999999995866163 -0.19999999999522225 0.34999999992375186 -1.6275987285220286 1.6275987281600475 -1.6275987284607218 0.0 0.0 0.0 0.0 0.0 0.0
6883.424 1.6788797675175093 -1.8134368088825958 2.2452425546432897 -3.086304270181042 -0.6796436956938443 -0.8985071128283657 0.0 -0.0 0.0 -0.0 0.0 -0.0 0.0 0.0 0.0 0.0 0.0 0.0 -1.853434052301213e-17 -0.29782787236756275 -0.7334827071983453 -0.15741113106048782 0.025546459324926607 0.0 -2.1270008041473856e-16 -3.4305301093244838 -6.192935484284256 -0.6497127432656802 0.10605311605613185 0.0 1.6788595914840698 -1.8134344259845179 2.2453360557556152 -3.086320702229635 -0.6797078291522425 -0.8985140959369105 0.0 0.0 -0.0 0.0 0.0 0.0 0.0628051832318306 -0.2669220268726349 -0.7060940861701965 -0.2674395442008972 0.02349887043237686 -0.10742340981960297 0.0650482252240181 -0.2557068169116974 -0.6862685084342957 -0.2730345129966736 0.024617865681648254 -0.10406643152236938 0.19999252836025033 -0.20000407179233864 0.3499728715705394 -1.6275676711172629 1.6277380404650206 -1.6275375030880315 0.0 0.0 0.0 0.0 0.0 0.0 -6.591777360155195 1.0628897751190636 4.814434433073696 0.9666772735698872 0.46579533257166517 0.2976961464701104 0.19999999995866163 -0.19999999999522225 0.34999999992375186 -1.6275987285220286 1.6275987281600475 -1.6275987284607218 0.0 0.0 0.0 0.0 0.0 0.0
6883.432 1.6788797675175093 -1.8134368088825958 2.2452425546432897 -3.086304270181042 -0.6796436956938443 -0.8985071128283657 0.0 -0.0 0.0 -0.0 0.0 -0.0 0.0 0.0 0.0 0.0 0.0 0.0 -1.853434052301213e-17 -0.29782787236756275 -0.7334827071983453 -0.15741113106048782 0.025546459324926607 0.0 -2.1270008041473856e-16 -3.4305301093244838 -6.192935484284256 -0.6497127432656802 0.10605311605613185 0.0 1.6788356304168701 -1.8133986631976526 2.2453360557556152 -3.086344544087545 -0.6797078291522425 -0.8984902540790003 0.0 0.0 -0.0 0.0 0.0 0.0 0.0650482252240181 -0.2601929008960724 -0.6755932569503784 -0.2707965075969696 0.014546919614076614 -0.09287648648023605 0.0628051832318306 -0.2534637749195099 -0.6862685084342957 -0.2730345129966736 0.022379877045750618 -0.10406643152236938 0.19998836803391756 -0.20001469420037893 0.3499670316246175 -1.6275244046234054 1.6277840674212831 -1.62752413034962 0.0 0.0 0.0 0.0 0.0 0.0 -6.954528805200889 0.4982074538426407 6.146741759098077 1.049874827207696 0.6584032299420092 0.4543948164946363 0.19999999995866163 -0.19999999999522225 0.34999999992375186 -1.6275987285220286 1.6275987281600475 -1.6275987284607218 0.0 0.0 0.0 0.0 0.0 0.0
6883.44 1.6788797675175093 -1.8134368088825958 2.2452425546432897 -3.086304270181042 -0.6796436956938443 -0.8985071128283657 0.0 -0.0 0.0 -0.0 0.0 -0.0 0.0 0.0 0.0 0.0 0.0 0.0 -1.853434052301213e-17 -0.29782787236756275 -0.7334827071983453 -0.15741113106048782 0.025546459324926607 0.0 -2.1270008041473856e-16 -3.4305301093244838 -6.192935484284256 -0.6497127432656802 0.10605311605613185 0.0 1.6787997484207153 -1.8134706656085413 2.2453360557556152 -3.0863688627826136 -0.6797202269183558 -0.8985260168658655 0.0 0.0 -0.0 0.0 0.0 0.0 0.0515899695456028 -0.2579498589038849 -0.6938937306404114 -0.2752724885940552 0.02014188840985298 -0.10966140031814575 0.0628051832318306 -0.2534637749195099 -0.6862685084342957 -0.2730345129966736 0.019022895023226738 -0.10406643152236938 0.1999789844600679 -0.2000072133550986 0.3499846268756924 -1.6275786201786675 1.627758071665084 -1.627670047757642 0.0 0.0 0.0 0.0 0.0 0.0 -6.262512419607214 1.3231624938597784 5.6998017827586045 1.0744568035879785 0.6187487238724095 0.3241333000371888 0.19999999995866163 -0.19999999999522225 0.34999999992375186 -1.6275987285220286 1.6275987281600475 -1.6275987284607218 0.0 0.0 0.0 0.0 0.0 0.0
6883.447999999999 1.6788797675175093 -1.8134368088825958 2.2452425546432897 -3.086304270181042 -0.6796436956938443 -0.8985071128283657 0.0 -0.0 0.0 -0.0 0.0 -0.0 0.0 0.0 0.0 0.0 0.0 0.0 -1.853434052301213e-17 -0.29782787236756275 -0.7334827071983453 -0.15741113106048782 0.025546459324926607 0.0 -2.1270008041473856e-16 -3.4305301093244838 -6.192935484284256 -0.6497127432656802 0.10605311605613185 0.0 1.6788476705551147 -1.8134587446795862 2.2453360557556152 -3.08633262315859 -0.6796959082232874 -0.8984783331500452 0.0 0.0 -0.0 0.0 0.0 0.0 0.0650482252240181 -0.2534637749195099 -0.6786433458328247 -0.2719154953956604 0.02349887043237686 -0.10518541932106018 0.0628051832318306 -0.2534637749195099 -0.6908436417579651 -0.2730345129966736 0.024617865681648254 -0.10406643152236938 0.19999011212351556 -0.2000003193740621 0.34997961072090095 -1.6275357078462425 1.6277350342638486 -1.6275638797400211 0.0 0.0 0.0 0.0 0.0 0.0 -7.052657212621956 1.0080957772920076 6.263222357410482 1.0908722733579135 0.6620639439911429 0.37194706727927823 0.19999999995866163 -0.19999999999522225 0.34999999992375186 -1.6275987285220286 1.6275987281600475 -1.6275987284607218 0.0 0.0 0.0 0.0 0.0 0.0
6883.456 1.6788797675175093 -1.8134368088825958 2.2452425546432897 -3.086304270181042 -0.6796436956938443 -0.8985071128283657 0.0 -0.0 0.0 -0.0 0.0 -0.0 0.0 0.0 0.0 0.0 0.0 0.0 -1.853434052301213e-17 -0.29782787236756275 -0.7334827071983453 -0.15741113106048782 0.025546459324926607 0.0 -2.1270008041473856e-16 -3.4305301093244838 -6.192935484284256 -0.6497127432656802 0.10605311605613185 0.0 1.6788356304168701 -1.8134225050555628 2.2452878952026367 -3.086320702229635 -0.6797078291522425 -0.8984540144549769 0.0 0.0 -0.0 0.0 0.0 0.0 0.0717773512005806 -0.2400055229663849 -0.6908436417579651 -0.27751046419143677 0.02685585245490074 -0.09063850343227386 0.0628051832318306 -0.2534637749195099 -0.6832184791564941 -0.2730345129966736 0.022379877045750618 -0.10406643152236938 0.19998823782987354 -0.20001304971460124 0.349983691024071 -1.6275034026504624 1.6277750065803929 -1.6275606207209221 0.0 0.0 0.0 0.0 0.0 0.0 -9.097562750534147 2.0407607720504304 6.384025923874641 1.1684449077766175 0.870711171231054 0.4879418167189317 0.19999999995866163 -0.19999999999522225 0.34999999992375186 -1.6275987285220286 1.6275987281600475 -1.6275987284607218 0.0 0.0 0.0 0.0 0.0 0.0
6883.464 1.6788797675175093 -1.8134368088825958 2.2452425546432897 -3.086304270181042 -0.6796436956938443 -0.8985071128283657 0.0 -0.0 0.0 -0.0 0.0 -0.0 0.0 0.0 0.0 0.0 0.0 0.0 -1.853434052301213e-17 -0.29782787236756275 -0.7334827071983453 -0.15741113106048782 0.025546459324926607 0.0 -2.1270008041473856e-16 -3.4305301093244838 -6.192935484284256 -0.6497127432656802 0.10605311605613185 0.0 1.6788356304168701 -1.8134105841266077 2.245299816131592 -3.0863807837115687 -0.6796959082232874 -0.8984783331500452 0.0 0.0 -0.0 0.0 0.0 0.0 0.0672912672162056 -0.2489776909351349 -0.6893185973167419 -0.26632052659988403 0.02014188840985298 -0.1186133474111557 0.0605621412396431 -0.2534637749195099 -0.6847434639930725 -0.2730345129966736 0.022379877045750618 -0.10406643152236938 0.1999886613872831 -0.2000111436652468 0.3499832431442923 -1.627542404222307 1.627725521852449 -1.627610359640458 0.0 0.0 0.0 0.0 0.0 0.0 -7.468477886365437 1.5400771515714564 5.874907583637302 1.0746955039244672 0.5329879774213706 0.31994210763172726 0.19999999995866163 -0.19999999999522225 0.34999999992375186 -1.6275987285220286 1.6275987281600475 -1.6275987284607218 0.0 0.0 0.0 0.0 0.0 0.0
6883.472 1.6788797675175093 -1.8134368088825958 2.2452425546432897 -3.086304270181042 -0.6796436956938443 -0.8985071128283657 0.0 -0.0 0.0 -0.0 0.0 -0.0 0.0 0.0 0.0 0.0 0.0 0.0 -1.853434052301213e-17 -0.29782787236756275 -0.7334827071983453 -0.15741113106048782 0.025546459324926607 0.0 -2.1270008041473856e-16 -3.4305301093244838 -6.192935484284256 -0.6497127432656802 0.10605311605613185 0.0 1.6788356304168701 -1.8133986631976526 2.2453360557556152 -3.08633262315859 -0.6797202269183558 -0.8984664122210901 0.0 0.0 -0.0 0.0 0.0 0.0 0.0785064771771431 -0.2467346489429474 -0.6877935528755188 -0.2752724885940552 0.022379877045750618 -0.09623347222805023 0.0650482252240181 -0.2534637749195099 -0.6862685084342957 -0.2730345129966736 0.02014188840985298 -0.10406643152236938 0.19998786534347018 -0.20001606920551218 0.349965640508861 -1.6274948838098637 1.6278188018081052 -1.6275020147194768 0.0 0.0 0.0 0.0 0.0 0.0 -9.006925943437121 1.5219084583015081 6.237487465483955 1.1316732739023758 0.7500157776632284 0.48702153245531704 0.19999999995866163 -0.19999999999522225 0.34999999992375186 -1.6275987285220286 1.6275987281600475 -1.6275987284607218 0.0 0.0 0.0 0.0 0.0 0.0
6883.48 1.6788797675175093 -1.8134368088825958 2.2452425546432897 -3.086304270181042 -0.6796436956938443 -0.8985071128283657 0.0 -0.0 0.0 -0.0 0.0 -0.0 0.0 0.0 0.0 0.0 0.0 0.0 -1.853434052301213e-17 -0.29782787236756275 -0.7334827071983453 -0.15741113106048782 0.025546459324926607 0.0 -2.1270008041473856e-16 -3.4305301093244838 -6.192935484284256 -0.6497127432656802 0.10605311605613185 0.0 1.6787997484207153 -1.8133986631976526 2.245299816131592 -3.0863688627826136 -0.6796839872943323 -0.8984783331500452 0.0 0.0 -0.0 0.0 0.0 0.0 0.0650482252240181 -0.2601929008960724 -0.6847434639930725 -0.2730345129966736 0.021260883659124374 -0.09287648648023605 0.0628051832318306 -0.2557068169116974 -0.6893185973167419 -0.2730345129966736 0.02014188840985298 -0.10406643152236938 0.1999823390056963 -0.20002053754417054 0.3499799455439901 -1.6275132424114833 1.6277648907198063 -1.6275982744341497 0.0 0.0 0.0 0.0 0.0 0.0 -7.099677836465607 0.7867142431555517 5.892307097079999 1.0513610084581546 0.6793906651541901 0.42577498261590974 0.19999999995866163 -0.19999999999522225 0.34999999992375186 -1.6275987285220286 1.6275987281600475 -1.6275987284607218 0.0 0.0 0.0 0.0 0.0 0.0
6883.487999999999 1.6788797675175093 -1.8134368088825958 2.2452425546432897 -3.086304270181042 -0.6796436956938443 -0.8985071128283657 0.0 -0.0 0.0 -0.0 0.0 -0.0 0.0 0.0 0.0 0.0 0.0 0.0 -1.853434052301213e-17 -0.29782787236756275 -0.7334827071983453 -0.15741113106048782 0.025546459324926607 0.0 -2.1270008041473856e-16 -3.4305301093244838 -6.192935484284256 -0.6497127432656802 0.10605311605613185 0.0 1.6788476705551147 -1.8134344259845179 2.2452878952026367 -3.0863688627826136 -0.6797202269183558 -0.8984420935260218 0.0 0.0 -0.0 0.0 0.0 0.0 0.0650482252240181 -0.2691650688648224 -0.6832184791564941 -0.27639147639274597 0.012308932840824127 -0.08280554413795471 0.0628051832318306 -0.2534637749195099 -0.6832184791564941 -0.2730345129966736 0.02014188840985298 -0.10406643152236938 0.1999895838400199 -0.20000660647214288 0.3499900841553488 -1.6275198953317667 1.62774611687899 -1.6276192953938258 0.0 0.0 0.0 0.0 0.0 0.0 -6.966698585747363 0.22024550461485662 5.780111141001592 1.0277963960226668 0.6820193593796511 0.5123614954900234 0.19999999995866163 -0.19999999999522225 0.34999999992375186 -1.6275987285220286 1.6275987281600475 -1.6275987284607218 0.0 0.0 0.0 0.0 0.0 0.0
6883.496 1.6788797675175093 -1.8134368088825958 2.2452425546432897 -3.086304270181042 -0.6796436956938443 -0.8985071128283657 0.0 -0.0 0.0 -0.0 0.0 -0.0 0.0 0.0 0.0 0.0 0.0 0.0 -1.853434052301213e-17 -0.29782787236756275 -0.7334827071983453 -0.15741113106048782 0.025546459324926607 0.0 -2.1270008041473856e-16 -3.4305301093244838 -6.192935484284256 -0.6497127432656802 0.10605311605613185 0.0 1.6788116693496704 -1.8134105841266077 2.24532413482666 -3.086344544087545 -0.6797202269183558 -0.8984664122210901 0.0 0.0 -0.0 0.0 0.0 0.0 0.0695343092083931 -0.2557068169116974 -0.681693434715271 -0.28198644518852234 0.015665914863348007 -0.12644630670547485 0.0672912672162056 -0.2534637749195099 -0.6862685084342957 -0.2730345129966736 0.021260883659124374 -0.10406643152236938 0.19998282222743408 -0.20001836013710148 0.3499726208442947 -1.6274947327499931 1.6278226312937893 -1.6275538304659012 0.0 0.0 0.0 0.0 0.0 0.0 -7.33647293623127 1.0022882054446087 6.368466211550286 1.1581860678567024 0.5703923682495948 0.37228884626838415 0.19999999995866163 -0.19999999999522225 0.34999999992375186 -1.6275987285220286 1.6275987281600475 -1.6275987284607218 0.0 0.0 0.0 0.0 0.0 0.0
6883.504 1.6788797675175093 -1.8134368088825958 2.2452425546432897 -3.086304270181042 -0.6796436956938443 -0.8985071128283657 0.0 -0.0 0.0 -0.0 0.0 -0.0 0.0 0.0 0.0 0.0 0.0 0.0 -1.853434052301213e-17 -0.29782787236756275 -0.7334827071983453 -0.15741113106048782 0.025546459324926607 0.0 -2.1270008041473856e-16 -3.4305301093244838 -6.192935484284256 -0.6497127432656802 0.10605311605613185 0.0 1.6788356304168701 -1.8134105841266077 2.245312213897705 -3.08633262315859 -0.6796839872943323 -0.8984783331500452 0.0 0.0 -0.0 0.0 0.0 0.0 0.0740203931927681 -0.2534637749195099 -0.6908436417579651 -0.2707965075969696 0.02014188840985298 -0.1018284410238266 0.0650482252240181 -0.2534637749195099 -0.6862685084342957 -0.2719154953956604 0.019022895023226738 -0.10406643152236938 0.19998938589012893 -0.20001238684753234 0.34997600266150636 -1.6275196773334706 1.6277490261084722 -1.6275396249145841 0.0 0.0 0.0 0.0 0.0 0.0 -8.151849850015239 1.2654242355373957 5.81761876955116 1.0704727532535412 0.6250611040144372 0.4249769388841222 0.19999999995866163 -0.19999999999522225 0.34999999992375186 -1.6275987285220286 1.6275987281600475 -1.6275987284607218 0.0 0.0 0.0 0.0 0.0 0.0
6883.512 1.6788797675175093 -1.8134368088825958 2.2452425546432897 -3.086304270181042 -0.6796436956938443 -0.8985071128283657 0.0 -0.0 0.0 -0.0 0.0 -0.0 0.0 0.0 0.0 0.0 0.0 0.0 -1.853434052301213e-17 -0.29782787236756275 -0.7334827071983453 -0.15741113106048782 0.025546459324926607 0.0 -2.1270008041473856e-16 -3.4305301093244838 -6.192935484284256 -0.6497127432656802 0.10605311605613185 0.0 1.6788835525512695 -1.8134344259845179 2.24532413482666 -3.0863564650165003 -0.6797202269183558 -0.8984301725970667 0.0 0.0 -0.0 0.0 0.0 0.0 0.0605621412396431 -0.2646789848804474 -0.671018123626709 -0.27862948179244995 0.02685585245490074 -0.11525636911392212 0.0628051832318306 -0.2534637749195099 -0.6862685084342957 -0.2730345129966736 0.02014188840985298 -0.10406643152236938 0.19999663546418445 -0.19999867976556693 0.34997890101520607 -1.6275091497945255 1.6277440541527766 -1.62754144563962 0.0 0.0 0.0 0.0 0.0 0.0 -5.68184457626884 0.26721976243347695 6.382461799702054 1.0928160900290342 0.6091704375436109 0.30366349578940666 0.19999999995866163 -0.19999999999522225 0.34999999992375186 -1.6275987285220286 1.6275987281600475 -1.6275987284607218 0.0 0.0 0.0 0.0 0.0 0.0
6883.5199999999995 1.6788797675175093 -1.8134368088825958 2.2452425546432897 -3.086304270181042 -0.6796436956938443 -0.8985071128283657 0.0 -0.0 0.0 -0.0 0.0 -0.0 0.0 0.0 0.0 0.0 0.0 0.0 -1.853434052301213e-17 -0.29782787236756275 -0.7334827071983453 -0.15741113106048782 0.025546459324926607 0.0 -2.1270008041473856e-16 -3.4305301093244838 -6.192935484284256 -0.6497127432656802 0.10605311605613185 0.0 1.6788476705551147 -1.8133986631976526 2.2453479766845703 -3.0863807837115687 -0.6796839872943323 -0.8984540144549769 0.0 0.0 -0.0 0.0 0.0 0.0 0.0628051832318306 -0.2489776909351349 -0.6801683902740479 -0.268558531999588 0.014546919614076614 -0.1186133474111557 0.0628051832318306 -0.2534637749195099 -0.6862685084342957 -0.2696775197982788 0.02349887043237686 -0.10406643152236938 0.1999916126064908 -0.20000850854226257 0.34996752067623993 -1.6275004847238086 1.6277491956229693 -1.6275224598790525 0.0 0.0 0.0 0.0 0.0 0.0 -7.082653010399379 1.30847290757858 6.2493678148664955 1.1005388672569865 0.5619375606432342 0.3467911058786646 0.19999999995866163 -0.19999999999522225 0.34999999992375186 -1.6275987285220286 1.6275987281600475 -1.6275987284607218 0.0 0.0 0.0 0.0 0.0 0.0
6883.527999999999 1.6788797675175093 -1.8134368088825958 2.2452425546432897 -3.086304270181042 -0.6796436956938443 -0.8985071128283657 0.0 -0.0 0.0 -0.0 0.0 -0.0 0.0 0.0 0.0 0.0 0.0 0.0 -1.853434052301213e-17 -0.29782787236756275 -0.7334827071983453 -0.15741113106048782 0.025546459324926607 0.0 -2.1270008041473856e-16 -3.4305301093244838 -6.192935484284256 -0.6497127432656802 0.10605311605613185 0.0 1.6788476705551147 -1.8134105841266077 2.245312213897705 -3.086344544087545 -0.6797202269183558 -0.8984301725970667 0.0 0.0 -0.0 0.0 0.0 0.0 0.0695343092083931 -0.2646789848804474 -0.6862685084342957 -0.2696775197982788 0.022379877045750618 -0.09735246747732162 0.0628051832318306 -0.2534637749195099 -0.6862685084342957 -0.2707965075969696 0.021260883659124374 -0.10406643152236938 0.19999008499491425 -0.2000116152487687 0.3499759495563825 -1.6274803886439908 1.6277969910778565 -1.6275320954341943 0.0 0.0 0.0 0.0 0.0 0.0 -6.977007005841905 0.5472082333838623 5.621166519085072 1.0098858027372368 0.5829596962903009 0.39134620411929183 0.19999999995866163 -0.19999999999522225 0.34999999992375186 -1.6275987285220286 1.6275987281600475 -1.6275987284607218 0.0 0.0 0.0 0.0 0.0 0.0
6883.536 1.6788797675175093 -1.8134368088825958 2.2452425546432897 -3.086304270181042 -0.6796436956938443 -0.8985071128283657 0.0 -0.0 0.0 -0.0 0.0 -0.0 0.0 0.0 0.0 0.0 0.0 0.0 -1.853434052301213e-17 -0.29782787236756275 -0.7334827071983453 -0.15741113106048782 0.025546459324926607 0.0 -2.1270008041473856e-16 -3.4305301093244838 -6.192935484284256 -0.6497127432656802 0.10605311605613185 0.0 1.6788595914840698 -1.8134344259845179 2.245299816131592 -3.0863564650165003 -0.6796720663653772 -0.8985021750079554 0.0 0.0 -0.0 0.0 0.0 0.0 0.0650482252240181 -0.2355194389820099 -0.6649179458618164 -0.2719154953956604 0.02685585245490074 -0.09287648648023605 0.0628051832318306 -0.2534637749195099 -0.6862685084342957 -0.2730345129966736 0.022379877045750618 -0.10406643152236938 0.19999415964870454 -0.20000141755708545 0.34998712147165173 -1.6275803241119764 1.6276598220844538 -1.627604300793733 0.0 0.0 0.0 0.0 0.0 0.0 -8.016105072979164 1.5796754429111741 7.248238509246684 1.1841974339560046 0.9008514829875643 0.45032907501060804 0.19999999995866163 -0.19999999999522225 0.34999999992375186 -1.6275987285220286 1.6275987281600475 -1.6275987284607218 0.0 0.0 0.0 0.0 0.0 0.0
6883.544 1.6788797675175093 -1.8134368088825958 2.2452425546432897 -3.086304270181042 -0.6796436956938443 -0.8985071128283657 0.0 -0.0 0.0 -0.0 0.0 -0.0 0.0 0.0 0.0 0.0 0.0 0.0 -1.853434052301213e-17 -0.29782787236756275 -0.7334827071983453 -0.15741113106048782 0.025546459324926607 0.0 -2.1270008041473856e-16 -3.4305301093244838 -6.192935484284256 -0.6497127432656802 0.10605311605613185 0.0 1.6788716316223145 -1.8134706656085413 2.2453479766845703 -3.086344544087545 -0.6797078291522425 -0.8984420935260218 0.0 0.0 -0.0 0.0 0.0 0.0 0.0628051832318306 -0.2400055229663849 -0.6893185973167419 -0.2674395442008972 0.021260883659124374 -0.09735246747732162 0.0628051832318306 -0.2534637749195099 -0.6862685084342957 -0.268558531999588 0.022379877045750618 -0.10406643152236938 0.19999398758110573 -0.1999928546589325 0.3499795794832775 -1.6275150189898817 1.6277358826141581 -1.6275507567615912 0.0 0.0 0.0 0.0 0.0 0.0 -8.146294125542951 2.029772548815752 6.1624490690649125 1.1102254283508792 0.7468254495737279 0.4151421587231435 0.19999999995866163 -0.19999999999522225 0.34999999992375186 -1.6275987285220286 1.6275987281600475 -1.6275987284607218 0.0 0.0 0.0 0.0 0.0 0.0
6883.552 1.6788797675175093 -1.8134368088825958 2.2452425546432897 -3.086304270181042 -0.6796436956938443 -0.8985071128283657 0.0 -0.0 0.0 -0.0 0.0 -0.0 0.0 0.0 0.0 0.0 0.0 0.0 -1.853434052301213e-17 -0.29782787236756275 -0.7334827071983453 -0.15741113106048782 0.025546459324926607 0.0 -2.1270008041473856e-16 -3.4305301093244838 -6.192935484284256 -0.6497127432656802 0.10605311605613185 0.0 1.6788476705551147 -1.813446346913473 2.2453360557556152 -3.086344544087545 -0.6796959082232874 -0.8984783331500452 0.0 0.0 -0.0 0.0 0.0 0.0 0.0628051832318306 -0.2512207329273224 -0.6893185973167419 -0.2752724885940552 0.01678490824997425 -0.07944856584072113 0.0628051832318306 -0.2534637749195099 -0.6862685084342957 -0.2707965075969696 0.022379877045750618 -0.10406643152236938 0.19999031252210558 -0.20000215436871938 0.3499778999813468 -1.6275355333241406 1.6277352516907744 -1.6275633278099997 0.0 0.0 0.0 0.0 0.0 0.0 -8.069764818794212 1.3965613377881434 6.054459417844575 1.096160326475626 0.8283309287160634 0.5265554581920642 0.19999999995866163 -0.19999999999522225 0.34999999992375186 -1.6275987285220286 1.6275987281600475 -1.6275987284607218 0.0 0.0 0.0 0.0 0.0 0.0
6883.5599999999995 1.6788797675175093 -1.8134368088825958 2.2452425546432897 -3.086304270181042 -0.6796436956938443 -0.8985071128283657 0.0 -0.0 0.0 -0.0 0.0 -0.0 0.0 0.0 0.0 0.0 0.0 0.0 -1.853434052301213e-17 -0.29782787236756275 -0.7334827071983453 -0.15741113106048782 0.025546459324926607 0.0 -2.1270008041473856e-16 -3.4305301093244838 -6.192935484284256 -0.6497127432656802 0.10605311605613185 0.0 1.6788476705551147 -1.8134706656085413 2.245299816131592 -3.086344544087545 -0.6797078291522425 -0.8985021750079554 0.0 0.0 -0.0 0.0 0.0 0.0 0.0650482252240181 -0.2355194389820099 -0.7152442932128906 -0.27751046419143677 0.027974845841526985 -0.09623347222805023 0.0628051832318306 -0.2534637749195099 -0.6862685084342957 -0.2752724885940552 0.022379877045750618 -0.10406643152236938 0.19998944586047457 -0.19999948357676306 0.349993027547052 -1.6275838097879751 1.6276986949063244 -1.6276456918372708 0.0 0.0 0.0 0.0 0.0 0.0 -9.418861815961948 3.0558662327619692 5.674103509736925 1.1638875681465128 0.8404973480608022 0.43564906441041973 0.19999999995866163 -0.19999999999522225 0.34999999992375186 -1.6275987285220286 1.6275987281600475 -1.6275987284607218 0.0 0.0 0.0 0.0 0.0 0.0
6883.567999999999 1.6788797675175093 -1.8134368088825958 2.2452425546432897 -3.086304270181042 -0.6796436956938443 -0.8985071128283657 0.0 -0.0 0.0 -0.0 0.0 -0.0 0.0 0.0 0.0 0.0 0.0 0.0 -1.853434052301213e-17 -0.29782787236756275 -0.7334827071983453 -0.15741113106048782 0.025546459324926607 0.0 -2.1270008041473856e-16 -3.4305301093244838 -6.192935484284256 -0.6497127432656802 0.10605311605613185 0.0 1.6788476705551147 -1.8133867422686976 2.2452640533447266 -3.0862844626056116 -0.6797078291522425 -0.8984783331500452 0.0 0.0 -0.0 0.0 0.0 0.0 0.0605621412396431 -0.2400055229663849 -0.6847434639930725 -0.2842244505882263 0.02014188840985298 -0.10742340981960297 0.0628051832318306 -0.2534637749195099 -0.6862685084342957 -0.2730345129966736 0.02014188840985298 -0.10406643152236938 0.19999171012886705 -0.20002044374750302 0.34997935265718055 -1.627518421371926 1.627777976327551 -1.6275124811088173 0.0 0.0 0.0 0.0 0.0 0.0 -8.11121009271988 2.001683261794771 6.772537144802332 1.229167732961956 0.8410898588914579 0.44283291873109887 0.19999999995866163 -0.19999999999522225 0.34999999992375186 -1.6275987285220286 1.6275987281600475 -1.6275987284607218 0.0 0.0 0.0 0.0 0.0 0.0
6883.576 1.6788797675175093 -1.8134368088825958 2.2452425546432897 -3.086304270181042 -0.6796436956938443 -0.8985071128283657 0.0 -0.0 0.0 -0.0 0.0 -0.0 0.0 0.0 0.0 0.0 0.0 0.0 -1.853434052301213e-17 -0.29782787236756275 -0.7334827071983453 -0.15741113106048782 0.025546459324926607 0.0 -2.1270008041473856e-16 -3.4305301093244838 -6.192935484284256 -0.6497127432656802 0.10605311605613185 0.0 1.6788476705551147 -1.8134225050555628 2.2453360557556152 -3.0863564650165003 -0.6796959082232874 -0.8984301725970667 0.0 0.0 -0.0 0.0 0.0 0.0 0.0672912672162056 -0.2489776909351349 -0.6969438195228577 -0.28086745738983154 0.02349887043237686 -0.09735246747732162 0.0628051832318306 -0.2534637749195099 -0.6862685084342957 -0.2730345129966736 0.02349887043237686 -0.10406643152236938 0.19999075431079072 -0.20000624389400753 0.34997366578954237 -1.6274795725566986 1.627769237054504 -1.627526498988217 0.0 0.0 0.0 0.0 0.0 0.0 -8.381121254868585 1.7794044747713647 6.007960720953381 1.1441283915792528 0.7820179965944657 0.45457341079007757 0.19999999995866163 -0.19999999999522225 0.34999999992375186 -1.6275987285220286 1.6275987281600475 -1.6275987284607218 0.0 0.0 0.0 0.0 0.0 0.0
6883.584 1.6788797675175093 -1.8134368088825958 2.2452425546432897 -3.086304270181042 -0.6796436956938443 -0.8985071128283657 0.0 -0.0 0.0 -0.0 0.0 -0.0 0.0 0.0 0.0 0.0 0.0 0.0 -1.853434052301213e-17 -0.29782787236756275 -0.7334827071983453 -0.15741113106048782 0.025546459324926607 0.0 -2.1270008041473856e-16 -3.4305301093244838 -6.192935484284256 -0.6497127432656802 0.10605311605613185 0.0 1.6788476705551147 -1.8133986631976526 2.245299816131592 -3.086344544087545 -0.6796720663653772 -0.8984783331500452 0.0 0.0 -0.0 0.0 0.0 0.0 0.0650482252240181 -0.2534637749195099 -0.699993908405304 -0.2696775197982788 0.01342792622745037 -0.09287648648023605 0.0628051832318306 -0.2534637749195099 -0.6862685084342957 -0.2730345129966736 0.019022895023226738 -0.10406643152236938 0.19999259093047028 -0.2000114549106714 0.3499782127546643 -1.627530580282182 1.6277148959820225 -1.6275449274073355 0.0 0.0 0.0 0.0 0.0 0.0 -8.046992331309056 1.5596546635913657 5.473129033278678 1.0474809560199927 0.6502876541247214 0.460593826562698 0.19999999995866163 -0.19999999999522225 0.34999999992375186 -1.6275987285220286 1.6275987281600475 -1.6275987284607218 0.0 0.0 0.0 0.0 0.0 0.0
6883.592 1.6788797675175093 -1.8134368088825958 2.2452425546432897 -3.086304270181042 -0.6796436956938443 -0.8985071128283657 0.0 -0.0 0.0 -0.0 0.0 -0.0 0.0 0.0 0.0 0.0 0.0 0.0 -1.853434052301213e-17 -0.29782787236756275 -0.7334827071983453 -0.15741113106048782 0.025546459324926607 0.0 -2.1270008041473856e-16 -3.4305301093244838 -6.192935484284256 -0.6497127432656802 0.10605311605613185 0.0 1.6788116693496704 -1.8133986631976526 2.245299816131592 -3.086344544087545 -0.6797078291522425 -0.8984783331500452 0.0 0.0 -0.0 0.0 0.0 0.0 0.0695343092083931 -0.2669220268726349 -0.6786433458328247 -0.27639147639274597 0.024617865681648254 -0.067139632999897 0.0628051832318306 -0.2534637749195099 -0.6862685084342957 -0.2730345129966736 0.02014188840985298 -0.10406643152236938 0.1999837638371399 -0.2000208689750841 0.349977150867619 -1.6275116913992989 1.6277942491920847 -1.6275706750668328 0.0 0.0 0.0 0.0 0.0 0.0 -7.336622977841759 0.17321539432979233 6.000965126534142 1.030575889110145 0.8261587833599287 0.538137421241118 0.19999999995866163 -0.19999999999522225 0.34999999992375186 -1.6275987285220286 1.6275987281600475 -1.6275987284607218 0.0 0.0 0.0 0.0 0.0 0.0
6883.599999999999 1.6788797675175093 -1.8134368088825958 2.2452425546432897 -3.086304270181042 -0.6796436956938443 -0.8985071128283657 0.0 -0.0 0.0 -0.0 0.0 -0.0 0.0 0.0 0.0 0.0 0.0 0.0 -1.853434052301213e-17 -0.29782787236756275 -0.7334827071983453 -0.15741113106048782 0.025546459324926607 0.0 -2.1270008041473856e-16 -3.4305301093244838 -6.192935484284256 -0.6497127432656802 0.10605311605613185 0.0 1.678823709487915 -1.8134344259845179 2.245312213897705 -3.086320702229635 -0.6797078291522425 -0.8984664122210901 0.0 0.0 -0.0 0.0 0.0 0.0 0.0583190992474556 -0.2489776909351349 -0.6832184791564941 -0.268558531999588 0.01342792622745037 -0.11078038811683655 0.0628051832318306 -0.2534637749195099 -0.6862685084342957 -0.2730345129966736 0.02014188840985298 -0.10406643152236938 0.1999854756458992 -0.20001215744694742 0.3499795290234951 -1.6275054409989584 1.6277884645522396 -1.6275585362214264 0.0 0.0 0.0 0.0 0.0 0.0 -7.017050861341284 1.412899960507041 6.1440456335848515 1.0914757435767368 0.6083220361131078 0.37054243410234544 0.19999999995866163 -0.19999999999522225 0.34999999992375186 -1.6275987285220286 1.6275987281600475 -1.6275987284607218 0.0 0.0 0.0 0.0 0.0 0.0
6883.607999999999 1.6788797675175093 -1.8134368088825958 2.2452425546432897 -3.086304270181042 -0.6796436956938443 -0.8985071128283657 0.0 -0.0 0.0 -0.0 0.0 -0.0 0.0 0.0 0.0 0.0 0.0 0.0 -1.853434052301213e-17 -0.29782787236756275 -0.7334827071983453 -0.15741113106048782 0.025546459324926607 0.0 -2.1270008041473856e-16 -3.4305301093244838 -6.192935484284256 -0.6497127432656802 0.10605311605613185 0.0 1.6788835525512695 -1.8133867422686976 2.2453360557556152 -3.0863688627826136 -0.6797078291522425 -0.8984902540790003 0.0 0.0 -0.0 0.0 0.0 0.0 0.0605621412396431 -0.2579498589038849 -0.6908436417579651 -0.2707965075969696 0.017903901636600494 -0.10742340981960297 0.0605621412396431 -0.2534637749195099 -0.6862685084342957 -0.2730345129966736 0.02014188840985298 -0.10406643152236938 0.19999807975055747 -0.20000621932066298 0.34996648980075284 -1.6275556688194985 1.6277250809645842 -1.6275147346183452 0.0 0.0 0.0 0.0 0.0 0.0 -6.8184381982584465 1.1341191428406514 5.685999960373349 1.0504345134491517 0.5768614363700856 0.35765353024749297 0.19999999995866163 -0.19999999999522225 0.34999999992375186 -1.6275987285220286 1.6275987281600475 -1.6275987284607218 0.0 0.0 0.0 0.0 0.0 0.0
6883.616 1.6788797675175093 -1.8134368088825958 2.2452425546432897 -3.086304270181042 -0.6796436956938443 -0.8985071128283657 0.0 -0.0 0.0 -0.0 0.0 -0.0 0.0 0.0 0.0 0.0 0.0 0.0 -1.853434052301213e-17 -0.29782787236756275 -0.7334827071983453 -0.15741113106048782 0.025546459324926607 0.0 -2.1270008041473856e-16 -3.4305301093244838 -6.192935484284256 -0.6497127432656802 0.10605311605613185 0.0 1.6788476705551147 -1.8134105841266077 2.2453360557556152 -3.0863688627826136 -0.6797202269183558 -0.8984540144549769 0.0 0.0 -0.0 0.0 0.0 0.0 0.0538330152630806 -0.2669220268726349 -0.6786433458328247 -0.2707965075969696 0.02014188840985298 -0.06266365945339203 0.0628051832318306 -0.2579498589038849 -0.6862685084342957 -0.2730345129966736 0.024617865681648254 -0.10406643152236938 0.19998983633330414 -0.20000946628317445 0.3499713789729552 -1.6275060692982164 1.6277833453962385 -1.6275442166042737 0.0 0.0 0.0 0.0 0.0 0.0 -6.240787397351535 0.2567125502370445 5.846888277838318 0.990260560765996 0.8205370365816169 0.5042056541447495 0.19999999995866163 -0.19999999999522225 0.34999999992375186 -1.6275987285220286 1.6275987281600475 -1.6275987284607218 0.0 0.0 0.0 0.0 0.0 0.0
6883.624 1.6788797675175093 -1.8134368088825958 2.2452425546432897 -3.086304270181042 -0.6796436956938443 -0.8985071128283657 0.0 -0.0 0.0 -0.0 0.0 -0.0 0.0 0.0 0.0 0.0 0.0 0.0 -1.853434052301213e-17 -0.29782787236756275 -0.7334827071983453 -0.15741113106048782 0.025546459324926607 0.0 -2.1270008041473856e-16 -3.4305301093244838 -6.192935484284256 -0.6497127432656802 0.10605311605613185 0.0 1.6788116693496704 -1.813446346913473 2.2452878952026367 -3.086344544087545 -0.6797202269183558 -0.8984783331500452 0.0 0.0 -0.0 0.0 0.0 0.0 0.0695343092083931 -0.2691650688648224 -0.6725431680679321 -0.27862948179244995 0.011189938522875309 -0.10742340981960297 0.0650482252240181 -0.2512207329273224 -0.6862685084342957 -0.2730345129966736 0.02014188840985298 -0.10406643152236938 0.19998225648637138 -0.20001269689032744 0.349990625999385 -1.62753407637505 1.6277721615336551 -1.62764051376816 0.0 0.0 0.0 0.0 0.0 0.0 -6.607042152799766 -0.0630775243174047 6.206716059687702 1.0715306177315114 0.5619418002183929 0.43940668947938116 0.19999999995866163 -0.19999999999522225 0.34999999992375186 -1.6275987285220286 1.6275987281600475 -1.6275987284607218 0.0 0.0 0.0 0.0 0.0 0.0
6883.632 1.6788797675175093 -1.8134368088825958 2.2452425546432897 -3.086304270181042 -0.6796436956938443 -0.8985071128283657 0.0 -0.0 0.0 -0.0 0.0 -0.0 0.0 0.0 0.0 0.0 0.0 0.0 -1.853434052301213e-17 -0.29782787236756275 -0.7334827071983453 -0.15741113106048782 0.025546459324926607 0.0 -2.1270008041473856e-16 -3.4305301093244838 -6.192935484284256 -0.6497127432656802 0.10605311605613185 0.0 1.6788356304168701 -1.8133867422686976 2.245299816131592 -3.0863564650165003 -0.6797202269183558 -0.8984783331500452 0.0 0.0 -0.0 0.0 0.0 0.0 0.0695343092083931 -0.2467346489429474 -0.7198194265365601 -0.2752724885940552 0.025736859068274498 -0.08728151768445969 0.0628051832318306 -0.2579498589038849 -0.6862685084342957 -0.2730345129966736 0.02349887043237686 -0.10406643152236938 0.1999881830214647 -0.2000185857345617 0.34997517701200676 -1.6275254422723218 1.62778266872585 -1.62756186855576 0.0 0.0 0.0 0.0 0.0 0.0 -9.309083953520608 2.502282709252084 5.137227595222361 1.086092082754008 0.7706339644367834 0.4668628188213935 0.19999999995866163 -0.19999999999522225 0.34999999992375186 -1.6275987285220286 1.6275987281600475 -1.6275987284607218 0.0 0.0 0.0 0.0 0.0 0.0
6883.639999999999 1.6788797675175093 -1.8134368088825958 2.2452425546432897 -3.086304270181042 -0.6796436956938443 -0.8985071128283657 0.0 -0.0 0.0 -0.0 0.0 -0.0 0.0 0.0 0.0 0.0 0.0 0.0 -1.853434052301213e-17 -0.29782787236756275 -0.7334827071983453 -0.15741113106048782 0.025546459324926607 0.0 -2.1270008041473856e-16 -3.4305301093244838 -6.192935484284256 -0.6497127432656802 0.10605311605613185 0.0 1.6788595914840698 -1.8134225050555628 2.2452878952026367 -3.0863688627826136 -0.6796959082232874 -0.8984664122210901 0.0 0.0 -0.0 0.0 0.0 0.0 0.0672912672162056 -0.2714081108570099 -0.7076191306114197 -0.27639147639274597 0.021260883659124374 -0.09847146272659302 0.0628051832318306 -0.2557068169116974 -0.6862685084342957 -0.2730345129966736 0.02349887043237686 -0.10406643152236938 0.19999332543051115 -0.20000506529944215 0.34998817754205863 -1.6275473908354214 1.627699303219218 -1.6276063160812755 0.0 0.0 0.0 0.0 0.0 0.0 -7.1228250627219705 0.8351558654893092 4.8775478289489405 0.9963699236315375 0.5475612080995728 0.3917367651113147 0.19999999995866163 -0.19999999999522225 0.34999999992375186 -1.6275987285220286 1.6275987281600475 -1.6275987284607218 0.0 0.0 0.0 0.0 0.0 0.0
6883.648 1.6788797675175093 -1.8134368088825958 2.2452425546432897 -3.086304270181042 -0.6796436956938443 -0.8985071128283657 0.0 -0.0 0.0 -0.0 0.0 -0.0 0.0 0.0 0.0 0.0 0.0 0.0 -1.853434052301213e-17 -0.29782787236756275 -0.7334827071983453 -0.15741113106048782 0.025546459324926607 0.0 -2.1270008041473856e-16 -3.4305301093244838 -6.192935484284256 -0.6497127432656802 0.10605311605613185 0.0 1.6787997484207153 -1.8133986631976526 2.2452640533447266 -3.0863807837115687 -0.6796839872943323 -0.8984301725970667 0.0 0.0 -0.0 0.0 0.0 0.0 0.0650482252240181 -0.2332763969898224 -0.7045690417289734 -0.2719154953956604 0.01678490824997425 -0.11078038811683655 0.0628051832318306 -0.2512207329273224 -0.6862685084342957 -0.2696775197982788 0.022379877045750618 -0.10406643152236938 0.19998246379368134 -0.20002129424543952 0.34999095448208273 -1.6274792906003153 1.6277625736687833 -1.627628398153113 0.0 0.0 0.0 0.0 0.0 0.0 -9.11180527238691 2.853449106542255 5.954238563869488 1.1643900012052033 0.7099757472027264 0.4149378607099932 0.19999999995866163 -0.19999999999522225 0.34999999992375186 -1.6275987285220286 1.6275987281600475 -1.6275987284607218 0.0 0.0 0.0 0.0 0.0 0.0
6883.656 1.6788797675175093 -1.8134368088825958 2.2452425546432897 -3.086304270181042 -0.6796436956938443 -0.8985071128283657 0.0 -0.0 0.0 -0.0 0.0 -0.0 0.0 0.0 0.0 0.0 0.0 0.0 -1.853434052301213e-17 -0.29782787236756275 -0.7334827071983453 -0.15741113106048782 0.025546459324926607 0.0 -2.1270008041473856e-16 -3.4305301093244838 -6.192935484284256 -0.6497127432656802 0.10605311605613185 0.0 1.6788476705551147 -1.8134105841266077 2.2453479766845703 -3.086320702229635 -0.6796839872943323 -0.8984540144549769 0.0 0.0 -0.0 0.0 0.0 0.0 0.0605621412396431 -0.2355194389820099 -0.6847434639930725 -0.27974846959114075 0.01678490824997425 -0.11301837861537933 0.0628051832318306 -0.2534637749195099 -0.6862685084342957 -0.2719154953956604 0.022379877045750618 -0.10406643152236938 0.1999916691632676 -0.20000922164541446 0.34996499363356326 -1.6274827272629273 1.6277788086435219 -1.627468410381979 0.0 0.0 0.0 0.0 0.0 0.0 -8.260050516047796 2.2335485888043762 6.780897049217653 1.2269959125632341 0.7923497685707779 0.42614029935299796 0.19999999995866163 -0.19999999999522225 0.34999999992375186 -1.6275987285220286 1.6275987281600475 -1.6275987284607218 0.0 0.0 0.0 0.0 0.0 0.0
6883.664 1.6788797675175093 -1.8134368088825958 2.2452425546432897 -3.086304270181042 -0.6796436956938443 -0.8985071128283657 0.0 -0.0 0.0 -0.0 0.0 -0.0 0.0 0.0 0.0 0.0 0.0 0.0 -1.853434052301213e-17 -0.29782787236756275 -0.7334827071983453 -0.15741113106048782 0.025546459324926607 0.0 -2.1270008041473856e-16 -3.4305301093244838 -6.192935484284256 -0.6497127432656802 0.10605311605613185 0.0 1.6788356304168701 -1.8134105841266077 2.2452878952026367 -3.0863564650165003 -0.6797321478473108 -0.8984664122210901 0.0 0.0 -0.0 0.0 0.0 0.0 0.0605621412396431 -0.2444916069507599 -0.6969438195228577 -0.2730345129966736 0.019022895023226738 -0.10742340981960297 0.0628051832318306 -0.2534637749195099 -0.6862685084342957 -0.2730345129966736 0.021260883659124374 -0.10406643152236938 0.1999872000355894 -0.2000150815329059 0.34998340915126136 -1.6275262591147521 1.6277811552396175 -1.6275990047086635 0.0 0.0 0.0 0.0 0.0 0.0 -7.889990207374022 2.0588616881021853 5.9230262845218355 1.12234282046344 0.6861149902488753 0.38711618567633976 0.19999999995866163 -0.19999999999522225 0.34999999992375186 -1.6275987285220286 1.6275987281600475 -1.6275987284607218 0.0 0.0 0.0 0.0 0.0 0.0
6883.672 1.6788797675175093 -1.8134368088825958 2.2452425546432897 -3.086304270181042 -0.6796436956938443 -0.8985071128283657 0.0 -0.0 0.0 -0.0 0.0 -0.0 0.0 0.0 0.0 0.0 0.0 0.0 -1.853434052301213e-17 -0.29782787236756275 -0.7334827071983453 -0.15741113106048782 0.025546459324926607 0.0 -2.1270008041473856e-16 -3.4305301093244838 -6.192935484284256 -0.6497127432656802 0.10605311605613185 0.0 1.6788716316223145 -1.8134105841266077 2.2453479766845703 -3.086296860371725 -0.6797078291522425 -0.8984540144549769 0.0 0.0 -0.0 0.0 0.0 0.0 0.0583190992474556 -0.2624359428882599 -0.6923686861991882 -0.2752724885940552 0.014546919614076614 -0.12197033315896988 0.0628051832318306 -0.2557068169116974 -0.6862685084342957 -0.2730345129966736 0.02014188840985298 -0.10406643152236938 0.19999549964636434 -0.20000712052199357 0.3499622396580022 -1.627488060652153 1.6277949828215705 -1.6274354921842649 0.0 0.0 0.0 0.0 0.0 0.0 -6.30965449721315 0.9908042965185268 5.62558988458365 1.06570132678908 0.48776051764036016 0.3134258501948478 0.19999999995866163 -0.19999999999522225 0.34999999992375186 -1.6275987285220286 1.6275987281600475 -1.6275987284607218 0.0 0.0 0.0 0.0 0.0 0.0
6883.679999999999 1.6788797675175093 -1.8134368088825958 2.2452425546432897 -3.086304270181042 -0.6796436956938443 -0.8985071128283657 0.0 -0.0 0.0 -0.0 0.0 -0.0 0.0 0.0 0.0 0.0 0.0 0.0 -1.853434052301213e-17 -0.29782787236756275 -0.7334827071983453 -0.15741113106048782 0.025546459324926607 0.0 -2.1270008041473856e-16 -3.4305301093244838 -6.192935484284256 -0.6497127432656802 0.10605311605613185 0.0 1.6787997484207153 -1.8134105841266077 2.24532413482666 -3.086320702229635 -0.6797078291522425 -0.8984540144549769 0.0 0.0 -0.0 0.0 0.0 0.0 0.0583190992474556 -0.2601929008960724 -0.6862685084342957 -0.2842244505882263 0.02014188840985298 -0.1007094457745552 0.0650482252240181 -0.2534637749195099 -0.6862685084342957 -0.2730345129966736 0.02014188840985298 -0.10742340981960297 0.1999811237891251 -0.20002119142073846 0.3499709430514254 -1.62746562345231 1.6278427752831062 -1.6275239750480064 0.0 0.0 0.0 0.0 0.0 0.0 -6.804905469848717 0.9432121976031073 6.141282213213716 1.1252367383185427 0.7355824647637011 0.4221070873889322 0.19999999995866163 -0.19999999999522225 0.34999999992375186 -1.6275987285220286 1.6275987281600475 -1.6275987284607218 0.0 0.0 0.0 0.0 0.0 0.0
