mkrssg/UniversalRobots/rtde_client_3.5/examples/roboter/movej_3Achsen_sync.csv
timestamp target_q_0 target_q_1 target_q_2 target_q_3 target_q_4 target_q_5 target_qd_0 target_qd_1 target_qd_2 target_qd_3 target_qd_4 target_qd_5 target_qdd_0 target_qdd_1 target_qdd_2 target_qdd_3 target_qdd_4 target_qdd_5 target_current_0 target_current_1 target_current_2 target_current_3 target_current_4 target_current_5 target_moment_0 target_moment_1 target_moment_2 target_moment_3 target_moment_4 target_moment_5 actual_q_0 actual_q_1 actual_q_2 actual_q_3 actual_q_4 actual_q_5 actual_qd_0 actual_qd_1 actual_qd_2 actual_qd_3 actual_qd_4 actual_qd_5 actual_current_0 actual_current_1 actual_current_2 actual_current_3 actual_current_4 actual_current_5 joint_control_output_0 joint_control_output_1 joint_control_output_2 joint_control_output_3 joint_control_output_4 joint_control_output_5 actual_TCP_pose_0 actual_TCP_pose_1 actual_TCP_pose_2 actual_TCP_pose_3 actual_TCP_pose_4 actual_TCP_pose_5 actual_TCP_speed_0 actual_TCP_speed_1 actual_TCP_speed_2 actual_TCP_speed_3 actual_TCP_speed_4 actual_TCP_speed_5 actual_TCP_force_0 actual_TCP_force_1 actual_TCP_force_2 actual_TCP_force_3 actual_TCP_force_4 actual_TCP_force_5 target_TCP_pose_0 target_TCP_pose_1 target_TCP_pose_2 target_TCP_pose_3 target_TCP_pose_4 target_TCP_pose_5 target_TCP_speed_0 target_TCP_speed_1 target_TCP_speed_2 target_TCP_speed_3 target_TCP_speed_4 target_TCP_speed_5

6664.487999999999 3.5561831257524545e-17 -1.5707963267948966 1.5707963267948968 -1.5707963267948966 -1.5707963267948966 0.0 0.0 0.0 0.0 0.0 0.0 0.0 0.0 0.0 0.0 0.0 0.0 0.0 2.072980291448686e-26 -0.620381750820575 -0.8463465614411209 -0.2525548825603051 -1.439250644349618e-11 0.0 2.378952054656901e-25 -7.1458666999402505 -7.145866699940252 -1.0424175499402515 -5.974879480466363e-11 0.0 4.793690095539205e-05 -1.5707600752459925 1.5708370208740234 -1.5707009474383753 -1.570850674306051 9.58738019107841e-05 0.0 0.0 -0.0 0.0 0.0 0.0 0.0269165076315403 -0.7245026230812073 -0.8158970475196838 -0.16561108827590942 -0.07609158009290695 0.11637535691261292 0.02467346377670765 -0.7200165390968323 -0.8143720030784607 -0.16449210047721863 -0.07721057534217834 0.11637535691261292 -0.2984194130230699 -0.11276477826150218 0.3131532371610007 -2.2179387422430272 -2.219484938158225 -0.008431301887538942 0.0 0.0 0.0 0.0 0.0 0.0 -6.688514402662838 0.43859853438908464 -0.5355995980426351 -0.39036996749788305 -0.106916504353134 0.538779659960444 -0.2984301935029837 -0.11275507530515129 0.3131843183387717 -2.217827088832791 -2.2194802147226973 -0.008179933726190749 0.0 0.0 0.0 0.0 0.0 0.0

6664.496 3.5561831257524545e-17 -1.5707963267948966 1.5707963267948968 -1.5707963267948966 -1.5707963267948966 0.0 0.0 0.0 0.0 0.0 0.0 0.0 0.0 0.0 0.0 0.0 0.0 0.0 2.072980291448686e-26 -0.620381750820575 -0.8463465614411209 -0.2525548825603051 -1.439250644349618e-11 0.0 2.378952054656901e-25 -7.1458666999402505 -7.145866699940252 -1.0424175499402515 -5.974879480466363e-11 0.0 1.1984225238848012e-05 -1.5707123915301722 1.5708131790161133 -1.570688549672262 -1.5708625952350062 4.793690095539205e-05 0.0 0.0 -0.0 0.0 0.0 0.0 0.0269165076315403 -0.7289887070655823 -0.8158970475196838 -0.16225410997867584 -0.07049661129713058 0.1186133474111557 0.02467346377670765 -0.7222595810890198 -0.8143720030784607 -0.16337309777736664 -0.07609158009290695 0.11525636911392212 -0.2984321065950481 -0.11275306862863807 0.31314507127084673 -2.2179375912980217 -2.21951051971763 -0.008485011190637767 0.0 0.0 0.0 0.0 0.0 0.0 -6.92581132230892 0.3840880823185218 -0.609083921684393 -0.35981324268477183 -0.10472468092358692 0.5491951941178426 -0.2984301935029837 -0.11275507530515129 0.3131843183387717 -2.217827088832791 -2.2194802147226973 -0.008179933726190749 0.0 0.0 0.0 0.0 0.0 0.0

6664.504 3.5561831257524545e-17 -1.5707963267948966 1.5707963267948968 -1.5707963267948966 -1.5707963267948966 0.0 0.0 0.0 0.0 0.0 0.0 0.0 0.0 0.0 0.0 0.0 0.0 0.0 2.072980291448686e-26 -0.620381750820575 -0.8463465614411209 -0.2525548825603051 -1.439250644349618e-11 0.0 2.378952054656901e-25 -7.1458666999402505 -7.145866699940252 -1.0424175499402515 -5.974879480466363e-11 0.0 4.793690095539205e-05 -1.570676628743307 1.5708489418029785 -1.5707243124591272 -1.5708382765399378 5.992112710373476e-05 0.0 0.0 -0.0 0.0 0.0 0.0 0.0269165076315403 -0.7267456650733948 -0.8158970475196838 -0.16561108827590942 -0.08951950818300247 0.1197323426604271 0.02467346377670765 -0.7155304551124573 -0.8143720030784607 -0.16449210047721863 -0.07609158009290695 0.11413737386465073 -0.29843380413703835 -0.11276577173119816 0.31312675256820033 -2.217940727445479 -2.219567268889941 -0.008497639079610528 0.0 0.0 0.0 0.0 0.0 0.0 -6.806863516768393 0.44547142512449545 -0.5359421402857586 -0.45347964911534355 -0.11689133169209695 0.5541894488317806 -0.2984301935029837 -0.11275507530515129 0.3131843183387717 -2.217827088832791 -2.2194802147226973 -0.008179933726190749 0.0 0.0 0.0 0.0 0.0 0.0

6664.512 3.5561831257524545e-17 -1.5707963267948966 1.5707963267948968 -1.5707963267948966 -1.5707963267948966 0.0 0.0 0.0 0.0 0.0 0.0 0.0 0.0 0.0 0.0 0.0 0.0 0.0 2.072980291448686e-26 -0.620381750820575 -0.8463465614411209 -0.2525548825603051 -1.439250644349618e-11 0.0 2.378952054656901e-25 -7.1458666999402505 -7.145866699940252 -1.0424175499402515 -5.974879480466363e-11 0.0 2.3968450477696024e-05 -1.5707362333880823 1.5708131790161133 -1.5707123915301722 -1.5708144346820276 5.992112710373476e-05 0.0 0.0 -0.0 0.0 0.0 0.0 0.02018737979233265 -0.7132874131202698 -0.8219972252845764 -0.16561108827590942 -0.07721057534217834 0.11413737386465073 0.02467346377670765 -0.7155304551124573 -0.8143720030784607 -0.16449210047721863 -0.07609158009290695 0.11413737386465073 -0.2984288728431659 -0.11276063682389978 0.3131541934522381 -2.2179379534826706 -2.2195109907231383 -0.008378607522849675 0.0 0.0 0.0 0.0 0.0 0.0 -5.858219792831119 0.42947925683549915 -0.8052158144754716 -0.394660503755267 -0.015427781963198706 0.5289939914493822 -0.2984301935029837 -0.11275507530515129 0.3131843183387717 -2.217827088832791 -2.2194802147226973 -0.008179933726190749 0.0 0.0 0.0 0.0 0.0 0.0

6664.5199999999995 3.5561831257524545e-17 -1.5707963267948966 1.5707963267948968 -1.5707963267948966 -1.5707963267948966 0.0 0.0 0.0 0.0 0.0 0.0 0.0 0.0 0.0 0.0 0.0 0.0 0.0 2.072980291448686e-26 -0.620381750820575 -0.8463465614411209 -0.2525548825603051 -1.439250644349618e-11 0.0 2.378952054656901e-25 -7.1458666999402505 -7.145866699940252 -1.0424175499402515 -5.974879480466363e-11 0.0 3.5952674807049334e-05 -1.5707243124591272 1.5708613395690918 -1.5707362333880823 -1.5708144346820276 0.00011984225420746952 0.0 0.0 -0.0 0.0 0.0 0.0 0.02243042178452015 -0.7200165390968323 -0.8204721808433533 -0.168968066573143 -0.07944856584072113 0.11637535691261292 0.02467346377670765 -0.7177734971046448 -0.8143720030784607 -0.16449210047721863 -0.07609158009290695 0.11189938336610794 -0.2984274233040486 -0.11276417019913175 0.31313828802911975 -2.2180089668309315 -2.2194758431136785 -0.008418648777903881 0.0 0.0 0.0 0.0 0.0 0.0 -6.273356409090984 0.40262916955299055 -0.6655866481545664 -0.4029584688489518 -0.07720979192453296 0.5389525141458834 -0.2984301935029837 -0.11275507530515129 0.3131843183387717 -2.217827088832791 -2.2194802147226973 -0.008179933726190749 0.0 0.0 0.0 0.0 0.0 0.0

6664.527999999999 3.5561831257524545e-17 -1.5707963267948966 1.5707963267948968 -1.5707963267948966 -1.5707963267948966 0.0 0.0 0.0 0.0 0.0 0.0 0.0 0.0 0.0 0.0 0.0 0.0 0.0 2.072980291448686e-26 -0.620381750820575 -0.8463465614411209 -0.2525548825603051 -1.439250644349618e-11 0.0 2.378952054656901e-25 -7.1458666999402505 -7.145866699940252 -1.0424175499402515 -5.974879480466363e-11 0.0 0.0 -1.570676628743307 1.5708613395690918 -1.5707243124591272 -1.5708983580218714 9.58738019107841e-05 0.0 0.0 -0.0 0.0 0.0 0.0 0.02467346377670765 -0.7155304551124573 -0.817422091960907 -0.16449210047721863 -0.07721057534217834 0.1197323426604271 0.02467346377670765 -0.7177734971046448 -0.8143720030784607 -0.16449210047721863 -0.07721057534217834 0.11301837861537933 -0.29843818703716724 -0.11274650329112601 0.31312308814742384 -2.218009874075041 -2.219450209515802 -0.008577969843806604 0.0 0.0 0.0 0.0 0.0 0.0 -6.15461610464533 0.5972126297174196 -0.6267794038343317 -0.40861889619706737 -0.050021084468968226 0.5546683103473539 -0.2984301935029837 -0.11275507530515129 0.3131843183387717 -2.217827088832791 -2.2194802147226973 -0.008179933726190749 0.0 0.0 0.0 0.0 0.0 0.0

6664.536 3.5561831257524545e-17 -1.5707963267948966 1.5707963267948968 -1.5707963267948966 -1.5707963267948966 0.0 0.0 0.0 0.0 0.0 0.0 0.0 0.0 0.0 0.0 0.0 0.0 0.0 2.072980291448686e-26 -0.620381750820575 -0.8463465614411209 -0.2525548825603051 -1.439250644349618e-11 0.0 2.378952054656901e-25 -7.1458666999402505 -7.145866699940252 -1.0424175499402515 -5.974879480466363e-11 0.0 0.0 -1.5707362333880823 1.570885181427002 -1.5707243124591272 -1.570850674306051 7.190534961409867e-05 0.0 0.0 -0.0 0.0 0.0 0.0 0.02243042178452015 -0.7177734971046448 -0.8082718253135681 -0.16561108827590942 -0.07609158009290695 0.11749435216188431 0.02467346377670765 -0.7155304551124573 -0.8143720030784607 -0.16449210047721863 -0.07609158009290695 0.11301837861537933 -0.29842660258808945 -0.11275042503655412 0.31313373248867465 -2.217989574680423 -2.2194828457437246 -0.008485549162163368 0.0 0.0 0.0 0.0 0.0 0.0 -6.627524809034759 0.2853849486997786 -0.19782086141141314 -0.37794811646385057 -0.1308495388238827 0.5438097985237785 -0.2984301935029837 -0.11275507530515129 0.3131843183387717 -2.217827088832791 -2.2194802147226973 -0.008179933726190749 0.0 0.0 0.0 0.0 0.0 0.0

6664.544 3.5561831257524545e-17 -1.5707963267948966 1.5707963267948968 -1.5707963267948966 -1.5707963267948966 0.0 0.0 0.0 0.0 0.0 0.0 0.0 0.0 0.0 0.0 0.0 0.0 0.0 2.072980291448686e-26 -0.620381750820575 -0.8463465614411209 -0.2525548825603051 -1.439250644349618e-11 0.0 2.378952054656901e-25 -7.1458666999402505 -7.145866699940252 -1.0424175499402515 -5.974879480466363e-11 0.0 3.5952674807049334e-05 -1.5707481543170374 1.5708489418029785 -1.5707724730121058 -1.5708983580218714 3.5952674807049334e-05 0.0 0.0 -0.0 0.0 0.0 0.0 0.0269165076315403 -0.7200165390968323 -0.8082718253135681 -0.15777812898159027 -0.09063850343227386 0.11637535691261292 0.02467346377670765 -0.7177734971046448 -0.8143720030784607 -0.16449210047721863 -0.07609158009290695 0.11301837861537933 -0.298427596352705 -0.11275730689746374 0.31315225314276696 -2.2178377983665656 -2.219490829106425 -0.00843121013264306 0.0 0.0 0.0 0.0 0.0 0.0 -6.7465456536255735 0.41701974278061815 -0.36711844700556756 -0.4563921333959047 -0.08992623680821513 0.5388370174934233 -0.2984301935029837 -0.11275507530515129 0.3131843183387717 -2.217827088832791 -2.2194802147226973 -0.008179933726190749 0.0 0.0 0.0 0.0 0.0 0.0

6664.552 3.5561831257524545e-17 -1.5707963267948966 1.5707963267948968 -1.5707963267948966 -1.5707963267948966 0.0 0.0 0.0 0.0 0.0 0.0 0.0 0.0 0.0 0.0 0.0 0.0 0.0 2.072980291448686e-26 -0.620381750820575 -0.8463465614411209 -0.2525548825603051 -1.439250644349618e-11 0.0 2.378952054656901e-25 -7.1458666999402505 -7.145866699940252 -1.0424175499402515 -5.974879480466363e-11 0.0 4.793690095539205e-05 -1.570676628743307 1.5708489418029785 -1.5707362333880823 -1.570850674306051 7.190534961409867e-05 0.0 0.0 -0.0 0.0 0.0 0.0 0.02467346377670765 -0.7065582871437073 -0.8143720030784607 -0.16113510727882385 -0.0839245393872261 0.11189938336610794 0.02467346377670765 -0.7177734971046448 -0.8143720030784607 -0.16449210047721863 -0.08056755363941193 0.11301837861537933 -0.29843478720944744 -0.1127647590548271 0.31312777765433086 -2.2179418168297724 -2.2195418346602476 -0.008498061623884076 0.0 0.0 0.0 0.0 0.0 0.0 -5.798299042137374 0.610498202908868 -0.5638947035037147 -0.4410153309222096 -0.01030758112532627 0.5185635066521017 -0.2984301935029837 -0.11275507530515129 0.3131843183387717 -2.217827088832791 -2.2194802147226973 -0.008179933726190749 0.0 0.0 0.0 0.0 0.0 0.0

6664.5599999999995 3.5561831257524545e-17 -1.5707963267948966 1.5707963267948968 -1.5707963267948966 -1.5707963267948966 0.0 0.0 0.0 0.0 0.0 0.0 0.0 0.0 0.0 0.0 0.0 0.0 0.0 2.072980291448686e-26 -0.620381750820575 -0.8463465614411209 -0.2525548825603051 -1.439250644349618e-11 0.0 2.378952054656901e-25 -7.1458666999402505 -7.145866699940252 -1.0424175499402515 -5.974879480466363e-11 0.0 4.793690095539205e-05 -1.5707600752459925 1.5708489418029785 -1.5707243124591272 -1.5708263556109827 8.388957940042019e-05 0.0 0.0 -0.0 0.0 0.0 0.0 0.02243042178452015 -0.7088013291358948 -0.806746780872345 -0.16113510727882385 -0.07161560654640198 0.10854240506887436 0.02467346377670765 -0.7245026230812073 -0.8143720030784607 -0.16449210047721863 -0.07832957059144974 0.11301837861537933 -0.29842035040360626 -0.11276678371726494 0.3131516563059478 -2.2179319034844 -2.219504875147423 -0.008391670277459125 0.0 0.0 0.0 0.0 0.0 0.0 -6.212296866300014 0.3041783282011864 -0.22680251131063908 -0.3586450702435394 -0.07311593751516522 0.5027008390910702 -0.2984301935029837 -0.11275507530515129 0.3131843183387717 -2.217827088832791 -2.2194802147226973 -0.008179933726190749 0.0 0.0 0.0 0.0 0.0 0.0

6664.567999999999 3.5561831257524545e-17 -1.5707963267948966 1.5707963267948968 -1.5707963267948966 -1.5707963267948966 0.0 0.0 0.0 0.0 0.0 0.0 0.0 0.0 0.0 0.0 0.0 0.0 0.0 2.072980291448686e-26 -0.620381750820575 -0.8463465614411209 -0.2525548825603051 -1.439250644349618e-11 0.0 2.378952054656901e-25 -7.1458666999402505 -7.145866699940252 -1.0424175499402515 -5.974879480466363e-11 0.0 0.0 -1.5707009474383753 1.570885181427002 -1.5707362333880823 -1.5708263556109827 9.58738019107841e-05 0.0 0.0 -0.0 0.0 0.0 0.0 0.0291595496237278 -0.7200165390968323 -0.806746780872345 -0.16001611948013306 -0.08168654888868332 0.10854240506887436 0.02467346377670765 -0.7132874131202698 -0.8143720030784607 -0.16561108827590942 -0.07944856584072113 0.11301837861537933 -0.2984332717354411 -0.11275242309576923 0.3131242008643064 -2.218039850170691 -2.219480222735655 -0.008484489008528702 0.0 0.0 0.0 0.0 0.0 0.0 -6.806014925470331 0.369068769208868 -0.2523120449727698 -0.41087577586301205 -0.11475679468925494 0.5023402862893874 -0.2984301935029837 -0.11275507530515129 0.3131843183387717 -2.217827088832791 -2.2194802147226973 -0.008179933726190749 0.0 0.0 0.0 0.0 0.0 0.0

6664.576 3.5561831257524545e-17 -1.5707963267948966 1.5707963267948968 -1.5707963267948966 -1.5707963267948966 0.0 0.0 0.0 0.0 0.0 0.0 0.0 0.0 0.0 0.0 0.0 0.0 0.0 2.072980291448686e-26 -0.620381750820575 -0.8463465614411209 -0.2525548825603051 -1.439250644349618e-11 0.0 2.378952054656901e-25 -7.1458666999402505 -7.145866699940252 -1.0424175499402515 -5.974879480466363e-11 0.0 2.3968450477696024e-05 -1.5707009474383753 1.5708613395690918 -1.5707481543170374 -1.5708144346820276 8.388957940042019e-05 0.0 0.0 -0.0 0.0 0.0 0.0 0.0291595496237278 -0.7110443711280823 -0.8189471364021301 -0.17232505977153778 -0.07944856584072113 0.10966140031814575 0.02467346377670765 -0.7132874131202698 -0.8143720030784607 -0.16449210047721863 -0.07832957059144974 0.11189938336610794 -0.29843352366157827 -0.11276059355268554 0.3131323302397556 -2.2179880716270945 -2.2195083224800105 -0.008431482292987054 0.0 0.0 0.0 0.0 0.0 0.0 -5.85880504970791 0.7451173347558273 -0.5240916885574224 -0.4312282872497796 -0.07027279088717704 0.5078135381933704 -0.2984301935029837 -0.11275507530515129 0.3131843183387717 -2.217827088832791 -2.2194802147226973 -0.008179933726190749 0.0 0.0 0.0 0.0 0.0 0.0

6664.584 3.5561831257524545e-17 -1.5707963267948966 1.5707963267948968 -1.5707963267948966 -1.5707963267948966 0.0 0.0 0.0 0.0 0.0 0.0 0.0 0.0 0.0 0.0 0.0 0.0 0.0 2.072980291448686e-26 -0.620381750820575 -0.8463465614411209 -0.2525548825603051 -1.439250644349618e-11 0.0 2.378952054656901e-25 -7.1458666999402505 -7.145866699940252 -1.0424175499402515 -5.974879480466363e-11 0.0 3.5952674807049334e-05 -1.5707362333880823 1.5708131790161133 -1.5707362333880823 -1.570850674306051 8.388957940042019e-05 0.0 0.0 -0.0 0.0 0.0 0.0 0.02467346377670765 -0.7267456650733948 -0.8204721808433533 -0.16225410997867584 -0.07161560654640198 0.11189938336610794 0.02467346377670765 -0.7177734971046448 -0.8143720030784607 -0.16561108827590942 -0.07721057534217834 0.11189938336610794 -0.29842948812816605 -0.11276124538417119 0.3131562509175917 -2.2179210700803065 -2.21946763397149 -0.008392085693810612 0.0 0.0 0.0 0.0 0.0 0.0 -6.629659480156471 0.2957329307002578 -0.8121523699303999 -0.35760102890445733 -0.06281107891467344 0.5183498975477242 -0.2984301935029837 -0.11275507530515129 0.3131843183387717 -2.217827088832791 -2.2194802147226973 -0.008179933726190749 0.0 0.0 0.0 0.0 0.0 0.0

6664.592 3.5561831257524545e-17 -1.5707963267948966 1.5707963267948968 -1.5707963267948966 -1.5707963267948966 0.0 0.0 0.0 0.0 0.0 0.0 0.0 0.0 0.0 0.0 0.0 0.0 0.0 2.072980291448686e-26 -0.620381750820575 -0.8463465614411209 -0.2525548825603051 -1.439250644349618e-11 0.0 2.378952054656901e-25 -7.1458666999402505 -7.145866699940252 -1.0424175499402515 -5.974879480466363e-11 0.0 2.3968450477696024e-05 -1.5707362333880823 1.5708732604980469 -1.5707481543170374 -1.5708625952350062 2.3968450477696024e-05 0.0 0.0 -0.0 0.0 0.0 0.0 0.0269165076315403 -0.7357178330421448 -0.8204721808433533 -0.16561108827590942 -0.08168654888868332 0.11637535691261292 0.02467346377670765 -0.7222595810890198 -0.8143720030784607 -0.16449210047721863 -0.07832957059144974 0.11189938336610794 -0.2984268516692484 -0.11275662643653993 0.3131393344452021 -2.217885972292794 -2.219538934619435 -0.008459033434067566 0.0 0.0 0.0 0.0 0.0 0.0 -7.104192428606234 0.28127267058813066 -0.7400348763472503 -0.40333618454201176 -0.12385074658740108 0.5386485886100271 -0.2984301935029837 -0.11275507530515129 0.3131843183387717 -2.217827088832791 -2.2194802147226973 -0.008179933726190749 0.0 0.0 0.0 0.0 0.0 0.0

6664.599999999999 3.5561831257524545e-17 -1.5707963267948966 1.5707963267948968 -1.5707963267948966 -1.5707963267948966 0.0 0.0 0.0 0.0 0.0 0.0 0.0 0.0 0.0 0.0 0.0 0.0 0.0 2.072980291448686e-26 -0.620381750820575 -0.8463465614411209 -0.2525548825603051 -1.439250644349618e-11 0.0 2.378952054656901e-25 -7.1458666999402505 -7.145866699940252 -1.0424175499402515 -5.974879480466363e-11 0.0 1.1984225238848012e-05 -1.5707243124591272 1.5708489418029785 -1.5707362333880823 -1.570850674306051 5.992112710373476e-05 0.0 0.0 -0.0 0.0 0.0 0.0 0.02467346377670765 -0.7334747910499573 -0.8128469586372375 -0.1667300909757614 -0.08056755363941193 0.11749435216188431 0.02467346377670765 -0.7155304551124573 -0.8143720030784607 -0.16225410997867584 -0.07609158009290695 0.11189938336610794 -0.2984311540039166 -0.11275404699887774 0.3131420127968288 -2.217944874200234 -2.2194914804166235 -0.008445234625381853 0.0 0.0 0.0 0.0 0.0 0.0 -7.280740213422628 0.13427043916145046 -0.377795960757948 -0.3862166922700579 -0.1745921061808409 0.5435292172791757 -0.2984301935029837 -0.11275507530515129 0.3131843183387717 -2.217827088832791 -2.2194802147226973 -0.008179933726190749 0.0 0.0 0.0 0.0 0.0 0.0

6664.607999999999 3.5561831257524545e-17 -1.5707963267948966 1.5707963267948968 -1.5707963267948966 -1.5707963267948966 0.0 0.0 0.0 0.0 0.0 0.0 0.0 0.0 0.0 0.0 0.0 0.0 0.0 2.072980291448686e-26 -0.620381750820575 -0.8463465614411209 -0.2525548825603051 -1.439250644349618e-11 0.0 2.378952054656901e-25 -7.1458666999402505 -7.145866699940252 -1.0424175499402515 -5.974879480466363e-11 0.0 5.992112710373476e-05 -1.5707123915301722 1.5708732604980469 -1.5707362333880823 -1.5708625952350062 8.388957940042019e-05 0.0 0.0 -0.0 0.0 0.0 0.0 0.02467346377670765 -0.7177734971046448 -0.8158970475196838 -0.16337309777736664 -0.07385359704494476 0.11301837861537933 0.02467346377670765 -0.7200165390968323 -0.8143720030784607 -0.16337309777736664 -0.07609158009290695 0.11189938336610794 -0.2984256589406116 -0.11276733864865969 0.31313119963000985 -2.2179301726985026 -2.2195299910199955 -0.008498495567690193 0.0 0.0 0.0 0.0 0.0 0.0 -6.332431269592048 0.42512563386179536 -0.5844238572445136 -0.3788529685793571 -0.06297476025360799 0.5234856298259044 -0.2984301935029837 -0.11275507530515129 0.3131843183387717 -2.217827088832791 -2.2194802147226973 -0.008179933726190749 0.0 0.0 0.0 0.0 0.0 0.0

6664.616 3.5561831257524545e-17 -1.5707963267948966 1.5707963267948968 -1.5707963267948966 -1.5707963267948966 0.0 0.0 0.0 0.0 0.0 0.0 0.0 0.0 0.0 0.0 0.0 0.0 0.0 2.072980291448686e-26 -0.620381750820575 -0.8463465614411209 -0.2525548825603051 -1.439250644349618e-11 0.0 2.378952054656901e-25 -7.1458666999402505 -7.145866699940252 -1.0424175499402515 -5.974879480466363e-11 0.0 0.0 -1.5707481543170374 1.5708732604980469 -1.5707123915301722 -1.5708144346820276 4.793690095539205e-05 0.0 0.0 -0.0 0.0 0.0 0.0 0.02467346377670765 -0.7289887070655823 -0.8158970475196838 -0.16337309777736664 -0.08840051293373108 0.11189938336610794 0.02467346377670765 -0.7200165390968323 -0.8143720030784607 -0.16337309777736664 -0.07721057534217834 0.11189938336610794 -0.29842468272741207 -0.11275341937828944 0.313139810909441 -2.2179753263696704 -2.2195216876674864 -0.00843227123263657 0.0 0.0 0.0 0.0 0.0 0.0 -6.92525233860953 0.18282428608587598 -0.5855351684836236 -0.4265745927226906 -0.1119158059061748 0.5179309717664905 -0.2984301935029837 -0.11275507530515129 0.3131843183387717 -2.217827088832791 -2.2194802147226973 -0.008179933726190749 0.0 0.0 0.0 0.0 0.0 0.0

6664.624 3.5561831257524545e-17 -1.5707963267948966 1.5707963267948968 -1.5707963267948966 -1.5707963267948966 0.0 0.0 0.0 0.0 0.0 0.0 0.0 0.0 0.0 0.0 0.0 0.0 0.0 2.072980291448686e-26 -0.620381750820575 -0.8463465614411209 -0.2525548825603051 -1.439250644349618e-11 0.0 2.378952054656901e-25 -7.1458666999402505 -7.145866699940252 -1.0424175499402515 -5.974879480466363e-11 0.0 4.793690095539205e-05 -1.5707009474383753 1.5708250999450684 -1.5707009474383753 -1.570850674306051 0.000107858024421148 0.0 0.0 -0.0 0.0 0.0 0.0 0.0269165076315403 -0.7200165390968323 -0.8128469586372375 -0.16561108827590942 -0.07497258484363556 0.11301837861537933 0.02467346377670765 -0.7110443711280823 -0.8143720030784607 -0.16337309777736664 -0.07832957059144974 0.11189938336610794 -0.2984299321043626 -0.1127647705743943 0.3131391457122655 -2.2179753887904448 -2.219495287622177 -0.008483697086225647 0.0 0.0 0.0 0.0 0.0 0.0 -6.569458576171999 0.4313075492666997 -0.40058704085587965 -0.38465964457704294 -0.10855145800255252 0.5231830710439386 -0.2984301935029837 -0.11275507530515129 0.3131843183387717 -2.217827088832791 -2.2194802147226973 -0.008179933726190749 0.0 0.0 0.0 0.0 0.0 0.0

6664.632 3.5561831257524545e-17 -1.5707963267948966 1.5707963267948968 -1.5707963267948966 -1.5707963267948966 0.0 0.0 0.0 0.0 0.0 0.0 0.0 0.0 0.0 0.0 0.0 0.0 0.0 2.072980291448686e-26 -0.620381750820575 -0.8463465614411209 -0.2525548825603051 -1.439250644349618e-11 0.0 2.378952054656901e-25 -7.1458666999402505 -7.145866699940252 -1.0424175499402515 -5.974879480466363e-11 0.0 4.793690095539205e-05 -1.5707362333880823 1.5708131790161133 -1.5707243124591272 -1.5708144346820276 0.000107858024421148 0.0 0.0 -0.0 0.0 0.0 0.0 0.01794433780014515 -0.7289887070655823 -0.8143720030784607 -0.16001611948013306 -0.08168654888868332 0.11301837861537933 0.02018737979233265 -0.7155304551124573 -0.8143720030784607 -0.16225410997867584 -0.07944856584072113 0.11078038811683655 -0.29842715225707905 -0.11276779802794332 0.31315521087142106 -2.217958449126324 -2.2194783890484846 -0.008365125022968913 0.0 0.0 0.0 0.0 0.0 0.0 -6.983622838779821 -0.11178287704681858 -0.5912285575761745 -0.3710611184784589 -0.10082735147150561 0.5232783982809595 -0.2984301935029837 -0.11275507530515129 0.3131843183387717 -2.217827088832791 -2.2194802147226973 -0.008179933726190749 0.0 0.0 0.0 0.0 0.0 0.0

6664.639999999999 3.5561831257524545e-17 -1.5707963267948966 1.5707963267948968 -1.5707963267948966 -1.5707963267948966 0.0 0.0 0.0 0.0 0.0 0.0 0.0 0.0 0.0 0.0 0.0 0.0 0.0 2.072980291448686e-26 -0.620381750820575 -0.8463465614411209 -0.2525548825603051 -1.439250644349618e-11 0.0 2.378952054656901e-25 -7.1458666999402505 -7.145866699940252 -1.0424175499402515 -5.974879480466363e-11 0.0 4.793690095539205e-05 -1.5707009474383753 1.5708489418029785 -1.5707243124591272 -1.5708864370929163 0.00011984225420746952 0.0 0.0 -0.0 0.0 0.0 0.0 0.02467346377670765 -0.7200165390968323 -0.8128469586372375 -0.16225410997867584 -0.07385359704494476 0.10966140031814575 0.02467346377670765 -0.7200165390968323 -0.8143720030784607 -0.16113510727882385 -0.07721057534217834 0.11078038811683655 -0.2984298868395497 -0.11276181421092006 0.31313404268544676 -2.217970895226513 -2.2194643102537386 -0.008523756346395926 0.0 0.0 0.0 0.0 0.0 0.0 -6.569215289058709 0.28310079623502676 -0.47418390186882947 -0.3672125512619242 -0.08668761788553678 0.5077681834816699 -0.2984301935029837 -0.11275507530515129 0.3131843183387717 -2.217827088832791 -2.2194802147226973 -0.008179933726190749 0.0 0.0 0.0 0.0 0.0 0.0

6664.648 3.5561831257524545e-17 -1.5707963267948966 1.5707963267948968 -1.5707963267948966 -1.5707963267948966 0.0 0.0 0.0 0.0 0.0 0.0 0.0 0.0 0.0 0.0 0.0 0.0 0.0 2.072980291448686e-26 -0.620381750820575 -0.8463465614411209 -0.2525548825603051 -1.439250644349618e-11 0.0 2.378952054656901e-25 -7.1458666999402505 -7.145866699940252 -1.0424175499402515 -5.974879480466363e-11 0.0 3.5952674807049334e-05 -1.5707123915301722 1.5708732604980469 -1.5707481543170374 -1.5708745161639612 3.5952674807049334e-05 0.0 0.0 -0.0 0.0 0.0 0.0 0.02243042178452015 -0.7245026230812073 -0.8189471364021301 -0.16001611948013306 -0.07721057534217834 0.11301837861537933 0.02467346377670765 -0.7200165390968323 -0.8143720030784607 -0.16449210047721863 -0.07609158009290695 0.11078038811683655 -0.2984293447198859 -0.11275921239773855 0.3131322244646893 -2.2178917625317895 -2.2195448265937534 -0.008498642733555873 0.0 0.0 0.0 0.0 0.0 0.0 -6.569761859564857 0.2392210581688355 -0.7934374142180949 -0.37904421334632826 -0.04927259725650704 0.5235788552523098 -0.2984301935029837 -0.11275507530515129 0.3131843183387717 -2.217827088832791 -2.2194802147226973 -0.008179933726190749 0.0 0.0 0.0 0.0 0.0 0.0

6664.656 3.5561831257524545e-17 -1.5707963267948966 1.5707963267948968 -1.5707963267948966 -1.5707963267948966 0.0 0.0 0.0 0.0 0.0 0.0 0.0 0.0 0.0 0.0 0.0 0.0 0.0 2.072980291448686e-26 -0.620381750820575 -0.8463465614411209 -0.2525548825603051 -1.439250644349618e-11 0.0 2.378952054656901e-25 -7.1458666999402505 -7.145866699940252 -1.0424175499402515 -5.974879480466363e-11 0.0 2.3968450477696024e-05 -1.5707123915301722 1.5708012580871582 -1.570688549672262 -1.5708864370929163 9.58738019107841e-05 0.0 0.0 -0.0 0.0 0.0 0.0 0.02467346377670765 -0.7155304551124573 -0.8189471364021301 -0.1678490787744522 -0.07832957059144974 0.11078038811683655 0.02467346377670765 -0.7200165390968323 -0.8143720030784607 -0.16225410997867584 -0.07721057534217834 0.11078038811683655 -0.29843174305508 -0.11275469527274676 0.3131486459824037 -2.217959479139359 -2.2194526140749136 -0.008497969296080892 0.0 0.0 0.0 0.0 0.0 0.0 -6.095519925425821 0.48008361280038164 -0.6217742691108762 -0.404144329609015 -0.0608921352648311 0.5130964920613408 -0.2984301935029837 -0.11275507530515129 0.3131843183387717 -2.217827088832791 -2.2194802147226973 -0.008179933726190749 0.0 0.0 0.0 0.0 0.0 0.0

6664.664 3.5561831257524545e-17 -1.5707963267948966 1.5707963267948968 -1.5707963267948966 -1.5707963267948966 0.0 0.0 0.0 0.0 0.0 0.0 0.0 0.0 0.0 0.0 0.0 0.0 0.0 2.072980291448686e-26 -0.620381750820575 -0.8463465614411209 -0.2525548825603051 -1.439250644349618e-11 0.0 2.378952054656901e-25 -7.1458666999402505 -7.145866699940252 -1.0424175499402515 -5.974879480466363e-11 0.0 1.1984225238848012e-05 -1.5707481543170374 1.5708131790161133 -1.5707600752459925 -1.5708745161639612 5.992112710373476e-05 0.0 0.0 -0.0 0.0 0.0 0.0 0.02467346377670765 -0.7357178330421448 -0.8189471364021301 -0.16337309777736664 -0.07609158009290695 0.11301837861537933 0.02467346377670765 -0.7200165390968323 -0.8143720030784607 -0.16337309777736664 -0.07721057534217834 0.11301837861537933 -0.2984322344351031 -0.11275214996463992 0.31316185951598163 -2.217891356688556 -2.2194379935156077 -0.008378852860129732 0.0 0.0 0.0 0.0 0.0 0.0 -7.163113407552066 0.11054887154357929 -0.7212246349813463 -0.36319960290096526 -0.11984178866324706 0.5231735948517837 -0.2984301935029837 -0.11275507530515129 0.3131843183387717 -2.217827088832791 -2.2194802147226973 -0.008179933726190749 0.0 0.0 0.0 0.0 0.0 0.0

6664.672 3.5561831257524545e-17 -1.5707963267948966 1.5707963267948968 -1.5707963267948966 -1.5707963267948966 0.0 0.0 0.0 0.0 0.0 0.0 0.0 0.0 0.0 0.0 0.0 0.0 0.0 2.072980291448686e-26 -0.620381750820575 -0.8463465614411209 -0.2525548825603051 -1.439250644349618e-11 0.0 2.378952054656901e-25 -7.1458666999402505 -7.145866699940252 -1.0424175499402515 -5.974879480466363e-11 0.0 2.3968450477696024e-05 -1.5707009474383753 1.5708489418029785 -1.5707009474383753 -1.5708144346820276 5.992112710373476e-05 0.0 0.0 -0.0 0.0 0.0 0.0 0.02467346377670765 -0.7177734971046448 -0.8143720030784607 -0.15889713168144226 -0.07273460179567337 0.11301837861537933 0.02467346377670765 -0.7132874131202698 -0.8143720030784607 -0.16337309777736664 -0.07721057534217834 0.11301837861537933 -0.29843065977339817 -0.11276057479697452 0.3131320036526885 -2.217978978125204 -2.219552090074321 -0.008470302442027015 0.0 0.0 0.0 0.0 0.0 0.0 -6.39155022513699 0.40333099228348684 -0.6139467296493679 -0.371846197900944 -0.044617208039133466 0.5236070223251196 -0.2984301935029837 -0.11275507530515129 0.3131843183387717 -2.217827088832791 -2.2194802147226973 -0.008179933726190749 0.0 0.0 0.0 0.0 0.0 0.0

6664.679999999999 3.5561831257524545e-17 -1.5707963267948966 1.5707963267948968 -1.5707963267948966 -1.5707963267948966 0.0 0.0 0.0 0.0 0.0 0.0 0.0 0.0 0.0 0.0 0.0 0.0 0.0 2.072980291448686e-26 -0.620381750820575 -0.8463465614411209 -0.2525548825603051 -1.439250644349618e-11 0.0 2.378952054656901e-25 -7.1458666999402505 -7.145866699940252 -1.0424175499402515 -5.974879480466363e-11 0.0 2.3968450477696024e-05 -1.570676628743307 1.5708613395690918 -1.5707243124591272 -1.570850674306051 5.992112710373476e-05 0.0 0.0 -0.0 0.0 0.0 0.0 0.02018737979233265 -0.7177734971046448 -0.8189471364021301 -0.16449210047721863 -0.0682586282491684 0.1186133474111557 0.02467346377670765 -0.7200165390968323 -0.8143720030784607 -0.16337309777736664 -0.07609158009290695 0.11189938336610794 -0.2984354816472343 -0.11275758341664871 0.31312305822580205 -2.2179673247682294 -2.2195406658367873 -0.008525219457488627 0.0 0.0 0.0 0.0 0.0 0.0 -6.21372925442843 0.36410772870451735 -0.6953915590094538 -0.3477274704779637 -0.04906838843135546 0.5495561465505716 -0.2984301935029837 -0.11275507530515129 0.3131843183387717 -2.217827088832791 -2.2194802147226973 -0.008179933726190749 0.0 0.0 0.0 0.0 0.0 0.0

6664.688 3.5561831257524545e-17 -1.5707963267948966 1.5707963267948968 -1.5707963267948966 -1.5707963267948966 0.0 0.0 0.0 0.0 0.0 0.0 0.0 0.0 0.0 0.0 0.0 0.0 0.0 2.072980291448686e-26 -0.620381750820575 -0.8463465614411209 -0.2525548825603051 -1.439250644349618e-11 0.0 2.378952054656901e-25 -7.1458666999402505 -7.145866699940252 -1.0424175499402515 -5.974879480466363e-11 0.0 0.0 -1.5707243124591272 1.5708489418029785 -1.5707009474383753 -1.5708745161639612 4.793690095539205e-05 0.0 0.0 -0.0 0.0 0.0 0.0 0.02243042178452015 -0.7132874131202698 -0.8097968697547913 -0.15777812898159027 -0.08056755363941193 0.11525636911392212 0.02467346377670765 -0.7222595810890198 -0.8143720030784607 -0.16337309777736664 -0.07609158009290695 0.11637535691261292 -0.2984295992291036 -0.1127484823936354 0.31313901631161184 -2.217950622921756 -2.21949695839511 -0.00851096659800848 0.0 0.0 0.0 0.0 0.0 0.0 -6.331199236265922 0.3642521798864595 -0.43470217656866655 -0.4051668025545118 -0.04989297250722581 0.5339238363771812 -0.2984301935029837 -0.11275507530515129 0.3131843183387717 -2.217827088832791 -2.2194802147226973 -0.008179933726190749 0.0 0.0 0.0 0.0 0.0 0.0

6664.696 3.5561831257524545e-17 -1.5707963267948966 1.5707963267948968 -1.5707963267948966 -1.5707963267948966 0.0 0.0 0.0 0.0 0.0 0.0 0.0 0.0 0.0 0.0 0.0 0.0 0.0 2.072980291448686e-26 -0.620381750820575 -0.8463465614411209 -0.2525548825603051 -1.439250644349618e-11 0.0 2.378952054656901e-25 -7.1458666999402505 -7.145866699940252 -1.0424175499402515 -5.974879480466363e-11 0.0 3.5952674807049334e-05 -1.5707243124591272 1.5708370208740234 -1.5707123915301722 -1.5708745161639612 4.793690095539205e-05 0.0 0.0 -0.0 0.0 0.0 0.0 0.02467346377670765 -0.7088013291358948 -0.8235222101211548 -0.16561108827590942 -0.07609158009290695 0.11301837861537933 0.02467346377670765 -0.7222595810890198 -0.8143720030784607 -0.16449210047721863 -0.07609158009290695 0.11413737386465073 -0.29842747472247166 -0.11275923339104986 0.3131435527285287 -2.217898992258405 -2.2195251792766078 -0.008484869269270704 0.0 0.0 0.0 0.0 0.0 0.0 -5.562493788048974 0.7178198231149658 -0.8720253440007585 -0.4131811356410043 0.014818807991434306 0.5239655033615707 -0.2984301935029837 -0.11275507530515129 0.3131843183387717 -2.217827088832791 -2.2194802147226973 -0.008179933726190749 0.0 0.0 0.0 0.0 0.0 0.0

6664.704 3.5561831257524545e-17 -1.5707963267948966 1.5707963267948968 -1.5707963267948966 -1.5707963267948966 0.0 0.0 0.0 0.0 0.0 0.0 0.0 0.0 0.0 0.0 0.0 0.0 0.0 2.072980291448686e-26 -0.620381750820575 -0.8463465614411209 -0.2525548825603051 -1.439250644349618e-11 0.0 2.378952054656901e-25 -7.1458666999402505 -7.145866699940252 -1.0424175499402515 -5.974879480466363e-11 0.0 8.426408021477982e-05 -1.5707243124591272 1.5708250999450684 -1.570688549672262 -1.5708382765399378 0.000107858024421148 0.0 0.0 -0.0 0.0 0.0 0.0 0.0291595496237278 -0.7245026230812073 -0.817422091960907 -0.15777812898159027 -0.07273460179567337 0.11078038811683655 0.02467346377670765 -0.7200165390968323 -0.8143720030784607 -0.16449210047721863 -0.07609158009290695 0.11413737386465073 -0.2984210462063297 -0.11277663224775582 0.3131450550479815 -2.2179358516962275 -2.219536167767109 -0.008457704178142591 0.0 0.0 0.0 0.0 0.0 0.0 -6.629822755317715 0.47159317302605563 -0.7736636115638229 -0.3773914499850964 -0.04533484942113439 0.5132256223487516 -0.2984301935029837 -0.11275507530515129 0.3131843183387717 -2.217827088832791 -2.2194802147226973 -0.008179933726190749 0.0 0.0 0.0 0.0 0.0 0.0

6664.7119999999995 3.5561831257524545e-17 -1.5707963267948966 1.5707963267948968 -1.5707963267948966 -1.5707963267948966 0.0 0.0 0.0 0.0 0.0 0.0 0.0 0.0 0.0 0.0 0.0 0.0 0.0 2.072980291448686e-26 -0.620381750820575 -0.8463465614411209 -0.2525548825603051 -1.439250644349618e-11 0.0 2.378952054656901e-25 -7.1458666999402505 -7.145866699940252 -1.0424175499402515 -5.974879480466363e-11 0.0 9.624831000110134e-05 -1.5707123915301722 1.5708489418029785 -1.5707243124591272 -1.570850674306051 8.388957940042019e-05 0.0 0.0 -0.0 0.0 0.0 0.0 0.02467346377670765 -0.7177734971046448 -0.8128469586372375 -0.16113510727882385 -0.08728151768445969 0.11525636911392212 0.02467346377670765 -0.7132874131202698 -0.8143720030784607 -0.16449210047721863 -0.07832957059144974 0.11413737386465073 -0.29842259144827926 -0.11277918099592946 0.3131374366732578 -2.2178896302075293 -2.2195699923621826 -0.008471417390047194 0.0 0.0 0.0 0.0 0.0 0.0 -6.450424584832833 0.4147141809577317 -0.49725723708134906 -0.4405659772417227 -0.06997106944683258 0.5337594933059345 -0.2984301935029837 -0.11275507530515129 0.3131843183387717 -2.217827088832791 -2.2194802147226973 -0.008179933726190749 0.0 0.0 0.0 0.0 0.0 0.0

6664.719999999999 3.5561831257524545e-17 -1.5707963267948966 1.5707963267948968 -1.5707963267948966 -1.5707963267948966 0.0 0.0 0.0 0.0 0.0 0.0 0.0 0.0 0.0 0.0 0.0 0.0 0.0 2.072980291448686e-26 -0.620381750820575 -0.8463465614411209 -0.2525548825603051 -1.439250644349618e-11 0.0 2.378952054656901e-25 -7.1458666999402505 -7.145866699940252 -1.0424175499402515 -5.974879480466363e-11 0.0 3.5952674807049334e-05 -1.5707243124591272 1.5708489418029785 -1.5707600752459925 -1.5708025137530726 0.000107858024421148 0.0 0.0 -0.0 0.0 0.0 0.0 0.0269165076315403 -0.7132874131202698 -0.8128469586372375 -0.16561108827590942 -0.07609158009290695 0.1197323426604271 0.02467346377670765 -0.7132874131202698 -0.8143720030784607 -0.16449210047721863 -0.07497258484363556 0.11413737386465073 -0.29843041278913385 -0.11276518292158162 0.31314401756923843 -2.217983561728469 -2.219477213741153 -0.00836517184752291 0.0 0.0 0.0 0.0 0.0 0.0 -6.213614976905773 0.6707652390220226 -0.3989839616738909 -0.4095589176688867 -0.07940955835439541 0.5545206759011317 -0.2984301935029837 -0.11275507530515129 0.3131843183387717 -2.217827088832791 -2.2194802147226973 -0.008179933726190749 0.0 0.0 0.0 0.0 0.0 0.0

6664.728 3.5561831257524545e-17 -1.5707963267948966 1.5707963267948968 -1.5707963267948966 -1.5707963267948966 0.0 0.0 0.0 0.0 0.0 0.0 0.0 0.0 0.0 0.0 0.0 0.0 0.0 2.072980291448686e-26 -0.620381750820575 -0.8463465614411209 -0.2525548825603051 -1.439250644349618e-11 0.0 2.378952054656901e-25 -7.1458666999402505 -7.145866699940252 -1.0424175499402515 -5.974879480466363e-11 0.0 1.1984225238848012e-05 -1.5707600752459925 1.5708370208740234 -1.5707481543170374 -1.5708382765399378 9.58738019107841e-05 0.0 0.0 -0.0 0.0 0.0 0.0 0.0291595496237278 -0.7155304551124573 -0.8082718253135681 -0.16113510727882385 -0.07497258484363556 0.11525636911392212 0.02467346377670765 -0.7177734971046448 -0.8143720030784607 -0.16449210047721863 -0.07944856584072113 0.11189938336610794 -0.2984273557505199 -0.11275510320817664 0.3131572584159479 -2.2179612945421012 -2.219428062150285 -0.008365154661964424 0.0 0.0 0.0 0.0 0.0 0.0 -6.509822759458942 0.5860023589500825 -0.29370732333110616 -0.3974111019346084 -0.09195995627486035 0.5336980830811102 -0.2984301935029837 -0.11275507530515129 0.3131843183387717 -2.217827088832791 -2.2194802147226973 -0.008179933726190749 0.0 0.0 0.0 0.0 0.0 0.0

6664.736 3.5561831257524545e-17 -1.5707963267948966 1.5707963267948968 -1.5707963267948966 -1.5707963267948966 0.0 0.0 0.0 0.0 0.0 0.0 0.0 0.0 0.0 0.0 0.0 0.0 0.0 2.072980291448686e-26 -0.620381750820575 -0.8463465614411209 -0.2525548825603051 -1.439250644349618e-11 0.0 2.378952054656901e-25 -7.1458666999402505 -7.145866699940252 -1.0424175499402515 -5.974879480466363e-11 0.0 7.227985770441592e-05 -1.570688549672262 1.5708250999450684 -1.5707600752459925 -1.5708144346820276 7.190534961409867e-05 0.0 0.0 -0.0 0.0 0.0 0.0 0.0269165076315403 -0.7177734971046448 -0.8143720030784607 -0.15777812898159027 -0.08280554413795471 0.11189938336610794 0.02467346377670765 -0.7177734971046448 -0.8143720030784607 -0.16225410997867584 -0.07832957059144974 0.11301837861537933 -0.2984340552474062 -0.11277505690856413 0.31314046812808755 -2.2179032231663762 -2.2195574131869193 -0.008391587772295626 0.0 0.0 0.0 0.0 0.0 0.0 -6.391693646257362 0.4823287025846732 -0.6378320352627462 -0.4252047270302177 -0.03739275915880849 0.5184314246335383 -0.2984301935029837 -0.11275507530515129 0.3131843183387717 -2.217827088832791 -2.2194802147226973 -0.008179933726190749 0.0 0.0 0.0 0.0 0.0 0.0

6664.744 3.5561831257524545e-17 -1.5707963267948966 1.5707963267948968 -1.5707963267948966 -1.5707963267948966 0.0 0.0 0.0 0.0 0.0 0.0 0.0 0.0 0.0 0.0 0.0 0.0 0.0 2.072980291448686e-26 -0.620381750820575 -0.8463465614411209 -0.2525548825603051 -1.439250644349618e-11 0.0 2.378952054656901e-25 -7.1458666999402505 -7.145866699940252 -1.0424175499402515 -5.974879480466363e-11 0.0 0.0 -1.5707243124591272 1.5708613395690918 -1.5707481543170374 -1.570850674306051 3.5952674807049334e-05 0.0 0.0 -0.0 0.0 0.0 0.0 0.0269165076315403 -0.7267456650733948 -0.8204721808433533 -0.16561108827590942 -0.07721057534217834 0.11413737386465073 0.02467346377670765 -0.7177734971046448 -0.8143720030784607 -0.16561108827590942 -0.07832957059144974 0.11301837861537933 -0.29843246168519283 -0.1127504646094968 0.31313932802793826 -2.2179318475582015 -2.2195051196047997 -0.008445861467832242 0.0 0.0 0.0 0.0 0.0 0.0 -6.629801810938945 0.4267462989695676 -0.7391351346483545 -0.39447202025863 -0.08464759240267646 0.5285326822289245 -0.2984301935029837 -0.11275507530515129 0.3131843183387717 -2.217827088832791 -2.2194802147226973 -0.008179933726190749 0.0 0.0 0.0 0.0 0.0 0.0

6664.7519999999995 3.5561831257524545e-17 -1.5707963267948966 1.5707963267948968 -1.5707963267948966 -1.5707963267948966 0.0 0.0 0.0 0.0 0.0 0.0 0.0 0.0 0.0 0.0 0.0 0.0 0.0 2.072980291448686e-26 -0.620381750820575 -0.8463465614411209 -0.2525548825603051 -1.439250644349618e-11 0.0 2.378952054656901e-25 -7.1458666999402505 -7.145866699940252 -1.0424175499402515 -5.974879480466363e-11 0.0 1.1984225238848012e-05 -1.5707600752459925 1.5708732604980469 -1.5707362333880823 -1.5708263556109827 2.3968450477696024e-05 0.0 0.0 -0.0 0.0 0.0 0.0 0.02467346377670765 -0.7289887070655823 -0.8143720030784607 -0.16113510727882385 -0.07832957059144974 0.11301837861537933 0.02467346377670765 -0.7177734971046448 -0.8143720030784607 -0.16113510727882385 -0.07944856584072113 0.11301837861537933 -0.29842337474289504 -0.11275603502718205 0.31314541175074456 -2.2179116249338913 -2.2195378467844904 -0.008405731338850718 0.0 0.0 0.0 0.0 0.0 0.0 -6.984529785530088 0.1780656467102802 -0.5665556992420909 -0.37931195858964983 -0.108000136844227 0.5232126473234401 -0.2984301935029837 -0.11275507530515129 0.3131843183387717 -2.217827088832791 -2.2194802147226973 -0.008179933726190749 0.0 0.0 0.0 0.0 0.0 0.0

6664.759999999999 3.5561831257524545e-17 -1.5707963267948966 1.5707963267948968 -1.5707963267948966 -1.5707963267948966 0.0 0.0 0.0 0.0 0.0 0.0 0.0 0.0 0.0 0.0 0.0 0.0 0.0 2.072980291448686e-26 -0.620381750820575 -0.8463465614411209 -0.2525548825603051 -1.439250644349618e-11 0.0 2.378952054656901e-25 -7.1458666999402505 -7.145866699940252 -1.0424175499402515 -5.974879480466363e-11 0.0 5.992112710373476e-05 -1.5707243124591272 1.5708250999450684 -1.5707243124591272 -1.5708263556109827 0.000107858024421148 0.0 0.0 -0.0 0.0 0.0 0.0 0.02243042178452015 -0.7334747910499573 -0.8113219141960144 -0.15777812898159027 -0.08728151768445969 0.11189938336610794 0.02467346377670765 -0.7200165390968323 -0.8143720030784607 -0.16337309777736664 -0.07832957059144974 0.11301837861537933 -0.2984267373639281 -0.11277037464068097 0.3131480997610734 -2.2179509905393155 -2.2194975565998636 -0.008404782344127632 0.0 0.0 0.0 0.0 0.0 0.0 -7.339507010650739 -0.07101171980049155 -0.5049955238207798 -0.4005342536392512 -0.12716222926253093 0.5178742581089549 -0.2984301935029837 -0.11275507530515129 0.3131843183387717 -2.217827088832791 -2.2194802147226973 -0.008179933726190749 0.0 0.0 0.0 0.0 0.0 0.0

6664.768 3.5561831257524545e-17 -1.5707963267948966 1.5707963267948968 -1.5707963267948966 -1.5707963267948966 0.0 0.0 0.0 0.0 0.0 0.0 0.0 0.0 0.0 0.0 0.0 0.0 0.0 2.072980291448686e-26 -0.620381750820575 -0.8463465614411209 -0.2525548825603051 -1.439250644349618e-11 0.0 2.378952054656901e-25 -7.1458666999402505 -7.145866699940252 -1.0424175499402515 -5.974879480466363e-11 0.0 5.992112710373476e-05 -1.5707243124591272 1.5708370208740234 -1.5707243124591272 -1.5708263556109827 5.992112710373476e-05 0.0 0.0 -0.0 0.0 0.0 0.0 0.02467346377670765 -0.7177734971046448 -0.817422091960907 -0.16449210047721863 -0.07161560654640198 0.10854240506887436 0.02467346377670765 -0.7155304551124573 -0.8143720030784607 -0.16449210047721863 -0.07832957059144974 0.11301837861537933 -0.298425751090367 -0.11277036090200955 0.31314453998706543 -2.217903817456695 -2.219556737067951 -0.008418180708169222 0.0 0.0 0.0 0.0 0.0 0.0 -6.273375374483924 0.37797763417149643 -0.6278778081363043 -0.3645048652856343 -0.059430154794789754 0.5027748753880331 -0.2984301935029837 -0.11275507530515129 0.3131843183387717 -2.217827088832791 -2.2194802147226973 -0.008179933726190749 0.0 0.0 0.0 0.0 0.0 0.0

6664.776 3.5561831257524545e-17 -1.5707963267948966 1.5707963267948968 -1.5707963267948966 -1.5707963267948966 0.0 0.0 0.0 0.0 0.0 0.0 0.0 0.0 0.0 0.0 0.0 0.0 0.0 2.072980291448686e-26 -0.620381750820575 -0.8463465614411209 -0.2525548825603051 -1.439250644349618e-11 0.0 2.378952054656901e-25 -7.1458666999402505 -7.145866699940252 -1.0424175499402515 -5.974879480466363e-11 0.0 3.5952674807049334e-05 -1.570688549672262 1.570897102355957 -1.5707362333880823 -1.5708625952350062 7.190534961409867e-05 0.0 0.0 -0.0 0.0 0.0 0.0 0.02467346377670765 -0.7155304551124573 -0.8158970475196838 -0.1667300909757614 -0.07944856584072113 0.1186133474111557 0.02467346377670765 -0.7245026230812073 -0.8143720030784607 -0.16337309777736664 -0.07609158009290695 0.11413737386465073 -0.2984302319812529 -0.11276014970426625 0.3131169627126218 -2.217967226005315 -2.21954056099743 -0.008551598316550803 0.0 0.0 0.0 0.0 0.0 0.0 -6.21368355259505 0.5566443701685336 -0.510895942331771 -0.41577570561063143 -0.07516097498847327 0.5493012070867492 -0.2984301935029837 -0.11275507530515129 0.3131843183387717 -2.217827088832791 -2.2194802147226973 -0.008179933726190749 0.0 0.0 0.0 0.0 0.0 0.0

6664.784 3.5561831257524545e-17 -1.5707963267948966 1.5707963267948968 -1.5707963267948966 -1.5707963267948966 0.0 0.0 0.0 0.0 0.0 0.0 0.0 0.0 0.0 0.0 0.0 0.0 0.0 2.072980291448686e-26 -0.620381750820575 -0.8463465614411209 -0.2525548825603051 -1.439250644349618e-11 0.0 2.378952054656901e-25 -7.1458666999402505 -7.145866699940252 -1.0424175499402515 -5.974879480466363e-11 0.0 2.3968450477696024e-05 -1.5707243124591272 1.5708489418029785 -1.5707362333880823 -1.5708983580218714 7.190534961409867e-05 0.0 0.0 -0.0 0.0 0.0 0.0 0.02467346377670765 -0.7402039170265198 -0.8143720030784607 -0.16449210047721863 -0.06937761604785919 0.11525636911392212 0.02467346377670765 -0.7200165390968323 -0.8143720030784607 -0.16225410997867584 -0.07721057534217834 0.11525636911392212 -0.29842980565637384 -0.11275369639995121 0.31314204271853946 -2.217920906727836 -2.219467452588068 -0.00849794835679097 0.0 0.0 0.0 0.0 0.0 0.0 -7.577684565089567 -0.012584844924158341 -0.495252383212826 -0.32198136510139624 -0.17860504437622962 0.5331820630025694 -0.2984301935029837 -0.11275507530515129 0.3131843183387717 -2.217827088832791 -2.2194802147226973 -0.008179933726190749 0.0 0.0 0.0 0.0 0.0 0.0

6664.7919999999995 3.5561831257524545e-17 -1.5707963267948966 1.5707963267948968 -1.5707963267948966 -1.5707963267948966 0.0 0.0 0.0 0.0 0.0 0.0 0.0 0.0 0.0 0.0 0.0 0.0 0.0 2.072980291448686e-26 -0.620381750820575 -0.8463465614411209 -0.2525548825603051 -1.439250644349618e-11 0.0 2.378952054656901e-25 -7.1458666999402505 -7.145866699940252 -1.0424175499402515 -5.974879480466363e-11 0.0 4.793690095539205e-05 -1.5707243124591272 1.5708489418029785 -1.5707243124591272 -1.5708625952350062 5.992112710373476e-05 0.0 0.0 -0.0 0.0 0.0 0.0 0.02243042178452015 -0.7289887070655823 -0.8204721808433533 -0.15889713168144226 -0.08951950818300247 0.11301837861537933 0.02467346377670765 -0.7200165390968323 -0.8143720030784607 -0.16337309777736664 -0.07721057534217834 0.11525636911392212 -0.298426118527121 -0.11276378620142125 0.31314100287569235 -2.217904894356514 -2.2195311728476663 -0.008471588415056247 0.0 0.0 0.0 0.0 0.0 0.0 -6.747715855623094 0.171669182491122 -0.8853848269984578 -0.43072627342269665 -0.051044983972410654 0.5235156545875258 -0.2984301935029837 -0.11275507530515129 0.3131843183387717 -2.217827088832791 -2.2194802147226973 -0.008179933726190749 0.0 0.0 0.0 0.0 0.0 0.0

6664.799999999999 3.5561831257524545e-17 -1.5707963267948966 1.5707963267948968 -1.5707963267948966 -1.5707963267948966 0.0 0.0 0.0 0.0 0.0 0.0 0.0 0.0 0.0 0.0 0.0 0.0 0.0 2.072980291448686e-26 -0.620381750820575 -0.8463465614411209 -0.2525548825603051 -1.439250644349618e-11 0.0 2.378952054656901e-25 -7.1458666999402505 -7.145866699940252 -1.0424175499402515 -5.974879480466363e-11 0.0 2.3968450477696024e-05 -1.5707123915301722 1.5708370208740234 -1.570676628743307 -1.5708745161639612 4.793690095539205e-05 0.0 0.0 -0.0 0.0 0.0 0.0 0.0269165076315403 -0.7155304551124573 -0.8143720030784607 -0.16113510727882385 -0.07944856584072113 0.1197323426604271 0.02467346377670765 -0.7200165390968323 -0.8143720030784607 -0.16337309777736664 -0.07721057534217834 0.11301837861537933 -0.2984278011060316 -0.11275562759264368 0.3131369419423042 -2.2179361247135345 -2.219535537189573 -0.008537945415006654 0.0 0.0 0.0 0.0 0.0 0.0 -6.273103377367886 0.6489613555234859 -0.5638859948693731 -0.42334991521316157 -0.04960721381428482 0.554660317860579 -0.2984301935029837 -0.11275507530515129 0.3131843183387717 -2.217827088832791 -2.2194802147226973 -0.008179933726190749 0.0 0.0 0.0 0.0 0.0 0.0

6664.808 3.5561831257524545e-17 -1.5707963267948966 1.5707963267948968 -1.5707963267948966 -1.5707963267948966 0.0 0.0 0.0 0.0 0.0 0.0 0.0 0.0 0.0 0.0 0.0 0.0 0.0 2.072980291448686e-26 -0.620381750820575 -0.8463465614411209 -0.2525548825603051 -1.439250644349618e-11 0.0 2.378952054656901e-25 -7.1458666999402505 -7.145866699940252 -1.0424175499402515 -5.974879480466363e-11 0.0 1.1984225238848012e-05 -1.5707362333880823 1.5708489418029785 -1.5707243124591272 -1.5708382765399378 0.000107858024421148 0.0 0.0 -0.0 0.0 0.0 0.0 0.02467346377670765 -0.7267456650733948 -0.8143720030784607 -0.16561108827590942 -0.07497258484363556 0.11525636911392212 0.02467346377670765 -0.7200165390968323 -0.8143720030784607 -0.16337309777736664 -0.07721057534217834 0.11525636911392212 -0.298428249121018 -0.11275506409696376 0.31314454638045486 -2.2180042595578784 -2.2194443830675095 -0.008431388521782586 0.0 0.0 0.0 0.0 0.0 0.0 -6.865922175114387 0.25728399913583194 -0.46896816655316637 -0.3702571315738729 -0.12727337696671787 0.5334741192895336 -0.2984301935029837 -0.11275507530515129 0.3131843183387717 -2.217827088832791 -2.2194802147226973 -0.008179933726190749 0.0 0.0 0.0 0.0 0.0 0.0

6664.816 3.5561831257524545e-17 -1.5707963267948966 1.5707963267948968 -1.5707963267948966 -1.5707963267948966 0.0 0.0 0.0 0.0 0.0 0.0 0.0 0.0 0.0 0.0 0.0 0.0 0.0 2.072980291448686e-26 -0.620381750820575 -0.8463465614411209 -0.2525548825603051 -1.439250644349618e-11 0.0 2.378952054656901e-25 -7.1458666999402505 -7.145866699940252 -1.0424175499402515 -5.974879480466363e-11 0.0 5.992112710373476e-05 -1.570688549672262 1.5708613395690918 -1.5707600752459925 -1.5708625952350062 4.793690095539205e-05 0.0 0.0 -0.0 0.0 0.0 0.0 0.02243042178452015 -0.7177734971046448 -0.817422091960907 -0.15665914118289948 -0.07832957059144974 0.11749435216188431 0.02467346377670765 -0.7200165390968323 -0.8143720030784607 -0.16337309777736664 -0.07609158009290695 0.11413737386465073 -0.2984324534182043 -0.11276736053958163 0.313129676529946 -2.2178842888098016 -2.2195641603344622 -0.008485303466803696 0.0 0.0 0.0 0.0 0.0 0.0 -6.273018967877412 0.42155751271817665 -0.7974209149690458 -0.3992950944823918 -0.00899878517200599 0.5445853330942477 -0.2984301935029837 -0.11275507530515129 0.3131843183387717 -2.217827088832791 -2.2194802147226973 -0.008179933726190749 0.0 0.0 0.0 0.0 0.0 0.0

6664.824 3.5561831257524545e-17 -1.5707963267948966 1.5707963267948968 -1.5707963267948966 -1.5707963267948966 0.0 0.0 0.0 0.0 0.0 0.0 0.0 0.0 0.0 0.0 0.0 0.0 0.0 2.072980291448686e-26 -0.620381750820575 -0.8463465614411209 -0.2525548825603051 -1.439250644349618e-11 0.0 2.378952054656901e-25 -7.1458666999402505 -7.145866699940252 -1.0424175499402515 -5.974879480466363e-11 0.0 3.5952674807049334e-05 -1.5707362333880823 1.5708131790161133 -1.5707600752459925 -1.5708864370929163 7.190534961409867e-05 0.0 0.0 -0.0 0.0 0.0 0.0 0.0269165076315403 -0.7020722031593323 -0.817422091960907 -0.16449210047721863 -0.08168654888868332 0.11525636911392212 0.02467346377670765 -0.7200165390968323 -0.8143720030784607 -0.16449210047721863 -0.07609158009290695 0.11413737386465073 -0.2984314547048015 -0.11275831678559568 0.3131583082381019 -2.2178779183807493 -2.219451186391807 -0.008405180838382468 0.0 0.0 0.0 0.0 0.0 0.0 -5.4432232197257155 0.894236446662196 -0.6244644008758813 -0.4538518476610606 0.008724474564352266 0.5343014710321949 -0.2984301935029837 -0.11275507530515129 0.3131843183387717 -2.217827088832791 -2.2194802147226973 -0.008179933726190749 0.0 0.0 0.0 0.0 0.0 0.0

6664.831999999999 3.5561831257524545e-17 -1.5707963267948966 1.5707963267948968 -1.5707963267948966 -1.5707963267948966 0.0 0.0 0.0 0.0 0.0 0.0 0.0 0.0 0.0 0.0 0.0 0.0 0.0 2.072980291448686e-26 -0.620381750820575 -0.8463465614411209 -0.2525548825603051 -1.439250644349618e-11 0.0 2.378952054656901e-25 -7.1458666999402505 -7.145866699940252 -1.0424175499402515 -5.974879480466363e-11 0.0 7.227985770441592e-05 -1.5707481543170374 1.5708489418029785 -1.5707009474383753 -1.5708263556109827 0.000107858024421148 0.0 0.0 -0.0 0.0 0.0 0.0 0.02018737979233265 -0.7132874131202698 -0.8097968697547913 -0.17344404757022858 -0.07609158009290695 0.11413737386465073 0.02467346377670765 -0.7132874131202698 -0.8143720030784607 -0.16449210047721863 -0.07609158009290695 0.11413737386465073 -0.29841760205361667 -0.11277402741721179 0.31314610355048716 -2.217949001776103 -2.219522701596881 -0.008430769310611229 0.0 0.0 0.0 0.0 0.0 0.0 -6.330889006991852 0.2476742190489878 -0.09505793737185592 -0.374885175473367 -0.15135767198367742 0.5281185834174172 -0.2984301935029837 -0.11275507530515129 0.3131843183387717 -2.217827088832791 -2.2194802147226973 -0.008179933726190749 0.0 0.0 0.0 0.0 0.0 0.0

6664.84 3.5561831257524545e-17 -1.5707963267948966 1.5707963267948968 -1.5707963267948966 -1.5707963267948966 0.0 0.0 0.0 0.0 0.0 0.0 0.0 0.0 0.0 0.0 0.0 0.0 0.0 2.072980291448686e-26 -0.620381750820575 -0.8463465614411209 -0.2525548825603051 -1.439250644349618e-11 0.0 2.378952054656901e-25 -7.1458666999402505 -7.145866699940252 -1.0424175499402515 -5.974879480466363e-11 0.0 7.227985770441592e-05 -1.5707600752459925 1.5708489418029785 -1.5707123915301722 -1.5708745161639612 9.58738019107841e-05 0.0 0.0 -0.0 0.0 0.0 0.0 0.02467346377670765 -0.7716065049171448 -0.8113219141960144 -0.16113510727882385 -0.07721057534217834 0.12197033315896988 0.02467346377670765 -0.7245026230812073 -0.8143720030784607 -0.16449210047721863 -0.07609158009290695 0.11413737386465073 -0.29841662619298964 -0.11277007340678628 0.3131506690241041 -2.2178999265418295 -2.21950017476793 -0.008458139253231222 0.0 0.0 0.0 0.0 0.0 0.0 -9.356302175462845 -0.5836867247092121 -0.4360713197013257 -0.3114714817643819 -0.31525795396523826 0.5634548709624949 -0.2984301935029837 -0.11275507530515129 0.3131843183387717 -2.217827088832791 -2.2194802147226973 -0.008179933726190749 0.0 0.0 0.0 0.0 0.0 0.0

6664.848 3.5561831257524545e-17 -1.5707963267948966 1.5707963267948968 -1.5707963267948966 -1.5707963267948966 0.0 0.0 0.0 0.0 0.0 0.0 0.0 0.0 0.0 0.0 0.0 0.0 0.0 2.072980291448686e-26 -0.620381750820575 -0.8463465614411209 -0.2525548825603051 -1.439250644349618e-11 0.0 2.378952054656901e-25 -7.1458666999402505 -7.145866699940252 -1.0424175499402515 -5.974879480466363e-11 0.0 4.793690095539205e-05 -1.5707243124591272 1.5708613395690918 -1.5707009474383753 -1.5708382765399378 9.58738019107841e-05 0.0 0.0 -0.0 0.0 0.0 0.0 0.02018737979233265 -0.6975861191749573 -0.8158970475196838 -0.16449210047721863 -0.07385359704494476 0.11078038811683655 0.02467346377670765 -0.7155304551124573 -0.8143720030784607 -0.16449210047721863 -0.07609158009290695 0.11301837861537933 -0.2984231659259669 -0.11276575834203548 0.3131352915086883 -2.2179747938618397 -2.2195211680216937 -0.008484345489081302 0.0 0.0 0.0 0.0 0.0 0.0 -5.2643649195933735 0.6022338263593257 -0.5579609343841665 -0.39344961725665184 0.017757920822178058 0.5136090138655116 -0.2984301935029837 -0.11275507530515129 0.3131843183387717 -2.217827088832791 -2.2194802147226973 -0.008179933726190749 0.0 0.0 0.0 0.0 0.0 0.0

6664.856 3.5561831257524545e-17 -1.5707963267948966 1.5707963267948968 -1.5707963267948966 -1.5707963267948966 0.0 0.0 0.0 0.0 0.0 0.0 0.0 0.0 0.0 0.0 0.0 0.0 0.0 2.072980291448686e-26 -0.620381750820575 -0.8463465614411209 -0.2525548825603051 -1.439250644349618e-11 0.0 2.378952054656901e-25 -7.1458666999402505 -7.145866699940252 -1.0424175499402515 -5.974879480466363e-11 0.0 1.1984225238848012e-05 -1.5707839171039026 1.5708370208740234 -1.5707009474383753 -1.5708263556109827 7.190534961409867e-05 0.0 0.0 -0.0 0.0 0.0 0.0 0.0269165076315403 -0.7289887070655823 -0.8113219141960144 -0.16001611948013306 -0.07609158009290695 0.10966140031814575 0.02467346377670765 -0.7200165390968323 -0.8143720030784607 -0.16449210047721863 -0.07609158009290695 0.11189938336610794 -0.2984196214232823 -0.11275606078452088 0.31316033922338543 -2.217952537277476 -2.2194720595397963 -0.008378076884878108 0.0 0.0 0.0 0.0 0.0 0.0 -7.103041125191074 0.17757910895223764 -0.45546876577870204 -0.3689065292509777 -0.12193199022929069 0.507568526593309 -0.2984301935029837 -0.11275507530515129 0.3131843183387717 -2.217827088832791 -2.2194802147226973 -0.008179933726190749 0.0 0.0 0.0 0.0 0.0 0.0

6664.864 3.5561831257524545e-17 -1.5707963267948966 1.5707963267948968 -1.5707963267948966 -1.5707963267948966 0.0 0.0 0.0 0.0 0.0 0.0 0.0 0.0 0.0 0.0 0.0 0.0 0.0 2.072980291448686e-26 -0.620381750820575 -0.8463465614411209 -0.2525548825603051 -1.439250644349618e-11 0.0 2.378952054656901e-25 -7.1458666999402505 -7.145866699940252 -1.0424175499402515 -5.974879480466363e-11 0.0 4.793690095539205e-05 -1.570688549672262 1.5708489418029785 -1.570676628743307 -1.5708144346820276 7.190534961409867e-05 0.0 0.0 -0.0 0.0 0.0 0.0 0.02467346377670765 -0.7200165390968323 -0.817422091960907 -0.16001611948013306 -0.07721057534217834 0.11413737386465073 0.02467346377670765 -0.7222595810890198 -0.8143720030784607 -0.16449210047721863 -0.07944856584072113 0.11301837861537933 -0.29842795168958813 -0.11276770614367206 0.31312622723159356 -2.2179839285456 -2.2195835234121675 -0.00851103199251091 0.0 0.0 0.0 0.0 0.0 0.0 -6.391901477783675 0.4204018479205771 -0.7249319794869791 -0.39405205857969566 -0.04044439652264132 0.5287855408682509 -0.2984301935029837 -0.11275507530515129 0.3131843183387717 -2.217827088832791 -2.2194802147226973 -0.008179933726190749 0.0 0.0 0.0 0.0 0.0 0.0

6664.871999999999 3.5561831257524545e-17 -1.5707963267948966 1.5707963267948968 -1.5707963267948966 -1.5707963267948966 0.0 0.0 0.0 0.0 0.0 0.0 0.0 0.0 0.0 0.0 0.0 0.0 0.0 2.072980291448686e-26 -0.620381750820575 -0.8463465614411209 -0.2525548825603051 -1.439250644349618e-11 0.0 2.378952054656901e-25 -7.1458666999402505 -7.145866699940252 -1.0424175499402515 -5.974879480466363e-11 0.0 4.793690095539205e-05 -1.5707243124591272 1.5708489418029785 -1.5707123915301722 -1.5708625952350062 5.992112710373476e-05 0.0 0.0 -0.0 0.0 0.0 0.0 0.0269165076315403 -0.7222595810890198 -0.8189471364021301 -0.16449210047721863 -0.08280554413795471 0.1186133474111557 0.02467346377670765 -0.7200165390968323 -0.8143720030784607 -0.16449210047721863 -0.07832957059144974 0.11637535691261292 -0.2984251362812837 -0.11276377784275775 0.3131399855033927 -2.217910861723379 -2.2195370589819494 -0.008484854275887245 0.0 0.0 0.0 0.0 0.0 0.0 -6.451610485112354 0.5635513886018575 -0.6946245952448851 -0.4318469203406988 -0.06872239728005686 0.5493503706763512 -0.2984301935029837 -0.11275507530515129 0.3131843183387717 -2.217827088832791 -2.2194802147226973 -0.008179933726190749 0.0 0.0 0.0 0.0 0.0 0.0

6664.88 3.5561831257524545e-17 -1.5707963267948966 1.5707963267948968 -1.5707963267948966 -1.5707963267948966 0.0 0.0 0.0 0.0 0.0 0.0 0.0 0.0 0.0 0.0 0.0 0.0 0.0 2.072980291448686e-26 -0.620381750820575 -0.8463465614411209 -0.2525548825603051 -1.439250644349618e-11 0.0 2.378952054656901e-25 -7.1458666999402505 -7.145866699940252 -1.0424175499402515 -5.974879480466363e-11 0.0 8.426408021477982e-05 -1.5707123915301722 1.5708250999450684 -1.5707009474383753 -1.5708745161639612 5.992112710373476e-05 0.0 0.0 -0.0 0.0 0.0 0.0 0.0269165076315403 -0.6863709092140198 -0.817422091960907 -0.168968066573143 -0.07385359704494476 0.1186133474111557 0.02467346377670765 -0.7200165390968323 -0.8143720030784607 -0.16449210047721863 -0.07832957059144974 0.11413737386465073 -0.29842399207345205 -0.11277365216670196 0.3131425770618271 -2.217864264242252 -2.219571036301572 -0.008497411068307906 0.0 0.0 0.0 0.0 0.0 0.0 -4.613089322232487 1.2606131584858657 -0.5252472668326462 -0.4476809013233631 0.048044018772422314 0.5500966411151973 -0.2984301935029837 -0.11275507530515129 0.3131843183387717 -2.217827088832791 -2.2194802147226973 -0.008179933726190749 0.0 0.0 0.0 0.0 0.0 0.0

6664.888 3.5561831257524545e-17 -1.5707963267948966 1.5707963267948968 -1.5707963267948966 -1.5707963267948966 0.0 0.0 0.0 0.0 0.0 0.0 0.0 0.0 0.0 0.0 0.0 0.0 0.0 2.072980291448686e-26 -0.620381750820575 -0.8463465614411209 -0.2525548825603051 -1.439250644349618e-11 0.0 2.378952054656901e-25 -7.1458666999402505 -7.145866699940252 -1.0424175499402515 -5.974879480466363e-11 0.0 2.3968450477696024e-05 -1.5707123915301722 1.5708489418029785 -1.5707362333880823 -1.5708745161639612 7.190534961409867e-05 0.0 0.0 -0.0 0.0 0.0 0.0 0.02018737979233265 -0.7132874131202698 -0.8082718253135681 -0.16449210047721863 -0.07944856584072113 0.11525636911392212 0.02467346377670765 -0.7200165390968323 -0.8143720030784607 -0.16561108827590942 -0.07609158009290695 0.11301837861537933 -0.29843172605018353 -0.11275565556483355 0.31313846898299974 -2.217938775926006 -2.2194854102329384 -0.008484798118662519 0.0 0.0 0.0 0.0 0.0 0.0 -6.389976633245068 0.24407970634161277 -0.22180929573004113 -0.39015690278970894 -0.10402822726602005 0.533595518811433 -0.2984301935029837 -0.11275507530515129 0.3131843183387717 -2.217827088832791 -2.2194802147226973 -0.008179933726190749 0.0 0.0 0.0 0.0 0.0 0.0

6664.896 3.5561831257524545e-17 -1.5707963267948966 1.5707963267948968 -1.5707963267948966 -1.5707963267948966 0.0 0.0 0.0 0.0 0.0 0.0 0.0 0.0 0.0 0.0 0.0 0.0 0.0 2.072980291448686e-26 -0.620381750820575 -0.8463465614411209 -0.2525548825603051 -1.439250644349618e-11 0.0 2.378952054656901e-25 -7.1458666999402505 -7.145866699940252 -1.0424175499402515 -5.974879480466363e-11 0.0 5.992112710373476e-05 -1.5707481543170374 1.5708370208740234 -1.5707600752459925 -1.5708745161639612 7.190534961409867e-05 0.0 0.0 -0.0 0.0 0.0 0.0 0.02467346377670765 -0.7155304551124573 -0.8113219141960144 -0.16225410997867584 -0.07161560654640198 0.11301837861537933 0.02467346377670765 -0.7222595810890198 -0.8143720030784607 -0.16561108827590942 -0.07721057534217834 0.11301837861537933 -0.29842485684167663 -0.11276642827422748 0.31315473983894115 -2.2178632156411315 -2.219489609908412 -0.008405175669730414 0.0 0.0 0.0 0.0 0.0 0.0 -6.391146753318979 0.40279399543254174 -0.40535967121937294 -0.3666504042782182 -0.0778543753810375 0.523436343332615 -0.2984301935029837 -0.11275507530515129 0.3131843183387717 -2.217827088832791 -2.2194802147226973 -0.008179933726190749 0.0 0.0 0.0 0.0 0.0 0.0

6664.9039999999995 3.5561831257524545e-17 -1.5707963267948966 1.5707963267948968 -1.5707963267948966 -1.5707963267948966 0.0 0.0 0.0 0.0 0.0 0.0 0.0 0.0 0.0 0.0 0.0 0.0 0.0 2.072980291448686e-26 -0.620381750820575 -0.8463465614411209 -0.2525548825603051 -1.439250644349618e-11 0.0 2.378952054656901e-25 -7.1458666999402505 -7.145866699940252 -1.0424175499402515 -5.974879480466363e-11 0.0 5.992112710373476e-05 -1.5707362333880823 1.5708250999450684 -1.5707362333880823 -1.5708745161639612 7.190534961409867e-05 0.0 0.0 -0.0 0.0 0.0 0.0 0.0291595496237278 -0.7222595810890198 -0.8082718253135681 -0.170087069272995 -0.08168654888868332 0.11413737386465073 0.02467346377670765 -0.7155304551124573 -0.8143720030784607 -0.16561108827590942 -0.07721057534217834 0.11301837861537933 -0.2984258006955951 -0.11276642097738591 0.31315270604582507 -2.21787512387084 -2.219501419192977 -0.008431695729977741 0.0 0.0 0.0 0.0 0.0 0.0 -6.865489874514285 0.43194237364356997 -0.10041206415786605 -0.4160823590042634 -0.17932548297786485 0.5279026816406563 -0.2984301935029837 -0.11275507530515129 0.3131843183387717 -2.217827088832791 -2.2194802147226973 -0.008179933726190749 0.0 0.0 0.0 0.0 0.0 0.0

6664.911999999999 3.5561831257524545e-17 -1.5707963267948966 1.5707963267948968 -1.5707963267948966 -1.5707963267948966 0.0 0.0 0.0 0.0 0.0 0.0 0.0 0.0 0.0 0.0 0.0 0.0 0.0 2.072980291448686e-26 -0.620381750820575 -0.8463465614411209 -0.2525548825603051 -1.439250644349618e-11 0.0 2.378952054656901e-25 -7.1458666999402505 -7.145866699940252 -1.0424175499402515 -5.974879480466363e-11 0.0 8.426408021477982e-05 -1.570676628743307 1.5708012580871582 -1.5707009474383753 -1.570850674306051 0.00011984225420746952 0.0 0.0 -0.0 0.0 0.0 0.0 0.0291595496237278 -0.7222595810890198 -0.817422091960907 -0.1667300909757614 -0.07944856584072113 0.11525636911392212 0.02467346377670765 -0.7177734971046448 -0.8143720030784607 -0.16561108827590942 -0.07721057534217834 0.11301837861537933 -0.2984317287789332 -0.11277563047764205 0.3131390052098408 -2.2179484652405255 -2.21952250329725 -0.008484059485861733 0.0 0.0 0.0 0.0 0.0 0.0 -6.511012004675636 0.5848505440936561 -0.5786883444792792 -0.4180531450120586 -0.09374731946109513 0.5336246543523082 -0.2984301935029837 -0.11275507530515129 0.3131843183387717 -2.217827088832791 -2.2194802147226973 -0.008179933726190749 0.0 0.0 0.0 0.0 0.0 0.0

6664.92 3.5561831257524545e-17 -1.5707963267948966 1.5707963267948968 -1.5707963267948966 -1.5707963267948966 0.0 0.0 0.0 0.0 0.0 0.0 0.0 0.0 0.0 0.0 0.0 0.0 0.0 2.072980291448686e-26 -0.620381750820575 -0.8463465614411209 -0.2525548825603051 -1.439250644349618e-11 0.0 2.378952054656901e-25 -7.1458666999402505 -7.145866699940252 -1.0424175499402515 -5.974879480466363e-11 0.0 0.0 -1.5707009474383753 1.5708370208740234 -1.5707123915301722 -1.5708263556109827 0.000107858024421148 0.0 0.0 -0.0 0.0 0.0 0.0 0.0269165076315403 -0.7222595810890198 -0.8189471364021301 -0.1667300909757614 -0.06937761604785919 0.11637535691261292 0.02467346377670765 -0.7200165390968323 -0.8143720030784607 -0.16561108827590942 -0.07721057534217834 0.11301837861537933 -0.29843529249929374 -0.11275246173796839 0.3131365474518872 -2.218041084449854 -2.2194547262164117 -0.008457438516240211 0.0 0.0 0.0 0.0 0.0 0.0 -6.451768454226182 0.5288526740722709 -0.6466273592744594 -0.3664919226107679 -0.08302122424666367 0.538945577513353 -0.2984301935029837 -0.11275507530515129 0.3131843183387717 -2.217827088832791 -2.2194802147226973 -0.008179933726190749 0.0 0.0 0.0 0.0 0.0 0.0

6664.928 3.5561831257524545e-17 -1.5707963267948966 1.5707963267948968 -1.5707963267948966 -1.5707963267948966 0.0 0.0 0.0 0.0 0.0 0.0 0.0 0.0 0.0 0.0 0.0 0.0 0.0 2.072980291448686e-26 -0.620381750820575 -0.8463465614411209 -0.2525548825603051 -1.439250644349618e-11 0.0 2.378952054656901e-25 -7.1458666999402505 -7.145866699940252 -1.0424175499402515 -5.974879480466363e-11 0.0 5.992112710373476e-05 -1.5707243124591272 1.5708613395690918 -1.570688549672262 -1.5708625952350062 7.190534961409867e-05 0.0 0.0 -0.0 0.0 0.0 0.0 0.0269165076315403 -0.7110443711280823 -0.817422091960907 -0.170087069272995 -0.07944856584072113 0.11301837861537933 0.02467346377670765 -0.7200165390968323 -0.8143720030784607 -0.16561108827590942 -0.07609158009290695 0.11189938336610794 -0.29842079449403414 -0.11276732320017047 0.31313424869019146 -2.217928922314219 -2.219554952019579 -0.008525098874907133 0.0 0.0 0.0 0.0 0.0 0.0 -5.91766530654463 0.6782884856354046 -0.5048722691563972 -0.42577740470284214 -0.06657734928661602 0.523399164253206 -0.2984301935029837 -0.11275507530515129 0.3131843183387717 -2.217827088832791 -2.2194802147226973 -0.008179933726190749 0.0 0.0 0.0 0.0 0.0 0.0

6664.936 3.5561831257524545e-17 -1.5707963267948966 1.5707963267948968 -1.5707963267948966 -1.5707963267948966 0.0 0.0 0.0 0.0 0.0 0.0 0.0 0.0 0.0 0.0 0.0 0.0 0.0 2.072980291448686e-26 -0.620381750820575 -0.8463465614411209 -0.2525548825603051 -1.439250644349618e-11 0.0 2.378952054656901e-25 -7.1458666999402505 -7.145866699940252 -1.0424175499402515 -5.974879480466363e-11 0.0 2.3968450477696024e-05 -1.5707481543170374 1.5708370208740234 -1.5707009474383753 -1.5708263556109827 5.992112710373476e-05 0.0 0.0 -0.0 0.0 0.0 0.0 0.02243042178452015 -0.7267456650733948 -0.817422091960907 -0.1667300909757614 -0.08951950818300247 0.1186133474111557 0.02467346377670765 -0.7132874131202698 -0.8143720030784607 -0.16561108827590942 -0.07609158009290695 0.11637535691261292 -0.2984240362327161 -0.1127596240144869 0.31314966331330246 -2.2179436644900923 -2.2195165389894593 -0.00841780423074166 0.0 0.0 0.0 0.0 0.0 0.0 -6.747230143767892 0.2575644664532886 -0.5792251931451239 -0.43793181697776434 -0.11348557285068549 0.5490656605141828 -0.2984301935029837 -0.11275507530515129 0.3131843183387717 -2.217827088832791 -2.2194802147226973 -0.008179933726190749 0.0 0.0 0.0 0.0 0.0 0.0

6664.9439999999995 3.5561831257524545e-17 -1.5707963267948966 1.5707963267948968 -1.5707963267948966 -1.5707963267948966 0.0 0.0 0.0 0.0 0.0 0.0 0.0 0.0 0.0 0.0 0.0 0.0 0.0 2.072980291448686e-26 -0.620381750820575 -0.8463465614411209 -0.2525548825603051 -1.439250644349618e-11 0.0 2.378952054656901e-25 -7.1458666999402505 -7.145866699940252 -1.0424175499402515 -5.974879480466363e-11 0.0 3.5952674807049334e-05 -1.570688549672262 1.5708370208740234 -1.5707243124591272 -1.5708745161639612 7.190534961409867e-05 0.0 0.0 -0.0 0.0 0.0 0.0 0.0269165076315403 -0.7200165390968323 -0.8204721808433533 -0.170087069272995 -0.07944856584072113 0.11413737386465073 0.02467346377670765 -0.7177734971046448 -0.8143720030784607 -0.16561108827590942 -0.07944856584072113 0.11413737386465073 -0.29843422251718865 -0.11275922871667877 0.3131338937898163 -2.2179373023679614 -2.2195105665420987 -0.00851125940840866 0.0 0.0 0.0 0.0 0.0 0.0 -6.273891400349196 0.5608969075097416 -0.6411288672515414 -0.4160103443860784 -0.08437782113198679 0.5284944871207329 -0.2984301935029837 -0.11275507530515129 0.3131843183387717 -2.217827088832791 -2.2194802147226973 -0.008179933726190749 0.0 0.0 0.0 0.0 0.0 0.0

6664.951999999999 3.5561831257524545e-17 -1.5707963267948966 1.5707963267948968 -1.5707963267948966 -1.5707963267948966 0.0 0.0 0.0 0.0 0.0 0.0 0.0 0.0 0.0 0.0 0.0 0.0 0.0 2.072980291448686e-26 -0.620381750820575 -0.8463465614411209 -0.2525548825603051 -1.439250644349618e-11 0.0 2.378952054656901e-25 -7.1458666999402505 -7.145866699940252 -1.0424175499402515 -5.974879480466363e-11 0.0 3.5952674807049334e-05 -1.5707243124591272 1.5708131790161133 -1.5707362333880823 -1.5708382765399378 5.992112710373476e-05 0.0 0.0 -0.0 0.0 0.0 0.0 0.0269165076315403 -0.7200165390968323 -0.8082718253135681 -0.1712060570716858 -0.08616252988576889 0.11749435216188431 0.02467346377670765 -0.7222595810890198 -0.8143720030784607 -0.1667300909757614 -0.07832957059144974 0.11189938336610794 -0.2984314093860344 -0.11276226207879257 0.3131526844050033 -2.2179066441098 -2.219506461138188 -0.008391676508426201 0.0 0.0 0.0 0.0 0.0 0.0 -6.74650368743306 0.4324643002796004 -0.07564378698456448 -0.4369615742308673 -0.17694298088438035 0.5434764468196254 -0.2984301935029837 -0.11275507530515129 0.3131843183387717 -2.217827088832791 -2.2194802147226973 -0.008179933726190749 0.0 0.0 0.0 0.0 0.0 0.0

6664.96 3.5561831257524545e-17 -1.5707963267948966 1.5707963267948968 -1.5707963267948966 -1.5707963267948966 0.0 0.0 0.0 0.0 0.0 0.0 0.0 0.0 0.0 0.0 0.0 0.0 0.0 2.072980291448686e-26 -0.620381750820575 -0.8463465614411209 -0.2525548825603051 -1.439250644349618e-11 0.0 2.378952054656901e-25 -7.1458666999402505 -7.145866699940252 -1.0424175499402515 -5.974879480466363e-11 0.0 5.992112710373476e-05 -1.5707123915301722 1.5708613395690918 -1.570688549672262 -1.5708745161639612 9.58738019107841e-05 0.0 0.0 -0.0 0.0 0.0 0.0 0.02467346377670765 -0.7245026230812073 -0.8219972252845764 -0.15777812898159027 -0.0682586282491684 0.11301837861537933 0.02467346377670765 -0.7177734971046448 -0.8143720030784607 -0.16561108827590942 -0.07832957059144974 0.11301837861537933 -0.2984227170385926 -0.11276633714162908 0.3131306974726052 -2.217955402392675 -2.2195282962491816 -0.008551466724008886 0.0 0.0 0.0 0.0 0.0 0.0 -6.45203816496022 0.3811095898346604 -0.9769428614633865 -0.34900423871777225 -0.013440740819719882 0.5238302812092243 -0.2984301935029837 -0.11275507530515129 0.3131843183387717 -2.217827088832791 -2.2194802147226973 -0.008179933726190749 0.0 0.0 0.0 0.0 0.0 0.0

6664.968 3.5561831257524545e-17 -1.5707963267948966 1.5707963267948968 -1.5707963267948966 -1.5707963267948966 0.0 0.0 0.0 0.0 0.0 0.0 0.0 0.0 0.0 0.0 0.0 0.0 0.0 2.072980291448686e-26 -0.620381750820575 -0.8463465614411209 -0.2525548825603051 -1.439250644349618e-11 0.0 2.378952054656901e-25 -7.1458666999402505 -7.145866699940252 -1.0424175499402515 -5.974879480466363e-11 0.0 2.3968450477696024e-05 -1.5707362333880823 1.5708250999450684 -1.5707243124591272 -1.5708263556109827 2.3968450477696024e-05 0.0 0.0 -0.0 0.0 0.0 0.0 0.0314025916159153 -0.7132874131202698 -0.8097968697547913 -0.1678490787744522 -0.07832957059144974 0.11749435216188431 0.02467346377670765 -0.7200165390968323 -0.8143720030784607 -0.16561108827590942 -0.07832957059144974 0.11301837861537933 -0.29842886958729675 -0.11275964969124129 0.3131516585012101 -2.2178921095409962 -2.2195449765977715 -0.008391901145107492 0.0 0.0 0.0 0.0 0.0 0.0 -6.332297760490207 0.78381586694656 -0.21481789541108048 -0.4293744656913809 -0.11514623214001757 0.5438828841433733 -0.2984301935029837 -0.11275507530515129 0.3131843183387717 -2.217827088832791 -2.2194802147226973 -0.008179933726190749 0.0 0.0 0.0 0.0 0.0 0.0

6664.976 3.5561831257524545e-17 -1.5707963267948966 1.5707963267948968 -1.5707963267948966 -1.5707963267948966 0.0 0.0 0.0 0.0 0.0 0.0 0.0 0.0 0.0 0.0 0.0 0.0 0.0 2.072980291448686e-26 -0.620381750820575 -0.8463465614411209 -0.2525548825603051 -1.439250644349618e-11 0.0 2.378952054656901e-25 -7.1458666999402505 -7.145866699940252 -1.0424175499402515 -5.974879480466363e-11 0.0 -1.1746083394825746e-05 -1.5707123915301722 1.5708613395690918 -1.5707009474383753 -1.5708625952350062 9.58738019107841e-05 0.0 0.0 -0.0 0.0 0.0 0.0 0.0269165076315403 -0.7110443711280823 -0.8128469586372375 -0.16001611948013306 -0.07609158009290695 0.11078038811683655 0.02467346377670765 -0.7200165390968323 -0.8143720030784607 -0.1667300909757614 -0.07832957059144974 0.11301837861537933 -0.29843181880686415 -0.11274594012456902 0.31313174801622645 -2.2180348474014333 -2.219448829150382 -0.008524687951717966 0.0 0.0 0.0 0.0 0.0 0.0 -6.095012884604999 0.5777201158990258 -0.5211384806445212 -0.401861299418947 -0.033132298385270494 0.5132625219553196 -0.2984301935029837 -0.11275507530515129 0.3131843183387717 -2.217827088832791 -2.2194802147226973 -0.008179933726190749 0.0 0.0 0.0 0.0 0.0 0.0

6664.9839999999995 3.5561831257524545e-17 -1.5707963267948966 1.5707963267948968 -1.5707963267948966 -1.5707963267948966 0.0 0.0 0.0 0.0 0.0 0.0 0.0 0.0 0.0 0.0 0.0 0.0 0.0 2.072980291448686e-26 -0.620381750820575 -0.8463465614411209 -0.2525548825603051 -1.439250644349618e-11 0.0 2.378952054656901e-25 -7.1458666999402505 -7.145866699940252 -1.0424175499402515 -5.974879480466363e-11 0.0 1.1984225238848012e-05 -1.5707243124591272 1.5708131790161133 -1.570688549672262 -1.5708263556109827 8.388957940042019e-05 0.0 0.0 -0.0 0.0 0.0 0.0 0.0269165076315403 -0.7155304551124573 -0.8143720030784607 -0.1667300909757614 -0.10630441457033157 0.1186133474111557 0.02467346377670765 -0.7200165390968323 -0.8143720030784607 -0.1667300909757614 -0.07832957059144974 0.11413737386465073 -0.29843018244944947 -0.11275605757912013 0.3131486073595776 -2.21798969383502 -2.2194828400874975 -0.008431542150420634 0.0 0.0 0.0 0.0 0.0 0.0 -6.272624682165718 0.6305586040081091 -0.4418421211306972 -0.5468555916689094 -0.08603624042511901 0.5491186483338133 -0.2984301935029837 -0.11275507530515129 0.3131843183387717 -2.217827088832791 -2.2194802147226973 -0.008179933726190749 0.0 0.0 0.0 0.0 0.0 0.0

6664.991999999999 3.5561831257524545e-17 -1.5707963267948966 1.5707963267948968 -1.5707963267948966 -1.5707963267948966 0.0 0.0 0.0 0.0 0.0 0.0 0.0 0.0 0.0 0.0 0.0 0.0 0.0 2.072980291448686e-26 -0.620381750820575 -0.8463465614411209 -0.2525548825603051 -1.439250644349618e-11 0.0 2.378952054656901e-25 -7.1458666999402505 -7.145866699940252 -1.0424175499402515 -5.974879480466363e-11 0.0 0.0 -1.5707009474383753 1.5708370208740234 -1.5707009474383753 -1.5708864370929163 9.58738019107841e-05 0.0 0.0 -0.0 0.0 0.0 0.0 0.02243042178452015 -0.7200165390968323 -0.8143720030784607 -0.1667300909757614 -0.07273460179567337 0.11189938336610794 0.02467346377670765 -0.7222595810890198 -0.8143720030784607 -0.1667300909757614 -0.07497258484363556 0.11525636911392212 -0.2984343531115336 -0.11274750566632166 0.3131356084080324 -2.218003392682217 -2.2194434740564066 -0.008536720615513757 0.0 0.0 0.0 0.0 0.0 0.0 -6.50981522060312 0.24354706951536387 -0.44455735243073236 -0.35873419937415285 -0.10510604249506154 0.5180353393093092 -0.2984301935029837 -0.11275507530515129 0.3131843183387717 -2.217827088832791 -2.2194802147226973 -0.008179933726190749 0.0 0.0 0.0 0.0 0.0 0.0

6665.0 3.5561831257524545e-17 -1.5707963267948966 1.5707963267948968 -1.5707963267948966 -1.5707963267948966 0.0 0.0 0.0 0.0 0.0 0.0 0.0 0.0 0.0 0.0 0.0 0.0 0.0 2.072980291448686e-26 -0.620381750820575 -0.8463465614411209 -0.2525548825603051 -1.439250644349618e-11 0.0 2.378952054656901e-25 -7.1458666999402505 -7.145866699940252 -1.0424175499402515 -5.974879480466363e-11 0.0 5.992112710373476e-05 -1.5707243124591272 1.5708250999450684 -1.5707123915301722 -1.570850674306051 0.000107858024421148 0.0 0.0 -0.0 0.0 0.0 0.0 0.0269165076315403 -0.7379608750343323 -0.8128469586372375 -0.1678490787744522 -0.07609158009290695 0.11413737386465073 0.02467346377670765 -0.7222595810890198 -0.8143720030784607 -0.1667300909757614 -0.07721057534217834 0.11189938336610794 -0.2984257567155978 -0.11276836347062301 0.31314709755333225 -2.2179447578559413 -2.2194912112229694 -0.008444968833162815 0.0 0.0 0.0 0.0 0.0 0.0 -7.518312868137853 0.08818219286847281 -0.3541302207795808 -0.36161473598024946 -0.20126966823626366 0.5278081750958394 -0.2984301935029837 -0.11275507530515129 0.3131843183387717 -2.217827088832791 -2.2194802147226973 -0.008179933726190749 0.0 0.0 0.0 0.0 0.0 0.0

6665.008 3.5561831257524545e-17 -1.5707963267948966 1.5707963267948968 -1.5707963267948966 -1.5707963267948966 0.0 0.0 0.0 0.0 0.0 0.0 0.0 0.0 0.0 0.0 0.0 0.0 0.0 2.072980291448686e-26 -0.620381750820575 -0.8463465614411209 -0.2525548825603051 -1.439250644349618e-11 0.0 2.378952054656901e-25 -7.1458666999402505 -7.145866699940252 -1.0424175499402515 -5.974879480466363e-11 0.0 4.793690095539205e-05 -1.5707243124591272 1.5708613395690918 -1.5707009474383753 -1.5708625952350062 8.388957940042019e-05 0.0 0.0 -0.0 0.0 0.0 0.0 0.02243042178452015 -0.7334747910499573 -0.817422091960907 -0.16225410997867584 -0.08616252988576889 0.11637535691261292 0.02467346377670765 -0.7222595810890198 -0.8143720030784607 -0.16337309777736664 -0.07721057534217834 0.11301837861537933 -0.2984231674754705 -0.11276375554263897 0.31313530672060597 -2.217949315870949 -2.2195222503886427 -0.00851130199345478 0.0 0.0 0.0 0.0 0.0 0.0 -7.103140619271968 0.08821774858946323 -0.6778760666657183 -0.4083539784903877 -0.11371819694532387 0.5386901310328318 -0.2984301935029837 -0.11275507530515129 0.3131843183387717 -2.217827088832791 -2.2194802147226973 -0.008179933726190749 0.0 0.0 0.0 0.0 0.0 0.0

6665.016 3.5561831257524545e-17 -1.5707963267948966 1.5707963267948968 -1.5707963267948966 -1.5707963267948966 0.0 0.0 0.0 0.0 0.0 0.0 0.0 0.0 0.0 0.0 0.0 0.0 0.0 2.072980291448686e-26 -0.620381750820575 -0.8463465614411209 -0.2525548825603051 -1.439250644349618e-11 0.0 2.378952054656901e-25 -7.1458666999402505 -7.145866699940252 -1.0424175499402515 -5.974879480466363e-11 0.0 4.793690095539205e-05 -1.5707362333880823 1.5708250999450684 -1.5707243124591272 -1.5708745161639612 9.58738019107841e-05 0.0 0.0 -0.0 0.0 0.0 0.0 0.02243042178452015 -0.7177734971046448 -0.8158970475196838 -0.15889713168144226 -0.08616252988576889 0.11413737386465073 0.02467346377670765 -0.7222595810890198 -0.8143720030784607 -0.16225410997867584 -0.07721057534217834 0.11301837861537933 -0.2984261698951458 -0.11276283620821673 0.3131516886267013 -2.217920966733971 -2.2194674129667025 -0.008444924962746297 0.0 0.0 0.0 0.0 0.0 0.0 -6.331993176353289 0.3465954358212333 -0.6809725990277912 -0.42960299263728663 -0.03412449197018943 0.5288337565265667 -0.2984301935029837 -0.11275507530515129 0.3131843183387717 -2.217827088832791 -2.2194802147226973 -0.008179933726190749 0.0 0.0 0.0 0.0 0.0 0.0

6665.023999999999 3.5561831257524545e-17 -1.5707963267948966 1.5707963267948968 -1.5707963267948966 -1.5707963267948966 0.0 0.0 0.0 0.0 0.0 0.0 0.0 0.0 0.0 0.0 0.0 0.0 0.0 2.072980291448686e-26 -0.620381750820575 -0.8463465614411209 -0.2525548825603051 -1.439250644349618e-11 0.0 2.378952054656901e-25 -7.1458666999402505 -7.145866699940252 -1.0424175499402515 -5.974879480466363e-11 0.0 1.1984225238848012e-05 -1.5707123915301722 1.5708489418029785 -1.5707009474383753 -1.5708625952350062 4.793690095539205e-05 0.0 0.0 -0.0 0.0 0.0 0.0 0.0291595496237278 -0.7267456650733948 -0.8189471364021301 -0.16113510727882385 -0.08728151768445969 0.1186133474111557 0.02467346377670765 -0.7222595810890198 -0.8143720030784607 -0.16449210047721863 -0.08056755363941193 0.11189938336610794 -0.29843016910992504 -0.11275303621093884 0.3131354501203924 -2.217949189376051 -2.219522187401698 -0.008510976333760063 0.0 0.0 0.0 0.0 0.0 0.0 -6.689039386198704 0.5707112813805852 -0.7678261328642245 -0.4532367832431561 -0.06653637259887062 0.5493301758701439 -0.2984301935029837 -0.11275507530515129 0.3131843183387717 -2.217827088832791 -2.2194802147226973 -0.008179933726190749 0.0 0.0 0.0 0.0 0.0 0.0

6665.032 3.5561831257524545e-17 -1.5707963267948966 1.5707963267948968 -1.5707963267948966 -1.5707963267948966 0.0 0.0 0.0 0.0 0.0 0.0 0.0 0.0 0.0 0.0 0.0 0.0 0.0 2.072980291448686e-26 -0.620381750820575 -0.8463465614411209 -0.2525548825603051 -1.439250644349618e-11 0.0 2.378952054656901e-25 -7.1458666999402505 -7.145866699940252 -1.0424175499402515 -5.974879480466363e-11 0.0 3.5952674807049334e-05 -1.5707243124591272 1.5708370208740234 -1.5707481543170374 -1.5708382765399378 5.992112710373476e-05 0.0 0.0 -0.0 0.0 0.0 0.0 0.02243042178452015 -0.6998291611671448 -0.8143720030784607 -0.15554013848304749 -0.07944856584072113 0.11189938336610794 0.02467346377670765 -0.7222595810890198 -0.8143720030784607 -0.16113510727882385 -0.07832957059144974 0.11189938336610794 -0.2984304191146183 -0.11276224299568581 0.31314658222926545 -2.2179125464376215 -2.2195124345739465 -0.008404918319352968 0.0 0.0 0.0 0.0 0.0 0.0 -5.442320246560556 0.6499525366104594 -0.684376429542523 -0.42334095982078185 0.05529834178145442 0.5190409447028959 -0.2984301935029837 -0.11275507530515129 0.3131843183387717 -2.217827088832791 -2.2194802147226973 -0.008179933726190749 0.0 0.0 0.0 0.0 0.0 0.0

6665.04 3.5561831257524545e-17 -1.5707963267948966 1.5707963267948968 -1.5707963267948966 -1.5707963267948966 0.0 0.0 0.0 0.0 0.0 0.0 0.0 0.0 0.0 0.0 0.0 0.0 0.0 2.072980291448686e-26 -0.620381750820575 -0.8463465614411209 -0.2525548825603051 -1.439250644349618e-11 0.0 2.378952054656901e-25 -7.1458666999402505 -7.145866699940252 -1.0424175499402515 -5.974879480466363e-11 0.0 7.227985770441592e-05 -1.570688549672262 1.5708131790161133 -1.5707123915301722 -1.5708144346820276 0.00011984225420746952 0.0 0.0 -0.0 0.0 0.0 0.0 0.02243042178452015 -0.7110443711280823 -0.8143720030784607 -0.15777812898159027 -0.08056755363941193 0.11525636911392212 0.02467346377670765 -0.7177734971046448 -0.8143720030784607 -0.16225410997867584 -0.07832957059144974 0.11301837861537933 -0.29843111265936445 -0.11277503712865271 0.3131399583540661 -2.217974267500121 -2.219521775787823 -0.008431254557105354 0.0 0.0 0.0 0.0 0.0 0.0 -6.035331586118673 0.4763905926281901 -0.6370290890459986 -0.4143201581149695 -0.008205799346175435 0.5341916170213321 -0.2984301935029837 -0.11275507530515129 0.3131843183387717 -2.217827088832791 -2.2194802147226973 -0.008179933726190749 0.0 0.0 0.0 0.0 0.0 0.0

6665.048 3.5561831257524545e-17 -1.5707963267948966 1.5707963267948968 -1.5707963267948966 -1.5707963267948966 0.0 0.0 0.0 0.0 0.0 0.0 0.0 0.0 0.0 0.0 0.0 0.0 0.0 2.072980291448686e-26 -0.620381750820575 -0.8463465614411209 -0.2525548825603051 -1.439250644349618e-11 0.0 2.378952054656901e-25 -7.1458666999402505 -7.145866699940252 -1.0424175499402515 -5.974879480466363e-11 0.0 2.3968450477696024e-05 -1.5707243124591272 1.5708489418029785 -1.5707123915301722 -1.5708144346820276 3.5952674807049334e-05 0.0 0.0 -0.0 0.0 0.0 0.0 0.01794433780014515 -0.7132874131202698 -0.8158970475196838 -0.15665914118289948 -0.07944856584072113 0.11189938336610794 0.02467346377670765 -0.7222595810890198 -0.8143720030784607 -0.16225410997867584 -0.07832957059144974 0.11189938336610794 -0.29842783599528244 -0.11276059135091483 0.3131399554251628 -2.2179351139118544 -2.21956137176989 -0.008431682910210998 0.0 0.0 0.0 0.0 0.0 0.0 -6.094315791847731 0.2090721584016055 -0.7299899341545827 -0.3870221530359559 2.5788146009100258e-05 0.5187012785290064 -0.2984301935029837 -0.11275507530515129 0.3131843183387717 -2.217827088832791 -2.2194802147226973 -0.008179933726190749 0.0 0.0 0.0 0.0 0.0 0.0

6665.056 3.5561831257524545e-17 -1.5707963267948966 1.5707963267948968 -1.5707963267948966 -1.5707963267948966 0.0 0.0 0.0 0.0 0.0 0.0 0.0 0.0 0.0 0.0 0.0 0.0 0.0 2.072980291448686e-26 -0.620381750820575 -0.8463465614411209 -0.2525548825603051 -1.439250644349618e-11 0.0 2.378952054656901e-25 -7.1458666999402505 -7.145866699940252 -1.0424175499402515 -5.974879480466363e-11 0.0 4.793690095539205e-05 -1.570688549672262 1.5708489418029785 -1.5707243124591272 -1.5708263556109827 5.992112710373476e-05 0.0 0.0 -0.0 0.0 0.0 0.0 0.02243042178452015 -0.7200165390968323 -0.8128469586372375 -0.16113510727882385 -0.07721057534217834 0.11301837861537933 0.02467346377670765 -0.7200165390968323 -0.8143720030784607 -0.16225410997867584 -0.07721057534217834 0.11413737386465073 -0.2984318816511492 -0.1127667578131973 0.31313030393748775 -2.217940800034849 -2.2195672981299817 -0.008471199351424218 0.0 0.0 0.0 0.0 0.0 0.0 -6.56887948800635 0.23870379368760883 -0.49837891946261 -0.3791834208778081 -0.07957778732774919 0.5233751633302147 -0.2984301935029837 -0.11275507530515129 0.3131843183387717 -2.217827088832791 -2.2194802147226973 -0.008179933726190749 0.0 0.0 0.0 0.0 0.0 0.0

6665.063999999999 3.5561831257524545e-17 -1.5707963267948966 1.5707963267948968 -1.5707963267948966 -1.5707963267948966 0.0 0.0 0.0 0.0 0.0 0.0 0.0 0.0 0.0 0.0 0.0 0.0 0.0 2.072980291448686e-26 -0.620381750820575 -0.8463465614411209 -0.2525548825603051 -1.439250644349618e-11 0.0 2.378952054656901e-25 -7.1458666999402505 -7.145866699940252 -1.0424175499402515 -5.974879480466363e-11 0.0 0.0 -1.5707243124591272 1.5708732604980469 -1.5707481543170374 -1.5708144346820276 3.5952674807049334e-05 0.0 0.0 -0.0 0.0 0.0 0.0 0.02467346377670765 -0.7088013291358948 -0.8143720030784607 -0.16561108827590942 -0.07721057534217834 0.11413737386465073 0.02467346377670765 -0.7200165390968323 -0.8143720030784607 -0.16449210047721863 -0.07832957059144974 0.11525636911392212 -0.2984314731401831 -0.11275343549419899 0.31313574565102453 -2.2179559626435386 -2.219529275096273 -0.00841899554144666 0.0 0.0 0.0 0.0 0.0 0.0 -5.916981501528369 0.6000037540887787 -0.4668468751995222 -0.4089021529753914 -0.049064154729506586 0.5287458072359935 -0.2984301935029837 -0.11275507530515129 0.3131843183387717 -2.217827088832791 -2.2194802147226973 -0.008179933726190749 0.0 0.0 0.0 0.0 0.0 0.0

6665.072 3.5561831257524545e-17 -1.5707963267948966 1.5707963267948968 -1.5707963267948966 -1.5707963267948966 0.0 0.0 0.0 0.0 0.0 0.0 0.0 0.0 0.0 0.0 0.0 0.0 0.0 2.072980291448686e-26 -0.620381750820575 -0.8463465614411209 -0.2525548825603051 -1.439250644349618e-11 0.0 2.378952054656901e-25 -7.1458666999402505 -7.145866699940252 -1.0424175499402515 -5.974879480466363e-11 0.0 1.1984225238848012e-05 -1.5707362333880823 1.5708012580871582 -1.5707123915301722 -1.5708263556109827 5.992112710373476e-05 0.0 0.0 -0.0 0.0 0.0 0.0 0.02018737979233265 -0.7132874131202698 -0.8128469586372375 -0.1667300909757614 -0.07609158009290695 0.11189938336610794 0.02018737979233265 -0.7222595810890198 -0.8143720030784607 -0.16337309777736664 -0.07832957059144974 0.11413737386465073 -0.29843121105362913 -0.11275609230369858 0.3131577606771295 -2.2179393601951167 -2.2194857979184435 -0.008378587132097102 0.0 0.0 0.0 0.0 0.0 0.0 -6.2127518117059575 0.2593571597757094 -0.37583497899560453 -0.37566454773826125 -0.08646965694291102 0.5181742744564543 -0.2984301935029837 -0.11275507530515129 0.3131843183387717 -2.217827088832791 -2.2194802147226973 -0.008179933726190749 0.0 0.0 0.0 0.0 0.0 0.0

6665.08 3.5561831257524545e-17 -1.5707963267948966 1.5707963267948968 -1.5707963267948966 -1.5707963267948966 0.0 0.0 0.0 0.0 0.0 0.0 0.0 0.0 0.0 0.0 0.0 0.0 0.0 2.072980291448686e-26 -0.620381750820575 -0.8463465614411209 -0.2525548825603051 -1.439250644349618e-11 0.0 2.378952054656901e-25 -7.1458666999402505 -7.145866699940252 -1.0424175499402515 -5.974879480466363e-11 0.0 2.3968450477696024e-05 -1.5707600752459925 1.5708489418029785 -1.5707243124591272 -1.5708745161639612 4.793690095539205e-05 0.0 0.0 -0.0 0.0 0.0 0.0 0.0269165076315403 -0.7132874131202698 -0.8082718253135681 -0.16001611948013306 -0.07832957059144974 0.12197033315896988 0.02467346377670765 -0.7177734971046448 -0.8143720030784607 -0.16337309777736664 -0.07832957059144974 0.11413737386465073 -0.29842305613531517 -0.11275566468321307 0.31315168643151914 -2.217894557478199 -2.219494056065283 -0.008445166364450417 0.0 0.0 0.0 0.0 0.0 0.0 -6.3908917334307755 0.638835778524122 -0.3172604580327622 -0.4174050970526023 -0.07519774958225435 0.5649170699773073 -0.2984301935029837 -0.11275507530515129 0.3131843183387717 -2.217827088832791 -2.2194802147226973 -0.008179933726190749 0.0 0.0 0.0 0.0 0.0 0.0

6665.088 3.5561831257524545e-17 -1.5707963267948966 1.5707963267948968 -1.5707963267948966 -1.5707963267948966 0.0 0.0 0.0 0.0 0.0 0.0 0.0 0.0 0.0 0.0 0.0 0.0 0.0 2.072980291448686e-26 -0.620381750820575 -0.8463465614411209 -0.2525548825603051 -1.439250644349618e-11 0.0 2.378952054656901e-25 -7.1458666999402505 -7.145866699940252 -1.0424175499402515 -5.974879480466363e-11 0.0 3.5952674807049334e-05 -1.5707600752459925 1.5708250999450684 -1.570676628743307 -1.5708263556109827 9.58738019107841e-05 0.0 0.0 -0.0 0.0 0.0 0.0 0.0269165076315403 -0.7132874131202698 -0.817422091960907 -0.16337309777736664 -0.07497258484363556 0.11078038811683655 0.02467346377670765 -0.7222595810890198 -0.8143720030784607 -0.16337309777736664 -0.07832957059144974 0.11078038811683655 -0.2984197453263072 -0.11276320141468354 0.3131547062594792 -2.2179705036707555 -2.2194899793662852 -0.008418225642403224 0.0 0.0 0.0 0.0 0.0 0.0 -6.036407511719474 0.5996414608729101 -0.6507406641933806 -0.39836715248219806 -0.03273976031564816 0.5132939873660908 -0.2984301935029837 -0.11275507530515129 0.3131843183387717 -2.217827088832791 -2.2194802147226973 -0.008179933726190749 0.0 0.0 0.0 0.0 0.0 0.0

6665.096 3.5561831257524545e-17 -1.5707963267948966 1.5707963267948968 -1.5707963267948966 -1.5707963267948966 0.0 0.0 0.0 0.0 0.0 0.0 0.0 0.0 0.0 0.0 0.0 0.0 0.0 2.072980291448686e-26 -0.620381750820575 -0.8463465614411209 -0.2525548825603051 -1.439250644349618e-11 0.0 2.378952054656901e-25 -7.1458666999402505 -7.145866699940252 -1.0424175499402515 -5.974879480466363e-11 0.0 2.3968450477696024e-05 -1.5707362333880823 1.5708370208740234 -1.5707009474383753 -1.5708745161639612 9.58738019107841e-05 0.0 0.0 -0.0 0.0 0.0 0.0 0.02018737979233265 -0.7289887070655823 -0.8128469586372375 -0.16001611948013306 -0.08280554413795471 0.1197323426604271 0.02467346377670765 -0.7200165390968323 -0.8143720030784607 -0.16337309777736664 -0.07832957059144974 0.11301837861537933 -0.2984259611623748 -0.11275565332284565 0.31314613475637265 -2.217965241588789 -2.2194583445231215 -0.008484252879417049 0.0 0.0 0.0 0.0 0.0 0.0 -7.0429776748754795 0.06677025156582321 -0.5229131360972424 -0.3910280006210706 -0.11168180865580969 0.5543099119978454 -0.2984301935029837 -0.11275507530515129 0.3131843183387717 -2.217827088832791 -2.2194802147226973 -0.008179933726190749 0.0 0.0 0.0 0.0 0.0 0.0

6665.103999999999 3.5561831257524545e-17 -1.5707963267948966 1.5707963267948968 -1.5707963267948966 -1.5707963267948966 0.0 0.0 0.0 0.0 0.0 0.0 0.0 0.0 0.0 0.0 0.0 0.0 0.0 2.072980291448686e-26 -0.620381750820575 -0.8463465614411209 -0.2525548825603051 -1.439250644349618e-11 0.0 2.378952054656901e-25 -7.1458666999402505 -7.145866699940252 -1.0424175499402515 -5.974879480466363e-11 0.0 5.992112710373476e-05 -1.5707123915301722 1.5708489418029785 -1.5707123915301722 -1.570850674306051 7.190534961409867e-05 0.0 0.0 -0.0 0.0 0.0 0.0 0.02243042178452015 -0.7200165390968323 -0.8235222101211548 -0.1667300909757614 -0.07273460179567337 0.11078038811683655 0.02467346377670765 -0.7200165390968323 -0.8143720030784607 -0.16449210047721863 -0.07497258484363556 0.11301837861537933 -0.2984257059434266 -0.1127683316990243 0.3131364193126558 -2.2179227047806997 -2.2195489751765884 -0.008484828718062243 0.0 0.0 0.0 0.0 0.0 0.0 -6.155305682590648 0.36105166258702565 -0.849923679916047 -0.36820568945596355 -0.04121579911558166 0.5132577489074942 -0.2984301935029837 -0.11275507530515129 0.3131843183387717 -2.217827088832791 -2.2194802147226973 -0.008179933726190749 0.0 0.0 0.0 0.0 0.0 0.0

6665.112 3.5561831257524545e-17 -1.5707963267948966 1.5707963267948968 -1.5707963267948966 -1.5707963267948966 0.0 0.0 0.0 0.0 0.0 0.0 0.0 0.0 0.0 0.0 0.0 0.0 0.0 2.072980291448686e-26 -0.620381750820575 -0.8463465614411209 -0.2525548825603051 -1.439250644349618e-11 0.0 2.378952054656901e-25 -7.1458666999402505 -7.145866699940252 -1.0424175499402515 -5.974879480466363e-11 0.0 5.992112710373476e-05 -1.5707243124591272 1.5708012580871582 -1.5707481543170374 -1.5708263556109827 7.190534961409867e-05 0.0 0.0 -0.0 0.0 0.0 0.0 0.02243042178452015 -0.7222595810890198 -0.8113219141960144 -0.16225410997867584 -0.08168654888868332 0.11525636911392212 0.02467346377670765 -0.7200165390968323 -0.8143720030784607 -0.16449210047721863 -0.08168654888868332 0.11301837861537933 -0.2984306741418772 -0.11277041885933248 0.3131572542178282 -2.2178873537905477 -2.2195138630849334 -0.008351851539780986 0.0 0.0 0.0 0.0 0.0 0.0 -6.746517479991612 0.20575879569610883 -0.4059859292167458 -0.3973011584169706 -0.10733988403950412 0.5335994368653355 -0.2984301935029837 -0.11275507530515129 0.3131843183387717 -2.217827088832791 -2.2194802147226973 -0.008179933726190749 0.0 0.0 0.0 0.0 0.0 0.0

6665.12 3.5561831257524545e-17 -1.5707963267948966 1.5707963267948968 -1.5707963267948966 -1.5707963267948966 0.0 0.0 0.0 0.0 0.0 0.0 0.0 0.0 0.0 0.0 0.0 0.0 0.0 2.072980291448686e-26 -0.620381750820575 -0.8463465614411209 -0.2525548825603051 -1.439250644349618e-11 0.0 2.378952054656901e-25 -7.1458666999402505 -7.145866699940252 -1.0424175499402515 -5.974879480466363e-11 0.0 7.227985770441592e-05 -1.570688549672262 1.5708250999450684 -1.5707243124591272 -1.570850674306051 8.388957940042019e-05 0.0 0.0 -0.0 0.0 0.0 0.0 0.02467346377670765 -0.7312317490577698 -0.8235222101211548 -0.16337309777736664 -0.07497258484363556 0.11301837861537933 0.02467346377670765 -0.7222595810890198 -0.8143720030784607 -0.16449210047721863 -0.07609158009290695 0.11301837861537933 -0.29843111092862173 -0.11277204719629423 0.313137438591131 -2.2179162223610365 -2.219543531436192 -0.008471467053328489 0.0 0.0 0.0 0.0 0.0 0.0 -6.748610185271684 0.2676802877989844 -0.9237763757280781 -0.37090524554848736 -0.0683987251628143 0.5234645229451573 -0.2984301935029837 -0.11275507530515129 0.3131843183387717 -2.217827088832791 -2.2194802147226973 -0.008179933726190749 0.0 0.0 0.0 0.0 0.0 0.0

6665.128 3.5561831257524545e-17 -1.5707963267948966 1.5707963267948968 -1.5707963267948966 -1.5707963267948966 0.0 0.0 0.0 0.0 0.0 0.0 0.0 0.0 0.0 0.0 0.0 0.0 0.0 2.072980291448686e-26 -0.620381750820575 -0.8463465614411209 -0.2525548825603051 -1.439250644349618e-11 0.0 2.378952054656901e-25 -7.1458666999402505 -7.145866699940252 -1.0424175499402515 -5.974879480466363e-11 0.0 8.426408021477982e-05 -1.5707243124591272 1.5708370208740234 -1.5707243124591272 -1.5708625952350062 4.793690095539205e-05 0.0 0.0 -0.0 0.0 0.0 0.0 0.02243042178452015 -0.7267456650733948 -0.817422091960907 -0.1712060570716858 -0.07161560654640198 0.10854240506887436 0.02467346377670765 -0.7222595810890198 -0.8143720030784607 -0.16449210047721863 -0.07609158009290695 0.11301837861537933 -0.2984230082554565 -0.11277464086879357 0.3131445626379392 -2.2178452986238697 -2.219578771044152 -0.008458260806932018 0.0 0.0 0.0 0.0 0.0 0.0 -6.747476378684689 0.10028269700962965 -0.4836321142490095 -0.3416992801128906 -0.14203595159476473 0.50225798818904 -0.2984301935029837 -0.11275507530515129 0.3131843183387717 -2.217827088832791 -2.2194802147226973 -0.008179933726190749 0.0 0.0 0.0 0.0 0.0 0.0

6665.1359999999995 3.5561831257524545e-17 -1.5707963267948966 1.5707963267948968 -1.5707963267948966 -1.5707963267948966 0.0 0.0 0.0 0.0 0.0 0.0 0.0 0.0 0.0 0.0 0.0 0.0 0.0 2.072980291448686e-26 -0.620381750820575 -0.8463465614411209 -0.2525548825603051 -1.439250644349618e-11 0.0 2.378952054656901e-25 -7.1458666999402505 -7.145866699940252 -1.0424175499402515 -5.974879480466363e-11 0.0 0.0 -1.5707009474383753 1.5708131790161133 -1.5707009474383753 -1.5708263556109827 4.793690095539205e-05 0.0 0.0 -0.0 0.0 0.0 0.0 0.01570129580795765 -0.7177734971046448 -0.8052217364311218 -0.15889713168144226 -0.07497258484363556 0.11525636911392212 0.02467346377670765 -0.7222595810890198 -0.8143720030784607 -0.16449210047721863 -0.07721057534217834 0.11637535691261292 -0.29843632224050237 -0.1127524811178746 0.3131426902640358 -2.217968559985246 -2.219515084165243 -0.008443844991157278 0.0 0.0 0.0 0.0 0.0 0.0 -6.744926431191732 -0.08329674455009907 -0.20913494510569594 -0.3423839433002242 -0.10860783054764366 0.5336193778724189 -0.2984301935029837 -0.11275507530515129 0.3131843183387717 -2.217827088832791 -2.2194802147226973 -0.008179933726190749 0.0 0.0 0.0 0.0 0.0 0.0

6665.143999999999 3.5561831257524545e-17 -1.5707963267948966 1.5707963267948968 -1.5707963267948966 -1.5707963267948966 0.0 0.0 0.0 0.0 0.0 0.0 0.0 0.0 0.0 0.0 0.0 0.0 0.0 2.072980291448686e-26 -0.620381750820575 -0.8463465614411209 -0.2525548825603051 -1.439250644349618e-11 0.0 2.378952054656901e-25 -7.1458666999402505 -7.145866699940252 -1.0424175499402515 -5.974879480466363e-11 0.0 1.1984225238848012e-05 -1.5707123915301722 1.5708250999450684 -1.5707481543170374 -1.5708864370929163 7.190534961409867e-05 0.0 0.0 -0.0 0.0 0.0 0.0 0.0269165076315403 -0.7357178330421448 -0.8128469586372375 -0.1678490787744522 -0.0850435346364975 0.11413737386465073 0.02467346377670765 -0.7222595810890198 -0.8143720030784607 -0.16449210047721863 -0.07832957059144974 0.11525636911392212 -0.2984360329029247 -0.11275113302582893 0.31314661341282307 -2.2179282807328735 -2.2194484015253964 -0.008458257955117825 0.0 0.0 0.0 0.0 0.0 0.0 -7.399548289680166 0.13354020958750853 -0.35374257441906437 -0.4069843701949315 -0.19153174879901186 0.5278251631832152 -0.2984301935029837 -0.11275507530515129 0.3131843183387717 -2.217827088832791 -2.2194802147226973 -0.008179933726190749 0.0 0.0 0.0 0.0 0.0 0.0

