mkrssg/UniversalRobots/rtde_client_3.5/examples/roboter/movel_x400_singularity.csv
timestamp target_q_0 target_q_1 target_q_2 target_q_3 target_q_4 target_q_5 target_qd_0 target_qd_1 target_qd_2 target_qd_3 target_qd_4 target_qd_5 target_qdd_0 target_qdd_1 target_qdd_2 target_qdd_3 target_qdd_4 target_qdd_5 target_current_0 target_current_1 target_current_2 target_current_3 target_current_4 target_current_5 target_moment_0 target_moment_1 target_moment_2 target_moment_3 target_moment_4 target_moment_5 actual_q_0 actual_q_1 actual_q_2 actual_q_3 actual_q_4 actual_q_5 actual_qd_0 actual_qd_1 actual_qd_2 actual_qd_3 actual_qd_4 actual_qd_5 actual_current_0 actual_current_1 actual_current_2 actual_current_3 actual_current_4 actual_current_5 joint_control_output_0 joint_control_output_1 joint_control_output_2 joint_control_output_3 joint_control_output_4 joint_control_output_5 actual_TCP_pose_0 actual_TCP_pose_1 actual_TCP_pose_2 actual_TCP_pose_3 actual_TCP_pose_4 actual_TCP_pose_5 actual_TCP_speed_0 actual_TCP_speed_1 actual_TCP_speed_2 actual_TCP_speed_3 actual_TCP_speed_4 actual_TCP_speed_5 actual_TCP_force_0 actual_TCP_force_1 actual_TCP_force_2 actual_TCP_force_3 actual_TCP_force_4 actual_TCP_force_5 target_TCP_pose_0 target_TCP_pose_1 target_TCP_pose_2 target_TCP_pose_3 target_TCP_pose_4 target_TCP_pose_5 target_TCP_speed_0 target_TCP_speed_1 target_TCP_speed_2 target_TCP_speed_3 target_TCP_speed_4 target_TCP_speed_5
3441.712 0.45809493550609603 -1.885529400329105 1.891353982108473 -1.5775092871271372 -1.5641353746118325 0.4580848792769454 0.0 -0.0 0.0 0.0 0.0 0.0 0.0 0.0 0.0 0.0 0.0 0.0 -5.8460745106854385e-18 -0.3114035749645834 -0.846364901061535 -0.2526174815615467 0.0004674078944194274 0.0 -6.708954748022854e-17 -3.5869018288149865 -7.146021544880584 -1.0426759266417487 0.001940388804645364 0.0 0.4580689072608948 -1.8854735533343714 1.891357421875 -1.5774615446673792 -1.5641997496234339 0.4580284655094147 -5.752428114647046e-05 3.834952076431364e-05 -0.0 0.0002636529679875821 4.793690095539205e-05 0.0 -0.008972168900072575 -0.4149627983570099 -0.7625206112861633 -0.08168654888868332 0.13204127550125122 0.006713963113725185 -0.008972168900072575 -0.4172058403491974 -0.7762459516525269 -0.08056755363941193 0.1376362442970276 0.004475975409150124 -0.15001120570503435 -0.1999930867854636 0.2999824411421707 2.2213855550230055 2.2214520340166413 0.00019172519693394488 4.533031014279531e-06 1.2336616706462048e-05 -3.10819565770032e-05 9.07791907398828e-05 -0.0002919483170577847 -5.928228916645642e-05 -6.01732684693743 -8.583305685711592 -0.0705749597942763 0.9046793752337408 0.48832760765430133 0.03127689838640648 -0.1499999999850033 -0.19999999999266432 0.30000000001152166 2.221400000057386 2.2213999999966867 0.0 0.0 0.0 0.0 0.0 0.0 0.0
3441.72 0.45809493550609603 -1.885529400329105 1.891353982108473 -1.5775092871271372 -1.5641353746118325 0.4580848792769454 0.0 -0.0 0.0 0.0 0.0 0.0 0.0 0.0 0.0 0.0 0.0 0.0 -5.8460745106854385e-18 -0.3114035749645834 -0.846364901061535 -0.2526174815615467 0.0004674078944194274 0.0 -6.708954748022854e-17 -3.5869018288149865 -7.146021544880584 -1.0426759266417487 0.001940388804645364 0.0 0.45809289813041687 -1.8854854742633265 1.8913817405700684 -1.5774615446673792 -1.5641878286944788 0.4581007659435272 -5.752428114647046e-05 3.834952076431364e-05 -0.0 0.0002636529679875821 4.793690095539205e-05 0.0 -0.004486084450036287 -0.4149627983570099 -0.7823461294174194 -0.07273460179567337 0.14770719408988953 0.001118993852287531 -0.008972168900072575 -0.4172058403491974 -0.7762459516525269 -0.08056755363941193 0.1376362442970276 0.004475975409150124 -0.15000257144050871 -0.19999586187565538 0.2999778357010866 2.2214284908473143 2.2213875073085894 0.00020414699795248564 4.533190592035818e-06 1.2336703946019538e-05 -3.108149480591786e-05 9.078619405015841e-05 -0.0002919461353889901 -5.9282880665198934e-05 -5.771719978452179 -8.044556965476767 -1.141296139556637 0.8667947660603188 0.6604172299318752 0.00533846213381546 -0.1499999999850033 -0.19999999999266432 0.30000000001152166 2.221400000057386 2.2213999999966867 0.0 0.0 0.0 0.0 0.0 0.0 0.0
3441.728 0.45809493550609603 -1.885529400329105 1.891353982108473 -1.5775092871271372 -1.5641353746118325 0.4580848792769454 0.0 -0.0 0.0 0.0 0.0 0.0 0.0 0.0 0.0 0.0 0.0 0.0 -5.8460745106854385e-18 -0.3114035749645834 -0.846364901061535 -0.2526174815615467 0.0004674078944194274 0.0 -6.708954748022854e-17 -3.5869018288149865 -7.146021544880584 -1.0426759266417487 0.001940388804645364 0.0 0.45812883973121643 -1.8854854742633265 1.891345500946045 -1.5774615446673792 -1.5641515890704554 0.45805245637893677 -5.752428114647046e-05 3.834952076431364e-05 -0.0 0.0002636529679875821 4.793690095539205e-05 0.0 -0.006729126907885075 -0.4149627983570099 -0.7945464849472046 -0.07721057534217834 0.1353982537984848 0.004475975409150124 -0.011215210892260075 -0.4172058403491974 -0.7762459516525269 -0.08056755363941193 0.1376362442970276 0.004475975409150124 -0.14999677162984015 -0.20000531108131037 0.29998865695478927 2.2213186989299323 2.221465246463369 0.00013194057784432682 4.531404584836613e-06 1.2336403046641213e-05 -3.108225553967811e-05 9.079666649308925e-05 -0.00029194288955995207 -5.928115226658394e-05 -5.5068022301192885 -7.780943975571352 -1.5820456913014984 0.7862437683756917 0.6720482188168395 0.020857091714801084 -0.1499999999850033 -0.19999999999266432 0.30000000001152166 2.221400000057386 2.2213999999966867 0.0 0.0 0.0 0.0 0.0 0.0 0.0
3441.736 0.45809493550609603 -1.885529400329105 1.891353982108473 -1.5775092871271372 -1.5641353746118325 0.4580848792769454 0.0 -0.0 0.0 0.0 0.0 0.0 0.0 0.0 0.0 0.0 0.0 0.0 -5.8460745106854385e-18 -0.3114035749645834 -0.846364901061535 -0.2526174815615467 0.0004674078944194274 0.0 -6.708954748022854e-17 -3.5869018288149865 -7.146021544880584 -1.0426759266417487 0.001940388804645364 0.0 0.4580689072608948 -1.88554555574526 1.891369342803955 -1.5774734655963343 -1.5641997496234339 0.4580644369125366 -3.834952076431364e-05 3.834952076431364e-05 -0.0 0.0002636529679875821 4.793690095539205e-05 0.0 -0.004486084450036287 -0.4216919243335724 -0.7899713516235352 -0.07832957059144974 0.14770719408988953 0.007832957431674004 -0.008972168900072575 -0.4172058403491974 -0.7762459516525269 -0.08056755363941193 0.1376362442970276 0.004475975409150124 -0.15000162055101668 -0.19998837672948716 0.2999959609561498 2.2214417412113554 2.2214285842136032 8.462746496352596e-05 8.366110860657277e-06 9.45887559012364e-06 -3.1083109481582824e-05 9.077911194085848e-05 -0.0002919483624452545 -4.010409307526228e-05 -5.923816775560581 -8.040044057336736 -1.358105349674817 0.8697925257051241 0.6412174223912659 0.03639744454457887 -0.1499999999850033 -0.19999999999266432 0.30000000001152166 2.221400000057386 2.2213999999966867 0.0 0.0 0.0 0.0 0.0 0.0 0.0
3441.7439999999997 0.45809493550609603 -1.885529400329105 1.891353982108473 -1.5775092871271372 -1.5641353746118325 0.4580848792769454 0.0 -0.0 0.0 0.0 0.0 0.0 0.0 0.0 0.0 0.0 0.0 0.0 -5.8460745106854385e-18 -0.3114035749645834 -0.846364901061535 -0.2526174815615467 0.0004674078944194274 0.0 -6.708954748022854e-17 -3.5869018288149865 -7.146021544880584 -1.0426759266417487 0.001940388804645364 0.0 0.4580689072608948 -1.8854616324054163 1.8913097381591797 -1.5774615446673792 -1.5641635099994105 0.4580404460430145 -3.834952076431364e-05 3.834952076431364e-05 -0.0 0.0002636529679875821 4.793690095539205e-05 0.0 -0.006729126907885075 -0.4127197563648224 -0.7930214405059814 -0.0850435346364975 0.14099322259426117 0.007832957431674004 -0.008972168900072575 -0.4172058403491974 -0.7762459516525269 -0.08168654888868332 0.1376362442970276 0.004475975409150124 -0.15001503413741446 -0.199998358295462 0.29999402125014724 2.221382510520728 2.2214228144790535 0.00012022694217089196 8.366522478153394e-06 9.459783556195129e-06 -3.108281144639126e-05 9.077917829814916e-05 -0.0002919483319508452 -4.010582292277812e-05 -5.443767833156372 -7.59193355205488 -1.342776417080274 0.8191629573815056 0.6379020626346149 0.03642433377741855 -0.1499999999850033 -0.19999999999266432 0.30000000001152166 2.221400000057386 2.2213999999966867 0.0 0.0 0.0 0.0 0.0 0.0 0.0
3441.752 0.45809493550609603 -1.885529400329105 1.891353982108473 -1.5775092871271372 -1.5641353746118325 0.4580848792769454 0.0 -0.0 0.0 0.0 0.0 0.0 0.0 0.0 0.0 0.0 0.0 0.0 -5.8460745106854385e-18 -0.3114035749645834 -0.846364901061535 -0.2526174815615467 0.0004674078944194274 0.0 -6.708954748022854e-17 -3.5869018288149865 -7.146021544880584 -1.0426759266417487 0.001940388804645364 0.0 0.45809289813041687 -1.8854854742633265 1.8913216590881348 -1.5774853865252894 -1.5641997496234339 0.45808878540992737 -3.834952076431364e-05 3.834952076431364e-05 -0.0 0.00023968450841493905 4.793690095539205e-05 0.0 -0.004486084450036287 -0.4172058403491974 -0.7716708183288574 -0.07832957059144974 0.13987423479557037 0.006713963113725185 -0.011215210892260075 -0.4172058403491974 -0.7762459516525269 -0.08168654888868332 0.1376362442970276 0.008951950818300247 -0.15000924891610426 -0.19999815237546326 0.29999781933781394 2.2214418155462865 2.2214282746477725 8.533034315431305e-05 6.603097276175874e-06 8.573206617866763e-06 -2.9035984116445364e-05 8.016592768368438e-05 -0.00027045960983402206 -3.994493343863632e-05 -6.069712780456031 -8.2691522675035 -0.5478463061343387 0.8865065583317884 0.5509002765156651 0.03120460217932138 -0.1499999999850033 -0.19999999999266432 0.30000000001152166 2.221400000057386 2.2213999999966867 0.0 0.0 0.0 0.0 0.0 0.0 0.0
3441.7599999999998 0.45809493550609603 -1.885529400329105 1.891353982108473 -1.5775092871271372 -1.5641353746118325 0.4580848792769454 0.0 -0.0 0.0 0.0 0.0 0.0 0.0 0.0 0.0 0.0 0.0 0.0 -5.8460745106854385e-18 -0.3114035749645834 -0.846364901061535 -0.2526174815615467 0.0004674078944194274 0.0 -6.708954748022854e-17 -3.5869018288149865 -7.146021544880584 -1.0426759266417487 0.001940388804645364 0.0 0.4581168591976166 -1.8854735533343714 1.8913335800170898 -1.5775092283831995 -1.5641635099994105 0.4580404460430145 -3.834952076431364e-05 3.834952076431364e-05 -0.0 0.00023968450841493905 4.793690095539205e-05 0.0 -0.008972168900072575 -0.4216919243335724 -0.7869212627410889 -0.0839245393872261 0.1353982537984848 0.008951950818300247 -0.008972168900072575 -0.4172058403491974 -0.7762459516525269 -0.08168654888868332 0.1376362442970276 0.004475975409150124 -0.15000558379746684 -0.2000056287965321 0.29999363285889513 2.2213370823870138 2.221484445327352 6.701539272412332e-05 6.6028830816667046e-06 8.573478769228289e-06 -2.9035946265826278e-05 8.01724315253601e-05 -0.0002704576826744679 -3.9944928005757325e-05 -5.846091124611403 -8.28712228619976 -1.102264457227854 0.8599020769135018 0.5792449564640166 0.04158167775618719 -0.1499999999850033 -0.19999999999266432 0.30000000001152166 2.221400000057386 2.2213999999966867 0.0 0.0 0.0 0.0 0.0 0.0 0.0
3441.768 0.45809493550609603 -1.885529400329105 1.891353982108473 -1.5775092871271372 -1.5641353746118325 0.4580848792769454 0.0 -0.0 0.0 0.0 0.0 0.0 0.0 0.0 0.0 0.0 0.0 0.0 -5.8460745106854385e-18 -0.3114035749645834 -0.846364901061535 -0.2526174815615467 0.0004674078944194274 0.0 -6.708954748022854e-17 -3.5869018288149865 -7.146021544880584 -1.0426759266417487 0.001940388804645364 0.0 0.45804494619369507 -1.8855097929583948 1.8913817405700684 -1.5774496237384241 -1.5641997496234339 0.4580764174461365 -3.834952076431364e-05 3.834952076431364e-05 -0.0 0.00023968450841493905 4.793690095539205e-05 0.0 -0.006729126907885075 -0.4149627983570099 -0.7548953890800476 -0.08056755363941193 0.13875523209571838 0.0055949692614376545 -0.008972168900072575 -0.4172058403491974 -0.7762459516525269 -0.08168654888868332 0.1376362442970276 0.0055949692614376545 -0.15000848648271745 -0.19998576120083222 0.29998224335541784 2.2214655794619143 2.221372029256209 0.00019173195437714578 6.605559501553242e-06 8.573396625742284e-06 -2.9034128991700032e-05 8.015295558980137e-05 -0.0002704634319568286 -3.9948354581868734e-05 -6.205336432589295 -8.675999305064948 0.2419838456713107 0.9498214303059546 0.4674053559935669 0.02608928068567363 -0.1499999999850033 -0.19999999999266432 0.30000000001152166 2.221400000057386 2.2213999999966867 0.0 0.0 0.0 0.0 0.0 0.0 0.0
3441.776 0.45809493550609603 -1.885529400329105 1.891353982108473 -1.5775092871271372 -1.5641353746118325 0.4580848792769454 0.0 -0.0 0.0 0.0 0.0 0.0 0.0 0.0 0.0 0.0 0.0 0.0 -5.8460745106854385e-18 -0.3114035749645834 -0.846364901061535 -0.2526174815615467 0.0004674078944194274 0.0 -6.708954748022854e-17 -3.5869018288149865 -7.146021544880584 -1.0426759266417487 0.001940388804645364 0.0 0.4581048786640167 -1.8854854742633265 1.8913216590881348 -1.5774853865252894 -1.5641878286944788 0.45808878540992737 -3.834952076431364e-05 3.834952076431364e-05 -0.0 0.00021571606339421123 4.793690095539205e-05 0.0 -0.008972168900072575 -0.4104767143726349 -0.7823461294174194 -0.09287648648023605 0.13204127550125122 0.001118993852287531 -0.01345825381577015 -0.4172058403491974 -0.7762459516525269 -0.08168654888868332 0.1376362442970276 0.0033569815568625927 -0.1500064186540079 -0.20000083012885242 0.29999781828018746 2.2214205147825767 2.221433612480996 7.930966661861573e-05 4.8404772763400005e-06 7.686924297563704e-06 -2.6988291388128476e-05 6.95486802924015e-05 -0.0002489722289903479 -3.9785755072907946e-05 -5.392200205391987 -7.923956763344172 -0.7006431919879936 0.8493068146867043 0.5419934534691793 0.005245304579736221 -0.1499999999850033 -0.19999999999266432 0.30000000001152166 2.221400000057386 2.2213999999966867 0.0 0.0 0.0 0.0 0.0 0.0 0.0
3441.7839999999997 0.45809493550609603 -1.885529400329105 1.891353982108473 -1.5775092871271372 -1.5641353746118325 0.4580848792769454 0.0 -0.0 0.0 0.0 0.0 0.0 0.0 0.0 0.0 0.0 0.0 0.0 -5.8460745106854385e-18 -0.3114035749645834 -0.846364901061535 -0.2526174815615467 0.0004674078944194274 0.0 -6.708954748022854e-17 -3.5869018288149865 -7.146021544880584 -1.0426759266417487 0.001940388804645364 0.0 0.45804494619369507 -1.8854616324054163 1.8913216590881348 -1.5774734655963343 -1.564211670552389 0.45808878540992737 -3.834952076431364e-05 3.834952076431364e-05 -0.0 0.00021571606339421123 4.793690095539205e-05 0.0 -0.011215210892260075 -0.4239349663257599 -0.7609955668449402 -0.06937761604785919 0.1521831601858139 0.01007094420492649 -0.006729126907885075 -0.4172058403491974 -0.7762459516525269 -0.08168654888868332 0.1376362442970276 0.008951950818300247 -0.1500215658618854 -0.19999119268943505 0.29999148319221025 2.221495064317376 2.221374736651376 0.00014454931076982247 4.841774341106119e-06 7.687153838467477e-06 -2.698784793424437e-05 6.953377996919727e-05 -0.0002489763804700925 -3.9787464336477583e-05 -6.413079557094198 -9.19894365694778 -0.2755534628558751 1.0066678521467736 0.5638489468305267 0.046825948397570434 -0.1499999999850033 -0.19999999999266432 0.30000000001152166 2.221400000057386 2.2213999999966867 0.0 0.0 0.0 0.0 0.0 0.0 0.0
3441.792 0.45809493550609603 -1.885529400329105 1.891353982108473 -1.5775092871271372 -1.5641353746118325 0.4580848792769454 0.0 -0.0 0.0 0.0 0.0 0.0 0.0 0.0 0.0 0.0 0.0 0.0 -5.8460745106854385e-18 -0.3114035749645834 -0.846364901061535 -0.2526174815615467 0.0004674078944194274 0.0 -6.708954748022854e-17 -3.5869018288149865 -7.146021544880584 -1.0426759266417487 0.001940388804645364 0.0 0.4581168591976166 -1.8854497114764612 1.891357421875 -1.5774853865252894 -1.5641878286944788 0.4580284655094147 -3.834952076431364e-05 3.834952076431364e-05 -0.0 0.00021571606339421123 4.793690095539205e-05 0.0 -0.004486084450036287 -0.4149627983570099 -0.7823461294174194 -0.09063850343227386 0.13875523209571838 0.006713963113725185 -0.008972168900072575 -0.4172058403491974 -0.7762459516525269 -0.08168654888868332 0.1376362442970276 0.0055949692614376545 -0.15000610352134144 -0.20000359745298765 0.299979157999962 2.2213241426591486 2.221497452908611 0.0001856937572792361 4.8421729891425406e-06 7.687958601194145e-06 -2.6987109475171235e-05 6.95517140770468e-05 -0.00024897136111947006 -3.9789169044965554e-05 -5.737608161326377 -7.826284401126978 -0.7509350088054045 0.8628437835749917 0.5404794601037467 0.03127442643737347 -0.1499999999850033 -0.19999999999266432 0.30000000001152166 2.221400000057386 2.2213999999966867 0.0 0.0 0.0 0.0 0.0 0.0 0.0
3441.7999999999997 0.45809493550609603 -1.885529400329105 1.891353982108473 -1.5775092871271372 -1.5641353746118325 0.4580848792769454 0.0 -0.0 0.0 0.0 0.0 0.0 0.0 0.0 0.0 0.0 0.0 0.0 -5.8460745106854385e-18 -0.3114035749645834 -0.846364901061535 -0.2526174815615467 0.0004674078944194274 0.0 -6.708954748022854e-17 -3.5869018288149865 -7.146021544880584 -1.0426759266417487 0.001940388804645364 0.0 0.4581048786640167 -1.8854497114764612 1.8913335800170898 -1.5774973074542444 -1.5641878286944788 0.4581007659435272 -3.834952076431364e-05 3.834952076431364e-05 -0.0 0.00021571606339421123 4.793690095539205e-05 0.0 -0.01794433780014515 -0.4127197563648224 -0.7731958627700806 -0.09287648648023605 0.12980328500270844 0.001118993852287531 -0.01345825381577015 -0.4239349663257599 -0.7762459516525269 -0.08168654888868332 0.1376362442970276 0.002237987704575062 -0.15001115821074043 -0.20000314973249012 0.29998729770012705 2.2214256936864176 2.221412156352725 0.00013249732472329228 4.841341453080046e-06 7.68757587189506e-06 -2.6987858735686968e-05 6.954872285085272e-05 -0.0002489722075185476 -3.97874594485079e-05 -5.408823942604834 -8.715262110928053 -0.2993413492562109 0.9204487583911133 0.5048775030318983 0.005285587336634712 -0.1499999999850033 -0.19999999999266432 0.30000000001152166 2.221400000057386 2.2213999999966867 0.0 0.0 0.0 0.0 0.0 0.0 0.0
3441.808 0.45809493550609603 -1.885529400329105 1.891353982108473 -1.5775092871271372 -1.5641353746118325 0.4580848792769454 0.0 -0.0 0.0 0.0 0.0 0.0 0.0 0.0 0.0 0.0 0.0 0.0 -5.8460745106854385e-18 -0.3114035749645834 -0.846364901061535 -0.2526174815615467 0.0004674078944194274 0.0 -6.708954748022854e-17 -3.5869018288149865 -7.146021544880584 -1.0426759266417487 0.001940388804645364 0.0 0.458080917596817 -1.88552171388735 1.8913216590881348 -1.5774615446673792 -1.564211670552389 0.4580404460430145 -3.834952076431364e-05 3.834952076431364e-05 -0.0 0.0001917476038215682 4.793690095539205e-05 0.0 0.0 -0.4149627983570099 -0.7823461294174194 -0.07944856584072113 0.14546920359134674 0.01007094420492649 -0.006729126907885075 -0.4172058403491974 -0.7762459516525269 -0.08280554413795471 0.1376362442970276 0.007832957431674004 -0.15000550844546207 -0.1999922288396657 0.3000038679860977 -2.2214036012279745 -2.221470551124091 -7.292210487191358e-05 3.0779606953773822e-06 6.800093973927254e-06 -2.4940652705530373e-05 5.89226997051485e-05 -0.0002274872189652437 -3.962598913724225e-05 -5.93680867387053 -7.603376851352633 -0.9925885254646009 0.8404866503600248 0.6030126035095204 0.04676718839241465 -0.1499999999850033 -0.19999999999266432 0.30000000001152166 2.221400000057386 2.2213999999966867 0.0 0.0 0.0 0.0 0.0 0.0 0.0
3441.816 0.45809493550609603 -1.885529400329105 1.891353982108473 -1.5775092871271372 -1.5641353746118325 0.4580848792769454 0.0 -0.0 0.0 0.0 0.0 0.0 0.0 0.0 0.0 0.0 0.0 0.0 -5.8460745106854385e-18 -0.3114035749645834 -0.846364901061535 -0.2526174815615467 0.0004674078944194274 0.0 -6.708954748022854e-17 -3.5869018288149865 -7.146021544880584 -1.0426759266417487 0.001940388804645364 0.0 0.458080917596817 -1.8854616324054163 1.891345500946045 -1.5774615446673792 -1.5641754309283655 0.45805245637893677 -3.834952076431364e-05 3.834952076431364e-05 -0.0 0.0001917476038215682 4.793690095539205e-05 0.0 -0.006729126907885075 -0.4059906303882599 -0.7686207294464111 -0.07944856584072113 0.12085133790969849 0.001118993852287531 -0.008972168900072575 -0.4149627983570099 -0.7762459516525269 -0.08280554413795471 0.1376362442970276 0.0033569815568625927 -0.15001039352453835 -0.19999791670218048 0.29998334027662726 2.2213825232641176 2.2214225037087107 0.0001794417273342769 3.079679593469196e-06 6.801233672406247e-06 -2.4939450185819046e-05 5.89227608691908e-05 -0.00022748718011462285 -3.9629996561802775e-05 -5.589199963936191 -7.993471144505625 -0.38440754491882445 0.7928180842912541 0.534151550487388 0.005308471989809134 -0.1499999999850033 -0.19999999999266432 0.30000000001152166 2.221400000057386 2.2213999999966867 0.0 0.0 0.0 0.0 0.0 0.0 0.0
3441.824 0.45809493550609603 -1.885529400329105 1.891353982108473 -1.5775092871271372 -1.5641353746118325 0.4580848792769454 0.0 -0.0 0.0 0.0 0.0 0.0 0.0 0.0 0.0 0.0 0.0 0.0 -5.8460745106854385e-18 -0.3114035749645834 -0.846364901061535 -0.2526174815615467 0.0004674078944194274 0.0 -6.708954748022854e-17 -3.5869018288149865 -7.146021544880584 -1.0426759266417487 0.001940388804645364 0.0 0.45809289813041687 -1.8854735533343714 1.8913216590881348 -1.5774973074542444 -1.5641997496234339 0.4580404460430145 -3.834952076431364e-05 3.834952076431364e-05 -0.0 0.0001917476038215682 4.793690095539205e-05 0.0 -0.008972168900072575 -0.4194488823413849 -0.7747209072113037 -0.08056755363941193 0.13987423479557037 0.001118993852287531 -0.008972168900072575 -0.4149627983570099 -0.7762459516525269 -0.0839245393872261 0.1376362442970276 0.004475975409150124 -0.1500117101639749 -0.19999937086882283 0.29999617834396186 2.2213880431000184 2.221482028381665 8.532446049803896e-05 3.0781194529163216e-06 6.8006830388375644e-06 -2.4940796393709322e-05 5.892547327483908e-05 -0.00022748649883009696 -3.962657436565337e-05 -5.922681122604699 -8.630842143849115 -0.6363532303803651 0.9175379864895175 0.5604529154196224 0.005250271142320888 -0.1499999999850033 -0.19999999999266432 0.30000000001152166 2.221400000057386 2.2213999999966867 0.0 0.0 0.0 0.0 0.0 0.0 0.0
3441.832 0.45809493550609603 -1.885529400329105 1.891353982108473 -1.5775092871271372 -1.5641353746118325 0.4580848792769454 0.0 -0.0 0.0 0.0 0.0 0.0 0.0 0.0 0.0 0.0 0.0 0.0 -5.8460745106854385e-18 -0.3114035749645834 -0.846364901061535 -0.2526174815615467 0.0004674078944194274 0.0 -6.708954748022854e-17 -3.5869018288149865 -7.146021544880584 -1.0426759266417487 0.001940388804645364 0.0 0.4580689072608948 -1.8855097929583948 1.8913335800170898 -1.5774372259723108 -1.5641754309283655 0.4580284655094147 -3.834952076431364e-05 3.834952076431364e-05 -0.0 0.0001917476038215682 4.793690095539205e-05 0.0 -0.011215210892260075 -0.4284210503101349 -0.7625206112861633 -0.08280554413795471 0.1353982537984848 0.0055949692614376545 -0.01345825381577015 -0.4216919243335724 -0.7762459516525269 -0.08616252988576889 0.1376362442970276 0.006713963113725185 -0.150005496306002 -0.19999252846611063 0.29999556721709275 2.22137742739845 2.221443894220052 0.00012626001835587194 3.078952902093665e-06 6.800449392350363e-06 -2.4939702829022645e-05 5.891997798516363e-05 -0.0002274879096666977 -3.9628293410565044e-05 -6.448651604287372 -9.385883940791604 -0.05268063443384423 0.9878371540532619 0.45352845433647343 0.026054411382139576 -0.1499999999850033 -0.19999999999266432 0.30000000001152166 2.221400000057386 2.2213999999966867 0.0 0.0 0.0 0.0 0.0 0.0 0.0
3441.8399999999997 0.45809493550609603 -1.885529400329105 1.891353982108473 -1.5775092871271372 -1.5641353746118325 0.4580848792769454 0.0 -0.0 0.0 0.0 0.0 0.0 0.0 0.0 0.0 0.0 0.0 0.0 -5.8460745106854385e-18 -0.3114035749645834 -0.846364901061535 -0.2526174815615467 0.0004674078944194274 0.0 -6.708954748022854e-17 -3.5869018288149865 -7.146021544880584 -1.0426759266417487 0.001940388804645364 0.0 0.4581168591976166 -1.8854854742633265 1.891345500946045 -1.5774853865252894 -1.5641635099994105 0.4581127464771271 -3.834952076431364e-05 3.834952076431364e-05 -0.0 0.0001917476038215682 4.793690095539205e-05 0.0 -0.01794433780014515 -0.4127197563648224 -0.7945464849472046 -0.0850435346364975 0.14211222529411316 0.0055949692614376545 -0.01345825381577015 -0.4127197563648224 -0.7762459516525269 -0.08840051293373108 0.1376362442970276 0.0055949692614376545 -0.1500013551952824 -0.20000351516964895 0.299990694738178 2.2214121947682113 2.221398529221191 0.00010249104265504968 3.078472137230048e-06 6.800805222829835e-06 -2.4940095666305747e-05 5.893092061089338e-05 -0.00022748508032956102 -3.962771529485403e-05 -5.108392813000037 -8.17694318643848 -1.412178847137377 0.8694710964811421 0.6728835062251054 0.026034285984504444 -0.1499999999850033 -0.19999999999266432 0.30000000001152166 2.221400000057386 2.2213999999966867 0.0 0.0 0.0 0.0 0.0 0.0 0.0
3441.848 0.45809493550609603 -1.885529400329105 1.891353982108473 -1.5775092871271372 -1.5641353746118325 0.4580848792769454 0.0 -0.0 0.0 0.0 0.0 0.0 0.0 0.0 0.0 0.0 0.0 0.0 -5.8460745106854385e-18 -0.3114035749645834 -0.846364901061535 -0.2526174815615467 0.0004674078944194274 0.0 -6.708954748022854e-17 -3.5869018288149865 -7.146021544880584 -1.0426759266417487 0.001940388804645364 0.0 0.45804494619369507 -1.88552171388735 1.8913335800170898 -1.5774734655963343 -1.5641515890704554 0.4580764174461365 -3.834952076431364e-05 3.834952076431364e-05 -0.0 0.00016777915880084038 4.793690095539205e-05 0.0 -0.008972168900072575 -0.4172058403491974 -0.7747209072113037 -0.08168654888868332 0.1376362442970276 0.0033569815568625927 -0.008972168900072575 -0.4216919243335724 -0.7762459516525269 -0.09063850343227386 0.1376362442970276 0.0055949692614376545 -0.15001050029854404 -0.19999125770230905 0.30000132040861716 2.2214519571072717 2.2213592934441473 4.256976805622209e-05 1.3156061043747937e-06 5.913712795337435e-06 -2.2892745265440154e-05 4.8295326869263065e-05 -0.00020600227833814683 -3.946680808020753e-05 -5.854050689656219 -8.47000942112512 -0.6102887093597281 0.8982828926793713 0.5548391178579224 0.015613772199867853 -0.1499999999850033 -0.19999999999266432 0.30000000001152166 2.221400000057386 2.2213999999966867 0.0 0.0 0.0 0.0 0.0 0.0 0.0
3441.8559999999998 0.45809493550609603 -1.885529400329105 1.891353982108473 -1.5775092871271372 -1.5641353746118325 0.4580848792769454 0.0 -0.0 0.0 0.0 0.0 0.0 0.0 0.0 0.0 0.0 0.0 0.0 -5.8460745106854385e-18 -0.3114035749645834 -0.846364901061535 -0.2526174815615467 0.0004674078944194274 0.0 -6.708954748022854e-17 -3.5869018288149865 -7.146021544880584 -1.0426759266417487 0.001940388804645364 0.0 0.458080917596817 -1.8854854742633265 1.8912978172302246 -1.5775211493121546 -1.5642245451556605 0.45805245637893677 -3.834952076431364e-05 3.834952076431364e-05 -0.0 0.00016777915880084038 4.793690095539205e-05 0.0 -0.01570129580795765 -0.4194488823413849 -0.77777099609375 -0.0839245393872261 0.13092228770256042 0.001118993852287531 -0.011215210892260075 -0.4172058403491974 -0.7762459516525269 -0.09287648648023605 0.1376362442970276 0.002237987704575062 -0.15001695918162947 -0.19999675425385746 0.3000079984134464 -2.221397154009723 -2.2214383745458077 -9.1817507980953e-06 1.3145566342302713e-06 5.913879519181169e-06 -2.2894155262512443e-05 4.830276157941804e-05 -0.00020600055057138318 -3.946454471600571e-05 -5.6800955989808015 -8.884601210778392 -0.6984940038648739 0.9056890609103576 0.552666431294422 0.005188864569204664 -0.1499999999850033 -0.19999999999266432 0.30000000001152166 2.221400000057386 2.2213999999966867 0.0 0.0 0.0 0.0 0.0 0.0 0.0
3441.864 0.45809493550609603 -1.885529400329105 1.891353982108473 -1.5775092871271372 -1.5641353746118325 0.4580848792769454 0.0 -0.0 0.0 0.0 0.0 0.0 0.0 0.0 0.0 0.0 0.0 0.0 -5.8460745106854385e-18 -0.3114035749645834 -0.846364901061535 -0.2526174815615467 0.0004674078944194274 0.0 -6.708954748022854e-17 -3.5869018288149865 -7.146021544880584 -1.0426759266417487 0.001940388804645364 0.0 0.4580569267272949 -1.8854854742633265 1.8913216590881348 -1.5774496237384241 -1.5641396681415003 0.4581007659435272 -3.834952076431364e-05 3.834952076431364e-05 -0.0 0.00016777915880084038 4.793690095539205e-05 0.0 -0.008972168900072575 -0.4104767143726349 -0.7930214405059814 -0.1007094457745552 0.14099322259426117 0.01007094420492649 -0.006729126907885075 -0.4127197563648224 -0.7762459516525269 -0.09511447697877884 0.1376362442970276 0.007832957431674004 -0.150011625172612 -0.1999958720234408 0.2999947589318511 2.2214469411883466 2.2213264755495863 0.00010819268165599002 1.3162716040940564e-06 5.9142779720917375e-06 -2.289220227329251e-05 4.829781405030346e-05 -0.00020600168183082545 -3.946911256264953e-05 -5.248183779063724 -7.454452792261116 -1.0007568335627781 0.852837122339342 0.562710019799023 0.046805676212373644 -0.1499999999850033 -0.19999999999266432 0.30000000001152166 2.221400000057386 2.2213999999966867 0.0 0.0 0.0 0.0 0.0 0.0 0.0
3441.872 0.45809493550609603 -1.885529400329105 1.891353982108473 -1.5775092871271372 -1.5641353746118325 0.4580848792769454 0.0 -0.0 0.0 0.0 0.0 0.0 0.0 0.0 0.0 0.0 0.0 0.0 -5.8460745106854385e-18 -0.3114035749645834 -0.846364901061535 -0.2526174815615467 0.0004674078944194274 0.0 -6.708954748022854e-17 -3.5869018288149865 -7.146021544880584 -1.0426759266417487 0.001940388804645364 0.0 0.458080917596817 -1.8854973951922815 1.891357421875 -1.5774615446673792 -1.5642245451556605 0.45808878540992737 -3.834952076431364e-05 3.834952076431364e-05 -0.0 0.00016777915880084038 2.3968450477696024e-05 0.0 -0.006729126907885075 -0.4149627983570099 -0.7869212627410889 -0.09847146272659302 0.1376362442970276 0.006713963113725185 -0.008972168900072575 -0.4172058403491974 -0.7762459516525269 -0.09735246747732162 0.1376362442970276 0.0055949692614376545 -0.15000653765735936 -0.19999150165293494 0.29998776204766375 2.221457826949172 2.2214170045966903 0.00016878957262753556 4.4393411318184974e-07 7.685021068751544e-06 -2.2890039190011777e-05 6.98004792567562e-05 -0.00019540173137752763 -3.9490227749101204e-05 -5.561880258791692 -7.784056923364855 -0.7824192450946423 0.8695843225928288 0.5225271883798545 0.03125323215284116 -0.1499999999850033 -0.19999999999266432 0.30000000001152166 2.221400000057386 2.2213999999966867 0.0 0.0 0.0 0.0 0.0 0.0 0.0
3441.8799999999997 0.45809493550609603 -1.885529400329105 1.891353982108473 -1.5775092871271372 -1.5641353746118325 0.4580848792769454 0.0 -0.0 0.0 0.0 0.0 0.0 0.0 0.0 0.0 0.0 0.0 0.0 -5.8460745106854385e-18 -0.3114035749645834 -0.846364901061535 -0.2526174815615467 0.0004674078944194274 0.0 -6.708954748022854e-17 -3.5869018288149865 -7.146021544880584 -1.0426759266417487 0.001940388804645364 0.0 0.458080917596817 -1.8854735533343714 1.8913097381591797 -1.5774734655963343 -1.5641878286944788 0.45808878540992737 -3.834952076431364e-05 3.834952076431364e-05 -0.0 0.00016777915880084038 2.3968450477696024e-05 0.0 -0.004486084450036287 -0.4239349663257599 -0.7762459516525269 -0.09847146272659302 0.14323121309280396 0.004475975409150124 -0.008972168900072575 -0.4172058403491974 -0.7762459516525269 -0.09959045052528381 0.1376362442970276 0.0055949692614376545 -0.1500128097027744 -0.19999802678768688 0.2999977011829243 2.2214444793744947 2.221404240553786 9.704540282956038e-05 4.4287853370862525e-07 7.684868189150882e-06 -2.2890787441302684e-05 6.980048110299092e-05 -0.00019540173656874206 -3.948937400545783e-05 -6.124452415026713 -8.411052729245991 -0.3151444241437532 0.9621936275422232 0.45186832760773216 0.020835327147511122 -0.1499999999850033 -0.19999999999266432 0.30000000001152166 2.221400000057386 2.2213999999966867 0.0 0.0 0.0 0.0 0.0 0.0 0.0
3441.888 0.45809493550609603 -1.885529400329105 1.891353982108473 -1.5775092871271372 -1.5641353746118325 0.4580848792769454 0.0 -0.0 0.0 0.0 0.0 0.0 0.0 0.0 0.0 0.0 0.0 0.0 -5.8460745106854385e-18 -0.3114035749645834 -0.846364901061535 -0.2526174815615467 0.0004674078944194274 0.0 -6.708954748022854e-17 -3.5869018288149865 -7.146021544880584 -1.0426759266417487 0.001940388804645364 0.0 0.458080917596817 -1.8854616324054163 1.8912978172302246 -1.5774615446673792 -1.5641754309283655 0.4580404460430145 -3.834952076431364e-05 3.834952076431364e-05 -0.0 0.00016777915880084038 2.3968450477696024e-05 0.0 -0.02018737979233265 -0.4149627983570099 -0.7609955668449402 -0.1186133474111557 0.12756529450416565 0.0055949692614376545 -0.01345825381577015 -0.4172058403491974 -0.7762459516525269 -0.1018284410238266 0.1376362442970276 0.002237987704575062 -0.15001395704859818 -0.19999973362800383 0.2999975829768574 2.221379824697385 2.221446884327125 0.0001085180910189297 4.4296965642704847e-07 7.684988873969792e-06 -2.2890666950299384e-05 6.980048490070939e-05 -0.00019540173338360674 -3.9489659594353976e-05 -5.57050803543469 -8.98456732328655 0.7990837594242782 1.0275016230740996 0.2957201546925764 0.026041240295370985 -0.1499999999850033 -0.19999999999266432 0.30000000001152166 2.221400000057386 2.2213999999966867 0.0 0.0 0.0 0.0 0.0 0.0 0.0
3441.8959999999997 0.45809493550609603 -1.885529400329105 1.891353982108473 -1.5775092871271372 -1.5641353746118325 0.4580848792769454 0.0 -0.0 0.0 0.0 0.0 0.0 0.0 0.0 0.0 0.0 0.0 0.0 -5.8460745106854385e-18 -0.3114035749645834 -0.846364901061535 -0.2526174815615467 0.0004674078944194274 0.0 -6.708954748022854e-17 -3.5869018288149865 -7.146021544880584 -1.0426759266417487 0.001940388804645364 0.0 0.458080917596817 -1.8854854742633265 1.891357421875 -1.5774372259723108 -1.5642245451556605 0.4580404460430145 -3.834952076431364e-05 3.834952076431364e-05 -0.0 0.00014381069922819734 2.3968450477696024e-05 0.0 -0.004486084450036287 -0.4149627983570099 -0.7609955668449402 -0.10406643152236938 0.14323121309280396 0.002237987704575062 -0.011215210892260075 -0.4172058403491974 -0.7762459516525269 -0.10406643152236938 0.1376362442970276 0.0033569815568625927 -0.15000633381574077 -0.1999913799316748 0.2999830252997821 2.2213995082538105 2.221465678643121 0.000222702348007812 -1.3180912765284652e-06 6.798943335693582e-06 -2.0842048187740437e-05 5.9180504992754095e-05 -0.0001739150363055279 -3.933191669520203e-05 -6.011577967932003 -8.329386453379414 0.48382670335705424 0.9970178195571168 0.37670272024836754 0.010525630027075699 -0.1499999999850033 -0.19999999999266432 0.30000000001152166 2.221400000057386 2.2213999999966867 0.0 0.0 0.0 0.0 0.0 0.0 0.0
3441.904 0.45809493550609603 -1.885529400329105 1.891353982108473 -1.5775092871271372 -1.5641353746118325 0.4580848792769454 0.0 -0.0 0.0 0.0 0.0 0.0 0.0 0.0 0.0 0.0 0.0 0.0 -5.8460745106854385e-18 -0.3114035749645834 -0.846364901061535 -0.2526174815615467 0.0004674078944194274 0.0 -6.708954748022854e-17 -3.5869018288149865 -7.146021544880584 -1.0426759266417487 0.001940388804645364 0.0 0.4581168591976166 -1.8854854742633265 1.8913216590881348 -1.5774372259723108 -1.5641635099994105 0.4580644369125366 -3.834952076431364e-05 3.834952076431364e-05 -0.0 0.00014381069922819734 2.3968450477696024e-05 0.0 -0.01345825381577015 -0.4239349663257599 -0.7762459516525269 -0.10854240506887436 0.14323121309280396 0.0033569815568625927 -0.011215210892260075 -0.4172058403491974 -0.7762459516525269 -0.10742340981960297 0.1376362442970276 0.0033569815568625927 -0.14999959532605942 -0.20000264259284642 0.2999937018547512 2.221353293082438 2.22144643031768 0.00013868153514646616 -1.3193263458679851e-06 6.798537485071894e-06 -2.0842466790347377e-05 5.9186744510720176e-05 -0.00017391291826212576 -3.9331064261486066e-05 -5.835977216921209 -8.831287880470414 -0.09745329372563272 1.0257085445515275 0.41688850667352095 0.015689007587364776 -0.1499999999850033 -0.19999999999266432 0.30000000001152166 2.221400000057386 2.2213999999966867 0.0 0.0 0.0 0.0 0.0 0.0 0.0
3441.912 0.45809493550609603 -1.885529400329105 1.891353982108473 -1.5775092871271372 -1.5641353746118325 0.4580848792769454 0.0 -0.0 0.0 0.0 0.0 0.0 0.0 0.0 0.0 0.0 0.0 0.0 -5.8460745106854385e-18 -0.3114035749645834 -0.846364901061535 -0.2526174815615467 0.0004674078944194274 0.0 -6.708954748022854e-17 -3.5869018288149865 -7.146021544880584 -1.0426759266417487 0.001940388804645364 0.0 0.4581048786640167 -1.8854854742633265 1.891369342803955 -1.5774615446673792 -1.5641277472125452 0.4580764174461365 -3.834952076431364e-05 3.834952076431364e-05 -0.0 0.00014381069922819734 2.3968450477696024e-05 0.0 -0.006729126907885075 -0.4127197563648224 -0.7899713516235352 -0.12197033315896988 0.1376362442970276 0.0033569815568625927 -0.011215210892260075 -0.4172058403491974 -0.7762459516525269 -0.10966140031814575 0.1376362442970276 0.004475975409150124 -0.14999891377794342 -0.20000256955231913 0.29998153361947427 2.2213506199710533 2.221390560579832 0.0001553601644771563 -1.318636932589351e-06 6.7987669195990395e-06 -2.08420433788856e-05 5.9184678055571795e-05 -0.00017391361844739016 -3.933161797156361e-05 -5.280634555163055 -7.513541461260522 -0.40524140667796243 0.9095157666658119 0.4193561932952466 0.0157012972697152 -0.1499999999850033 -0.19999999999266432 0.30000000001152166 2.221400000057386 2.2213999999966867 0.0 0.0 0.0 0.0 0.0 0.0 0.0
3441.9199999999996 0.45809493550609603 -1.885529400329105 1.891353982108473 -1.5775092871271372 -1.5641353746118325 0.4580848792769454 0.0 -0.0 0.0 0.0 0.0 0.0 0.0 0.0 0.0 0.0 0.0 0.0 -5.8460745106854385e-18 -0.3114035749645834 -0.846364901061535 -0.2526174815615467 0.0004674078944194274 0.0 -6.708954748022854e-17 -3.5869018288149865 -7.146021544880584 -1.0426759266417487 0.001940388804645364 0.0 0.45809289813041687 -1.8854854742633265 1.891357421875 -1.5774615446673792 -1.5641515890704554 0.4580764174461365 -3.834952076431364e-05 3.834952076431364e-05 -0.0 0.00014381069922819734 2.3968450477696024e-05 0.0 -0.008972168900072575 -0.4306641221046448 -0.7655707001686096 -0.12085133790969849 0.14211222529411316 0.002237987704575062 -0.011215210892260075 -0.4239349663257599 -0.7762459516525269 -0.11189938336610794 0.1376362442970276 0.004475975409150124 -0.1500030691494235 -0.1999994655766137 0.2999850962856894 2.2213825732608656 2.2213959533863004 0.0001496707092284161 -1.3187580020040944e-06 6.798726306237196e-06 -2.0842269617226086e-05 5.9182590730586094e-05 -0.00017391433053577085 -3.933133382710949e-05 -6.3239806375809735 -9.131280280481127 0.6388111767920011 1.0987019305216494 0.26686575402022295 0.01051784341622628 -0.1499999999850033 -0.19999999999266432 0.30000000001152166 2.221400000057386 2.2213999999966867 0.0 0.0 0.0 0.0 0.0 0.0 0.0
3441.928 0.45809493550609603 -1.885529400329105 1.891353982108473 -1.5775092871271372 -1.5641353746118325 0.4580848792769454 0.0 -0.0 0.0 0.0 0.0 0.0 0.0 0.0 0.0 0.0 0.0 0.0 -5.8460745106854385e-18 -0.3114035749645834 -0.846364901061535 -0.2526174815615467 0.0004674078944194274 0.0 -6.708954748022854e-17 -3.5869018288149865 -7.146021544880584 -1.0426759266417487 0.001940388804645364 0.0 0.4581048786640167 -1.8854735533343714 1.8913216590881348 -1.5774615446673792 -1.5641635099994105 0.45805245637893677 -3.834952076431364e-05 3.834952076431364e-05 -0.0 0.00014381069922819734 2.3968450477696024e-05 0.0 -0.004486084450036287 -0.4149627983570099 -0.7701457738876343 -0.11301837861537933 0.14770719408988953 0.0055949692614376545 -0.006729126907885075 -0.4149627983570099 -0.7762459516525269 -0.11525636911392212 0.1376362442970276 0.004475975409150124 -0.1500053643771743 -0.20000252251008016 0.29999311997049416 2.2213559319277443 2.221449395965306 0.00012022929567797856 -1.3194262886884786e-06 6.798626720057968e-06 -2.0842757945471276e-05 5.918467105130045e-05 -0.00017391362627864945 -3.9330765426276856e-05 -5.837120188186079 -7.99375893425605 0.2750700592762013 0.9984767836332974 0.37920330455684614 0.026054621614783457 -0.1499999999850033 -0.19999999999266432 0.30000000001152166 2.221400000057386 2.2213999999966867 0.0 0.0 0.0 0.0 0.0 0.0 0.0
3441.9359999999997 0.45809493550609603 -1.885529400329105 1.891353982108473 -1.5775092871271372 -1.5641353746118325 0.4580848792769454 0.0 -0.0 0.0 0.0 0.0 0.0 0.0 0.0 0.0 0.0 0.0 0.0 -5.8460745106854385e-18 -0.3114035749645834 -0.846364901061535 -0.2526174815615467 0.0004674078944194274 0.0 -6.708954748022854e-17 -3.5869018288149865 -7.146021544880584 -1.0426759266417487 0.001940388804645364 0.0 0.4581408202648163 -1.8854973951922815 1.8913216590881348 -1.5774734655963343 -1.5641635099994105 0.4581007659435272 -3.834952076431364e-05 3.834952076431364e-05 -0.0 0.00014381069922819734 2.3968450477696024e-05 0.0 -0.004486084450036287 -0.4216919243335724 -0.7396449446678162 -0.11637535691261292 0.1521831601858139 0.004475975409150124 -0.011215210892260075 -0.4149627983570099 -0.7762459516525269 -0.11749435216188431 0.1376362442970276 0.004475975409150124 -0.14999588323548907 -0.20000679919565428 0.2999994571199984 2.2213776734161366 2.221443905343192 6.70346485901867e-05 -1.3202402599921904e-06 6.798190548095426e-06 -2.08430834715799e-05 5.919090692298438e-05 -0.00017391150917621693 -3.932991164080102e-05 -6.603785317110582 -9.051508095029307 1.6918420051676444 1.164624682374631 0.20255521749368352 0.020835593982902093 -0.1499999999850033 -0.19999999999266432 0.30000000001152166 2.221400000057386 2.2213999999966867 0.0 0.0 0.0 0.0 0.0 0.0 0.0
3441.944 0.45809493550609603 -1.885529400329105 1.891353982108473 -1.5775092871271372 -1.5641353746118325 0.4580848792769454 0.0 -0.0 0.0 0.0 0.0 0.0 0.0 0.0 0.0 0.0 0.0 0.0 -5.8460745106854385e-18 -0.3114035749645834 -0.846364901061535 -0.2526174815615467 0.0004674078944194274 0.0 -6.708954748022854e-17 -3.5869018288149865 -7.146021544880584 -1.0426759266417487 0.001940388804645364 0.0 0.4580569267272949 -1.8854616324054163 1.891357421875 -1.5774253050433558 -1.564211670552389 0.4580404460430145 -3.834952076431364e-05 3.834952076431364e-05 -0.0 0.00014381069922819734 2.3968450477696024e-05 0.0 -0.004486084450036287 -0.4216919243335724 -0.7991215586662292 -0.11413737386465073 0.1365172564983368 0.007832957431674004 -0.006729126907885075 -0.4216919243335724 -0.7762459516525269 -0.1197323426604271 0.1376362442970276 0.004475975409150124 -0.15001295518443075 -0.19998984635244652 0.29997668716515136 2.221409515337463 2.2214221770211693 0.0002693949930987304 -1.3173957426380097e-06 6.799345247718726e-06 -2.0841697344306078e-05 5.917634749223178e-05 -0.00017391644581502672 -3.9332770480163925e-05 -5.591186803169842 -7.595287913162255 -0.9833399532467473 0.8738733661796759 0.46818446498372057 0.03651158582320813 -0.1499999999850033 -0.19999999999266432 0.30000000001152166 2.221400000057386 2.2213999999966867 0.0 0.0 0.0 0.0 0.0 0.0 0.0
3441.9519999999998 0.45809493550609603 -1.885529400329105 1.891353982108473 -1.5775092871271372 -1.5641353746118325 0.4580848792769454 0.0 -0.0 0.0 0.0 0.0 0.0 0.0 0.0 0.0 0.0 0.0 0.0 -5.8460745106854385e-18 -0.3114035749645834 -0.846364901061535 -0.2526174815615467 0.0004674078944194274 0.0 -6.708954748022854e-17 -3.5869018288149865 -7.146021544880584 -1.0426759266417487 0.001940388804645364 0.0 0.4580569267272949 -1.8854735533343714 1.891345500946045 -1.5774973074542444 -1.5641635099994105 0.4580284655094147 -3.834952076431364e-05 3.834952076431364e-05 -0.0 0.00014381069922819734 2.3968450477696024e-05 0.0 -0.006729126907885075 -0.4172058403491974 -0.7945464849472046 -0.134279265999794 0.13875523209571838 0.0 -0.008972168900072575 -0.4194488823413849 -0.7762459516525269 -0.12420831620693207 0.1376362442970276 0.004475975409150124 -0.15001580286780408 -0.19999574323658237 0.29998905374480667 2.2213850677730136 2.221425633514099 0.0001024797011545514 -1.3191080270633202e-06 6.798728054167946e-06 -2.0842935174195784e-05 5.917634214521491e-05 -0.00017391646280743507 -3.933047655641515e-05 -5.278523185965432 -7.613759468838444 -0.34190670866558454 0.950006059101422 0.365949212112231 8.180339349828401e-05 -0.1499999999850033 -0.19999999999266432 0.30000000001152166 2.221400000057386 2.2213999999966867 0.0 0.0 0.0 0.0 0.0 0.0 0.0
3441.96 0.45809493550609603 -1.885529400329105 1.891353982108473 -1.5775092871271372 -1.5641353746118325 0.4580848792769454 0.0 -0.0 0.0 0.0 0.0 0.0 0.0 0.0 0.0 0.0 0.0 0.0 -5.8460745106854385e-18 -0.3114035749645834 -0.846364901061535 -0.2526174815615467 0.0004674078944194274 0.0 -6.708954748022854e-17 -3.5869018288149865 -7.146021544880584 -1.0426759266417487 0.001940388804645364 0.0 0.45809289813041687 -1.8854616324054163 1.8913335800170898 -1.5774372259723108 -1.5641754309283655 0.45808878540992737 -3.834952076431364e-05 3.834952076431364e-05 -0.0 0.00011984225420746952 2.3968450477696024e-05 0.0 -0.008972168900072575 -0.4015045464038849 -0.7792960405349731 -0.11637535691261292 0.13092228770256042 0.0 -0.008972168900072575 -0.4149627983570099 -0.7762459516525269 -0.12868429720401764 0.1376362442970276 0.004475975409150124 -0.1500070999826113 -0.19999926882237953 0.2999848235093478 2.22140689521649 2.2213925284459006 0.0001978946646214532 -3.0811187928069213e-06 5.91261927443124e-06 -1.879468352725789e-05 4.856236328206014e-05 -0.00015242777882919597 -3.9172738933522745e-05 -4.987931617096602 -7.418936354682649 -0.05063743671665546 0.8756020729900056 0.4256973257632442 0.00013471175275754787 -0.1499999999850033 -0.19999999999266432 0.30000000001152166 2.221400000057386 2.2213999999966867 0.0 0.0 0.0 0.0 0.0 0.0 0.0
3441.968 0.45809493550609603 -1.885529400329105 1.891353982108473 -1.5775092871271372 -1.5641353746118325 0.4580848792769454 0.0 -0.0 0.0 0.0 0.0 0.0 0.0 0.0 0.0 0.0 0.0 0.0 -5.8460745106854385e-18 -0.3114035749645834 -0.846364901061535 -0.2526174815615467 0.0004674078944194274 0.0 -6.708954748022854e-17 -3.5869018288149865 -7.146021544880584 -1.0426759266417487 0.001940388804645364 0.0 0.45809289813041687 -1.8854973951922815 1.891345500946045 -1.5774372259723108 -1.5641878286944788 0.4581127464771271 -3.834952076431364e-05 3.834952076431364e-05 -0.0 0.00011984225420746952 2.3968450477696024e-05 0.0 -0.01345825381577015 -0.4172058403491974 -0.77777099609375 -0.12980328500270844 0.1365172564983368 0.004475975409150124 -0.01345825381577015 -0.4172058403491974 -0.7762459516525269 -0.12756529450416565 0.1376362442970276 0.004475975409150124 -0.15000190696004345 -0.1999955659043649 0.299989241961465 2.2214472460547827 2.2213796251455262 0.00016869647576431352 -3.0813469735975505e-06 5.9122373032715116e-06 -1.8794701650756868e-05 4.856234657348684e-05 -0.00015242778704048162 -3.91721703964125e-05 -5.465867989855563 -8.302773899365151 0.3012737740760437 1.0126854442599549 0.31479622205575636 0.02088519419682722 -0.1499999999850033 -0.19999999999266432 0.30000000001152166 2.221400000057386 2.2213999999966867 0.0 0.0 0.0 0.0 0.0 0.0 0.0
3441.9759999999997 0.45809493550609603 -1.885529400329105 1.891353982108473 -1.5775092871271372 -1.5641353746118325 0.4580848792769454 0.0 -0.0 0.0 0.0 0.0 0.0 0.0 0.0 0.0 0.0 0.0 0.0 -5.8460745106854385e-18 -0.3114035749645834 -0.846364901061535 -0.2526174815615467 0.0004674078944194274 0.0 -6.708954748022854e-17 -3.5869018288149865 -7.146021544880584 -1.0426759266417487 0.001940388804645364 0.0 0.458080917596817 -1.8854854742633265 1.891345500946045 -1.5774973074542444 -1.5641515890704554 0.45805245637893677 -3.834952076431364e-05 3.834952076431364e-05 -0.0 0.00011984225420746952 2.3968450477696024e-05 0.0 -0.01570129580795765 -0.4149627983570099 -0.7869212627410889 -0.1353982537984848 0.14099322259426117 0.0055949692614376545 -0.011215210892260075 -0.4172058403491974 -0.7762459516525269 -0.12868429720401764 0.1376362442970276 0.004475975409150124 -0.15000898601300444 -0.19999944515741222 0.29999171211434444 2.2213797693576462 2.221420392351791 7.872982373249657e-05 -3.082023827786107e-06 5.9121963223397076e-06 -1.8795362742424946e-05 4.856053231679622e-05 -0.00015242837323177903 -3.9171014684432837e-05 -5.14565303736088 -8.03368697735073 0.019633232816363977 1.0100311843457672 0.3487988867317506 0.02603155313033069 -0.1499999999850033 -0.19999999999266432 0.30000000001152166 2.221400000057386 2.2213999999966867 0.0 0.0 0.0 0.0 0.0 0.0 0.0
3441.984 0.45809493550609603 -1.885529400329105 1.891353982108473 -1.5775092871271372 -1.5641353746118325 0.4580848792769454 0.0 -0.0 0.0 0.0 0.0 0.0 0.0 0.0 0.0 0.0 0.0 0.0 -5.8460745106854385e-18 -0.3114035749645834 -0.846364901061535 -0.2526174815615467 0.0004674078944194274 0.0 -6.708954748022854e-17 -3.5869018288149865 -7.146021544880584 -1.0426759266417487 0.001940388804645364 0.0 0.4580569267272949 -1.8855097929583948 1.891369342803955 -1.5775211493121546 -1.5641754309283655 0.4581127464771271 -3.834952076431364e-05 3.834952076431364e-05 -0.0 0.00011984225420746952 2.3968450477696024e-05 0.0 -0.008972168900072575 -0.4261780083179474 -0.7945464849472046 -0.13875523209571838 0.13316026329994202 0.0055949692614376545 -0.004486084450036287 -0.4172058403491974 -0.7762459516525269 -0.13316026329994202 0.1376362442970276 0.004475975409150124 -0.15001139125735313 -0.19999247198016842 0.29999205465100715 2.2214947732880903 2.221348343307306 5.4591916933561956e-05 -3.081986609819287e-06 5.912063818319328e-06 -1.8795509872294137e-05 4.855687016169978e-05 -0.0001524295434248515 -3.917043205808887e-05 -5.587473964687804 -8.045369547258554 -0.24830497617191086 0.9750327737759845 0.30298446830117837 0.02600081427775212 -0.1499999999850033 -0.19999999999266432 0.30000000001152166 2.221400000057386 2.2213999999966867 0.0 0.0 0.0 0.0 0.0 0.0 0.0
3441.9919999999997 0.45809493550609603 -1.885529400329105 1.891353982108473 -1.5775092871271372 -1.5641353746118325 0.4580848792769454 0.0 -0.0 0.0 0.0 0.0 0.0 0.0 0.0 0.0 0.0 0.0 0.0 -5.8460745106854385e-18 -0.3114035749645834 -0.846364901061535 -0.2526174815615467 0.0004674078944194274 0.0 -6.708954748022854e-17 -3.5869018288149865 -7.146021544880584 -1.0426759266417487 0.001940388804645364 0.0 0.4580689072608948 -1.8854973951922815 1.8913097381591797 -1.5774853865252894 -1.5641997496234339 0.45805245637893677 -3.834952076431364e-05 3.834952076431364e-05 -0.0 0.00011984225420746952 2.3968450477696024e-05 0.0 -0.0022430422250181437 -0.4082336723804474 -0.7899713516235352 -0.14994516968727112 0.13987423479557037 0.0033569815568625927 -0.008972168900072575 -0.4172058403491974 -0.7762459516525269 -0.1365172564983368 0.1376362442970276 0.004475975409150124 -0.15001335303677638 -0.19999422996444707 0.300004039460652 2.2214334651188703 2.221447464502047 4.986806753739252e-05 -3.0825722134404476e-06 5.911939785343346e-06 -1.879581980828698e-05 4.855868501614335e-05 -0.0001524289664745946 -3.917016286534119e-05 -5.094245805884587 -6.879916244057658 0.20688531098264687 0.9468856881811758 0.27655091304996404 0.015601753544018456 -0.1499999999850033 -0.19999999999266432 0.30000000001152166 2.221400000057386 2.2213999999966867 0.0 0.0 0.0 0.0 0.0 0.0 0.0
3442.0 0.45809493550609603 -1.885529400329105 1.891353982108473 -1.5775092871271372 -1.5641353746118325 0.4580848792769454 0.0 -0.0 0.0 0.0 0.0 0.0 0.0 0.0 0.0 0.0 0.0 0.0 -5.8460745106854385e-18 -0.3114035749645834 -0.846364901061535 -0.2526174815615467 0.0004674078944194274 0.0 -6.708954748022854e-17 -3.5869018288149865 -7.146021544880584 -1.0426759266417487 0.001940388804645364 0.0 0.45809289813041687 -1.8855097929583948 1.891345500946045 -1.5774615446673792 -1.5641878286944788 0.4580284655094147 -3.834952076431364e-05 3.834952076431364e-05 -0.0 0.00011984225420746952 2.3968450477696024e-05 0.0 -0.004486084450036287 -0.4216919243335724 -0.7975965142250061 -0.1376362442970276 0.15665914118289948 0.0033569815568625927 -0.01345825381577015 -0.4172058403491974 -0.7762459516525269 -0.13875523209571838 0.1376362442970276 0.004475975409150124 -0.15000204730390518 -0.19999565646702952 0.2999940851201606 2.2213617678547837 2.2214817629194017 0.00011407233416057673 -3.081854606866919e-06 5.911995789451365e-06 -1.8795070138275188e-05 4.856234191012109e-05 -0.00015242779405923932 -3.917129184060561e-05 -5.464759652353999 -7.566512269507747 -0.40504942306766634 1.0253074964647835 0.3784389736953963 0.0156584441901892 -0.1499999999850033 -0.19999999999266432 0.30000000001152166 2.221400000057386 2.2213999999966867 0.0 0.0 0.0 0.0 0.0 0.0 0.0
3442.008 0.45809493550609603 -1.885529400329105 1.891353982108473 -1.5775092871271372 -1.5641353746118325 0.4580848792769454 0.0 -0.0 0.0 0.0 0.0 0.0 0.0 0.0 0.0 0.0 0.0 0.0 -5.8460745106854385e-18 -0.3114035749645834 -0.846364901061535 -0.2526174815615467 0.0004674078944194274 0.0 -6.708954748022854e-17 -3.5869018288149865 -7.146021544880584 -1.0426759266417487 0.001940388804645364 0.0 0.4581048786640167 -1.8854616324054163 1.8913817405700684 -1.5774372259723108 -1.5641515890704554 0.45805245637893677 -3.834952076431364e-05 3.834952076431364e-05 -0.0 0.00011984225420746952 2.3968450477696024e-05 0.0 -0.01345825381577015 -0.4149627983570099 -0.7731958627700806 -0.1521831601858139 0.12980328500270844 0.0033569815568625927 -0.011215210892260075 -0.4172058403491974 -0.7762459516525269 -0.14211222529411316 0.1376362442970276 0.004475975409150124 -0.15000023587113928 -0.20000099167350155 0.29997043656805983 2.221326501639385 2.2214190914119625 0.0002574822514871728 -3.0802502997720606e-06 5.912870534119554e-06 -1.8794006672987365e-05 4.8564201624443254e-05 -0.00015242718619209005 -3.9173887940466725e-05 -5.346123529753824 -8.177475490855867 0.9908198128297064 1.0461291540604536 0.16507198199530176 0.01577450547089827 -0.1499999999850033 -0.19999999999266432 0.30000000001152166 2.221400000057386 2.2213999999966867 0.0 0.0 0.0 0.0 0.0 0.0 0.0
3442.0159999999996 0.45809493550609603 -1.885529400329105 1.891353982108473 -1.5775092871271372 -1.5641353746118325 0.4580848792769454 0.0 -0.0 0.0 0.0 0.0 0.0 0.0 0.0 0.0 0.0 0.0 0.0 -5.8460745106854385e-18 -0.3114035749645834 -0.846364901061535 -0.2526174815615467 0.0004674078944194274 0.0 -6.708954748022854e-17 -3.5869018288149865 -7.146021544880584 -1.0426759266417487 0.001940388804645364 0.0 0.45809289813041687 -1.885533634816305 1.891357421875 -1.5774734655963343 -1.5641878286944788 0.45805245637893677 -3.834952076431364e-05 1.917476038215682e-05 -0.0 0.00011984225420746952 2.3968450477696024e-05 0.0 -0.006729126907885075 -0.4216919243335724 -0.7808210849761963 -0.1376362442970276 0.14770719408988953 0.004475975409150124 -0.004486084450036287 -0.4172058403491974 -0.7762459516525269 -0.14546920359134674 0.1376362442970276 0.004475975409150124 -0.14999886385491248 -0.1999940877724861 0.29999686137724546 2.2213937591778854 2.2214606018732845 7.86060833779921e-05 -5.332001580629122e-07 7.1626004970201495e-06 -1.4517760310964756e-05 4.0082945258520444e-05 -0.00013522980995634053 -3.9147217411480674e-05 -5.715016255944126 -8.058261570535349 0.33585797385124583 1.056470687854863 0.28240290941757434 0.020823257671416563 -0.1499999999850033 -0.19999999999266432 0.30000000001152166 2.221400000057386 2.2213999999966867 0.0 0.0 0.0 0.0 0.0 0.0 0.0
3442.024 0.45809493550609603 -1.885529400329105 1.891353982108473 -1.5775092871271372 -1.5641353746118325 0.4580848792769454 0.0 -0.0 0.0 0.0 0.0 0.0 0.0 0.0 0.0 0.0 0.0 0.0 -5.8460745106854385e-18 -0.3114035749645834 -0.846364901061535 -0.2526174815615467 0.0004674078944194274 0.0 -6.708954748022854e-17 -3.5869018288149865 -7.146021544880584 -1.0426759266417487 0.001940388804645364 0.0 0.45809289813041687 -1.8854735533343714 1.8913216590881348 -1.5774973074542444 -1.5641878286944788 0.4581007659435272 -3.834952076431364e-05 1.917476038215682e-05 -0.0 0.00011984225420746952 2.3968450477696024e-05 0.0 -0.011215210892260075 -0.4172058403491974 -0.7609955668449402 -0.14323121309280396 0.14099322259426117 0.004475975409150124 -0.008972168900072575 -0.4172058403491974 -0.7762459516525269 -0.14770719408988953 0.1376362442970276 0.004475975409150124 -0.15001127600771827 -0.2000002514508828 0.299996177286347 2.2214470489303197 2.2214070622846376 7.930411491557547e-05 -5.334209914826911e-07 7.163086636836565e-06 -1.4518021279411615e-05 4.0082971465721194e-05 -0.0001352298028848943 -3.914722569686507e-05 -5.756945240832504 -8.498513065759282 1.3345522835170205 1.1139039039134853 0.16513294948356647 0.02082415724535703 -0.1499999999850033 -0.19999999999266432 0.30000000001152166 2.221400000057386 2.2213999999966867 0.0 0.0 0.0 0.0 0.0 0.0 0.0
3442.0319999999997 0.45809493550609603 -1.885529400329105 1.891353982108473 -1.5775092871271372 -1.5641353746118325 0.4580848792769454 0.0 -0.0 0.0 0.0 0.0 0.0 0.0 0.0 0.0 0.0 0.0 0.0 -5.8460745106854385e-18 -0.3114035749645834 -0.846364901061535 -0.2526174815615467 0.0004674078944194274 0.0 -6.708954748022854e-17 -3.5869018288149865 -7.146021544880584 -1.0426759266417487 0.001940388804645364 0.0 0.4580569267272949 -1.8854735533343714 1.8913335800170898 -1.5774734655963343 -1.5641635099994105 0.4581007659435272 -3.834952076431364e-05 1.917476038215682e-05 -0.0 0.00011984225420746952 2.3968450477696024e-05 0.0 -0.01570129580795765 -0.4239349663257599 -0.788446307182312 -0.1533021628856659 0.1365172564983368 0.004475975409150124 -0.01345825381577015 -0.4172058403491974 -0.7762459516525269 -0.1510641723871231 0.1376362442970276 0.004475975409150124 -0.15001494048636668 -0.1999953158397938 0.2999905776642857 2.221462803845582 2.221342508628567 0.000120224044392563 -5.327569451757172e-07 7.163177421192432e-06 -1.4517564006701431e-05 4.0078107893370804e-05 -0.00013523123879130534 -3.9148081543955594e-05 -5.3596649630019995 -8.352965300678266 0.3375303066555778 1.0663181528666221 0.22317632067157006 0.02086733270889552 -0.1499999999850033 -0.19999999999266432 0.30000000001152166 2.221400000057386 2.2213999999966867 0.0 0.0 0.0 0.0 0.0 0.0 0.0
3442.04 0.45809493550609603 -1.885529400329105 1.891353982108473 -1.5775092871271372 -1.5641353746118325 0.4580848792769454 0.0 -0.0 0.0 0.0 0.0 0.0 0.0 0.0 0.0 0.0 0.0 0.0 -5.8460745106854385e-18 -0.3114035749645834 -0.846364901061535 -0.2526174815615467 0.0004674078944194274 0.0 -6.708954748022854e-17 -3.5869018288149865 -7.146021544880584 -1.0426759266417487 0.001940388804645364 0.0 0.4580689072608948 -1.8854616324054163 1.8913097381591797 -1.5774615446673792 -1.5641997496234339 0.4581007659435272 -3.834952076431364e-05 1.917476038215682e-05 -0.0 0.00011984225420746952 2.3968450477696024e-05 0.0 -0.008972168900072575 -0.4261780083179474 -0.7533703446388245 -0.1533021628856659 0.14323121309280396 0.002237987704575062 -0.008972168900072575 -0.4172058403491974 -0.7762459516525269 -0.1544211506843567 0.1376362442970276 0.004475975409150124 -0.15001635390780496 -0.19999568129409312 0.29999402442910933 2.2214738105085594 2.2213800450545866 0.00013853366558682406 -5.328454363557735e-07 7.163288969770327e-06 -1.4517688583841869e-05 4.0079727540556026e-05 -0.00013523075874829116 -3.9148082762912556e-05 -6.217855985315992 -8.989100920546521 1.8861494881452197 1.205080142556384 0.04763072167988065 0.010477361881012545 -0.1499999999850033 -0.19999999999266432 0.30000000001152166 2.221400000057386 2.2213999999966867 0.0 0.0 0.0 0.0 0.0 0.0 0.0
3442.048 0.45809493550609603 -1.885529400329105 1.891353982108473 -1.5775092871271372 -1.5641353746118325 0.4580848792769454 0.0 -0.0 0.0 0.0 0.0 0.0 0.0 0.0 0.0 0.0 0.0 0.0 -5.8460745106854385e-18 -0.3114035749645834 -0.846364901061535 -0.2526174815615467 0.0004674078944194274 0.0 -6.708954748022854e-17 -3.5869018288149865 -7.146021544880584 -1.0426759266417487 0.001940388804645364 0.0 0.45809289813041687 -1.8854616324054163 1.891357421875 -1.5775092283831995 -1.5641515890704554 0.4580644369125366 -1.917476038215682e-05 1.917476038215682e-05 -0.0 9.58738019107841e-05 2.3968450477696024e-05 0.0 -0.011215210892260075 -0.4239349663257599 -0.7838711738586426 -0.16113510727882385 0.13875523209571838 0.0055949692614376545 -0.008972168900072575 -0.4172058403491974 -0.7762459516525269 -0.15777812898159027 0.1376362442970276 0.004475975409150124 -0.15000974473564477 -0.20000278415834083 0.29998385100462516 2.2213743360043043 2.221414969235572 0.00011418680594638574 1.539467360248267e-06 3.4005362646732185e-06 -1.2470016422322923e-05 2.9462749632100887e-05 -0.00011374324115382035 -1.9814140073257782e-05 -5.528546327628997 -8.15925226183398 0.7104768535339445 1.0897250680945154 0.1528939877155392 0.026063759495545333 -0.1499999999850033 -0.19999999999266432 0.30000000001152166 2.221400000057386 2.2213999999966867 0.0 0.0 0.0 0.0 0.0 0.0 0.0
3442.056 0.45809493550609603 -1.885529400329105 1.891353982108473 -1.5775092871271372 -1.5641353746118325 0.4580848792769454 0.0 -0.0 0.0 0.0 0.0 0.0 0.0 0.0 0.0 0.0 0.0 0.0 -5.8460745106854385e-18 -0.3114035749645834 -0.846364901061535 -0.2526174815615467 0.0004674078944194274 0.0 -6.708954748022854e-17 -3.5869018288149865 -7.146021544880584 -1.0426759266417487 0.001940388804645364 0.0 0.4580329656600952 -1.8854973951922815 1.8913216590881348 -1.5774973074542444 -1.5641635099994105 0.4580284655094147 -1.917476038215682e-05 1.917476038215682e-05 -0.0 9.58738019107841e-05 2.3968450477696024e-05 0.0 -0.01570129580795765 -0.4216919243335724 -0.7792960405349731 -0.16225410997867584 0.13987423479557037 0.002237987704575062 -0.008972168900072575 -0.4172058403491974 -0.7762459516525269 -0.16001611948013306 0.1376362442970276 0.004475975409150124 -0.1500192072326711 -0.1999915018118152 0.3000014939748867 2.22142239070167 2.2214099946443246 3.155645264388198e-05 1.5389739658328787e-06 3.400031141469526e-06 -1.2470447382753423e-05 2.945590934629726e-05 -0.0001137450208528287 -1.9812717988372725e-05 -5.374737674952669 -8.442289255939247 0.937482361046589 1.1285944251242015 0.14575317890324707 0.010425356157180127 -0.1499999999850033 -0.19999999999266432 0.30000000001152166 2.221400000057386 2.2213999999966867 0.0 0.0 0.0 0.0 0.0 0.0 0.0
3442.064 0.45809493550609603 -1.885529400329105 1.891353982108473 -1.5775092871271372 -1.5641353746118325 0.4580848792769454 0.0 -0.0 0.0 0.0 0.0 0.0 0.0 0.0 0.0 0.0 0.0 0.0 -5.8460745106854385e-18 -0.3114035749645834 -0.846364901061535 -0.2526174815615467 0.0004674078944194274 0.0 -6.708954748022854e-17 -3.5869018288149865 -7.146021544880584 -1.0426759266417487 0.001940388804645364 0.0 0.4580689072608948 -1.8854854742633265 1.891345500946045 -1.5775092283831995 -1.5641878286944788 0.4580284655094147 -1.917476038215682e-05 1.917476038215682e-05 -0.0 9.58738019107841e-05 2.3968450477696024e-05 0.0 -0.008972168900072575 -0.4149627983570099 -0.7838711738586426 -0.1678490787744522 0.14658819139003754 0.001118993852287531 -0.008972168900072575 -0.4172058403491974 -0.7762459516525269 -0.16337309777736664 0.1376362442970276 0.004475975409150124 -0.1500135844417273 -0.19999540728610027 0.2999927336675034 2.2213933775220873 2.221460716236121 7.929758524157594e-05 1.5392071362369637e-06 3.4002773832562547e-06 -1.2470321362056006e-05 2.9460008232109817e-05 -0.00011374395613769751 -1.9813286208149935e-05 -5.176624729990373 -7.635953065009311 0.8608783508027468 1.0985798193146135 0.15889356065847132 0.005249644249760324 -0.1499999999850033 -0.19999999999266432 0.30000000001152166 2.221400000057386 2.2213999999966867 0.0 0.0 0.0 0.0 0.0 0.0 0.0
3442.0719999999997 0.45809493550609603 -1.885529400329105 1.891353982108473 -1.5775092871271372 -1.5641353746118325 0.4580848792769454 0.0 -0.0 0.0 0.0 0.0 0.0 0.0 0.0 0.0 0.0 0.0 0.0 -5.8460745106854385e-18 -0.3114035749645834 -0.846364901061535 -0.2526174815615467 0.0004674078944194274 0.0 -6.708954748022854e-17 -3.5869018288149865 -7.146021544880584 -1.0426759266417487 0.001940388804645364 0.0 0.45809289813041687 -1.8854973951922815 1.891345500946045 -1.5774734655963343 -1.5641396681415003 0.4580284655094147 -1.917476038215682e-05 1.917476038215682e-05 -0.0 9.58738019107841e-05 2.3968450477696024e-05 0.0 -0.01345825381577015 -0.4149627983570099 -0.7869212627410889 -0.16001611948013306 0.1376362442970276 0.001118993852287531 -0.008972168900072575 -0.4172058403491974 -0.7762459516525269 -0.1667300909757614 0.1376362442970276 0.004475975409150124 -0.15000281792669798 -0.20000046360896828 0.29999233366639466 2.2213292865494387 2.2214495204190183 9.044954513993795e-05 1.5392781225619586e-06 3.4002869927242997e-06 -1.2469948321954538e-05 2.9462728668422764e-05 -0.00011374324750417334 -1.9813858769874e-05 -5.044597035608532 -7.845206816293005 0.5553331010375503 1.05096761266676 0.2071141942083909 0.005286366550413365 -0.1499999999850033 -0.19999999999266432 0.30000000001152166 2.221400000057386 2.2213999999966867 0.0 0.0 0.0 0.0 0.0 0.0 0.0
3442.08 0.45809493550609603 -1.885529400329105 1.891353982108473 -1.5775092871271372 -1.5641353746118325 0.4580848792769454 0.0 -0.0 0.0 0.0 0.0 0.0 0.0 0.0 0.0 0.0 0.0 0.0 -5.8460745106854385e-18 -0.3114035749645834 -0.846364901061535 -0.2526174815615467 0.0004674078944194274 0.0 -6.708954748022854e-17 -3.5869018288149865 -7.146021544880584 -1.0426759266417487 0.001940388804645364 0.0 0.458080917596817 -1.8855097929583948 1.8913097381591797 -1.5774973074542444 -1.5641515890704554 0.4580764174461365 -1.917476038215682e-05 1.917476038215682e-05 -0.0 9.58738019107841e-05 2.3968450477696024e-05 0.0 -0.004486084450036287 -0.4104767143726349 -0.7701457738876343 -0.17344404757022858 0.1376362442970276 0.008951950818300247 -0.008972168900072575 -0.4172058403491974 -0.7762459516525269 -0.170087069272995 0.1376362442970276 0.006713963113725185 -0.15000842549312796 -0.1999992212192558 0.3000078194649321 2.2214198583881375 2.2214076217217515 -1.0632802738552528e-05 1.5385127954634635e-06 3.3999405421978654e-06 -1.2470599799072791e-05 2.9461356005175326e-05 -0.00011374361359989249 -1.9812137335941233e-05 -5.411851272722536 -7.323159871946644 1.593177995307745 1.0745465234558296 0.04172237901842857 0.04155293933323674 -0.1499999999850033 -0.19999999999266432 0.30000000001152166 2.221400000057386 2.2213999999966867 0.0 0.0 0.0 0.0 0.0 0.0 0.0
3442.0879999999997 0.45809493550609603 -1.885529400329105 1.891353982108473 -1.5775092871271372 -1.5641353746118325 0.4580848792769454 0.0 -0.0 0.0 0.0 0.0 0.0 0.0 0.0 0.0 0.0 0.0 0.0 -5.8460745106854385e-18 -0.3114035749645834 -0.846364901061535 -0.2526174815615467 0.0004674078944194274 0.0 -6.708954748022854e-17 -3.5869018288149865 -7.146021544880584 -1.0426759266417487 0.001940388804645364 0.0 0.4581048786640167 -1.8855097929583948 1.8913335800170898 -1.5774496237384241 -1.5641878286944788 0.4580644369125366 -1.917476038215682e-05 1.917476038215682e-05 -0.0 9.58738019107841e-05 2.3968450477696024e-05 0.0 -0.004486084450036287 -0.4172058403491974 -0.767095685005188 -0.17344404757022858 0.13875523209571838 0.004475975409150124 -0.008972168900072575 -0.4172058403491974 -0.7762459516525269 -0.17344404757022858 0.1376362442970276 0.004475975409150124 -0.14999966540894505 -0.19999746692317774 0.2999966274268446 2.2213884621128863 2.2214550870351313 0.00011407866058036427 1.53925394798596e-06 3.4002531546852026e-06 -1.2469993164166967e-05 2.9464081609062682e-05 -0.00011374289669736791 -1.9813849556853904e-05 -5.677086153934129 -7.815219590820299 1.723899233706765 1.124662590313913 0.01210698691939623 0.020845108030499635 -0.1499999999850033 -0.19999999999266432 0.30000000001152166 2.221400000057386 2.2213999999966867 0.0 0.0 0.0 0.0 0.0 0.0 0.0
3442.096 0.45809493550609603 -1.885529400329105 1.891353982108473 -1.5775092871271372 -1.5641353746118325 0.4580848792769454 0.0 -0.0 0.0 0.0 0.0 0.0 0.0 0.0 0.0 0.0 0.0 0.0 -5.8460745106854385e-18 -0.3114035749645834 -0.846364901061535 -0.2526174815615467 0.0004674078944194274 0.0 -6.708954748022854e-17 -3.5869018288149865 -7.146021544880584 -1.0426759266417487 0.001940388804645364 0.0 0.458080917596817 -1.88552171388735 1.891357421875 -1.5774615446673792 -1.5641754309283655 0.45808878540992737 -1.917476038215682e-05 1.917476038215682e-05 -0.0 9.58738019107841e-05 2.3968450477696024e-05 0.0 -0.011215210892260075 -0.4194488823413849 -0.7655707001686096 -0.17568203806877136 0.14211222529411316 0.004475975409150124 -0.008972168900072575 -0.4172058403491974 -0.7762459516525269 -0.17680102586746216 0.1376362442970276 0.004475975409150124 -0.1500015164043105 -0.19999354333013614 0.2999931826198028 2.2214337951515244 2.221393138857346 0.00010781179505050648 1.539400560560891e-06 3.4001887195720436e-06 -1.2469915393676218e-05 2.94613566020628e-05 -0.00011374360257426278 -1.9813848582152363e-05 -5.605341722415249 -8.296467965381678 1.8376933643444064 1.1873014522830816 0.006685791968081185 0.02085582768774704 -0.1499999999850033 -0.19999999999266432 0.30000000001152166 2.221400000057386 2.2213999999966867 0.0 0.0 0.0 0.0 0.0 0.0 0.0
3442.104 0.45809493550609603 -1.885529400329105 1.891353982108473 -1.5775092871271372 -1.5641353746118325 0.4580848792769454 0.0 -0.0 0.0 0.0 0.0 0.0 0.0 0.0 0.0 0.0 0.0 0.0 -5.8460745106854385e-18 -0.3114035749645834 -0.846364901061535 -0.2526174815615467 0.0004674078944194274 0.0 -6.708954748022854e-17 -3.5869018288149865 -7.146021544880584 -1.0426759266417487 0.001940388804645364 0.0 0.458080917596817 -1.8854735533343714 1.891345500946045 -1.5774615446673792 -1.5641635099994105 0.4580644369125366 -1.917476038215682e-05 1.917476038215682e-05 -0.0 9.58738019107841e-05 2.3968450477696024e-05 0.0 -0.004486084450036287 -0.4172058403491974 -0.7930214405059814 -0.17792002856731415 0.1365172564983368 0.0055949692614376545 -0.008972168900072575 -0.4172058403491974 -0.7762459516525269 -0.18015800416469574 0.1376362442970276 0.004475975409150124 -0.15000837484599314 -0.19999801970121853 0.2999859986203767 2.2213905318129594 2.221403955195455 0.00015569037419838237 1.539704041070351e-06 3.4005122253918523e-06 -1.2469761884449229e-05 2.9461375252772857e-05 -0.0001137435930010637 -1.981471368384415e-05 -5.206466112935521 -7.1524599314142625 0.6761746810467144 1.0303621626215995 0.10809907642638092 0.026076603225555293 -0.1499999999850033 -0.19999999999266432 0.30000000001152166 2.221400000057386 2.2213999999966867 0.0 0.0 0.0 0.0 0.0 0.0 0.0
3442.1119999999996 0.45809493550609603 -1.885529400329105 1.891353982108473 -1.5775092871271372 -1.5641353746118325 0.4580848792769454 0.0 -0.0 0.0 0.0 0.0 0.0 0.0 0.0 0.0 0.0 0.0 0.0 -5.8460745106854385e-18 -0.3114035749645834 -0.846364901061535 -0.2526174815615467 0.0004674078944194274 0.0 -6.708954748022854e-17 -3.5869018288149865 -7.146021544880584 -1.0426759266417487 0.001940388804645364 0.0 0.4581048786640167 -1.8854973951922815 1.891357421875 -1.5774973074542444 -1.5641997496234339 0.45805245637893677 -1.917476038215682e-05 1.917476038215682e-05 -0.0 9.58738019107841e-05 2.3968450477696024e-05 0.0 -0.006729126907885075 -0.4216919243335724 -0.7701457738876343 -0.15554013848304749 0.13316026329994202 0.007832957431674004 -0.008972168900072575 -0.4172058403491974 -0.7762459516525269 -0.18351499736309052 0.1376362442970276 0.004475975409150124 -0.1500034723811704 -0.19999825004685706 0.2999908149696709 2.221385484565863 2.2214791698598533 0.00010305633228264542 1.5392550201286973e-06 3.400335659778187e-06 -1.2470178927085676e-05 2.946409575671249e-05 -0.0001137428953916445 -1.981357200165484e-05 -5.849884198007972 -8.134137010436318 1.1972789562104766 1.0711875803596074 0.10084964109173056 0.03640168137373267 -0.1499999999850033 -0.19999999999266432 0.30000000001152166 2.221400000057386 2.2213999999966867 0.0 0.0 0.0 0.0 0.0 0.0 0.0
3442.12 0.45809493550609603 -1.885529400329105 1.891353982108473 -1.5775092871271372 -1.5641353746118325 0.4580848792769454 0.0 -0.0 0.0 0.0 0.0 0.0 0.0 0.0 0.0 0.0 0.0 0.0 -5.8460745106854385e-18 -0.3114035749645834 -0.846364901061535 -0.2526174815615467 0.0004674078944194274 0.0 -6.708954748022854e-17 -3.5869018288149865 -7.146021544880584 -1.0426759266417487 0.001940388804645364 0.0 0.458080917596817 -1.885533634816305 1.8913335800170898 -1.5774615446673792 -1.5641754309283655 0.4580284655094147 -1.917476038215682e-05 1.917476038215682e-05 -0.0 9.58738019107841e-05 2.3968450477696024e-05 0.0 -0.004486084450036287 -0.4239349663257599 -0.7869212627410889 -0.19918090105056763 0.14658819139003754 0.0033569815568625927 -0.008972168900072575 -0.4194488823413849 -0.7762459516525269 -0.1868719756603241 0.1376362442970276 0.004475975409150124 -0.15000171322050632 -0.19999367400101917 0.30000296332577825 2.221374810493883 2.2214683821831973 5.4617527724051865e-05 1.5389668764550554e-06 3.399980818324805e-06 -1.2470202085976213e-05 2.9461346935917818e-05 -0.000113743610116027 -1.9812994642384043e-05 -5.4449255354187 -7.540230812322707 1.405105682747577 1.1753064506925495 -0.0349118131153004 0.0156257040233233 -0.1499999999850033 -0.19999999999266432 0.30000000001152166 2.221400000057386 2.2213999999966867 0.0 0.0 0.0 0.0 0.0 0.0 0.0
3442.1279999999997 0.45809493550609603 -1.885529400329105 1.891353982108473 -1.5775092871271372 -1.5641353746118325 0.4580848792769454 0.0 -0.0 0.0 0.0 0.0 0.0 0.0 0.0 0.0 0.0 0.0 0.0 -5.8460745106854385e-18 -0.3114035749645834 -0.846364901061535 -0.2526174815615467 0.0004674078944194274 0.0 -6.708954748022854e-17 -3.5869018288149865 -7.146021544880584 -1.0426759266417487 0.001940388804645364 0.0 0.4580689072608948 -1.8854616324054163 1.891345500946045 -1.5774253050433558 -1.5641878286944788 0.4580644369125366 -1.917476038215682e-05 1.917476038215682e-05 -0.0 9.58738019107841e-05 2.3968450477696024e-05 0.0 -0.008972168900072575 -0.4284210503101349 -0.7655707001686096 -0.18239599466323853 0.13987423479557037 0.0033569815568625927 -0.008972168900072575 -0.4216919243335724 -0.7792960405349731 -0.19022895395755768 0.1376362442970276 0.004475975409150124 -0.15001058193409433 -0.19999385904250808 0.2999802456477668 2.22140953260532 2.221395660229107 0.00023962161027077868 1.5402441958237355e-06 3.400711968740087e-06 -1.2469406353258244e-05 2.9460011148125608e-05 -0.00011374393903003458 -1.981586686865988e-05 -5.957355920785053 -8.606934655882993 1.9792856581771634 1.2226371558668525 -0.06571312556621042 0.0157484868087422 -0.1499999999850033 -0.19999999999266432 0.30000000001152166 2.221400000057386 2.2213999999966867 0.0 0.0 0.0 0.0 0.0 0.0 0.0
3442.136 0.45809493550609603 -1.885529400329105 1.891353982108473 -1.5775092871271372 -1.5641353746118325 0.4580848792769454 0.0 -0.0 0.0 0.0 0.0 0.0 0.0 0.0 0.0 0.0 0.0 0.0 -5.8460745106854385e-18 -0.3114035749645834 -0.846364901061535 -0.2526174815615467 0.0004674078944194274 0.0 -6.708954748022854e-17 -3.5869018288149865 -7.146021544880584 -1.0426759266417487 0.001940388804645364 0.0 0.4581048786640167 -1.8854616324054163 1.891357421875 -1.5774734655963343 -1.5641878286944788 0.4580404460430145 -1.917476038215682e-05 1.917476038215682e-05 -0.0 9.58738019107841e-05 2.3968450477696024e-05 0.0 -0.008972168900072575 -0.4216919243335724 -0.7701457738876343 -0.1846339851617813 0.13987423479557037 0.001118993852287531 -0.008972168900072575 -0.4194488823413849 -0.7762459516525269 -0.19358593225479126 0.1376362442970276 0.0055949692614376545 -0.15000603854371783 -0.20000058182035882 0.29998079905860897 2.2213508368694974 2.221470776340321 0.00018569931864324222 1.5398202971251558e-06 3.4006841216703772e-06 -1.246974908594903e-05 2.946410916317275e-05 -0.00011374288338379181 -1.981499723220453e-05 -5.592330857741428 -8.190267023676153 1.8288470555479863 1.1871235605283803 -0.03322250187784631 0.0053250773621225265 -0.1499999999850033 -0.19999999999266432 0.30000000001152166 2.221400000057386 2.2213999999966867 0.0 0.0 0.0 0.0 0.0 0.0 0.0
3442.144 0.45809493550609603 -1.885529400329105 1.891353982108473 -1.5775092871271372 -1.5641353746118325 0.4580848792769454 0.0 -0.0 0.0 0.0 0.0 0.0 0.0 0.0 0.0 0.0 0.0 0.0 -5.8460745106854385e-18 -0.3114035749645834 -0.846364901061535 -0.2526174815615467 0.0004674078944194274 0.0 -6.708954748022854e-17 -3.5869018288149865 -7.146021544880584 -1.0426759266417487 0.001940388804645364 0.0 0.4580689072608948 -1.8855097929583948 1.891345500946045 -1.5774973074542444 -1.5641515890704554 0.45805245637893677 -1.917476038215682e-05 1.917476038215682e-05 -0.0 9.58738019107841e-05 2.3968450477696024e-05 0.0 -0.006729126907885075 -0.4239349663257599 -0.7503202557563782 -0.19246694445610046 0.13204127550125122 0.008951950818300247 -0.008972168900072575 -0.4149627983570099 -0.7747209072113037 -0.19694292545318604 0.1376362442970276 0.0055949692614376545 -0.15000815538344262 -0.19999605713828397 0.2999971372079097 2.221398605139179 2.2214126156861043 4.2558939703984766e-05 1.5390265265472429e-06 3.4000898519056303e-06 -1.247026010406677e-05 2.9459996626119773e-05 -0.00011374396053775091 -1.9812991349444368e-05 -6.120230322309925 -8.459572957195324 2.8756732833773744 1.2322382629966129 -0.2057725074008876 0.04160087378459211 -0.1499999999850033 -0.19999999999266432 0.30000000001152166 2.221400000057386 2.2213999999966867 0.0 0.0 0.0 0.0 0.0 0.0 0.0
3442.152 0.45809493550609603 -1.885529400329105 1.891353982108473 -1.5775092871271372 -1.5641353746118325 0.4580848792769454 0.0 -0.0 0.0 0.0 0.0 0.0 0.0 0.0 0.0 0.0 0.0 0.0 -5.8460745106854385e-18 -0.3114035749645834 -0.846364901061535 -0.2526174815615467 0.0004674078944194274 0.0 -6.708954748022854e-17 -3.5869018288149865 -7.146021544880584 -1.0426759266417487 0.001940388804645364 0.0 0.45812883973121643 -1.8854973951922815 1.891345500946045 -1.5774973074542444 -1.5641515890704554 0.4580764174461365 -1.917476038215682e-05 1.917476038215682e-05 -0.0 9.58738019107841e-05 2.3968450477696024e-05 0.0 -0.01345825381577015 -0.4239349663257599 -0.7609955668449402 -0.18239599466323853 0.134279265999794 0.006713963113725185 -0.008972168900072575 -0.4194488823413849 -0.7792960405349731 -0.19694292545318604 0.1376362442970276 0.004475975409150124 -0.14999781685515348 -0.20000585597009318 0.2999943714848773 2.2213558504559088 2.221449733662394 6.100234769004688e-05 1.5389459089561345e-06 3.4002819746847206e-06 -1.2470197475323309e-05 2.946681889960658e-05 -0.00011374219167075133 -1.9813287330596963e-05 -5.7853782013412784 -8.660452920660276 2.1836557668255328 1.2114490261729989 -0.0788179612679586 0.03122823856398112 -0.1499999999850033 -0.19999999999266432 0.30000000001152166 2.221400000057386 2.2213999999966867 0.0 0.0 0.0 0.0 0.0 0.0 0.0
3442.16 0.45809493550609603 -1.885529400329105 1.891353982108473 -1.5775092871271372 -1.5641353746118325 0.4580848792769454 0.0 -0.0 0.0 0.0 0.0 0.0 0.0 0.0 0.0 0.0 0.0 0.0 -5.8460745106854385e-18 -0.3114035749645834 -0.846364901061535 -0.2526174815615467 0.0004674078944194274 0.0 -6.708954748022854e-17 -3.5869018288149865 -7.146021544880584 -1.0426759266417487 0.001940388804645364 0.0 0.458080917596817 -1.8854616324054163 1.8913216590881348 -1.5774973074542444 -1.5641878286944788 0.4580284655094147 -1.917476038215682e-05 1.917476038215682e-05 -0.0 9.58738019107841e-05 2.3968450477696024e-05 0.0 -0.006729126907885075 -0.4149627983570099 -0.7716708183288574 -0.20029990375041962 0.1365172564983368 0.008951950818300247 -0.008972168900072575 -0.4172058403491974 -0.77777099609375 -0.19918090105056763 0.1376362442970276 0.007832957431674004 -0.15001525674856914 -0.1999992318633316 0.2999935178498917 2.2213773544102677 2.2214713314058985 9.703342369250765e-05 1.5392015671553781e-06 3.4004105537251467e-06 -1.2470314537508207e-05 2.9461379097053968e-05 -0.00011374359944995925 -1.9813571779947636e-05 -5.367853893682037 -7.456265019213047 2.1072947806547258 1.1552230502649332 -0.10795396662013172 0.04159701943335584 -0.1499999999850033 -0.19999999999266432 0.30000000001152166 2.221400000057386 2.2213999999966867 0.0 0.0 0.0 0.0 0.0 0.0 0.0
3442.1679999999997 0.45809493550609603 -1.885529400329105 1.891353982108473 -1.5775092871271372 -1.5641353746118325 0.4580848792769454 0.0 -0.0 0.0 0.0 0.0 0.0 0.0 0.0 0.0 0.0 0.0 0.0 -5.8460745106854385e-18 -0.3114035749645834 -0.846364901061535 -0.2526174815615467 0.0004674078944194274 0.0 -6.708954748022854e-17 -3.5869018288149865 -7.146021544880584 -1.0426759266417487 0.001940388804645364 0.0 0.4581048786640167 -1.885533634816305 1.8913817405700684 -1.5774853865252894 -1.5641277472125452 0.45805245637893677 -1.917476038215682e-05 1.917476038215682e-05 -0.0 9.58738019107841e-05 2.3968450477696024e-05 0.0 -0.0022430422250181437 -0.4261780083179474 -0.7945464849472046 -0.19470493495464325 0.14435020089149475 0.0033569815568625927 -0.008972168900072575 -0.4172058403491974 -0.7792960405349731 -0.2025378942489624 0.1376362442970276 0.0055949692614376545 -0.149993339015666 -0.19999983718451902 0.2999906107730155 2.2213373516190322 2.22143090271112 6.669547102439907e-05 1.5392255609412562e-06 3.4001404621034938e-06 -1.2469876575203581e-05 2.946408357086458e-05 -0.00011374289803218121 -1.9813573274580308e-05 -5.472485157583548 -7.384898494091277 0.9698631996815626 1.1275679043313585 0.010225625081274805 0.0156718478206585 -0.1499999999850033 -0.19999999999266432 0.30000000001152166 2.221400000057386 2.2213999999966867 0.0 0.0 0.0 0.0 0.0 0.0 0.0
3442.176 0.45809493550609603 -1.885529400329105 1.891353982108473 -1.5775092871271372 -1.5641353746118325 0.4580848792769454 0.0 -0.0 0.0 0.0 0.0 0.0 0.0 0.0 0.0 0.0 0.0 0.0 -5.8460745106854385e-18 -0.3114035749645834 -0.846364901061535 -0.2526174815615467 0.0004674078944194274 0.0 -6.708954748022854e-17 -3.5869018288149865 -7.146021544880584 -1.0426759266417487 0.001940388804645364 0.0 0.4580689072608948 -1.8854497114764612 1.8913216590881348 -1.5774734655963343 -1.5641277472125452 0.4580284655094147 -1.917476038215682e-05 1.917476038215682e-05 -0.0 9.58738019107841e-05 2.3968450477696024e-05 0.0 -0.004486084450036287 -0.4239349663257599 -0.7640456557273865 -0.20701386034488678 0.14546920359134674 0.0055949692614376545 -0.008972168900072575 -0.4216919243335724 -0.7762459516525269 -0.20589487254619598 0.1376362442970276 0.004475975409150124 -0.15001530210673086 -0.2000017642785297 0.2999888164787699 2.221342482935524 2.2214095153168993 0.00011988655749681683 1.539500818347696e-06 3.4005138029191466e-06 -1.246991046602045e-05 2.9460016042330583e-05 -0.00011374394716131625 -1.9814427816286893e-05 -5.8344222911885915 -7.989235755230372 2.5854568191385225 1.2682559012640853 -0.19248573987636297 0.0261097178203392 -0.1499999999850033 -0.19999999999266432 0.30000000001152166 2.221400000057386 2.2213999999966867 0.0 0.0 0.0 0.0 0.0 0.0 0.0
3442.1839999999997 0.45809493550609603 -1.885529400329105 1.891353982108473 -1.5775092871271372 -1.5641353746118325 0.4580848792769454 0.0 -0.0 0.0 0.0 0.0 0.0 0.0 0.0 0.0 0.0 0.0 0.0 -5.8460745106854385e-18 -0.3114035749645834 -0.846364901061535 -0.2526174815615467 0.0004674078944194274 0.0 -6.708954748022854e-17 -3.5869018288149865 -7.146021544880584 -1.0426759266417487 0.001940388804645364 0.0 0.4580689072608948 -1.8854854742633265 1.8913216590881348 -1.5775092283831995 -1.5641515890704554 0.45808878540992737 -1.917476038215682e-05 1.917476038215682e-05 -0.0 7.190534961409867e-05 2.3968450477696024e-05 0.0 -0.006729126907885075 -0.4216919243335724 -0.7823461294174194 -0.21596580743789673 0.12980328500270844 0.004475975409150124 -0.008972168900072575 -0.4149627983570099 -0.7762459516525269 -0.20925185084342957 0.1376362442970276 0.0055949692614376545 -0.15001404628025714 -0.19999899264851695 0.29999985199178536 2.2214413943444478 2.2213750125752956 2.553276406341978e-05 -2.236313605737601e-07 2.5138799619293445e-06 -1.0422782956402558e-05 1.8840285785196915e-05 -9.225715180255286e-05 -1.965353845195501e-05 -5.314942064353441 -7.524271782418492 1.9733334439365813 1.1597624573616452 -0.17211456471785372 0.020820478647967697 -0.1499999999850033 -0.19999999999266432 0.30000000001152166 2.221400000057386 2.2213999999966867 0.0 0.0 0.0 0.0 0.0 0.0 0.0
3442.192 0.45809493550609603 -1.885529400329105 1.891353982108473 -1.5775092871271372 -1.5641353746118325 0.4580848792769454 0.0 -0.0 0.0 0.0 0.0 0.0 0.0 0.0 0.0 0.0 0.0 0.0 -5.8460745106854385e-18 -0.3114035749645834 -0.846364901061535 -0.2526174815615467 0.0004674078944194274 0.0 -6.708954748022854e-17 -3.5869018288149865 -7.146021544880584 -1.0426759266417487 0.001940388804645364 0.0 0.4580569267272949 -1.8854497114764612 1.891357421875 -1.5775092283831995 -1.5641396681415003 0.4580644369125366 -1.917476038215682e-05 1.917476038215682e-05 -0.0 7.190534961409867e-05 2.3968450477696024e-05 0.0 -0.008972168900072575 -0.4216919243335724 -0.7853962182998657 -0.20029990375041962 0.14099322259426117 0.004475975409150124 -0.008972168900072575 -0.4172058403491974 -0.7762459516525269 -0.2036568820476532 0.1376362442970276 0.0055949692614376545 -0.15001808942353229 -0.19999904610462377 0.29998119056086914 2.221403600386293 2.2213643181945337 0.00012589389098780664 -2.229217902441981e-07 2.5142655616352964e-06 -1.0422380211178945e-05 1.8839196372418892e-05 -9.225736493275819e-05 -1.965524789254484e-05 -5.278392927360932 -7.667211773460806 1.4965827808124375 1.1682529139630835 -0.04456433161495982 0.020898251896182565 -0.1499999999850033 -0.19999999999266432 0.30000000001152166 2.221400000057386 2.2213999999966867 0.0 0.0 0.0 0.0 0.0 0.0 0.0
3442.2 0.45809493550609603 -1.885529400329105 1.891353982108473 -1.5775092871271372 -1.5641353746118325 0.4580848792769454 0.0 -0.0 0.0 0.0 0.0 0.0 0.0 0.0 0.0 0.0 0.0 0.0 -5.8460745106854385e-18 -0.3114035749645834 -0.846364901061535 -0.2526174815615467 0.0004674078944194274 0.0 -6.708954748022854e-17 -3.5869018288149865 -7.146021544880584 -1.0426759266417487 0.001940388804645364 0.0 0.4581168591976166 -1.8854735533343714 1.891369342803955 -1.5774734655963343 -1.5641635099994105 0.4580764174461365 -1.917476038215682e-05 1.917476038215682e-05 -0.0 7.190534961409867e-05 2.3968450477696024e-05 0.0 -0.008972168900072575 -0.4172058403491974 -0.7853962182998657 -0.21484681963920593 0.134279265999794 0.008951950818300247 -0.008972168900072575 -0.4172058403491974 -0.7762459516525269 -0.20701386034488678 0.1376362442970276 0.0055949692614376545 -0.1500002812709245 -0.20000294338794822 0.2999798956576594 2.2213612139702277 2.2214278406966184 0.00017341832835917007 -2.2282025402456727e-07 2.5142152167016937e-06 -1.0422142793192507e-05 1.884471632359533e-05 -9.225623347486538e-05 -1.9655820227320496e-05 -5.081534239396863 -7.267303934480032 1.8160846796600536 1.1491140432663212 -0.12704591343737612 0.04166933347153389 -0.1499999999850033 -0.19999999999266432 0.30000000001152166 2.221400000057386 2.2213999999966867 0.0 0.0 0.0 0.0 0.0 0.0 0.0
3442.2079999999996 0.45809493550609603 -1.885529400329105 1.891353982108473 -1.5775092871271372 -1.5641353746118325 0.4580848792769454 0.0 -0.0 0.0 0.0 0.0 0.0 0.0 0.0 0.0 0.0 0.0 0.0 -5.8460745106854385e-18 -0.3114035749645834 -0.846364901061535 -0.2526174815615467 0.0004674078944194274 0.0 -6.708954748022854e-17 -3.5869018288149865 -7.146021544880584 -1.0426759266417487 0.001940388804645364 0.0 0.4581048786640167 -1.8854616324054163 1.891369342803955 -1.5775211493121546 -1.5641878286944788 0.4580764174461365 -1.917476038215682e-05 1.917476038215682e-05 -0.0 7.190534961409867e-05 2.3968450477696024e-05 0.0 -0.006729126907885075 -0.4127197563648224 -0.7350698709487915 -0.20589487254619598 0.14546920359134674 0.004475975409150124 -0.01570129580795765 -0.4172058403491974 -0.7762459516525269 -0.20589487254619598 0.1376362442970276 0.0033569815568625927 -0.15000865411719194 -0.20000189094024798 0.2999813118425391 2.2213985917733345 2.2214392281517146 0.00013248645310359655 -2.2302535264176707e-07 2.514225426701915e-06 -1.0422511322323616e-05 1.8843619062794366e-05 -9.225646335612306e-05 -1.9654962227925958e-05 -5.865263893952577 -8.258082113313844 3.8453328131696916 1.3356147250770993 -0.2870234660552879 0.020863961431562023 -0.1499999999850033 -0.19999999999266432 0.30000000001152166 2.221400000057386 2.2213999999966867 0.0 0.0 0.0 0.0 0.0 0.0 0.0
3442.216 0.45809493550609603 -1.885529400329105 1.891353982108473 -1.5775092871271372 -1.5641353746118325 0.4580848792769454 0.0 -0.0 0.0 0.0 0.0 0.0 0.0 0.0 0.0 0.0 0.0 0.0 -5.8460745106854385e-18 -0.3114035749645834 -0.846364901061535 -0.2526174815615467 0.0004674078944194274 0.0 -6.708954748022854e-17 -3.5869018288149865 -7.146021544880584 -1.0426759266417487 0.001940388804645364 0.0 0.458080917596817 -1.8854854742633265 1.891345500946045 -1.5775092283831995 -1.5641515890704554 0.45808878540992737 -1.917476038215682e-05 1.917476038215682e-05 -0.0 7.190534961409867e-05 2.3968450477696024e-05 0.0 -0.01345825381577015 -0.4306641221046448 -0.7655707001686096 -0.19022895395755768 0.13204127550125122 0.006713963113725185 -0.011215210892260075 -0.4216919243335724 -0.7808210849761963 -0.2036568820476532 0.1376362442970276 0.006713963113725185 -0.150009862615834 -0.19999988597052853 0.2999927305242557 2.2214227350277667 2.2213828330464964 6.099526233014379e-05 -2.2339015731172806e-07 2.513967699826653e-06 -1.0422603518745571e-05 1.884139683623506e-05 -9.225692164304393e-05 -1.9654108320591786e-05 -5.919659751873424 -8.83854512621457 2.148758667449169 1.2315318360044951 -0.12439687773757542 0.031230085621728108 -0.1499999999850033 -0.19999999999266432 0.30000000001152166 2.221400000057386 2.2213999999966867 0.0 0.0 0.0 0.0 0.0 0.0 0.0
3442.2239999999997 0.45809493550609603 -1.885529400329105 1.891353982108473 -1.5775092871271372 -1.5641353746118325 0.4580848792769454 0.0 -0.0 0.0 0.0 0.0 0.0 0.0 0.0 0.0 0.0 0.0 0.0 -5.8460745106854385e-18 -0.3114035749645834 -0.846364901061535 -0.2526174815615467 0.0004674078944194274 0.0 -6.708954748022854e-17 -3.5869018288149865 -7.146021544880584 -1.0426759266417487 0.001940388804645364 0.0 0.458080917596817 -1.8854616324054163 1.891345500946045 -1.5775211493121546 -1.5641878286944788 0.45805245637893677 -1.917476038215682e-05 1.917476038215682e-05 -0.0 7.190534961409867e-05 2.3968450477696024e-05 0.0 -0.006729126907885075 -0.4172058403491974 -0.7548953890800476 -0.21148984134197235 0.14323121309280396 0.0033569815568625927 -0.008972168900072575 -0.4149627983570099 -0.7762459516525269 -0.2036568820476532 0.1376362442970276 0.004475975409150124 -0.15001522821442645 -0.19999920503742746 0.29998843323809904 2.221403911194407 2.221444746888331 9.702333928500226e-05 -2.2323650328407966e-07 2.5141403534726566e-06 -1.0422690771292032e-05 1.8841405462792032e-05 -9.22569187265596e-05 -1.965439235950635e-05 -5.644921585142822 -7.9986419955251025 3.08954395988768 1.2878206549491498 -0.23869607213362795 0.015645600347971637 -0.1499999999850033 -0.19999999999266432 0.30000000001152166 2.221400000057386 2.2213999999966867 0.0 0.0 0.0 0.0 0.0 0.0 0.0
3442.232 0.45809493550609603 -1.885529400329105 1.891353982108473 -1.5775092871271372 -1.5641353746118325 0.4580848792769454 0.0 -0.0 0.0 0.0 0.0 0.0 0.0 0.0 0.0 0.0 0.0 0.0 -5.8460745106854385e-18 -0.3114035749645834 -0.846364901061535 -0.2526174815615467 0.0004674078944194274 0.0 -6.708954748022854e-17 -3.5869018288149865 -7.146021544880584 -1.0426759266417487 0.001940388804645364 0.0 0.45809289813041687 -1.8854616324054163 1.8913216590881348 -1.5775092283831995 -1.5641635099994105 0.45808878540992737 -1.917476038215682e-05 1.917476038215682e-05 -0.0 7.190534961409867e-05 2.3968450477696024e-05 0.0 -0.004486084450036287 -0.4239349663257599 -0.7731958627700806 -0.2036568820476532 0.13987423479557037 0.006713963113725185 -0.006729126907885075 -0.4194488823413849 -0.7792960405349731 -0.2014188915491104 0.1376362442970276 0.007832957431674004 -0.1500128515590628 -0.2000032663229283 0.29999453413854793 2.2214173543508204 2.2214041754335443 6.701592820530561e-05 -2.2348141245813476e-07 2.5140536647639355e-06 -1.0422733012945065e-05 1.884250665708067e-05 -9.225669528096332e-05 -1.9654108210615116e-05 -5.6980322011645885 -7.773514925150217 2.108670148009978 1.2022643848553258 -0.14224163036367635 0.031220492746960708 -0.1499999999850033 -0.19999999999266432 0.30000000001152166 2.221400000057386 2.2213999999966867 0.0 0.0 0.0 0.0 0.0 0.0 0.0
3442.24 0.45809493550609603 -1.885529400329105 1.891353982108473 -1.5775092871271372 -1.5641353746118325 0.4580848792769454 0.0 -0.0 0.0 0.0 0.0 0.0 0.0 0.0 0.0 0.0 0.0 0.0 -5.8460745106854385e-18 -0.3114035749645834 -0.846364901061535 -0.2526174815615467 0.0004674078944194274 0.0 -6.708954748022854e-17 -3.5869018288149865 -7.146021544880584 -1.0426759266417487 0.001940388804645364 0.0 0.4580689072608948 -1.8854735533343714 1.891369342803955 -1.5775335470782679 -1.5641396681415003 0.4580404460430145 -1.917476038215682e-05 1.917476038215682e-05 -0.0 7.190534961409867e-05 2.3968450477696024e-05 0.0 -0.01345825381577015 -0.4127197563648224 -0.7686207294464111 -0.2014188915491104 0.134279265999794 0.0033569815568625927 -0.008972168900072575 -0.4194488823413849 -0.7747209072113037 -0.2014188915491104 0.1376362442970276 0.004475975409150124 -0.15001342162545775 -0.1999997332643165 0.2999850262355766 2.221371708999076 2.2214126594422106 7.198179818972052e-05 -2.231963606579966e-07 2.514089057731616e-06 -1.0422546161948615e-05 1.8840297780451036e-05 -9.225714503631574e-05 -1.9654380200305004e-05 -5.108792465882982 -7.860979514724885 2.2655231738891044 1.187506988960254 -0.10811223390739991 0.015672446517741048 -0.1499999999850033 -0.19999999999266432 0.30000000001152166 2.221400000057386 2.2213999999966867 0.0 0.0 0.0 0.0 0.0 0.0 0.0
3442.248 0.45809493550609603 -1.885529400329105 1.891353982108473 -1.5775092871271372 -1.5641353746118325 0.4580848792769454 0.0 -0.0 0.0 0.0 0.0 0.0 0.0 0.0 0.0 0.0 0.0 0.0 -5.8460745106854385e-18 -0.3114035749645834 -0.846364901061535 -0.2526174815615467 0.0004674078944194274 0.0 -6.708954748022854e-17 -3.5869018288149865 -7.146021544880584 -1.0426759266417487 0.001940388804645364 0.0 0.45809289813041687 -1.885533634816305 1.8913216590881348 -1.5775092283831995 -1.5641754309283655 0.4580764174461365 -1.917476038215682e-05 1.917476038215682e-05 -0.0 7.190534961409867e-05 2.3968450477696024e-05 0.0 0.0022430422250181437 -0.4127197563648224 -0.7747209072113037 -0.22939373552799225 0.14099322259426117 0.0033569815568625927 -0.008972168900072575 -0.4127197563648224 -0.7762459516525269 -0.2014188915491104 0.1376362442970276 0.004475975409150124 -0.1500037140362716 -0.19999768842280535 0.3000105979188168 2.2214278823512807 2.2214423505368894 -3.4058492905230925e-05 -2.2404720255721955e-07 2.513547091708249e-06 -1.0422978139232823e-05 1.8842483899240058e-05 -9.225670885325027e-05 -1.9652387538825386e-05 -5.26913959017851 -6.729074257946917 2.607959813664818 1.1921671377338379 -0.2492612431629707 0.01556831656516661 -0.1499999999850033 -0.19999999999266432 0.30000000001152166 2.221400000057386 2.2213999999966867 0.0 0.0 0.0 0.0 0.0 0.0 0.0
3442.256 0.45809493550609603 -1.885529400329105 1.891353982108473 -1.5775092871271372 -1.5641353746118325 0.4580848792769454 0.0 -0.0 0.0 0.0 0.0 0.0 0.0 0.0 0.0 0.0 0.0 0.0 -5.8460745106854385e-18 -0.3114035749645834 -0.846364901061535 -0.2526174815615467 0.0004674078944194274 0.0 -6.708954748022854e-17 -3.5869018288149865 -7.146021544880584 -1.0426759266417487 0.001940388804645364 0.0 0.4580689072608948 -1.8854854742633265 1.8913817405700684 -1.5774973074542444 -1.5641997496234339 0.45805245637893677 -1.917476038215682e-05 1.917476038215682e-05 -0.0 7.190534961409867e-05 2.3968450477696024e-05 0.0 -0.0022430422250181437 -0.4149627983570099 -0.7869212627410889 -0.20925185084342957 0.12980328500270844 0.0033569815568625927 -0.008972168900072575 -0.4172058403491974 -0.7762459516525269 -0.2014188915491104 0.1376362442970276 0.004475975409150124 -0.1500104335968568 -0.1999927050219357 0.29998089181147936 2.221417315823334 2.221430857805742 0.00015695781568658853 -2.2278619300390348e-07 2.5141659795798736e-06 -1.042233620113636e-05 1.8840292341391962e-05 -9.225714043418408e-05 -1.9655260240363775e-05 -5.118313928649316 -6.911674111526918 1.6285036988444965 1.0824542084183546 -0.10140926280472072 0.015663508121473303 -0.1499999999850033 -0.19999999999266432 0.30000000001152166 2.221400000057386 2.2213999999966867 0.0 0.0 0.0 0.0 0.0 0.0 0.0
3442.2639999999997 0.45809493550609603 -1.885529400329105 1.891353982108473 -1.5775092871271372 -1.5641353746118325 0.4580848792769454 0.0 -0.0 0.0 0.0 0.0 0.0 0.0 0.0 0.0 0.0 0.0 0.0 -5.8460745106854385e-18 -0.3114035749645834 -0.846364901061535 -0.2526174815615467 0.0004674078944194274 0.0 -6.708954748022854e-17 -3.5869018288149865 -7.146021544880584 -1.0426759266417487 0.001940388804645364 0.0 0.458080917596817 -1.8854497114764612 1.8913936614990234 -1.5774496237384241 -1.5641754309283655 0.4580644369125366 -1.917476038215682e-05 1.917476038215682e-05 -0.0 7.190534961409867e-05 2.3968450477696024e-05 0.0 -0.006729126907885075 -0.4172058403491974 -0.788446307182312 -0.18351499736309052 0.1376362442970276 0.004475975409150124 -0.008972168900072575 -0.4172058403491974 -0.7762459516525269 -0.2014188915491104 0.1376362442970276 0.0055949692614376545 -0.150007501374059 -0.19999641792940948 0.2999652777118453 2.2213797709241025 2.22139252588866 0.00028654027542201436 -2.2205941038705964e-07 2.514542024265753e-06 -1.042173106539858e-05 1.884140913283931e-05 -9.225689900942503e-05 -1.965754269066319e-05 -5.193484819327487 -7.36159483460776 0.9989142169271256 1.0759195065201517 0.06339880956626397 0.020967788353527462 -0.1499999999850033 -0.19999999999266432 0.30000000001152166 2.221400000057386 2.2213999999966867 0.0 0.0 0.0 0.0 0.0 0.0 0.0
3442.272 0.45809493550609603 -1.885529400329105 1.891353982108473 -1.5775092871271372 -1.5641353746118325 0.4580848792769454 0.0 -0.0 0.0 0.0 0.0 0.0 0.0 0.0 0.0 0.0 0.0 0.0 -5.8460745106854385e-18 -0.3114035749645834 -0.846364901061535 -0.2526174815615467 0.0004674078944194274 0.0 -6.708954748022854e-17 -3.5869018288149865 -7.146021544880584 -1.0426759266417487 0.001940388804645364 0.0 0.45804494619369507 -1.8855097929583948 1.8913335800170898 -1.5774615446673792 -1.5641515890704554 0.4580284655094147 -1.917476038215682e-05 1.917476038215682e-05 -0.0 7.190534961409867e-05 2.3968450477696024e-05 0.0 -0.008972168900072575 -0.4239349663257599 -0.7792960405349731 -0.19806191325187683 0.14099322259426117 0.0055949692614376545 -0.008972168900072575 -0.4172058403491974 -0.77777099609375 -0.2014188915491104 0.1376362442970276 0.0055949692614376545 -0.15001120840505153 -0.1999915945332452 0.29999764268210594 2.22139338776562 2.2214070354063757 7.803424562495956e-05 -2.2326546490978935e-07 2.513851663415526e-06 -1.0422410754418232e-05 1.8838064716135796e-05 -9.225759951617239e-05 -1.965438511082067e-05 -5.491478811774438 -7.917056516118304 1.7170089782680702 1.19260030172577 -0.06979269461469816 0.026047551837149848 -0.1499999999850033 -0.19999999999266432 0.30000000001152166 2.221400000057386 2.2213999999966867 0.0 0.0 0.0 0.0 0.0 0.0 0.0
3442.2799999999997 0.45809493550609603 -1.885529400329105 1.891353982108473 -1.5775092871271372 -1.5641353746118325 0.4580848792769454 0.0 -0.0 0.0 0.0 0.0 0.0 0.0 0.0 0.0 0.0 0.0 0.0 -5.8460745106854385e-18 -0.3114035749645834 -0.846364901061535 -0.2526174815615467 0.0004674078944194274 0.0 -6.708954748022854e-17 -3.5869018288149865 -7.146021544880584 -1.0426759266417487 0.001940388804645364 0.0 0.4580569267272949 -1.8854377905475062 1.891369342803955 -1.5774615446673792 -1.5641515890704554 0.45805245637893677 -1.917476038215682e-05 1.917476038215682e-05 -0.0 7.190534961409867e-05 2.3968450477696024e-05 0.0 -0.01345825381577015 -0.4194488823413849 -0.7945464849472046 -0.19694292545318604 0.14435020089149475 0.001118993852287531 -0.008972168900072575 -0.4172058403491974 -0.7762459516525269 -0.2025378942489624 0.1376362442970276 0.004475975409150124 -0.15001571021010013 -0.1999967254115131 0.2999708981716976 2.221382471509104 2.221368940080903 0.00023831848922727754 -2.2230551373184918e-07 2.5144996178816347e-06 -1.0421919837335345e-05 1.8839197503974964e-05 -9.225735432962595e-05 -1.9656960584446403e-05 -4.9023047497834 -7.653995244279729 1.0192330107157632 1.156312551343314 0.04381711384748619 0.005393114780566936 -0.1499999999850033 -0.19999999999266432 0.30000000001152166 2.221400000057386 2.2213999999966867 0.0 0.0 0.0 0.0 0.0 0.0 0.0
