mkrssg/UniversalRobots/rtde_client_3.5/examples/roboter/move_l.csv
timestamp target_q_0 target_q_1 target_q_2 target_q_3 target_q_4 target_q_5 target_qd_0 target_qd_1 target_qd_2 target_qd_3 target_qd_4 target_qd_5 target_qdd_0 target_qdd_1 target_qdd_2 target_qdd_3 target_qdd_4 target_qdd_5 target_current_0 target_current_1 target_current_2 target_current_3 target_current_4 target_current_5 target_moment_0 target_moment_1 target_moment_2 target_moment_3 target_moment_4 target_moment_5 actual_q_0 actual_q_1 actual_q_2 actual_q_3 actual_q_4 actual_q_5 actual_qd_0 actual_qd_1 actual_qd_2 actual_qd_3 actual_qd_4 actual_qd_5 actual_current_0 actual_current_1 actual_current_2 actual_current_3 actual_current_4 actual_current_5 joint_control_output_0 joint_control_output_1 joint_control_output_2 joint_control_output_3 joint_control_output_4 joint_control_output_5 actual_TCP_pose_0 actual_TCP_pose_1 actual_TCP_pose_2 actual_TCP_pose_3 actual_TCP_pose_4 actual_TCP_pose_5 actual_TCP_speed_0 actual_TCP_speed_1 actual_TCP_speed_2 actual_TCP_speed_3 actual_TCP_speed_4 actual_TCP_speed_5 actual_TCP_force_0 actual_TCP_force_1 actual_TCP_force_2 actual_TCP_force_3 actual_TCP_force_4 actual_TCP_force_5 target_TCP_pose_0 target_TCP_pose_1 target_TCP_pose_2 target_TCP_pose_3 target_TCP_pose_4 target_TCP_pose_5 target_TCP_speed_0 target_TCP_speed_1 target_TCP_speed_2 target_TCP_speed_3 target_TCP_speed_4 target_TCP_speed_5
6052.352 0.2680872828884263 -1.3895566730145532 1.433086495482227 -1.615207786856626 -1.5645134610073868 0.269382720249164 0.0 0.0 0.0 0.0 0.0 0.0 0.0 0.0 0.0 0.0 0.0 0.0 1.694946507515403e-17 -0.7998186258031201 -0.8456921628019337 -0.25261700746724114 0.00044087742943040405 0.0 1.9451205075227403e-16 -9.21271020070911 -7.140341486443441 -1.0426739698226233 0.0018302507050082584 0.0 0.26805153489112854 -1.3896454016314905 1.433110237121582 -1.6152036825763147 -1.5645483175860804 0.2693585753440857 0.0 0.0 -0.0 0.0 0.0 0.0 0.011215210892260075 -0.903946042060852 -0.9226499199867249 -0.3099612891674042 0.048116736114025116 -0.02349887043237686 0.008972168900072575 -0.8972169160842896 -0.9501006603240967 -0.3043663203716278 0.0682586282491684 -0.019022895023226738 -0.2999928111681805 -0.19998236816848264 0.30002294191159523 -2.2214531054721576 -2.221427261723037 5.607196789594585e-05 0.0 0.0 0.0 0.0 0.0 0.0 -1.9143687429123584 -1.158539673690202 -2.274657466047298 0.32812815186462324 -0.16639036444036873 -0.1090200294575457 -0.29999999999027316 -0.1999999999970864 0.30000000000492744 2.221400000029067 2.221400000003588 -2.3788812377712793e-11 0.0 0.0 0.0 0.0 0.0 0.0
6052.36 0.2680872828884263 -1.3895566730145532 1.433086495482227 -1.615207786856626 -1.5645134610073868 0.269382720249164 0.0 0.0 0.0 0.0 0.0 0.0 0.0 0.0 0.0 0.0 0.0 0.0 1.694946507515403e-17 -0.7998186258031201 -0.8456921628019337 -0.25261700746724114 0.00044087742943040405 0.0 1.9451205075227403e-16 -9.21271020070911 -7.140341486443441 -1.0426739698226233 0.0018302507050082584 0.0 0.2680395543575287 -1.3896568457232874 1.433122158050537 -1.6152036825763147 -1.5645244757281702 0.2693106234073639 0.0 0.0 -0.0 0.0 0.0 0.0 0.006729126907885075 -0.903946042060852 -0.9348502159118652 -0.29877135157585144 0.08616252988576889 -0.022379877045750618 0.004486084450036287 -0.8972169160842896 -0.9501006603240967 -0.3043663203716278 0.0682586282491684 -0.019022895023226738 -0.2999919963148392 -0.19997991953772068 0.30002329932167765 2.221400905537827 2.2214549619642776 -7.389061417296231e-05 0.0 0.0 0.0 0.0 0.0 0.0 -1.3313939031858837 -0.945035515421009 -3.032652089320542 0.45026528823898854 0.04123207143382826 -0.1038349204123964 -0.29999999999027316 -0.1999999999970864 0.30000000000492744 2.221400000029067 2.221400000003588 -2.3788812377712793e-11 0.0 0.0 0.0 0.0 0.0 0.0
6052.3679999999995 0.2680872828884263 -1.3895566730145532 1.433086495482227 -1.615207786856626 -1.5645134610073868 0.269382720249164 0.0 0.0 0.0 0.0 0.0 0.0 0.0 0.0 0.0 0.0 0.0 0.0 1.694946507515403e-17 -0.7998186258031201 -0.8456921628019337 -0.25261700746724114 0.00044087742943040405 0.0 1.9451205075227403e-16 -9.21271020070911 -7.140341486443441 -1.0426739698226233 0.0018302507050082584 0.0 0.26807549595832825 -1.3896334807025355 1.433110237121582 -1.6152156035052698 -1.5645840803729456 0.26932260394096375 0.0 0.0 -0.0 0.0 0.0 0.0 0.01345825381577015 -0.8927308320999146 -0.9867016673088074 -0.2898194193840027 0.0682586282491684 -0.014546919614076614 0.008972168900072575 -0.8972169160842896 -0.9546757936477661 -0.3043663203716278 0.0682586282491684 -0.01678490824997425 -0.2999914505688145 -0.1999874480095909 0.3000198825352278 -2.2213645315224744 -2.221471879155562 2.8371572128023465e-05 0.0 0.0 0.0 0.0 0.0 0.0 1.2703425575936247 1.199150531803426 -5.388490698826361 0.12893877708347637 0.4676122001255263 -0.06748540907496658 -0.29999999999027316 -0.1999999999970864 0.30000000000492744 2.221400000029067 2.221400000003588 -2.3788812377712793e-11 0.0 0.0 0.0 0.0 0.0 0.0
6052.375999999999 0.2680872828884263 -1.3895566730145532 1.433086495482227 -1.615207786856626 -1.5645134610073868 0.269382720249164 0.0 0.0 0.0 0.0 0.0 0.0 0.0 0.0 0.0 0.0 0.0 0.0 1.694946507515403e-17 -0.7998186258031201 -0.8456921628019337 -0.25261700746724114 0.00044087742943040405 0.0 1.9451205075227403e-16 -9.21271020070911 -7.140341486443441 -1.0426739698226233 0.0018302507050082584 0.0 0.26805153489112854 -1.3896334807025355 1.4331345558166504 -1.6151912848102015 -1.5645363966571253 0.269334614276886 0.0 0.0 -0.0 0.0 0.0 0.0 0.01570129580795765 -0.8837586641311646 -0.9348502159118652 -0.31443727016448975 0.04587874934077263 -0.02014188840985298 0.004486084450036287 -0.8972169160842896 -0.9485756158828735 -0.3043663203716278 0.0682586282491684 -0.019022895023226738 -0.2999911246282746 -0.1999828799335632 0.30001054173550284 2.2214049399438585 2.2214319583280253 1.1329570095504234e-06 0.0 0.0 0.0 0.0 0.0 0.0 -0.5393158028266901 0.0024654172304863884 -2.644048458842386 0.21957972863239503 -0.045265664667143504 -0.09343550737316837 -0.29999999999027316 -0.1999999999970864 0.30000000000492744 2.221400000029067 2.221400000003588 -2.3788812377712793e-11 0.0 0.0 0.0 0.0 0.0 0.0
6052.384 0.2680872828884263 -1.3895566730145532 1.433086495482227 -1.615207786856626 -1.5645134610073868 0.269382720249164 0.0 0.0 0.0 0.0 0.0 0.0 0.0 0.0 0.0 0.0 0.0 0.0 1.694946507515403e-17 -0.7998186258031201 -0.8456921628019337 -0.25261700746724114 0.00044087742943040405 0.0 1.9451205075227403e-16 -9.21271020070911 -7.140341486443441 -1.0426739698226233 0.0018302507050082584 0.0 0.26807549595832825 -1.3896806875811976 1.433074951171875 -1.6151555220233362 -1.5645840803729456 0.2693106234073639 0.0 0.0 -0.0 0.0 0.0 0.0 0.008972168900072575 -0.9061890840530396 -0.942475438117981 -0.28086745738983154 0.06266365945339203 -0.01342792622745037 0.008972168900072575 -0.8972169160842896 -0.9455255270004272 -0.3043663203716278 0.0682586282491684 -0.019022895023226738 -0.2999830623462584 -0.19998516115153275 0.300041442681411 -2.2213435485232376 -2.2214770692975505 5.889599632079359e-05 0.0 0.0 0.0 0.0 0.0 0.0 -1.113916521935405 -0.5654692057908536 -3.7445068469435494 0.27550354165567564 0.16837486189599632 -0.0623095717858445 -0.29999999999027316 -0.1999999999970864 0.30000000000492744 2.221400000029067 2.221400000003588 -2.3788812377712793e-11 0.0 0.0 0.0 0.0 0.0 0.0
6052.392 0.2680872828884263 -1.3895566730145532 1.433086495482227 -1.615207786856626 -1.5645134610073868 0.269382720249164 0.0 0.0 0.0 0.0 0.0 0.0 0.0 0.0 0.0 0.0 0.0 0.0 1.694946507515403e-17 -0.7998186258031201 -0.8456921628019337 -0.25261700746724114 0.00044087742943040405 0.0 1.9451205075227403e-16 -9.21271020070911 -7.140341486443441 -1.0426739698226233 0.0018302507050082584 0.0 0.26805153489112854 -1.3896454016314905 1.433110237121582 -1.6151793638812464 -1.5645721594439905 0.26932260394096375 0.0 0.0 -0.0 0.0 0.0 0.0 0.004486084450036287 -0.8972169160842896 -0.9806014895439148 -0.2875814139842987 0.07832957059144974 -0.01678490824997425 0.006729126907885075 -0.8972169160842896 -0.9546757936477661 -0.3043663203716278 0.0682586282491684 -0.019022895023226738 -0.29999140836208 -0.19997992835604658 0.3000208662916059 -2.2214071539575637 -2.221460828346558 4.348325620166737e-06 0.0 0.0 0.0 0.0 0.0 0.0 0.9144074582455238 0.5424085977704006 -5.190959848975141 0.2299679667989183 0.4443231631721228 -0.07786780029474902 -0.29999999999027316 -0.1999999999970864 0.30000000000492744 2.221400000029067 2.221400000003588 -2.3788812377712793e-11 0.0 0.0 0.0 0.0 0.0 0.0
6052.4 0.2680872828884263 -1.3895566730145532 1.433086495482227 -1.615207786856626 -1.5645134610073868 0.269382720249164 0.0 0.0 0.0 0.0 0.0 0.0 0.0 0.0 0.0 0.0 0.0 0.0 1.694946507515403e-17 -0.7998186258031201 -0.8456921628019337 -0.25261700746724114 0.00044087742943040405 0.0 1.9451205075227403e-16 -9.21271020070911 -7.140341486443441 -1.0426739698226233 0.0018302507050082584 0.0 0.2680635154247284 -1.389597241078512 1.433122158050537 -1.6151793638812464 -1.5645244757281702 0.26934659481048584 0.0 0.0 -0.0 0.0 0.0 0.0 0.004486084450036287 -0.9017030000686646 -1.0187275409698486 -0.31219929456710815 0.0682586282491684 -0.022379877045750618 0.006729126907885075 -0.8972169160842896 -0.953150749206543 -0.3043663203716278 0.0682586282491684 -0.019022895023226738 -0.29999379747873944 -0.19998887415524277 0.300000816461027 2.2213851816507386 2.221412053009278 4.072529946185347e-05 0.0 0.0 0.0 0.0 0.0 0.0 2.215517043356489 1.3232680337041154 -6.283568093947997 0.12593244197365797 0.5194131211236968 -0.10382913811892004 -0.29999999999027316 -0.1999999999970864 0.30000000000492744 2.221400000029067 2.221400000003588 -2.3788812377712793e-11 0.0 0.0 0.0 0.0 0.0 0.0
6052.407999999999 0.2680872828884263 -1.3895566730145532 1.433086495482227 -1.615207786856626 -1.5645134610073868 0.269382720249164 0.0 0.0 0.0 0.0 0.0 0.0 0.0 0.0 0.0 0.0 0.0 0.0 1.694946507515403e-17 -0.7998186258031201 -0.8456921628019337 -0.25261700746724114 0.00044087742943040405 0.0 1.9451205075227403e-16 -9.21271020070911 -7.140341486443441 -1.0426739698226233 0.0018302507050082584 0.0 0.26805153489112854 -1.389585320149557 1.4331345558166504 -1.6151912848102015 -1.5645840803729456 0.26934659481048584 0.0 0.0 -0.0 0.0 0.0 0.0 0.004486084450036287 -0.899459958076477 -0.9516257047653198 -0.27639147639274597 0.06937761604785919 -0.02014188840985298 0.004486084450036287 -0.8972169160842896 -0.9516257047653198 -0.3043663203716278 0.0682586282491684 -0.019022895023226738 -0.2999990519277547 -0.1999809635132599 0.29999405846676064 2.2214308439501287 2.221431017745701 0.00010384375158584673 0.0 0.0 0.0 0.0 0.0 0.0 -0.33649718853381266 -0.3432869860986155 -4.2126335794439695 0.27116576830591554 0.2993717771846995 -0.093415319845642 -0.29999999999027316 -0.1999999999970864 0.30000000000492744 2.221400000029067 2.221400000003588 -2.3788812377712793e-11 0.0 0.0 0.0 0.0 0.0 0.0
6052.416 0.2680872828884263 -1.3895566730145532 1.433086495482227 -1.615207786856626 -1.5645134610073868 0.269382720249164 0.0 0.0 0.0 0.0 0.0 0.0 0.0 0.0 0.0 0.0 0.0 0.0 1.694946507515403e-17 -0.7998186258031201 -0.8456921628019337 -0.25261700746724114 0.00044087742943040405 0.0 1.9451205075227403e-16 -9.21271020070911 -7.140341486443441 -1.0426739698226233 0.0018302507050082584 0.0 0.2680635154247284 -1.3896454016314905 1.433122158050537 -1.6152156035052698 -1.5645840803729456 0.26934659481048584 0.0 0.0 -0.0 0.0 0.0 0.0 0.0022430422250181437 -0.894973874092102 -0.9318001866340637 -0.29877135157585144 0.067139632999897 -0.025736859068274498 0.004486084450036287 -0.8972169160842896 -0.9516257047653198 -0.3043663203716278 0.0682586282491684 -0.019022895023226738 -0.2999910900939371 -0.1999830880156135 0.300020405274099 -2.2214045057813703 -2.2214318876959225 2.8360272973823337e-05 0.0 0.0 0.0 0.0 0.0 0.0 -0.9804668100464422 -0.9554489207024377 -2.8820682396309283 0.3691950731332214 0.03411334343283017 -0.11941067361039676 -0.29999999999027316 -0.1999999999970864 0.30000000000492744 2.221400000029067 2.221400000003588 -2.3788812377712793e-11 0.0 0.0 0.0 0.0 0.0 0.0
6052.424 0.2680872828884263 -1.3895566730145532 1.433086495482227 -1.615207786856626 -1.5645134610073868 0.269382720249164 0.0 0.0 0.0 0.0 0.0 0.0 0.0 0.0 0.0 0.0 0.0 0.0 1.694946507515403e-17 -0.7998186258031201 -0.8456921628019337 -0.25261700746724114 0.00044087742943040405 0.0 1.9451205075227403e-16 -9.21271020070911 -7.140341486443441 -1.0426739698226233 0.0018302507050082584 0.0 0.2680875062942505 -1.3896687666522425 1.433110237121582 -1.6151912848102015 -1.5645602385150355 0.26937130093574524 0.0 0.0 -0.0 0.0 0.0 0.0 0.011215210892260075 -0.8972169160842896 -0.9562008380889893 -0.2887004017829895 0.067139632999897 -0.017903901636600494 0.011215210892260075 -0.8972169160842896 -0.9485756158828735 -0.3043663203716278 0.0682586282491684 -0.019022895023226738 -0.29998155763244183 -0.19999102681186465 0.3000298824793928 -2.221416169230349 -2.221441829771794 6.178319008983287e-05 0.0 0.0 0.0 0.0 0.0 0.0 -0.1610208564000905 0.09677550237198855 -4.134565449528569 0.24174930454159402 0.24986209034297907 -0.08307285830090474 -0.29999999999027316 -0.1999999999970864 0.30000000000492744 2.221400000029067 2.221400000003588 -2.3788812377712793e-11 0.0 0.0 0.0 0.0 0.0 0.0
6052.432 0.2680872828884263 -1.3895566730145532 1.433086495482227 -1.615207786856626 -1.5645134610073868 0.269382720249164 0.0 0.0 0.0 0.0 0.0 0.0 0.0 0.0 0.0 0.0 0.0 0.0 1.694946507515403e-17 -0.7998186258031201 -0.8456921628019337 -0.25261700746724114 0.00044087742943040405 0.0 1.9451205075227403e-16 -9.21271020070911 -7.140341486443441 -1.0426739698226233 0.0018302507050082584 0.0 0.2680875062942505 -1.3896568457232874 1.433110237121582 -1.6151793638812464 -1.5645602385150355 0.269334614276886 0.0 0.0 -0.0 0.0 0.0 0.0 0.0022430422250181437 -0.903946042060852 -0.9394253492355347 -0.3233892321586609 0.0682586282491684 -0.01678490824997425 0.004486084450036287 -0.8972169160842896 -0.9516257047653198 -0.3043663203716278 0.0682586282491684 -0.019022895023226738 -0.2999823177177441 -0.19999122144653025 0.30002478299365115 -2.221383840325732 -2.2214907995503035 2.9212659041036297e-05 0.0 0.0 0.0 0.0 0.0 0.0 -1.2019113689284588 -0.9646722834568283 -2.695174962448745 0.4096179141387467 -0.10815133076739163 -0.07787419541668132 -0.29999999999027316 -0.1999999999970864 0.30000000000492744 2.221400000029067 2.221400000003588 -2.3788812377712793e-11 0.0 0.0 0.0 0.0 0.0 0.0
6052.44 0.2680872828884263 -1.3895566730145532 1.433086495482227 -1.615207786856626 -1.5645134610073868 0.269382720249164 0.0 0.0 0.0 0.0 0.0 0.0 0.0 0.0 0.0 0.0 0.0 0.0 1.694946507515403e-17 -0.7998186258031201 -0.8456921628019337 -0.25261700746724114 0.00044087742943040405 0.0 1.9451205075227403e-16 -9.21271020070911 -7.140341486443441 -1.0426739698226233 0.0018302507050082584 0.0 0.2680635154247284 -1.3896454016314905 1.433122158050537 -1.61523944536318 -1.5645363966571253 0.2693585753440857 0.0 0.0 -0.0 0.0 0.0 0.0 0.004486084450036287 -0.8837586641311646 -0.9485756158828735 -0.3233892321586609 0.07273460179567337 -0.03580780327320099 0.004486084450036287 -0.8972169160842896 -0.9485756158828735 -0.3043663203716278 0.0682586282491684 -0.019022895023226738 -0.2999919325818198 -0.19998740989976066 0.3000224381003453 -2.2214386158517327 -2.2214398199979755 9.79127595731551e-05 0.0 0.0 0.0 0.0 0.0 0.0 0.16550124999748897 -0.25106093124536977 -3.0344663258760107 0.3629702640119022 0.03857368441190847 -0.16613700174167445 -0.29999999999027316 -0.1999999999970864 0.30000000000492744 2.221400000029067 2.221400000003588 -2.3788812377712793e-11 0.0 0.0 0.0 0.0 0.0 0.0
6052.447999999999 0.2680872828884263 -1.3895566730145532 1.433086495482227 -1.615207786856626 -1.5645134610073868 0.269382720249164 0.0 0.0 0.0 0.0 0.0 0.0 0.0 0.0 0.0 0.0 0.0 0.0 1.694946507515403e-17 -0.7998186258031201 -0.8456921628019337 -0.25261700746724114 0.00044087742943040405 0.0 1.9451205075227403e-16 -9.21271020070911 -7.140341486443441 -1.0426739698226233 0.0018302507050082584 0.0 0.26807549595832825 -1.3896210829364222 1.433074951171875 -1.6151912848102015 -1.5645960013019007 0.26932260394096375 0.0 0.0 -0.0 0.0 0.0 0.0 0.01794433780014515 -0.8972169160842896 -1.0294028520584106 -0.3066043257713318 0.05818767845630646 -0.027974845841526985 0.01345825381577015 -0.8927308320999146 -0.953150749206543 -0.3043663203716278 0.0682586282491684 -0.019022895023226738 -0.2999946742751971 -0.1999873332641381 0.3000240941414938 -2.2213577584256003 -2.221464975918423 1.7170048129918196e-05 0.0 0.0 0.0 0.0 0.0 0.0 2.7703797314178664 2.1839233816274 -6.843800631719853 -0.009838702775748694 0.624198874644451 -0.12976579693967846 -0.29999999999027316 -0.1999999999970864 0.30000000000492744 2.221400000029067 2.221400000003588 -2.3788812377712793e-11 0.0 0.0 0.0 0.0 0.0 0.0
6052.456 0.2680872828884263 -1.3895566730145532 1.433086495482227 -1.615207786856626 -1.5645134610073868 0.269382720249164 0.0 0.0 0.0 0.0 0.0 0.0 0.0 0.0 0.0 0.0 0.0 0.0 1.694946507515403e-17 -0.7998186258031201 -0.8456921628019337 -0.25261700746724114 0.00044087742943040405 0.0 1.9451205075227403e-16 -9.21271020070911 -7.140341486443441 -1.0426739698226233 0.0018302507050082584 0.0 0.2680635154247284 -1.389609162007467 1.43306303024292 -1.6152156035052698 -1.5645244757281702 0.2693106234073639 0.0 0.0 -0.0 0.0 0.0 0.0 0.01345825381577015 -0.8972169160842896 -0.9379003047943115 -0.32786521315574646 0.06602063775062561 -0.024617865681648254 0.006729126907885075 -0.8972169160842896 -0.9470505714416504 -0.3043663203716278 0.0682586282491684 -0.019022895023226738 -0.30000018435479003 -0.19999073047656074 0.3000256427961781 2.221382155271502 2.221489926673272 -0.00010586691689491127 0.0 0.0 0.0 0.0 0.0 0.0 -1.0502868227189517 -0.5036497817181294 -2.5176093990507695 0.37098121929914757 -0.1326380241407957 -0.11421514885013244 -0.29999999999027316 -0.1999999999970864 0.30000000000492744 2.221400000029067 2.221400000003588 -2.3788812377712793e-11 0.0 0.0 0.0 0.0 0.0 0.0
6052.464 0.2680872828884263 -1.3895566730145532 1.433086495482227 -1.615207786856626 -1.5645134610073868 0.269382720249164 0.0 0.0 0.0 0.0 0.0 0.0 0.0 0.0 0.0 0.0 0.0 0.0 1.694946507515403e-17 -0.7998186258031201 -0.8456921628019337 -0.25261700746724114 0.00044087742943040405 0.0 1.9451205075227403e-16 -9.21271020070911 -7.140341486443441 -1.0426739698226233 0.0018302507050082584 0.0 0.2680635154247284 -1.389609162007467 1.4330863952636719 -1.6151912848102015 -1.5645363966571253 0.26934659481048584 0.0 0.0 -0.0 0.0 0.0 0.0 0.004486084450036287 -0.912918210029602 -0.9607759714126587 -0.29989033937454224 0.051473718136548996 -0.019022895023226738 0.006729126907885075 -0.8972169160842896 -0.9546757936477661 -0.3043663203716278 0.0682586282491684 -0.019022895023226738 -0.29999645720433354 -0.19998864283837414 0.30001659178651835 2.2214130901066054 2.221440409325286 -3.1462442298519226e-05 0.0 0.0 0.0 0.0 0.0 0.0 -0.6722988969924006 -0.5499527890371757 -4.12555117576741 0.23877754159428843 0.13741475429859576 -0.0882543258089605 -0.29999999999027316 -0.1999999999970864 0.30000000000492744 2.221400000029067 2.221400000003588 -2.3788812377712793e-11 0.0 0.0 0.0 0.0 0.0 0.0
6052.472 0.2680872828884263 -1.3895566730145532 1.433086495482227 -1.615207786856626 -1.5645134610073868 0.269382720249164 0.0 0.0 0.0 0.0 0.0 0.0 0.0 0.0 0.0 0.0 0.0 0.0 1.694946507515403e-17 -0.7998186258031201 -0.8456921628019337 -0.25261700746724114 0.00044087742943040405 0.0 1.9451205075227403e-16 -9.21271020070911 -7.140341486443441 -1.0426739698226233 0.0018302507050082584 0.0 0.26802757382392883 -1.3896454016314905 1.433074951171875 -1.615227524434225 -1.5645483175860804 0.26932260394096375 0.0 0.0 -0.0 0.0 0.0 0.0 0.0022430422250181437 -0.9151612520217896 -0.9180747866630554 -0.3233892321586609 0.067139632999897 -0.027974845841526985 0.006729126907885075 -0.8972169160842896 -0.9485756158828735 -0.3043663203716278 0.0682586282491684 -0.019022895023226738 -0.300002605917229 -0.19997661339093695 0.3000355116670363 -2.2214188436666875 -2.221420281494688 0.0001368678403755257 0.0 0.0 0.0 0.0 0.0 0.0 -2.5679517627140074 -2.048250058163567 -1.820840427055772 0.5135594938920034 -0.29403464247490035 -0.1298113488900544 -0.29999999999027316 -0.1999999999970864 0.30000000000492744 2.221400000029067 2.221400000003588 -2.3788812377712793e-11 0.0 0.0 0.0 0.0 0.0 0.0
6052.48 0.2680872828884263 -1.3895566730145532 1.433086495482227 -1.615207786856626 -1.5645134610073868 0.269382720249164 0.0 0.0 0.0 0.0 0.0 0.0 0.0 0.0 0.0 0.0 0.0 0.0 1.694946507515403e-17 -0.7998186258031201 -0.8456921628019337 -0.25261700746724114 0.00044087742943040405 0.0 1.9451205075227403e-16 -9.21271020070911 -7.140341486443441 -1.0426739698226233 0.0018302507050082584 0.0 0.2680395543575287 -1.3896454016314905 1.4330863952636719 -1.6151912848102015 -1.5645244757281702 0.2693832814693451 0.0 0.0 -0.0 0.0 0.0 0.0 0.004486084450036287 -0.9106751680374146 -0.9318001866340637 -0.29877135157585144 0.06042566895484924 -0.01342792622745037 0.006729126907885075 -0.8972169160842896 -0.9501006603240967 -0.3043663203716278 0.0682586282491684 -0.019022895023226738 -0.29999580829525613 -0.19998099430246263 0.3000289972435893 2.2214857303897237 2.2213784506570304 -9.017740823367011e-05 0.0 0.0 0.0 0.0 0.0 0.0 -1.7811106480907002 -1.202581768336453 -2.918822582216877 0.35872773230619864 -0.03744557396325186 -0.062303792724802465 -0.29999999999027316 -0.1999999999970864 0.30000000000492744 2.221400000029067 2.221400000003588 -2.3788812377712793e-11 0.0 0.0 0.0 0.0 0.0 0.0
6052.487999999999 0.2680872828884263 -1.3895566730145532 1.433086495482227 -1.615207786856626 -1.5645134610073868 0.269382720249164 0.0 0.0 0.0 0.0 0.0 0.0 0.0 0.0 0.0 0.0 0.0 0.0 1.694946507515403e-17 -0.7998186258031201 -0.8456921628019337 -0.25261700746724114 0.00044087742943040405 0.0 1.9451205075227403e-16 -9.21271020070911 -7.140341486443441 -1.0426739698226233 0.0018302507050082584 0.0 0.26809948682785034 -1.3896334807025355 1.433110237121582 -1.6152036825763147 -1.5645960013019007 0.2693585753440857 0.0 0.0 -0.0 0.0 0.0 0.0 0.011215210892260075 -0.8927308320999146 -0.9668760895729065 -0.2931763827800751 0.06602063775062561 -0.0033569815568625927 0.006729126907885075 -0.8972169160842896 -0.9501006603240967 -0.3043663203716278 0.0682586282491684 -0.019022895023226738 -0.29998597014614714 -0.1999934304333331 0.300018865118226 -2.221374755271276 -2.221455297629732 2.8377075713400558e-06 0.0 0.0 0.0 0.0 0.0 0.0 0.42203067619586965 0.7104957537421659 -4.477123932229682 0.18407624017222937 0.3045376565968366 -0.015571055362145142 -0.29999999999027316 -0.1999999999970864 0.30000000000492744 2.221400000029067 2.221400000003588 -2.3788812377712793e-11 0.0 0.0 0.0 0.0 0.0 0.0
6052.496 0.2680872828884263 -1.3895566730145532 1.433086495482227 -1.615207786856626 -1.5645134610073868 0.269382720249164 0.0 0.0 0.0 0.0 0.0 0.0 0.0 0.0 0.0 0.0 0.0 0.0 1.694946507515403e-17 -0.7998186258031201 -0.8456921628019337 -0.25261700746724114 0.00044087742943040405 0.0 1.9451205075227403e-16 -9.21271020070911 -7.140341486443441 -1.0426739698226233 0.0018302507050082584 0.0 0.26805153489112854 -1.3896687666522425 1.433074951171875 -1.6151912848102015 -1.5645363966571253 0.26937130093574524 0.0 0.0 -0.0 0.0 0.0 0.0 0.008972168900072575 -0.8972169160842896 -0.9958518743515015 -0.29877135157585144 0.06602063775062561 -0.021260883659124374 0.011215210892260075 -0.8972169160842896 -0.9501006603240967 -0.3043663203716278 0.0682586282491684 -0.019022895023226738 -0.2999913443298674 -0.19998302596294673 0.30004041309807344 -2.221458310771963 -2.2214043847036526 0.00012847034306433784 0.0 0.0 0.0 0.0 0.0 0.0 1.4770061387931457 1.0405537649452132 -5.594489600614794 0.1382495731008897 0.4589524251091603 -0.09866419712710689 -0.29999999999027316 -0.1999999999970864 0.30000000000492744 2.221400000029067 2.221400000003588 -2.3788812377712793e-11 0.0 0.0 0.0 0.0 0.0 0.0
6052.504 0.2680872828884263 -1.3895566730145532 1.433086495482227 -1.615207786856626 -1.5645134610073868 0.269382720249164 0.0 0.0 0.0 0.0 0.0 0.0 0.0 0.0 0.0 0.0 0.0 0.0 1.694946507515403e-17 -0.7998186258031201 -0.8456921628019337 -0.25261700746724114 0.00044087742943040405 0.0 1.9451205075227403e-16 -9.21271020070911 -7.140341486443441 -1.0426739698226233 0.0018302507050082584 0.0 0.2680635154247284 -1.389597241078512 1.433110237121582 -1.6151793638812464 -1.5645363966571253 0.26932260394096375 0.0 0.0 -0.0 0.0 0.0 0.0 0.006729126907885075 -0.899459958076477 -0.9485756158828735 -0.2898194193840027 0.06266365945339203 -0.02014188840985298 0.006729126907885075 -0.8972169160842896 -0.9501006603240967 -0.3043663203716278 0.0682586282491684 -0.019022895023226738 -0.29999511155910596 -0.19998823098439947 0.30000437571009236 2.2213699925871633 2.2214502239560034 3.367879163261311e-05 0.0 0.0 0.0 0.0 0.0 0.0 -0.5312698805079881 -0.376992527363425 -3.7940739044934597 0.26981209446762094 0.18062961557214674 -0.09343206691021341 -0.29999999999027316 -0.1999999999970864 0.30000000000492744 2.221400000029067 2.221400000003588 -2.3788812377712793e-11 0.0 0.0 0.0 0.0 0.0 0.0
6052.512 0.2680872828884263 -1.3895566730145532 1.433086495482227 -1.615207786856626 -1.5645134610073868 0.269382720249164 0.0 0.0 0.0 0.0 0.0 0.0 0.0 0.0 0.0 0.0 0.0 0.0 1.694946507515403e-17 -0.7998186258031201 -0.8456921628019337 -0.25261700746724114 0.00044087742943040405 0.0 1.9451205075227403e-16 -9.21271020070911 -7.140341486443441 -1.0426739698226233 0.0018302507050082584 0.0 0.268015593290329 -1.3896687666522425 1.4330863952636719 -1.6152156035052698 -1.5645244757281702 0.26934659481048584 0.0 0.0 -0.0 0.0 0.0 0.0 0.008972168900072575 -0.890487790107727 -0.9668760895729065 -0.33010318875312805 0.06266365945339203 -0.021260883659124374 0.006729126907885075 -0.8972169160842896 -0.9501006603240967 -0.3043663203716278 0.0682586282491684 -0.019022895023226738 -0.2999991854492327 -0.19997344603583875 0.30003907389413026 -2.2214735023687497 -2.2213948959362315 0.0001553182721324775 0.0 0.0 0.0 0.0 0.0 0.0 0.486556023522488 0.38028696907497417 -3.6779928986276316 0.2595942567656074 0.07540797141080577 -0.09865766667266558 -0.29999999999027316 -0.1999999999970864 0.30000000000492744 2.221400000029067 2.221400000003588 -2.3788812377712793e-11 0.0 0.0 0.0 0.0 0.0 0.0
6052.5199999999995 0.2680872828884263 -1.3895566730145532 1.433086495482227 -1.615207786856626 -1.5645134610073868 0.269382720249164 0.0 0.0 0.0 0.0 0.0 0.0 0.0 0.0 0.0 0.0 0.0 0.0 1.694946507515403e-17 -0.7998186258031201 -0.8456921628019337 -0.25261700746724114 0.00044087742943040405 0.0 1.9451205075227403e-16 -9.21271020070911 -7.140341486443441 -1.0426739698226233 0.0018302507050082584 0.0 0.26802757382392883 -1.3896687666522425 1.433122158050537 -1.6152156035052698 -1.5645483175860804 0.269334614276886 0.0 0.0 -0.0 0.0 0.0 0.0 0.006729126907885075 -0.903946042060852 -0.9760263562202454 -0.31108027696609497 0.07609158009290695 -0.024617865681648254 0.006729126907885075 -0.8972169160842896 -0.9546757936477661 -0.3043663203716278 0.0682586282491684 -0.019022895023226738 -0.2999941544900331 -0.1999742380586331 0.3000284008850658 -2.221444870458493 -2.2214191661818776 8.79789304576307e-05 0.0 0.0 0.0 0.0 0.0 0.0 0.33546570254747327 0.13146990844117273 -4.508253515995396 0.2980882265723254 0.2329143467533215 -0.11422816942300636 -0.29999999999027316 -0.1999999999970864 0.30000000000492744 2.221400000029067 2.221400000003588 -2.3788812377712793e-11 0.0 0.0 0.0 0.0 0.0 0.0
6052.527999999999 0.2680872828884263 -1.3895566730145532 1.433086495482227 -1.615207786856626 -1.5645134610073868 0.269382720249164 0.0 0.0 0.0 0.0 0.0 0.0 0.0 0.0 0.0 0.0 0.0 0.0 1.694946507515403e-17 -0.7998186258031201 -0.8456921628019337 -0.25261700746724114 0.00044087742943040405 0.0 1.9451205075227403e-16 -9.21271020070911 -7.140341486443441 -1.0426739698226233 0.0018302507050082584 0.0 0.2680395543575287 -1.3896454016314905 1.433098316192627 -1.615227524434225 -1.5645602385150355 0.269334614276886 0.0 0.0 -0.0 0.0 0.0 0.0 0.008972168900072575 -0.890487790107727 -0.953150749206543 -0.31108027696609497 0.07273460179567337 -0.017903901636600494 0.006729126907885075 -0.8972169160842896 -0.9516257047653198 -0.3043663203716278 0.0682586282491684 -0.019022895023226738 -0.2999984083364718 -0.19997866705946055 0.3000285383262692 -2.2214198027708725 -2.22142097000617 9.570750410944563e-05 0.0 0.0 0.0 0.0 0.0 0.0 -0.027100467933346046 0.08981368325160045 -3.5074180333290603 0.30919680365615254 0.11630547372873476 -0.08308168544251412 -0.29999999999027316 -0.1999999999970864 0.30000000000492744 2.221400000029067 2.221400000003588 -2.3788812377712793e-11 0.0 0.0 0.0 0.0 0.0 0.0
6052.536 0.2680872828884263 -1.3895566730145532 1.433086495482227 -1.615207786856626 -1.5645134610073868 0.269382720249164 0.0 0.0 0.0 0.0 0.0 0.0 0.0 0.0 0.0 0.0 0.0 0.0 1.694946507515403e-17 -0.7998186258031201 -0.8456921628019337 -0.25261700746724114 0.00044087742943040405 0.0 1.9451205075227403e-16 -9.21271020070911 -7.140341486443441 -1.0426739698226233 0.0018302507050082584 0.0 0.26807549595832825 -1.3896334807025355 1.433122158050537 -1.6152156035052698 -1.5645721594439905 0.26932260394096375 0.0 0.0 -0.0 0.0 0.0 0.0 0.006729126907885075 -0.8972169160842896 -0.9546757936477661 -0.3256272077560425 0.07273460179567337 -0.017903901636600494 0.006729126907885075 -0.8972169160842896 -0.9470505714416504 -0.3043663203716278 0.0682586282491684 -0.019022895023226738 -0.2999901366404781 -0.1999880912083791 0.3000163231640805 -2.2213760550475405 -2.2214833385197905 2.132593732649031e-05 0.0 0.0 0.0 0.0 0.0 0.0 -0.30618680786505503 -0.19239534991411902 -3.2751433514177037 0.35564407816282206 0.009207787604697924 -0.0830668672365695 -0.29999999999027316 -0.1999999999970864 0.30000000000492744 2.221400000029067 2.221400000003588 -2.3788812377712793e-11 0.0 0.0 0.0 0.0 0.0 0.0
6052.544 0.2680872828884263 -1.3895566730145532 1.433086495482227 -1.615207786856626 -1.5645134610073868 0.269382720249164 0.0 0.0 0.0 0.0 0.0 0.0 0.0 0.0 0.0 0.0 0.0 0.0 1.694946507515403e-17 -0.7998186258031201 -0.8456921628019337 -0.25261700746724114 0.00044087742943040405 0.0 1.9451205075227403e-16 -9.21271020070911 -7.140341486443441 -1.0426739698226233 0.0018302507050082584 0.0 0.2680635154247284 -1.3896334807025355 1.4331345558166504 -1.6151555220233362 -1.5645602385150355 0.26929864287376404 0.0 0.0 -0.0 0.0 0.0 0.0 0.006729126907885075 -0.899459958076477 -0.9455255270004272 -0.3211512267589569 0.06154466047883034 -0.027974845841526985 0.006729126907885075 -0.8972169160842896 -0.9501006603240967 -0.3043663203716278 0.0682586282491684 -0.019022895023226738 -0.29998641975964535 -0.19998377667173617 0.3000074885007839 2.2213541577692952 2.221487149135763 6.849906919821944e-05 0.0 0.0 0.0 0.0 0.0 0.0 -0.7372050276082719 -0.6353888792858516 -2.9908975795636255 0.34278865897780475 -0.043535417747720344 -0.1297628646345185 -0.29999999999027316 -0.1999999999970864 0.30000000000492744 2.221400000029067 2.221400000003588 -2.3788812377712793e-11 0.0 0.0 0.0 0.0 0.0 0.0
6052.552 0.2680872828884263 -1.3895566730145532 1.433086495482227 -1.615207786856626 -1.5645134610073868 0.269382720249164 0.0 0.0 0.0 0.0 0.0 0.0 0.0 0.0 0.0 0.0 0.0 0.0 1.694946507515403e-17 -0.7998186258031201 -0.8456921628019337 -0.25261700746724114 0.00044087742943040405 0.0 1.9451205075227403e-16 -9.21271020070911 -7.140341486443441 -1.0426739698226233 0.0018302507050082584 0.0 0.2680635154247284 -1.3896568457232874 1.433122158050537 -1.6151912848102015 -1.5645483175860804 0.269334614276886 0.0 0.0 -0.0 0.0 0.0 0.0 0.004486084450036287 -0.899459958076477 -0.9806014895439148 -0.31331828236579895 0.051473718136548996 -0.011189938522875309 0.006729126907885075 -0.8972169160842896 -0.9501006603240967 -0.3043663203716278 0.0682586282491684 -0.019022895023226738 -0.2999867454839588 -0.19998493593550093 0.30002224214019496 2.2214113951980194 2.221465161159226 -3.8462192408169806e-05 0.0 0.0 0.0 0.0 0.0 0.0 0.7011450149450177 0.4867613484951545 -4.64087048312504 0.158288994427188 0.23311426022574455 -0.05191906959223832 -0.29999999999027316 -0.1999999999970864 0.30000000000492744 2.221400000029067 2.221400000003588 -2.3788812377712793e-11 0.0 0.0 0.0 0.0 0.0 0.0
6052.5599999999995 0.2680872828884263 -1.3895566730145532 1.433086495482227 -1.615207786856626 -1.5645134610073868 0.269382720249164 0.0 0.0 0.0 0.0 0.0 0.0 0.0 0.0 0.0 0.0 0.0 0.0 1.694946507515403e-17 -0.7998186258031201 -0.8456921628019337 -0.25261700746724114 0.00044087742943040405 0.0 1.9451205075227403e-16 -9.21271020070911 -7.140341486443441 -1.0426739698226233 0.0018302507050082584 0.0 0.268015593290329 -1.3896568457232874 1.433110237121582 -1.6152156035052698 -1.5645721594439905 0.2693585753440857 0.0 0.0 -0.0 0.0 0.0 0.0 0.0 -0.894973874092102 -0.9973769187927246 -0.31219929456710815 0.07944856584072113 -0.004475975409150124 0.006729126907885075 -0.8972169160842896 -0.953150749206543 -0.3043663203716278 0.0682586282491684 -0.019022895023226738 -0.29999982912486256 -0.19996951692842008 0.3000278803145615 -2.2214701343165655 -2.2213645948279117 6.950909097885703e-05 0.0 0.0 0.0 0.0 0.0 0.0 1.6282236914646782 1.016050648957277 -5.363653577165042 0.22250958103404186 0.40867310194677403 -0.020780083964215785 -0.29999999999027316 -0.1999999999970864 0.30000000000492744 2.221400000029067 2.221400000003588 -2.3788812377712793e-11 0.0 0.0 0.0 0.0 0.0 0.0
6052.567999999999 0.2680872828884263 -1.3895566730145532 1.433086495482227 -1.615207786856626 -1.5645134610073868 0.269382720249164 0.0 0.0 0.0 0.0 0.0 0.0 0.0 0.0 0.0 0.0 0.0 0.0 1.694946507515403e-17 -0.7998186258031201 -0.8456921628019337 -0.25261700746724114 0.00044087742943040405 0.0 1.9451205075227403e-16 -9.21271020070911 -7.140341486443441 -1.0426739698226233 0.0018302507050082584 0.0 0.2680635154247284 -1.3896334807025355 1.433122158050537 -1.6152036825763147 -1.5645244757281702 0.26934659481048584 0.0 0.0 -0.0 0.0 0.0 0.0 0.008972168900072575 -0.890487790107727 -0.9943268299102783 -0.29877135157585144 0.06042566895484924 -0.02349887043237686 0.006729126907885075 -0.8972169160842896 -0.9516257047653198 -0.3043663203716278 0.0682586282491684 -0.019022895023226738 -0.29999054383717866 -0.19998801458406215 0.3000153005227127 2.221406106080733 2.2214334176524786 -4.199140802038682e-05 0.0 0.0 0.0 0.0 0.0 0.0 1.7368137299322661 1.1792142203158136 -5.513539714858196 0.10353824045346044 0.46678597519690884 -0.10903397721725694 -0.29999999999027316 -0.1999999999970864 0.30000000000492744 2.221400000029067 2.221400000003588 -2.3788812377712793e-11 0.0 0.0 0.0 0.0 0.0 0.0
6052.576 0.2680872828884263 -1.3895566730145532 1.433086495482227 -1.615207786856626 -1.5645134610073868 0.269382720249164 0.0 0.0 0.0 0.0 0.0 0.0 0.0 0.0 0.0 0.0 0.0 0.0 1.694946507515403e-17 -0.7998186258031201 -0.8456921628019337 -0.25261700746724114 0.00044087742943040405 0.0 1.9451205075227403e-16 -9.21271020070911 -7.140341486443441 -1.0426739698226233 0.0018302507050082584 0.0 0.26807549595832825 -1.3896210829364222 1.433074951171875 -1.6151912848102015 -1.5645840803729456 0.269334614276886 0.0 0.0 -0.0 0.0 0.0 0.0 0.0022430422250181437 -0.899459958076477 -0.9333252310752869 -0.3245082199573517 0.067139632999897 -0.015665914863348007 0.006729126907885075 -0.8972169160842896 -0.9516257047653198 -0.3043663203716278 0.0682586282491684 -0.019022895023226738 -0.2999944130184816 -0.19998827965797802 0.3000240930615152 -2.2213784171945434 -2.2214589808648917 2.6410703849039374e-05 0.0 0.0 0.0 0.0 0.0 0.0 -1.2520465791914939 -0.980772038656422 -2.4020991861135075 0.4139566502559694 -0.14283488652692683 -0.07269278134719757 -0.29999999999027316 -0.1999999999970864 0.30000000000492744 2.221400000029067 2.221400000003588 -2.3788812377712793e-11 0.0 0.0 0.0 0.0 0.0 0.0
6052.584 0.2680872828884263 -1.3895566730145532 1.433086495482227 -1.615207786856626 -1.5645134610073868 0.269382720249164 0.0 0.0 0.0 0.0 0.0 0.0 0.0 0.0 0.0 0.0 0.0 0.0 1.694946507515403e-17 -0.7998186258031201 -0.8456921628019337 -0.25261700746724114 0.00044087742943040405 0.0 1.9451205075227403e-16 -9.21271020070911 -7.140341486443441 -1.0426739698226233 0.0018302507050082584 0.0 0.26805153489112854 -1.389609162007467 1.4330506324768066 -1.615227524434225 -1.5645721594439905 0.26934659481048584 0.0 0.0 -0.0 0.0 0.0 0.0 0.004486084450036287 -0.894973874092102 -0.9790764451026917 -0.268558531999588 0.0682586282491684 -0.006713963113725185 0.006729126907885075 -0.8972169160842896 -0.9455255270004272 -0.3043663203716278 0.0682586282491684 -0.019022895023226738 -0.3000056636361622 -0.19998393409075926 0.30003036617031226 -2.2214083876014974 -2.2214097923395193 0.00010213715847860861 0.0 0.0 0.0 0.0 0.0 0.0 0.9859655108845877 0.7457672150432221 -5.529634992647715 0.13704009780468426 0.5503000987309998 -0.031165454936784368 -0.29999999999027316 -0.1999999999970864 0.30000000000492744 2.221400000029067 2.221400000003588 -2.3788812377712793e-11 0.0 0.0 0.0 0.0 0.0 0.0
6052.592 0.2680872828884263 -1.3895566730145532 1.433086495482227 -1.615207786856626 -1.5645134610073868 0.269382720249164 0.0 0.0 0.0 0.0 0.0 0.0 0.0 0.0 0.0 0.0 0.0 0.0 1.694946507515403e-17 -0.7998186258031201 -0.8456921628019337 -0.25261700746724114 0.00044087742943040405 0.0 1.9451205075227403e-16 -9.21271020070911 -7.140341486443441 -1.0426739698226233 0.0018302507050082584 0.0 0.2680635154247284 -1.3896687666522425 1.4331464767456055 -1.6151793638812464 -1.5645363966571253 0.2693585753440857 0.0 0.0 -0.0 0.0 0.0 0.0 0.006729126907885075 -0.899459958076477 -0.9257000088691711 -0.29429537057876587 0.06042566895484924 -0.03021283447742462 0.006729126907885075 -0.8972169160842896 -0.9516257047653198 -0.3054853081703186 0.0682586282491684 -0.019022895023226738 -0.2999816892730732 -0.19998453294213292 0.3000180446837734 2.221422355418954 2.2214225998341606 -1.4457246738751718e-05 0.0 0.0 0.0 0.0 0.0 0.0 -1.4556670400714753 -1.1490201832913542 -2.7314393645410804 0.35286574631051126 -0.005708081766090893 -0.14015799764960218 -0.29999999999027316 -0.1999999999970864 0.30000000000492744 2.221400000029067 2.221400000003588 -2.3788812377712793e-11 0.0 0.0 0.0 0.0 0.0 0.0
6052.599999999999 0.2680872828884263 -1.3895566730145532 1.433086495482227 -1.615207786856626 -1.5645134610073868 0.269382720249164 0.0 0.0 0.0 0.0 0.0 0.0 0.0 0.0 0.0 0.0 0.0 0.0 1.694946507515403e-17 -0.7998186258031201 -0.8456921628019337 -0.25261700746724114 0.00044087742943040405 0.0 1.9451205075227403e-16 -9.21271020070911 -7.140341486443441 -1.0426739698226233 0.0018302507050082584 0.0 0.2680395543575287 -1.3896334807025355 1.43306303024292 -1.6151912848102015 -1.5645483175860804 0.269334614276886 0.0 0.0 -0.0 0.0 0.0 0.0 0.008972168900072575 -0.881515622138977 -0.9318001866340637 -0.2920573949813843 0.07161560654640198 -0.017903901636600494 0.006729126907885075 -0.894973874092102 -0.9516257047653198 -0.3054853081703186 0.0682586282491684 -0.019022895023226738 -0.3000000976105144 -0.19998015834593508 0.30003189255719714 -2.2214317346734545 -2.2214326592618416 8.734302237667027e-05 0.0 0.0 0.0 0.0 0.0 0.0 -0.42417393411027343 -0.1748649644537178 -2.992638470374877 0.31422476185497605 0.12460934501717906 -0.0830782988140119 -0.29999999999027316 -0.1999999999970864 0.30000000000492744 2.221400000029067 2.221400000003588 -2.3788812377712793e-11 0.0 0.0 0.0 0.0 0.0 0.0
6052.608 0.2680872828884263 -1.3895566730145532 1.433086495482227 -1.615207786856626 -1.5645134610073868 0.269382720249164 0.0 0.0 0.0 0.0 0.0 0.0 0.0 0.0 0.0 0.0 0.0 0.0 1.694946507515403e-17 -0.7998186258031201 -0.8456921628019337 -0.25261700746724114 0.00044087742943040405 0.0 1.9451205075227403e-16 -9.21271020070911 -7.140341486443441 -1.0426739698226233 0.0018302507050082584 0.0 0.2680635154247284 -1.389597241078512 1.433110237121582 -1.615227524434225 -1.5645840803729456 0.2693585753440857 0.0 0.0 -0.0 0.0 0.0 0.0 0.006729126907885075 -0.8927308320999146 -0.9623009562492371 -0.3066043257713318 0.06602063775062561 -0.007832957431674004 0.006729126907885075 -0.8972169160842896 -0.9516257047653198 -0.303247332572937 0.0682586282491684 -0.019022895023226738 -0.29999996946922675 -0.19998552878009784 0.3000084944724897 -2.2214262809098377 -2.221427175063279 -4.807030693056584e-06 0.0 0.0 0.0 0.0 0.0 0.0 0.24809307715909376 0.3328688021081312 -3.995224074661003 0.24262055940041882 0.19056715137878638 -0.0363382699376057 -0.29999999999027316 -0.1999999999970864 0.30000000000492744 2.221400000029067 2.221400000003588 -2.3788812377712793e-11 0.0 0.0 0.0 0.0 0.0 0.0
6052.616 0.2680872828884263 -1.3895566730145532 1.433086495482227 -1.615207786856626 -1.5645134610073868 0.269382720249164 0.0 0.0 0.0 0.0 0.0 0.0 0.0 0.0 0.0 0.0 0.0 0.0 1.694946507515403e-17 -0.7998186258031201 -0.8456921628019337 -0.25261700746724114 0.00044087742943040405 0.0 1.9451205075227403e-16 -9.21271020070911 -7.140341486443441 -1.0426739698226233 0.0018302507050082584 0.0 0.2680635154247284 -1.3896210829364222 1.4330863952636719 -1.6151793638812464 -1.5645483175860804 0.2693106234073639 0.0 0.0 -0.0 0.0 0.0 0.0 -0.0022430422250181437 -0.9196473360061646 -0.9394253492355347 -0.2920573949813843 0.07609158009290695 -0.021260883659124374 0.0 -0.8972169160842896 -0.9501006603240967 -0.3043663203716278 0.0682586282491684 -0.019022895023226738 -0.29999407094702163 -0.1999869655447503 0.3000196554352351 2.2213805636103605 2.221487632019307 -2.2201683736992645e-05 0.0 0.0 0.0 0.0 0.0 0.0 -1.7666609619991933 -1.6027165155706002 -3.4094123334408577 0.44254133294246506 0.053591911998495834 -0.09863499641376258 -0.29999999999027316 -0.1999999999970864 0.30000000000492744 2.221400000029067 2.221400000003588 -2.3788812377712793e-11 0.0 0.0 0.0 0.0 0.0 0.0
6052.624 0.2680872828884263 -1.3895566730145532 1.433086495482227 -1.615207786856626 -1.5645134610073868 0.269382720249164 0.0 0.0 0.0 0.0 0.0 0.0 0.0 0.0 0.0 0.0 0.0 0.0 1.694946507515403e-17 -0.7998186258031201 -0.8456921628019337 -0.25261700746724114 0.00044087742943040405 0.0 1.9451205075227403e-16 -9.21271020070911 -7.140341486443441 -1.0426739698226233 0.0018302507050082584 0.0 0.2681114673614502 -1.3896334807025355 1.4331345558166504 -1.615227524434225 -1.5645960013019007 0.2693106234073639 0.0 0.0 -0.0 0.0 0.0 0.0 0.01794433780014515 -0.9017030000686646 -0.9272250533103943 -0.31443727016448975 0.05930667370557785 -0.019022895023226738 0.01345825381577015 -0.8972169160842896 -0.9485756158828735 -0.3043663203716278 0.0682586282491684 -0.019022895023226738 -0.29998331411717777 -0.1999969422036183 0.30001364317597706 -2.2213082936606474 -2.2215221179767872 2.203761830458706e-06 0.0 0.0 0.0 0.0 0.0 0.0 -1.7198293072183861 -0.6711501245207796 -2.3655404724464635 0.3416449971078773 -0.14884632389662825 -0.08826356190570976 -0.29999999999027316 -0.1999999999970864 0.30000000000492744 2.221400000029067 2.221400000003588 -2.3788812377712793e-11 0.0 0.0 0.0 0.0 0.0 0.0
6052.632 0.2680872828884263 -1.3895566730145532 1.433086495482227 -1.615207786856626 -1.5645134610073868 0.269382720249164 0.0 0.0 0.0 0.0 0.0 0.0 0.0 0.0 0.0 0.0 0.0 0.0 1.694946507515403e-17 -0.7998186258031201 -0.8456921628019337 -0.25261700746724114 0.00044087742943040405 0.0 1.9451205075227403e-16 -9.21271020070911 -7.140341486443441 -1.0426739698226233 0.0018302507050082584 0.0 0.26807549595832825 -1.3896334807025355 1.433110237121582 -1.6152156035052698 -1.5645483175860804 0.269334614276886 0.0 0.0 -0.0 0.0 0.0 0.0 0.006729126907885075 -0.8882447481155396 -0.9745013117790222 -0.3189132511615753 0.067139632999897 -0.02349887043237686 0.004486084450036287 -0.8972169160842896 -0.953150749206543 -0.3043663203716278 0.0682586282491684 -0.019022895023226738 -0.2999906667984521 -0.19999028719113027 0.3000198793655428 -2.221399827232532 -2.2214805731329093 5.609310749772737e-05 0.0 0.0 0.0 0.0 0.0 0.0 0.9755961779469987 0.5755739892889095 -4.236399613603794 0.23714554384778982 0.21723705605854485 -0.10902681015651958 -0.29999999999027316 -0.1999999999970864 0.30000000000492744 2.221400000029067 2.221400000003588 -2.3788812377712793e-11 0.0 0.0 0.0 0.0 0.0 0.0
6052.639999999999 0.2680872828884263 -1.3895566730145532 1.433086495482227 -1.615207786856626 -1.5645134610073868 0.269382720249164 0.0 0.0 0.0 0.0 0.0 0.0 0.0 0.0 0.0 0.0 0.0 0.0 1.694946507515403e-17 -0.7998186258031201 -0.8456921628019337 -0.25261700746724114 0.00044087742943040405 0.0 1.9451205075227403e-16 -9.21271020070911 -7.140341486443441 -1.0426739698226233 0.0018302507050082584 0.0 0.26805153489112854 -1.389609162007467 1.4330863952636719 -1.6151555220233362 -1.5645244757281702 0.2693585753440857 0.0 0.0 -0.0 0.0 0.0 0.0 0.006729126907885075 -0.890487790107727 -0.9394253492355347 -0.2875814139842987 0.07385359704494476 -0.021260883659124374 0.006729126907885075 -0.8972169160842896 -0.9516257047653198 -0.3043663203716278 0.0682586282491684 -0.019022895023226738 -0.2999957605444904 -0.19998519065255044 0.3000135353820169 2.2214201527835207 2.221393770466898 8.183564687388967e-06 0.0 0.0 0.0 0.0 0.0 0.0 -0.47844107060331503 -0.35908278206816535 -3.433891643031657 0.3239164844935282 0.17923087945536073 -0.09862605876931654 -0.29999999999027316 -0.1999999999970864 0.30000000000492744 2.221400000029067 2.221400000003588 -2.3788812377712793e-11 0.0 0.0 0.0 0.0 0.0 0.0
6052.648 0.2680872828884263 -1.3895566730145532 1.433086495482227 -1.615207786856626 -1.5645134610073868 0.269382720249164 0.0 0.0 0.0 0.0 0.0 0.0 0.0 0.0 0.0 0.0 0.0 0.0 1.694946507515403e-17 -0.7998186258031201 -0.8456921628019337 -0.25261700746724114 0.00044087742943040405 0.0 1.9451205075227403e-16 -9.21271020070911 -7.140341486443441 -1.0426739698226233 0.0018302507050082584 0.0 0.2680395543575287 -1.3896210829364222 1.433098316192627 -1.6151912848102015 -1.5645363966571253 0.2693585753440857 0.0 0.0 -0.0 0.0 0.0 0.0 0.004486084450036287 -0.8972169160842896 -0.953150749206543 -0.31667524576187134 0.04923573136329651 -0.025736859068274498 0.006729126907885075 -0.8972169160842896 -0.9516257047653198 -0.3043663203716278 0.0682586282491684 -0.019022895023226738 -0.29999849264379796 -0.19998068869331184 0.30001711459490166 2.2214530492699542 2.2214004686693873 -3.145104549511648e-05 0.0 0.0 0.0 0.0 0.0 0.0 -0.2871602346333391 -0.397010116276414 -3.4038687393161604 0.25307952524783917 0.032197255131114114 -0.11939851641936827 -0.29999999999027316 -0.1999999999970864 0.30000000000492744 2.221400000029067 2.221400000003588 -2.3788812377712793e-11 0.0 0.0 0.0 0.0 0.0 0.0
6052.656 0.2680872828884263 -1.3895566730145532 1.433086495482227 -1.615207786856626 -1.5645134610073868 0.269382720249164 0.0 0.0 0.0 0.0 0.0 0.0 0.0 0.0 0.0 0.0 0.0 0.0 1.694946507515403e-17 -0.7998186258031201 -0.8456921628019337 -0.25261700746724114 0.00044087742943040405 0.0 1.9451205075227403e-16 -9.21271020070911 -7.140341486443441 -1.0426739698226233 0.0018302507050082584 0.0 0.26807549595832825 -1.3896334807025355 1.4330863952636719 -1.6151793638812464 -1.5645483175860804 0.26934659481048584 0.0 0.0 -0.0 0.0 0.0 0.0 0.008972168900072575 -0.903946042060852 -0.9607759714126587 -0.3245082199573517 0.08056755363941193 -0.004475975409150124 0.004486084450036287 -0.8972169160842896 -0.9516257047653198 -0.3043663203716278 0.0682586282491684 -0.019022895023226738 -0.2999899030559993 -0.19999007833789817 0.3000238997447009 2.2214115295685604 2.2214653379317846 -3.912704668943787e-05 0.0 0.0 0.0 0.0 0.0 0.0 -0.4358469159591739 0.02503147140211703 -3.572288094627814 0.3648839278673999 0.037504876604572066 -0.020770915373548287 -0.29999999999027316 -0.1999999999970864 0.30000000000492744 2.221400000029067 2.221400000003588 -2.3788812377712793e-11 0.0 0.0 0.0 0.0 0.0 0.0
6052.664 0.2680872828884263 -1.3895566730145532 1.433086495482227 -1.615207786856626 -1.5645134610073868 0.269382720249164 0.0 0.0 0.0 0.0 0.0 0.0 0.0 0.0 0.0 0.0 0.0 0.0 1.694946507515403e-17 -0.7998186258031201 -0.8456921628019337 -0.25261700746724114 0.00044087742943040405 0.0 1.9451205075227403e-16 -9.21271020070911 -7.140341486443441 -1.0426739698226233 0.0018302507050082584 0.0 0.2680395543575287 -1.3896210829364222 1.433122158050537 -1.615227524434225 -1.5645602385150355 0.2693585753440857 0.0 0.0 -0.0 0.0 0.0 0.0 -0.004486084450036287 -0.9061890840530396 -0.9562008380889893 -0.2842244505882263 0.06266365945339203 -0.025736859068274498 0.004486084450036287 -0.8972169160842896 -0.9516257047653198 -0.3043663203716278 0.0682586282491684 -0.019022895023226738 -0.29999977873282896 -0.199979004683325 0.3000130962866452 -2.2214633666981576 -2.2214110582000512 2.993629579123133e-05 0.0 0.0 0.0 0.0 0.0 0.0 -0.3786704825063765 -0.8428471958500907 -4.254830141250501 0.29085859661949726 0.2560273486914865 -0.11940524460661871 -0.29999999999027316 -0.1999999999970864 0.30000000000492744 2.221400000029067 2.221400000003588 -2.3788812377712793e-11 0.0 0.0 0.0 0.0 0.0 0.0
6052.672 0.2680872828884263 -1.3895566730145532 1.433086495482227 -1.615207786856626 -1.5645134610073868 0.269382720249164 0.0 0.0 0.0 0.0 0.0 0.0 0.0 0.0 0.0 0.0 0.0 0.0 1.694946507515403e-17 -0.7998186258031201 -0.8456921628019337 -0.25261700746724114 0.00044087742943040405 0.0 1.9451205075227403e-16 -9.21271020070911 -7.140341486443441 -1.0426739698226233 0.0018302507050082584 0.0 0.2681114673614502 -1.389597241078512 1.433122158050537 -1.6151912848102015 -1.5645244757281702 0.26932260394096375 0.0 0.0 -0.0 0.0 0.0 0.0 0.011215210892260075 -0.9151612520217896 -0.9211248755455017 -0.31219929456710815 0.06490164250135422 -0.02014188840985298 0.01345825381577015 -0.8972169160842896 -0.9516257047653198 -0.3043663203716278 0.0682586282491684 -0.019022895023226738 -0.2999851510906868 -0.20000352742640976 0.3000018348869582 2.2213093419311205 2.2214961937938718 2.443113593876589e-05 0.0 0.0 0.0 0.0 0.0 0.0 -2.52150579061654 -1.5114670596718571 -2.1895899580498606 0.43723362236312574 -0.21267638406321276 -0.09341407236754115 -0.29999999999027316 -0.1999999999970864 0.30000000000492744 2.221400000029067 2.221400000003588 -2.3788812377712793e-11 0.0 0.0 0.0 0.0 0.0 0.0
6052.679999999999 0.2680872828884263 -1.3895566730145532 1.433086495482227 -1.615207786856626 -1.5645134610073868 0.269382720249164 0.0 0.0 0.0 0.0 0.0 0.0 0.0 0.0 0.0 0.0 0.0 0.0 1.694946507515403e-17 -0.7998186258031201 -0.8456921628019337 -0.25261700746724114 0.00044087742943040405 0.0 1.9451205075227403e-16 -9.21271020070911 -7.140341486443441 -1.0426739698226233 0.0018302507050082584 0.0 0.2680395543575287 -1.3896454016314905 1.433098316192627 -1.6151793638812464 -1.5645721594439905 0.26932260394096375 0.0 0.0 -0.0 0.0 0.0 0.0 0.008972168900072575 -0.894973874092102 -0.9440004825592041 -0.29429537057876587 0.0682586282491684 -0.015665914863348007 0.004486084450036287 -0.8972169160842896 -0.9516257047653198 -0.3043663203716278 0.0682586282491684 -0.019022895023226738 -0.29999485684306076 -0.19997663742899752 0.30002442458504913 -2.2214162557611554 -2.2214434066809505 2.0634197625410654e-05 0.0 0.0 0.0 0.0 0.0 0.0 -0.5649401540970768 -0.23404536102226134 -3.4927777228488694 0.29550882526949035 0.13999366156495116 -0.07268273512854274 -0.29999999999027316 -0.1999999999970864 0.30000000000492744 2.221400000029067 2.221400000003588 -2.3788812377712793e-11 0.0 0.0 0.0 0.0 0.0 0.0
6052.688 0.2680872828884263 -1.3895566730145532 1.433086495482227 -1.615207786856626 -1.5645134610073868 0.269382720249164 0.0 0.0 0.0 0.0 0.0 0.0 0.0 0.0 0.0 0.0 0.0 0.0 1.694946507515403e-17 -0.7998186258031201 -0.8456921628019337 -0.25261700746724114 0.00044087742943040405 0.0 1.9451205075227403e-16 -9.21271020070911 -7.140341486443441 -1.0426739698226233 0.0018302507050082584 0.0 0.2680875062942505 -1.3896210829364222 1.433122158050537 -1.6152036825763147 -1.5645602385150355 0.269334614276886 0.0 0.0 -0.0 0.0 0.0 0.0 0.01345825381577015 -0.890487790107727 -0.9882267117500305 -0.31108027696609497 0.07049661129713058 -0.01342792622745037 0.008972168900072575 -0.8972169160842896 -0.9516257047653198 -0.3043663203716278 0.0682586282491684 -0.019022895023226738 -0.29998830147914546 -0.19999285366286088 0.30001105932865463 2.221383865536526 2.2214909751565024 2.6547326979361286e-06 0.0 0.0 0.0 0.0 0.0 0.0 1.3608626102140888 1.2768363348778744 -4.989406453705771 0.16780119812911365 0.350108144356855 -0.06229458386285902 -0.29999999999027316 -0.1999999999970864 0.30000000000492744 2.221400000029067 2.221400000003588 -2.3788812377712793e-11 0.0 0.0 0.0 0.0 0.0 0.0
6052.696 0.2680872828884263 -1.3895566730145532 1.433086495482227 -1.615207786856626 -1.5645134610073868 0.269382720249164 0.0 0.0 0.0 0.0 0.0 0.0 0.0 0.0 0.0 0.0 0.0 0.0 1.694946507515403e-17 -0.7998186258031201 -0.8456921628019337 -0.25261700746724114 0.00044087742943040405 0.0 1.9451205075227403e-16 -9.21271020070911 -7.140341486443441 -1.0426739698226233 0.0018302507050082584 0.0 0.2680395543575287 -1.389609162007467 1.4330863952636719 -1.615227524434225 -1.5645244757281702 0.2693585753440857 0.0 0.0 -0.0 0.0 0.0 0.0 0.006729126907885075 -0.877029538154602 -0.9562008380889893 -0.29765236377716064 0.07049661129713058 -0.02014188840985298 0.006729126907885075 -0.8972169160842896 -0.9470505714416504 -0.3043663203716278 0.0682586282491684 -0.019022895023226738 -0.3000038568654904 -0.19998321606553904 0.30001968699394704 2.2214580356000844 2.2214060447458985 -9.024116651765556e-05 0.0 0.0 0.0 0.0 0.0 0.0 0.8050178645049507 0.5136970114478409 -3.893113906139323 0.23893121862665628 0.2738291360322347 -0.09346285202424671 -0.29999999999027316 -0.1999999999970864 0.30000000000492744 2.221400000029067 2.221400000003588 -2.3788812377712793e-11 0.0 0.0 0.0 0.0 0.0 0.0
6052.704 0.2680872828884263 -1.3895566730145532 1.433086495482227 -1.615207786856626 -1.5645134610073868 0.269382720249164 0.0 0.0 0.0 0.0 0.0 0.0 0.0 0.0 0.0 0.0 0.0 0.0 1.694946507515403e-17 -0.7998186258031201 -0.8456921628019337 -0.25261700746724114 0.00044087742943040405 0.0 1.9451205075227403e-16 -9.21271020070911 -7.140341486443441 -1.0426739698226233 0.0018302507050082584 0.0 0.2680395543575287 -1.3896568457232874 1.4330506324768066 -1.6152156035052698 -1.5645602385150355 0.2693585753440857 0.0 0.0 -0.0 0.0 0.0 0.0 0.008972168900072575 -0.877029538154602 -0.9089245200157166 -0.3177942633628845 0.07273460179567337 -0.0055949692614376545 0.006729126907885075 -0.8972169160842896 -0.9485756158828735 -0.3043663203716278 0.0682586282491684 -0.019022895023226738 -0.30000003873067105 -0.1999791670977664 0.3000456710961828 -2.2214298113404505 -2.2213779793572095 0.0001601792577246818 0.0 0.0 0.0 0.0 0.0 0.0 -1.2926197145413172 -0.5634907478764141 -1.4589759063376115 0.4178304718671218 -0.18702397652163164 -0.0259953952180008 -0.29999999999027316 -0.1999999999970864 0.30000000000492744 2.221400000029067 2.221400000003588 -2.3788812377712793e-11 0.0 0.0 0.0 0.0 0.0 0.0
6052.7119999999995 0.2680872828884263 -1.3895566730145532 1.433086495482227 -1.615207786856626 -1.5645134610073868 0.269382720249164 0.0 0.0 0.0 0.0 0.0 0.0 0.0 0.0 0.0 0.0 0.0 0.0 1.694946507515403e-17 -0.7998186258031201 -0.8456921628019337 -0.25261700746724114 0.00044087742943040405 0.0 1.9451205075227403e-16 -9.21271020070911 -7.140341486443441 -1.0426739698226233 0.0018302507050082584 0.0 0.2680875062942505 -1.3896806875811976 1.433122158050537 -1.615227524434225 -1.5645244757281702 0.2693106234073639 0.0 0.0 -0.0 0.0 0.0 0.0 0.006729126907885075 -0.899459958076477 -0.9409503936767578 -0.2898194193840027 0.06042566895484924 -0.03580780327320099 0.006729126907885075 -0.8972169160842896 -0.9501006603240967 -0.3043663203716278 0.0682586282491684 -0.019022895023226738 -0.2999808863021263 -0.19999391521592705 0.3000334983531055 -2.221357869017846 -2.221518846999508 0.00013903027613094515 0.0 0.0 0.0 0.0 0.0 0.0 -0.7900935042197377 -0.7919708698463275 -3.4730650871129067 0.3010391971643667 0.1303983143721171 -0.16614610535135674 -0.29999999999027316 -0.1999999999970864 0.30000000000492744 2.221400000029067 2.221400000003588 -2.3788812377712793e-11 0.0 0.0 0.0 0.0 0.0 0.0
6052.719999999999 0.2680872828884263 -1.3895566730145532 1.433086495482227 -1.615207786856626 -1.5645134610073868 0.269382720249164 0.0 0.0 0.0 0.0 0.0 0.0 0.0 0.0 0.0 0.0 0.0 0.0 1.694946507515403e-17 -0.7998186258031201 -0.8456921628019337 -0.25261700746724114 0.00044087742943040405 0.0 1.9451205075227403e-16 -9.21271020070911 -7.140341486443441 -1.0426739698226233 0.0018302507050082584 0.0 0.26807549595832825 -1.3896687666522425 1.433122158050537 -1.6151912848102015 -1.5645483175860804 0.26932260394096375 0.0 0.0 -0.0 0.0 0.0 0.0 0.011215210892260075 -0.899459958076477 -0.9760263562202454 -0.29653337597846985 0.06266365945339203 -0.025736859068274498 0.006729126907885075 -0.8972169160842896 -0.9501006603240967 -0.3043663203716278 0.0682586282491684 -0.019022895023226738 -0.29998264573921346 -0.19998806714371328 0.3000263231167938 -2.221386943026265 -2.221494036059611 5.473695490915888e-05 0.0 0.0 0.0 0.0 0.0 0.0 0.5544242828819385 0.452607894760015 -4.810093252419139 0.1866070580705815 0.32416661299925703 -0.11941017761123404 -0.29999999999027316 -0.1999999999970864 0.30000000000492744 2.221400000029067 2.221400000003588 -2.3788812377712793e-11 0.0 0.0 0.0 0.0 0.0 0.0
6052.728 0.2680872828884263 -1.3895566730145532 1.433086495482227 -1.615207786856626 -1.5645134610073868 0.269382720249164 0.0 0.0 0.0 0.0 0.0 0.0 0.0 0.0 0.0 0.0 0.0 0.0 1.694946507515403e-17 -0.7998186258031201 -0.8456921628019337 -0.25261700746724114 0.00044087742943040405 0.0 1.9451205075227403e-16 -9.21271020070911 -7.140341486443441 -1.0426739698226233 0.0018302507050082584 0.0 0.2680395543575287 -1.389597241078512 1.433110237121582 -1.6151674429522913 -1.5645244757281702 0.269334614276886 0.0 0.0 -0.0 0.0 0.0 0.0 0.004486084450036287 -0.9017030000686646 -0.9577258825302124 -0.33010318875312805 0.07832957059144974 -0.02909383922815323 0.006729126907885075 -0.8972169160842896 -0.9546757936477661 -0.3043663203716278 0.0682586282491684 -0.019022895023226738 -0.2999986983518205 -0.19998172097767145 0.30000335626272157 2.2213985334002597 2.221398715892384 4.07328625942125e-05 0.0 0.0 0.0 0.0 0.0 0.0 -0.3425083880216301 -0.48573229979312704 -3.3199877323904086 0.40930117849169173 -0.0029724999350824654 -0.1349462222589368 -0.29999999999027316 -0.1999999999970864 0.30000000000492744 2.221400000029067 2.221400000003588 -2.3788812377712793e-11 0.0 0.0 0.0 0.0 0.0 0.0
6052.736 0.2680872828884263 -1.3895566730145532 1.433086495482227 -1.615207786856626 -1.5645134610073868 0.269382720249164 0.0 0.0 0.0 0.0 0.0 0.0 0.0 0.0 0.0 0.0 0.0 0.0 1.694946507515403e-17 -0.7998186258031201 -0.8456921628019337 -0.25261700746724114 0.00044087742943040405 0.0 1.9451205075227403e-16 -9.21271020070911 -7.140341486443441 -1.0426739698226233 0.0018302507050082584 0.0 0.2680395543575287 -1.3896334807025355 1.433122158050537 -1.6151793638812464 -1.5645721594439905 0.26932260394096375 0.0 0.0 -0.0 0.0 0.0 0.0 0.004486084450036287 -0.917404294013977 -0.9684011340141296 -0.3043663203716278 0.05259270966053009 -0.01678490824997425 0.006729126907885075 -0.8972169160842896 -0.9516257047653198 -0.3043663203716278 0.0682586282491684 -0.019022895023226738 -0.2999944552395859 -0.1999764938178298 0.3000132270050365 2.221427148641253 2.22145408634628 2.8212400119298442e-05 0.0 0.0 0.0 0.0 0.0 0.0 -0.5905637898041449 -0.46080669219755277 -4.362272369174142 0.236645544241269 0.1450281699207867 -0.07786315799517284 -0.29999999999027316 -0.1999999999970864 0.30000000000492744 2.221400000029067 2.221400000003588 -2.3788812377712793e-11 0.0 0.0 0.0 0.0 0.0 0.0
6052.744 0.2680872828884263 -1.3895566730145532 1.433086495482227 -1.615207786856626 -1.5645134610073868 0.269382720249164 0.0 0.0 0.0 0.0 0.0 0.0 0.0 0.0 0.0 0.0 0.0 0.0 1.694946507515403e-17 -0.7998186258031201 -0.8456921628019337 -0.25261700746724114 0.00044087742943040405 0.0 1.9451205075227403e-16 -9.21271020070911 -7.140341486443441 -1.0426739698226233 0.0018302507050082584 0.0 0.26805153489112854 -1.3896926085101526 1.433074951171875 -1.6152156035052698 -1.5645840803729456 0.26934659481048584 0.0 0.0 -0.0 0.0 0.0 0.0 0.006729126907885075 -0.8972169160842896 -0.9790764451026917 -0.31219929456710815 0.07609158009290695 -0.025736859068274498 0.006729126907885075 -0.8972169160842896 -0.9516257047653198 -0.3043663203716278 0.0682586282491684 -0.019022895023226738 -0.2999909062704531 -0.1999788617197017 0.30005065720512775 -2.221384584399417 -2.2213858379748186 0.00015729715291846766 0.0 0.0 0.0 0.0 0.0 0.0 0.7760846884941665 0.4078384504637928 -4.596836582952553 0.27466552346549905 0.27161664056551577 -0.119436581421546 -0.29999999999027316 -0.1999999999970864 0.30000000000492744 2.221400000029067 2.221400000003588 -2.3788812377712793e-11 0.0 0.0 0.0 0.0 0.0 0.0
6052.7519999999995 0.2680872828884263 -1.3895566730145532 1.433086495482227 -1.615207786856626 -1.5645134610073868 0.269382720249164 0.0 0.0 0.0 0.0 0.0 0.0 0.0 0.0 0.0 0.0 0.0 0.0 1.694946507515403e-17 -0.7998186258031201 -0.8456921628019337 -0.25261700746724114 0.00044087742943040405 0.0 1.9451205075227403e-16 -9.21271020070911 -7.140341486443441 -1.0426739698226233 0.0018302507050082584 0.0 0.2680875062942505 -1.3896568457232874 1.433098316192627 -1.6152156035052698 -1.5645363966571253 0.26934659481048584 0.0 0.0 -0.0 0.0 0.0 0.0 0.008972168900072575 -0.8972169160842896 -0.9333252310752869 -0.3021283447742462 0.07497258484363556 -0.01678490824997425 0.006729126907885075 -0.8972169160842896 -0.9516257047653198 -0.3043663203716278 0.0682586282491684 -0.019022895023226738 -0.2999857166827469 -0.1999942326468038 0.300031435521429 -2.221394703421781 -2.2214756965904265 0.00011351777578052537 0.0 0.0 0.0 0.0 0.0 0.0 -1.1338904420073337 -0.6307536565655996 -2.878444458393344 0.3818427637229972 0.015901930267065458 -0.07789070177911785 -0.29999999999027316 -0.1999999999970864 0.30000000000492744 2.221400000029067 2.221400000003588 -2.3788812377712793e-11 0.0 0.0 0.0 0.0 0.0 0.0
6052.759999999999 0.2680872828884263 -1.3895566730145532 1.433086495482227 -1.615207786856626 -1.5645134610073868 0.269382720249164 0.0 0.0 0.0 0.0 0.0 0.0 0.0 0.0 0.0 0.0 0.0 0.0 1.694946507515403e-17 -0.7998186258031201 -0.8456921628019337 -0.25261700746724114 0.00044087742943040405 0.0 1.9451205075227403e-16 -9.21271020070911 -7.140341486443441 -1.0426739698226233 0.0018302507050082584 0.0 0.2680635154247284 -1.3896210829364222 1.4331464767456055 -1.6152156035052698 -1.5645721594439905 0.26932260394096375 0.0 0.0 -0.0 0.0 0.0 0.0 0.004486084450036287 -0.899459958076477 -0.9760263562202454 -0.3088423013687134 0.0682586282491684 -0.02014188840985298 0.006729126907885075 -0.8972169160842896 -0.9516257047653198 -0.3043663203716278 0.0682586282491684 -0.019022895023226738 -0.2999921567460666 -0.19998435983672525 0.30000481998866657 2.2214001923695594 2.221480643968206 2.882342082714021e-05 0.0 0.0 0.0 0.0 0.0 0.0 0.5596094086145694 0.2540084749787335 -4.545066174838721 0.24933578530431424 0.25454323743171864 -0.09343516055916265 -0.29999999999027316 -0.1999999999970864 0.30000000000492744 2.221400000029067 2.221400000003588 -2.3788812377712793e-11 0.0 0.0 0.0 0.0 0.0 0.0
6052.768 0.2680872828884263 -1.3895566730145532 1.433086495482227 -1.615207786856626 -1.5645134610073868 0.269382720249164 0.0 0.0 0.0 0.0 0.0 0.0 0.0 0.0 0.0 0.0 0.0 0.0 1.694946507515403e-17 -0.7998186258031201 -0.8456921628019337 -0.25261700746724114 0.00044087742943040405 0.0 1.9451205075227403e-16 -9.21271020070911 -7.140341486443441 -1.0426739698226233 0.0018302507050082584 0.0 0.26805153489112854 -1.3896210829364222 1.4330863952636719 -1.6152156035052698 -1.5645483175860804 0.269334614276886 0.0 0.0 -0.0 0.0 0.0 0.0 0.006729126907885075 -0.903946042060852 -0.9668760895729065 -0.3077233135700226 0.07385359704494476 -0.019022895023226738 0.006729126907885075 -0.8972169160842896 -0.9470505714416504 -0.3043663203716278 0.0682586282491684 -0.019022895023226738 -0.29999933589538186 -0.19998418659228243 0.3000227516640365 -2.22142238334825 -2.221450048870491 7.173964233884161e-05 0.0 0.0 0.0 0.0 0.0 0.0 -0.05090347928250984 -0.03954350913756822 -4.193142750487808 0.3052057222881229 0.1871731594814127 -0.08826701076617392 -0.29999999999027316 -0.1999999999970864 0.30000000000492744 2.221400000029067 2.221400000003588 -2.3788812377712793e-11 0.0 0.0 0.0 0.0 0.0 0.0
6052.776 0.2680872828884263 -1.3895566730145532 1.433086495482227 -1.615207786856626 -1.5645134610073868 0.269382720249164 0.0 0.0 0.0 0.0 0.0 0.0 0.0 0.0 0.0 0.0 0.0 0.0 1.694946507515403e-17 -0.7998186258031201 -0.8456921628019337 -0.25261700746724114 0.00044087742943040405 0.0 1.9451205075227403e-16 -9.21271020070911 -7.140341486443441 -1.0426739698226233 0.0018302507050082584 0.0 0.2680875062942505 -1.3896454016314905 1.4330863952636719 -1.6151674429522913 -1.5645363966571253 0.2693106234073639 0.0 0.0 -0.0 0.0 0.0 0.0 0.006729126907885075 -0.9017030000686646 -0.9714512228965759 -0.2920573949813843 0.06602063775062561 -0.022379877045750618 0.006729126907885075 -0.8972169160842896 -0.9485756158828735 -0.3043663203716278 0.0682586282491684 -0.019022895023226738 -0.29998459226135316 -0.19999389671384285 0.30002696126026007 2.221350973694386 2.221511262148153 -4.8346462522564886e-05 0.0 0.0 0.0 0.0 0.0 0.0 0.30907226320018727 0.14853928207142708 -4.718696388337262 0.22332837659096338 0.320378902385563 -0.10383694550153948 -0.29999999999027316 -0.1999999999970864 0.30000000000492744 2.221400000029067 2.221400000003588 -2.3788812377712793e-11 0.0 0.0 0.0 0.0 0.0 0.0
6052.784 0.2680872828884263 -1.3895566730145532 1.433086495482227 -1.615207786856626 -1.5645134610073868 0.269382720249164 0.0 0.0 0.0 0.0 0.0 0.0 0.0 0.0 0.0 0.0 0.0 0.0 1.694946507515403e-17 -0.7998186258031201 -0.8456921628019337 -0.25261700746724114 0.00044087742943040405 0.0 1.9451205075227403e-16 -9.21271020070911 -7.140341486443441 -1.0426739698226233 0.0018302507050082584 0.0 0.26805153489112854 -1.389609162007467 1.433110237121582 -1.6151912848102015 -1.5645960013019007 0.26937130093574524 0.0 0.0 -0.0 0.0 0.0 0.0 0.0022430422250181437 -0.886001706123352 -0.9897517561912537 -0.29541438817977905 0.06937761604785919 -0.02349887043237686 0.004486084450036287 -0.8972169160842896 -0.9501006603240967 -0.3043663203716278 0.0682586282491684 -0.019022895023226738 -0.29999805387390266 -0.19997971034102768 0.3000094805253501 -2.2214550922172482 -2.2214006067424674 -4.7310876114038616e-05 0.0 0.0 0.0 0.0 0.0 0.0 1.83666780125607 0.9572082917396988 -5.382227938112741 0.16089121092599296 0.49016874572364855 -0.10899696094370992 -0.29999999999027316 -0.1999999999970864 0.30000000000492744 2.221400000029067 2.221400000003588 -2.3788812377712793e-11 0.0 0.0 0.0 0.0 0.0 0.0
6052.7919999999995 0.2680872828884263 -1.3895566730145532 1.433086495482227 -1.615207786856626 -1.5645134610073868 0.269382720249164 0.0 0.0 0.0 0.0 0.0 0.0 0.0 0.0 0.0 0.0 0.0 0.0 1.694946507515403e-17 -0.7998186258031201 -0.8456921628019337 -0.25261700746724114 0.00044087742943040405 0.0 1.9451205075227403e-16 -9.21271020070911 -7.140341486443441 -1.0426739698226233 0.0018302507050082584 0.0 0.26805153489112854 -1.3896334807025355 1.433110237121582 -1.61523944536318 -1.5645721594439905 0.2693585753440857 0.0 0.0 -0.0 0.0 0.0 0.0 0.004486084450036287 -0.8837586641311646 -0.9394253492355347 -0.3200322389602661 0.067139632999897 -0.011189938522875309 0.006729126907885075 -0.8972169160842896 -0.9501006603240967 -0.3043663203716278 0.0682586282491684 -0.019022895023226738 -0.29999786863766453 -0.19998174251066916 0.3000219184960368 -2.2214299476541526 -2.2214045177939163 7.020281248873265e-05 0.0 0.0 0.0 0.0 0.0 0.0 -0.28940009736836925 -0.1736104834802119 -2.717519000463344 0.33481613133530924 -0.017517271717364724 -0.051930620722144744 -0.29999999999027316 -0.1999999999970864 0.30000000000492744 2.221400000029067 2.221400000003588 -2.3788812377712793e-11 0.0 0.0 0.0 0.0 0.0 0.0
6052.799999999999 0.2680872828884263 -1.3895566730145532 1.433086495482227 -1.615207786856626 -1.5645134610073868 0.269382720249164 0.0 0.0 0.0 0.0 0.0 0.0 0.0 0.0 0.0 0.0 0.0 0.0 1.694946507515403e-17 -0.7998186258031201 -0.8456921628019337 -0.25261700746724114 0.00044087742943040405 0.0 1.9451205075227403e-16 -9.21271020070911 -7.140341486443441 -1.0426739698226233 0.0018302507050082584 0.0 0.26802757382392883 -1.3896210829364222 1.43306303024292 -1.6152036825763147 -1.5645721594439905 0.2693585753440857 0.0 0.0 -0.0 0.0 0.0 0.0 0.02018737979233265 -0.8882447481155396 -0.9684011340141296 -0.3054853081703186 0.07049661129713058 -0.019022895023226738 0.01345825381577015 -0.8972169160842896 -0.9516257047653198 -0.3043663203716278 0.0682586282491684 -0.019022895023226738 -0.3000057694079411 -0.19997543141783583 0.3000287095703761 -2.221456966749859 -2.221378136630557 6.88835256625939e-05 0.0 0.0 0.0 0.0 0.0 0.0 0.6184884974399985 0.983883623356902 -4.266335653303118 0.2013563271219573 0.2545075026491983 -0.08826335424099752 -0.29999999999027316 -0.1999999999970864 0.30000000000492744 2.221400000029067 2.221400000003588 -2.3788812377712793e-11 0.0 0.0 0.0 0.0 0.0 0.0
6052.808 0.2680872828884263 -1.3895566730145532 1.433086495482227 -1.615207786856626 -1.5645134610073868 0.269382720249164 0.0 0.0 0.0 0.0 0.0 0.0 0.0 0.0 0.0 0.0 0.0 0.0 1.694946507515403e-17 -0.7998186258031201 -0.8456921628019337 -0.25261700746724114 0.00044087742943040405 0.0 1.9451205075227403e-16 -9.21271020070911 -7.140341486443441 -1.0426739698226233 0.0018302507050082584 0.0 0.26805153489112854 -1.3896334807025355 1.433110237121582 -1.6151793638812464 -1.5645483175860804 0.26932260394096375 0.0 0.0 -0.0 0.0 0.0 0.0 0.0022430422250181437 -0.890487790107727 -0.9180747866630554 -0.2875814139842987 0.0682586282491684 -0.017903901636600494 0.006729126907885075 -0.8972169160842896 -0.9501006603240967 -0.3043663203716278 0.0682586282491684 -0.019022895023226738 -0.2999925896395189 -0.19998228387696612 0.3000167831708734 2.2214032681309432 2.221456960773427 -6.555010684196778e-06 0.0 0.0 0.0 0.0 0.0 0.0 -1.327446467977439 -1.065562974028486 -2.531210140530628 0.37754205947109565 0.027728025174559134 -0.08305651034194396 -0.29999999999027316 -0.1999999999970864 0.30000000000492744 2.221400000029067 2.221400000003588 -2.3788812377712793e-11 0.0 0.0 0.0 0.0 0.0 0.0
6052.816 0.2680872828884263 -1.3895566730145532 1.433086495482227 -1.615207786856626 -1.5645134610073868 0.269382720249164 0.0 0.0 0.0 0.0 0.0 0.0 0.0 0.0 0.0 0.0 0.0 0.0 1.694946507515403e-17 -0.7998186258031201 -0.8456921628019337 -0.25261700746724114 0.00044087742943040405 0.0 1.9451205075227403e-16 -9.21271020070911 -7.140341486443441 -1.0426739698226233 0.0018302507050082584 0.0 0.26805153489112854 -1.3896210829364222 1.433122158050537 -1.6152156035052698 -1.5645721594439905 0.26937130093574524 0.0 0.0 -0.0 0.0 0.0 0.0 0.01345825381577015 -0.8882447481155396 -0.9394253492355347 -0.2875814139842987 0.07609158009290695 -0.019022895023226738 0.008972168900072575 -0.8972169160842896 -0.9546757936477661 -0.3043663203716278 0.0682586282491684 -0.019022895023226738 -0.2999967003223056 -0.19998138428134668 0.3000120788583477 -2.221461110780686 -2.2214069557142584 4.400627060040193e-06 0.0 0.0 0.0 0.0 0.0 0.0 -0.44937272129902767 -0.016502830572509418 -3.4277192628355566 0.3058695505734216 0.18401227206108384 -0.0882523662239936 -0.29999999999027316 -0.1999999999970864 0.30000000000492744 2.221400000029067 2.221400000003588 -2.3788812377712793e-11 0.0 0.0 0.0 0.0 0.0 0.0
6052.824 0.2680872828884263 -1.3895566730145532 1.433086495482227 -1.615207786856626 -1.5645134610073868 0.269382720249164 0.0 0.0 0.0 0.0 0.0 0.0 0.0 0.0 0.0 0.0 0.0 0.0 1.694946507515403e-17 -0.7998186258031201 -0.8456921628019337 -0.25261700746724114 0.00044087742943040405 0.0 1.9451205075227403e-16 -9.21271020070911 -7.140341486443441 -1.0426739698226233 0.0018302507050082584 0.0 0.26807549595832825 -1.3896210829364222 1.4330387115478516 -1.6151912848102015 -1.5645840803729456 0.2693585753440857 0.0 0.0 -0.0 0.0 0.0 0.0 0.008972168900072575 -0.8972169160842896 -0.9119746088981628 -0.3054853081703186 0.06266365945339203 -0.034688808023929596 0.006729126907885075 -0.8927308320999146 -0.9470505714416504 -0.3043663203716278 0.0682586282491684 -0.019022895023226738 -0.2999976127228855 -0.1999892012559894 0.3000349103861423 -2.2213922480035633 -2.2214198587292726 7.592098521294163e-05 0.0 0.0 0.0 0.0 0.0 0.0 -1.9628322400773552 -1.4602014498557214 -1.9048015870764876 0.4209874047428062 -0.16262008716299173 -0.16095686007742663 -0.29999999999027316 -0.1999999999970864 0.30000000000492744 2.221400000029067 2.221400000003588 -2.3788812377712793e-11 0.0 0.0 0.0 0.0 0.0 0.0
6052.831999999999 0.2680872828884263 -1.3895566730145532 1.433086495482227 -1.615207786856626 -1.5645134610073868 0.269382720249164 0.0 0.0 0.0 0.0 0.0 0.0 0.0 0.0 0.0 0.0 0.0 0.0 1.694946507515403e-17 -0.7998186258031201 -0.8456921628019337 -0.25261700746724114 0.00044087742943040405 0.0 1.9451205075227403e-16 -9.21271020070911 -7.140341486443441 -1.0426739698226233 0.0018302507050082584 0.0 0.26805153489112854 -1.3896210829364222 1.433098316192627 -1.6152036825763147 -1.5645721594439905 0.26929864287376404 0.0 0.0 -0.0 0.0 0.0 0.0 0.006729126907885075 -0.8927308320999146 -0.9470505714416504 -0.29653337597846985 0.06378264725208282 -0.02014188840985298 0.006729126907885075 -0.8972169160842896 -0.9501006603240967 -0.3043663203716278 0.0682586282491684 -0.019022895023226738 -0.29999786196791434 -0.19998172249134033 0.3000181769534817 -2.2213762324893542 -2.22148349752886 2.067664871066513e-05 0.0 0.0 0.0 0.0 0.0 0.0 -0.30299123703970093 -0.22485474337670394 -3.5685508977877882 0.275670454201458 0.15234035775913524 -0.09344710796833408 -0.29999999999027316 -0.1999999999970864 0.30000000000492744 2.221400000029067 2.221400000003588 -2.3788812377712793e-11 0.0 0.0 0.0 0.0 0.0 0.0
6052.84 0.2680872828884263 -1.3895566730145532 1.433086495482227 -1.615207786856626 -1.5645134610073868 0.269382720249164 0.0 0.0 0.0 0.0 0.0 0.0 0.0 0.0 0.0 0.0 0.0 0.0 1.694946507515403e-17 -0.7998186258031201 -0.8456921628019337 -0.25261700746724114 0.00044087742943040405 0.0 1.9451205075227403e-16 -9.21271020070911 -7.140341486443441 -1.0426739698226233 0.0018302507050082584 0.0 0.2680395543575287 -1.3896687666522425 1.433110237121582 -1.6152156035052698 -1.5645721594439905 0.269334614276886 0.0 0.0 -0.0 0.0 0.0 0.0 0.008972168900072575 -0.903946042060852 -0.9287500977516174 -0.3177942633628845 0.06602063775062561 -0.008951950818300247 0.006729126907885075 -0.8972169160842896 -0.9501006603240967 -0.3043663203716278 0.0682586282491684 -0.019022895023226738 -0.29999333367730985 -0.19997624245184276 0.3000319613281055 -2.221412721722967 -2.2214136696529843 8.578325762927156e-05 0.0 0.0 0.0 0.0 0.0 0.0 -1.7195036366776026 -0.899917194432263 -2.3630207604909597 0.39493367623620157 -0.15604464187127406 -0.04155444596503851 -0.29999999999027316 -0.1999999999970864 0.30000000000492744 2.221400000029067 2.221400000003588 -2.3788812377712793e-11 0.0 0.0 0.0 0.0 0.0 0.0
6052.848 0.2680872828884263 -1.3895566730145532 1.433086495482227 -1.615207786856626 -1.5645134610073868 0.269382720249164 0.0 0.0 0.0 0.0 0.0 0.0 0.0 0.0 0.0 0.0 0.0 0.0 1.694946507515403e-17 -0.7998186258031201 -0.8456921628019337 -0.25261700746724114 0.00044087742943040405 0.0 1.9451205075227403e-16 -9.21271020070911 -7.140341486443441 -1.0426739698226233 0.0018302507050082584 0.0 0.26809948682785034 -1.389585320149557 1.433110237121582 -1.61523944536318 -1.5645244757281702 0.269334614276886 0.0 0.0 -0.0 0.0 0.0 0.0 0.004486084450036287 -0.8972169160842896 -0.9287500977516174 -0.29429537057876587 0.06378264725208282 -0.017903901636600494 0.006729126907885075 -0.8972169160842896 -0.953150749206543 -0.3043663203716278 0.0682586282491684 -0.019022895023226738 -0.2999941164647629 -0.20000178296488536 0.30000542657021895 2.221352388777727 2.2214866791410315 -4.1414107471396386e-05 0.0 0.0 0.0 0.0 0.0 0.0 -1.2463923282370213 -0.9154089229430499 -2.8540910358141818 0.34602329029755785 0.025560509718979746 -0.08305918458049835 -0.29999999999027316 -0.1999999999970864 0.30000000000492744 2.221400000029067 2.221400000003588 -2.3788812377712793e-11 0.0 0.0 0.0 0.0 0.0 0.0
6052.856 0.2680872828884263 -1.3895566730145532 1.433086495482227 -1.615207786856626 -1.5645134610073868 0.269382720249164 0.0 0.0 0.0 0.0 0.0 0.0 0.0 0.0 0.0 0.0 0.0 0.0 1.694946507515403e-17 -0.7998186258031201 -0.8456921628019337 -0.25261700746724114 0.00044087742943040405 0.0 1.9451205075227403e-16 -9.21271020070911 -7.140341486443441 -1.0426739698226233 0.0018302507050082584 0.0 0.2680635154247284 -1.3896454016314905 1.433110237121582 -1.6151912848102015 -1.5645602385150355 0.2693106234073639 0.0 0.0 -0.0 0.0 0.0 0.0 0.008972168900072575 -0.912918210029602 -0.895199179649353 -0.29429537057876587 0.07273460179567337 -0.019022895023226738 0.006729126907885075 -0.8972169160842896 -0.9516257047653198 -0.3043663203716278 0.0682586282491684 -0.019022895023226738 -0.2999896949937239 -0.19998473695203242 0.3000218837198366 -2.221383622732006 -2.2214907167264846 2.988430916274932e-05 0.0 0.0 0.0 0.0 0.0 0.0 -3.4077649595591692 -2.1811190246785426 -1.4738462437092883 0.5217341658207608 -0.25520011072824106 -0.08825741484536742 -0.29999999999027316 -0.1999999999970864 0.30000000000492744 2.221400000029067 2.221400000003588 -2.3788812377712793e-11 0.0 0.0 0.0 0.0 0.0 0.0
6052.864 0.2680872828884263 -1.3895566730145532 1.433086495482227 -1.615207786856626 -1.5645134610073868 0.269382720249164 0.0 0.0 0.0 0.0 0.0 0.0 0.0 0.0 0.0 0.0 0.0 0.0 1.694946507515403e-17 -0.7998186258031201 -0.8456921628019337 -0.25261700746724114 0.00044087742943040405 0.0 1.9451205075227403e-16 -9.21271020070911 -7.140341486443441 -1.0426739698226233 0.0018302507050082584 0.0 0.26805153489112854 -1.389597241078512 1.4330863952636719 -1.6152036825763147 -1.5645483175860804 0.269334614276886 0.0 0.0 -0.0 0.0 0.0 0.0 0.004486084450036287 -0.8837586641311646 -0.9409503936767578 -0.3200322389602661 0.06937761604785919 -0.022379877045750618 0.006729126907885075 -0.8972169160842896 -0.9516257047653198 -0.3043663203716278 0.0682586282491684 -0.019022895023226738 -0.3000017996147506 -0.19998484388734178 0.3000135709105065 2.2214205136693232 2.221447947672131 -2.2895221344422883e-05 0.0 0.0 0.0 0.0 0.0 0.0 -0.18610198467039962 -0.277732239834883 -2.783086787080508 0.351829833936279 -0.0006086490542351316 -0.10382517686948024 -0.29999999999027316 -0.1999999999970864 0.30000000000492744 2.221400000029067 2.221400000003588 -2.3788812377712793e-11 0.0 0.0 0.0 0.0 0.0 0.0
6052.871999999999 0.2680872828884263 -1.3895566730145532 1.433086495482227 -1.615207786856626 -1.5645134610073868 0.269382720249164 0.0 0.0 0.0 0.0 0.0 0.0 0.0 0.0 0.0 0.0 0.0 0.0 1.694946507515403e-17 -0.7998186258031201 -0.8456921628019337 -0.25261700746724114 0.00044087742943040405 0.0 1.9451205075227403e-16 -9.21271020070911 -7.140341486443441 -1.0426739698226233 0.0018302507050082584 0.0 0.2680635154247284 -1.3896454016314905 1.433110237121582 -1.6151912848102015 -1.5645840803729456 0.269334614276886 0.0 0.0 -0.0 0.0 0.0 0.0 0.0 -0.9061890840530396 -1.0050021409988403 -0.29653337597846985 0.06154466047883034 -0.025736859068274498 0.0 -0.8972169160842896 -0.9485756158828735 -0.3043663203716278 0.0682586282491684 -0.019022895023226738 -0.29999021748437216 -0.19998284415802378 0.30002188584474176 -2.2213956332959017 -2.2214493814129304 1.1403572125969648e-05 0.0 0.0 0.0 0.0 0.0 0.0 1.5498465975313618 0.6351829737568435 -6.052396975847998 0.138463112194329 0.506997668865605 -0.1193940521432657 -0.29999999999027316 -0.1999999999970864 0.30000000000492744 2.221400000029067 2.221400000003588 -2.3788812377712793e-11 0.0 0.0 0.0 0.0 0.0 0.0
6052.88 0.2680872828884263 -1.3895566730145532 1.433086495482227 -1.615207786856626 -1.5645134610073868 0.269382720249164 0.0 0.0 0.0 0.0 0.0 0.0 0.0 0.0 0.0 0.0 0.0 0.0 1.694946507515403e-17 -0.7998186258031201 -0.8456921628019337 -0.25261700746724114 0.00044087742943040405 0.0 1.9451205075227403e-16 -9.21271020070911 -7.140341486443441 -1.0426739698226233 0.0018302507050082584 0.0 0.2680395543575287 -1.3896454016314905 1.433098316192627 -1.6151674429522913 -1.5645602385150355 0.26937130093574524 0.0 0.0 -0.0 0.0 0.0 0.0 0.0022430422250181437 -0.8972169160842896 -0.9211248755455017 -0.32898420095443726 0.067139632999897 -0.01342792622745037 0.004486084450036287 -0.8972169160842896 -0.9516257047653198 -0.3043663203716278 0.0682586282491684 -0.019022895023226738 -0.2999936518493103 -0.1999773156987414 0.3000234050435932 -2.2214810860083336 -2.22139991915254 1.3580105753886778e-05 0.0 0.0 0.0 0.0 0.0 0.0 -1.6748079432104659 -1.2278864275029706 -1.7842058530061744 0.4538491964560728 -0.24864301083967036 -0.062295827378399345 -0.29999999999027316 -0.1999999999970864 0.30000000000492744 2.221400000029067 2.221400000003588 -2.3788812377712793e-11 0.0 0.0 0.0 0.0 0.0 0.0
6052.888 0.2680872828884263 -1.3895566730145532 1.433086495482227 -1.615207786856626 -1.5645134610073868 0.269382720249164 0.0 0.0 0.0 0.0 0.0 0.0 0.0 0.0 0.0 0.0 0.0 0.0 1.694946507515403e-17 -0.7998186258031201 -0.8456921628019337 -0.25261700746724114 0.00044087742943040405 0.0 1.9451205075227403e-16 -9.21271020070911 -7.140341486443441 -1.0426739698226233 0.0018302507050082584 0.0 0.26805153489112854 -1.3896210829364222 1.433074951171875 -1.6152156035052698 -1.5645125547992151 0.269334614276886 0.0 0.0 -0.0 0.0 0.0 0.0 0.006729126907885075 -0.8882447481155396 -0.9943268299102783 -0.31443727016448975 0.06042566895484924 -0.02685585245490074 0.01345825381577015 -0.8972169160842896 -0.9516257047653198 -0.3043663203716278 0.0682586282491684 -0.019022895023226738 -0.2999995626881427 -0.1999873168146699 0.30002616459481485 2.2214148032818097 2.221442634357735 -0.00011509531701341528 0.0 0.0 0.0 0.0 0.0 0.0 1.8223736325524758 1.0880579361585112 -5.171153649382959 0.13805833591356062 0.3757758772623638 -0.12461858316600892 -0.29999999999027316 -0.1999999999970864 0.30000000000492744 2.221400000029067 2.221400000003588 -2.3788812377712793e-11 0.0 0.0 0.0 0.0 0.0 0.0
6052.896 0.2680872828884263 -1.3895566730145532 1.433086495482227 -1.615207786856626 -1.5645134610073868 0.269382720249164 0.0 0.0 0.0 0.0 0.0 0.0 0.0 0.0 0.0 0.0 0.0 0.0 1.694946507515403e-17 -0.7998186258031201 -0.8456921628019337 -0.25261700746724114 0.00044087742943040405 0.0 1.9451205075227403e-16 -9.21271020070911 -7.140341486443441 -1.0426739698226233 0.0018302507050082584 0.0 0.26805153489112854 -1.389609162007467 1.433110237121582 -1.6152156035052698 -1.5645840803729456 0.2693832814693451 0.0 0.0 -0.0 0.0 0.0 0.0 0.011215210892260075 -0.8882447481155396 -0.9150246977806091 -0.29765236377716064 0.07721057534217834 -0.01678490824997425 0.006729126907885075 -0.8972169160842896 -0.9516257047653198 -0.3043663203716278 0.0682586282491684 -0.019022895023226738 -0.2999997179630067 -0.19998120376675005 0.3000115571181545 -2.2214670787542206 -2.221386342673326 -4.827703441760204e-06 0.0 0.0 0.0 0.0 0.0 0.0 -1.4776761679808483 -0.7635843566372822 -2.1792476499175053 0.4131683397170617 -0.047290160435030475 -0.07787408343460199 -0.29999999999027316 -0.1999999999970864 0.30000000000492744 2.221400000029067 2.221400000003588 -2.3788812377712793e-11 0.0 0.0 0.0 0.0 0.0 0.0
6052.9039999999995 0.2680872828884263 -1.3895566730145532 1.433086495482227 -1.615207786856626 -1.5645134610073868 0.269382720249164 0.0 0.0 0.0 0.0 0.0 0.0 0.0 0.0 0.0 0.0 0.0 0.0 1.694946507515403e-17 -0.7998186258031201 -0.8456921628019337 -0.25261700746724114 0.00044087742943040405 0.0 1.9451205075227403e-16 -9.21271020070911 -7.140341486443441 -1.0426739698226233 0.0018302507050082584 0.0 0.2680395543575287 -1.3896334807025355 1.4330506324768066 -1.615227524434225 -1.5645721594439905 0.26937130093574524 0.0 0.0 -0.0 0.0 0.0 0.0 0.008972168900072575 -0.912918210029602 -0.9760263562202454 -0.29429537057876587 0.06154466047883034 -0.024617865681648254 0.006729126907885075 -0.8972169160842896 -0.9516257047653198 -0.3043663203716278 0.0682586282491684 -0.019022895023226738 -0.3000045835087706 -0.19997939583928773 0.3000386917443924 -2.2214405965736685 -2.2213605715537783 0.000135336932472818 0.0 0.0 0.0 0.0 0.0 0.0 -0.048193030614216176 -0.028089017988301473 -4.891171948166274 0.2166343569661217 0.28968278378454443 -0.11423438391568344 -0.29999999999027316 -0.1999999999970864 0.30000000000492744 2.221400000029067 2.221400000003588 -2.3788812377712793e-11 0.0 0.0 0.0 0.0 0.0 0.0
6052.911999999999 0.2680872828884263 -1.3895566730145532 1.433086495482227 -1.615207786856626 -1.5645134610073868 0.269382720249164 0.0 0.0 0.0 0.0 0.0 0.0 0.0 0.0 0.0 0.0 0.0 0.0 1.694946507515403e-17 -0.7998186258031201 -0.8456921628019337 -0.25261700746724114 0.00044087742943040405 0.0 1.9451205075227403e-16 -9.21271020070911 -7.140341486443441 -1.0426739698226233 0.0018302507050082584 0.0 0.2680635154247284 -1.3896334807025355 1.433074951171875 -1.6152036825763147 -1.5645602385150355 0.26937130093574524 0.0 0.0 -0.0 0.0 0.0 0.0 0.011215210892260075 -0.9017030000686646 -0.9516257047653198 -0.29541438817977905 0.0682586282491684 -0.015665914863348007 0.006729126907885075 -0.8972169160842896 -0.9516257047653198 -0.3043663203716278 0.0682586282491684 -0.019022895023226738 -0.29999549597370406 -0.19998637594216503 0.30002939453183325 -2.221438352420696 -2.221411063917369 7.876445929001182e-05 0.0 0.0 0.0 0.0 0.0 0.0 -0.5908025882402214 -0.1551378544783032 -3.807261672353862 0.2832394718281244 0.15884027461316344 -0.07269463973179416 -0.29999999999027316 -0.1999999999970864 0.30000000000492744 2.221400000029067 2.221400000003588 -2.3788812377712793e-11 0.0 0.0 0.0 0.0 0.0 0.0
6052.92 0.2680872828884263 -1.3895566730145532 1.433086495482227 -1.615207786856626 -1.5645134610073868 0.269382720249164 0.0 0.0 0.0 0.0 0.0 0.0 0.0 0.0 0.0 0.0 0.0 0.0 1.694946507515403e-17 -0.7998186258031201 -0.8456921628019337 -0.25261700746724114 0.00044087742943040405 0.0 1.9451205075227403e-16 -9.21271020070911 -7.140341486443441 -1.0426739698226233 0.0018302507050082584 0.0 0.268015593290329 -1.3896454016314905 1.433122158050537 -1.6152156035052698 -1.5645721594439905 0.26937130093574524 0.0 0.0 -0.0 0.0 0.0 0.0 0.0022430422250181437 -0.899459958076477 -0.9760263562202454 -0.3099612891674042 0.07497258484363556 -0.01007094420492649 0.006729126907885075 -0.8972169160842896 -0.953150749206543 -0.3043663203716278 0.0682586282491684 -0.019022895023226738 -0.30000041216583007 -0.19996965798213148 0.30002040420581866 -2.221492492298777 -2.221358561862371 3.760016117832387e-05 0.0 0.0 0.0 0.0 0.0 0.0 0.5418812627778321 0.3016358573242759 -4.520390343423681 0.2775825664814539 0.2541599028113369 -0.0467302199930388 -0.29999999999027316 -0.1999999999970864 0.30000000000492744 2.221400000029067 2.221400000003588 -2.3788812377712793e-11 0.0 0.0 0.0 0.0 0.0 0.0
6052.928 0.2680872828884263 -1.3895566730145532 1.433086495482227 -1.615207786856626 -1.5645134610073868 0.269382720249164 0.0 0.0 0.0 0.0 0.0 0.0 0.0 0.0 0.0 0.0 0.0 0.0 1.694946507515403e-17 -0.7998186258031201 -0.8456921628019337 -0.25261700746724114 0.00044087742943040405 0.0 1.9451205075227403e-16 -9.21271020070911 -7.140341486443441 -1.0426739698226233 0.0018302507050082584 0.0 0.2680875062942505 -1.389597241078512 1.433098316192627 -1.6152156035052698 -1.5645602385150355 0.26929864287376404 0.0 0.0 -0.0 0.0 0.0 0.0 0.008972168900072575 -0.890487790107727 -0.9379003047943115 -0.3222702145576477 0.054830700159072876 -0.02014188840985298 0.006729126907885075 -0.8972169160842896 -0.9501006603240967 -0.3043663203716278 0.0682586282491684 -0.019022895023226738 -0.29999475800117004 -0.1999946538124947 0.3000110321508727 -2.221347279197346 -2.221534579201517 1.3662900005730651e-05 0.0 0.0 0.0 0.0 0.0 0.0 -0.6872398994198149 -0.38481410090096696 -2.6214519774988347 0.30183318367990575 -0.08326860611693558 -0.09344307022345434 -0.29999999999027316 -0.1999999999970864 0.30000000000492744 2.221400000029067 2.221400000003588 -2.3788812377712793e-11 0.0 0.0 0.0 0.0 0.0 0.0
6052.936 0.2680872828884263 -1.3895566730145532 1.433086495482227 -1.615207786856626 -1.5645134610073868 0.269382720249164 0.0 0.0 0.0 0.0 0.0 0.0 0.0 0.0 0.0 0.0 0.0 0.0 1.694946507515403e-17 -0.7998186258031201 -0.8456921628019337 -0.25261700746724114 0.00044087742943040405 0.0 1.9451205075227403e-16 -9.21271020070911 -7.140341486443441 -1.0426739698226233 0.0018302507050082584 0.0 0.2680635154247284 -1.389597241078512 1.4331345558166504 -1.6151912848102015 -1.5645602385150355 0.269334614276886 0.0 0.0 -0.0 0.0 0.0 0.0 0.006729126907885075 -0.899459958076477 -0.9607759714126587 -0.29765236377716064 0.07721057534217834 -0.02349887043237686 0.006729126907885075 -0.8972169160842896 -0.9485756158828735 -0.3043663203716278 0.0682586282491684 -0.019022895023226738 -0.2999944300585131 -0.1999859877724864 0.29999813743131015 2.221393695902543 2.2214471789012613 6.908820357156978e-05 0.0 0.0 0.0 0.0 0.0 0.0 -0.04241300228733133 -0.10298430167514702 -4.141759664744056 0.31422551772962215 0.23280181511161052 -0.10899658591414056 -0.29999999999027316 -0.1999999999970864 0.30000000000492744 2.221400000029067 2.221400000003588 -2.3788812377712793e-11 0.0 0.0 0.0 0.0 0.0 0.0
6052.9439999999995 0.2680872828884263 -1.3895566730145532 1.433086495482227 -1.615207786856626 -1.5645134610073868 0.269382720249164 0.0 0.0 0.0 0.0 0.0 0.0 0.0 0.0 0.0 0.0 0.0 0.0 1.694946507515403e-17 -0.7998186258031201 -0.8456921628019337 -0.25261700746724114 0.00044087742943040405 0.0 1.9451205075227403e-16 -9.21271020070911 -7.140341486443441 -1.0426739698226233 0.0018302507050082584 0.0 0.26805153489112854 -1.3896454016314905 1.433110237121582 -1.6152036825763147 -1.5645363966571253 0.26929864287376404 0.0 0.0 -0.0 0.0 0.0 0.0 0.004486084450036287 -0.899459958076477 -0.9379003047943115 -0.3177942633628845 0.06490164250135422 -0.022379877045750618 0.006729126907885075 -0.8972169160842896 -0.9485756158828735 -0.3043663203716278 0.0682586282491684 -0.019022895023226738 -0.29999254993409763 -0.19998331456862237 0.30002294087841447 2.2213817632185062 2.2214890814770034 -6.531271618842554e-05 0.0 0.0 0.0 0.0 0.0 0.0 -1.0383154459841322 -0.8458663719464721 -2.7405535545359054 0.3767750046140706 -0.0699858778515583 -0.10383042682743229 -0.29999999999027316 -0.1999999999970864 0.30000000000492744 2.221400000029067 2.221400000003588 -2.3788812377712793e-11 0.0 0.0 0.0 0.0 0.0 0.0
6052.951999999999 0.2680872828884263 -1.3895566730145532 1.433086495482227 -1.615207786856626 -1.5645134610073868 0.269382720249164 0.0 0.0 0.0 0.0 0.0 0.0 0.0 0.0 0.0 0.0 0.0 0.0 1.694946507515403e-17 -0.7998186258031201 -0.8456921628019337 -0.25261700746724114 0.00044087742943040405 0.0 1.9451205075227403e-16 -9.21271020070911 -7.140341486443441 -1.0426739698226233 0.0018302507050082584 0.0 0.2680395543575287 -1.3896568457232874 1.433074951171875 -1.61523944536318 -1.5645363966571253 0.2693832814693451 0.0 0.0 -0.0 0.0 0.0 0.0 0.006729126907885075 -0.8837586641311646 -0.9501006603240967 -0.31667524576187134 0.06266365945339203 -0.03580780327320099 0.006729126907885075 -0.8972169160842896 -0.9501006603240967 -0.3043663203716278 0.0682586282491684 -0.019022895023226738 -0.2999992567173201 -0.1999809778306667 0.3000404470529221 -2.221471996929473 -2.2213654828207794 0.00017802865259705742 0.0 0.0 0.0 0.0 0.0 0.0 0.22925120464335697 -0.11241195639670976 -3.2431518221736875 0.29335567026425874 0.07850884786616583 -0.16615325862354938 -0.29999999999027316 -0.1999999999970864 0.30000000000492744 2.221400000029067 2.221400000003588 -2.3788812377712793e-11 0.0 0.0 0.0 0.0 0.0 0.0
6052.96 0.2680872828884263 -1.3895566730145532 1.433086495482227 -1.615207786856626 -1.5645134610073868 0.269382720249164 0.0 0.0 0.0 0.0 0.0 0.0 0.0 0.0 0.0 0.0 0.0 0.0 1.694946507515403e-17 -0.7998186258031201 -0.8456921628019337 -0.25261700746724114 0.00044087742943040405 0.0 1.9451205075227403e-16 -9.21271020070911 -7.140341486443441 -1.0426739698226233 0.0018302507050082584 0.0 0.2680635154247284 -1.3896687666522425 1.4330863952636719 -1.6152036825763147 -1.5645840803729456 0.26932260394096375 0.0 0.0 -0.0 0.0 0.0 0.0 0.006729126907885075 -0.908432126045227 -0.9195998311042786 -0.29541438817977905 0.07832957059144974 -0.03245082125067711 0.006729126907885075 -0.8972169160842896 -0.9501006603240967 -0.3043663203716278 0.0682586282491684 -0.019022895023226738 -0.2999899644834964 -0.1999828222855614 0.30003806056365767 -2.221361274563287 -2.221442118192487 9.281946243685898e-05 0.0 0.0 0.0 0.0 0.0 0.0 -2.1231574996549454 -1.6287048802010469 -2.4718156536823246 0.4799295546104579 -0.06481932047364104 -0.15058396541280542 -0.29999999999027316 -0.1999999999970864 0.30000000000492744 2.221400000029067 2.221400000003588 -2.3788812377712793e-11 0.0 0.0 0.0 0.0 0.0 0.0
6052.968 0.2680872828884263 -1.3895566730145532 1.433086495482227 -1.615207786856626 -1.5645134610073868 0.269382720249164 0.0 0.0 0.0 0.0 0.0 0.0 0.0 0.0 0.0 0.0 0.0 0.0 1.694946507515403e-17 -0.7998186258031201 -0.8456921628019337 -0.25261700746724114 0.00044087742943040405 0.0 1.9451205075227403e-16 -9.21271020070911 -7.140341486443441 -1.0426739698226233 0.0018302507050082584 0.0 0.26809948682785034 -1.3896210829364222 1.4331345558166504 -1.615227524434225 -1.5645363966571253 0.2693585753440857 0.0 0.0 -0.0 0.0 0.0 0.0 0.008972168900072575 -0.9017030000686646 -0.953150749206543 -0.29765236377716064 0.0682586282491684 -0.02909383922815323 0.006729126907885075 -0.8972169160842896 -0.9501006603240967 -0.3043663203716278 0.0682586282491684 -0.019022895023226738 -0.2999861755529714 -0.19999856145733874 0.30000939358950646 2.221386343217528 2.221467127216856 -3.147826628032483e-05 0.0 0.0 0.0 0.0 0.0 0.0 -0.46459360999484434 -0.37484629857971064 -3.8250136039446403 0.303555882824306 0.16093540276105137 -0.1349758167887022 -0.29999999999027316 -0.1999999999970864 0.30000000000492744 2.221400000029067 2.221400000003588 -2.3788812377712793e-11 0.0 0.0 0.0 0.0 0.0 0.0
6052.976 0.2680872828884263 -1.3895566730145532 1.433086495482227 -1.615207786856626 -1.5645134610073868 0.269382720249164 0.0 0.0 0.0 0.0 0.0 0.0 0.0 0.0 0.0 0.0 0.0 0.0 1.694946507515403e-17 -0.7998186258031201 -0.8456921628019337 -0.25261700746724114 0.00044087742943040405 0.0 1.9451205075227403e-16 -9.21271020070911 -7.140341486443441 -1.0426739698226233 0.0018302507050082584 0.0 0.268015593290329 -1.389597241078512 1.433110237121582 -1.6151555220233362 -1.5645483175860804 0.26932260394096375 0.0 0.0 -0.0 0.0 0.0 0.0 0.0022430422250181437 -0.8972169160842896 -0.9623009562492371 -0.3054853081703186 0.07049661129713058 -0.027974845841526985 0.006729126907885075 -0.8972169160842896 -0.9501006603240967 -0.3043663203716278 0.0682586282491684 -0.019022895023226738 -0.3000030685926877 -0.1999723716819277 0.3000023399031158 2.22142242449114 2.2213958439155097 7.550781316598582e-05 0.0 0.0 0.0 0.0 0.0 0.0 0.15973909763544006 -0.22984688441993067 -4.03264059356893 0.30665708199730846 0.19717688829093452 -0.12975946756664652 -0.29999999999027316 -0.1999999999970864 0.30000000000492744 2.221400000029067 2.221400000003588 -2.3788812377712793e-11 0.0 0.0 0.0 0.0 0.0 0.0
6052.9839999999995 0.2680872828884263 -1.3895566730145532 1.433086495482227 -1.615207786856626 -1.5645134610073868 0.269382720249164 0.0 0.0 0.0 0.0 0.0 0.0 0.0 0.0 0.0 0.0 0.0 0.0 1.694946507515403e-17 -0.7998186258031201 -0.8456921628019337 -0.25261700746724114 0.00044087742943040405 0.0 1.9451205075227403e-16 -9.21271020070911 -7.140341486443441 -1.0426739698226233 0.0018302507050082584 0.0 0.268015593290329 -1.389609162007467 1.4331345558166504 -1.6151674429522913 -1.5645363966571253 0.26932260394096375 0.0 0.0 -0.0 0.0 0.0 0.0 0.008972168900072575 -0.8882447481155396 -0.9455255270004272 -0.3043663203716278 0.06602063775062561 -0.02685585245490074 0.006729126907885075 -0.8972169160842896 -0.953150749206543 -0.3043663203716278 0.0682586282491684 -0.019022895023226738 -0.2999998998363486 -0.19997250513065407 0.3000001795823644 2.221414909411139 2.221388366972014 6.692060734369667e-05 0.0 0.0 0.0 0.0 0.0 0.0 -0.18173986955347016 -0.15155736322653962 -3.3249029304910116 0.2947629210628789 0.1102511294460477 -0.12456937970952542 -0.29999999999027316 -0.1999999999970864 0.30000000000492744 2.221400000029067 2.221400000003588 -2.3788812377712793e-11 0.0 0.0 0.0 0.0 0.0 0.0
6052.991999999999 0.2680872828884263 -1.3895566730145532 1.433086495482227 -1.615207786856626 -1.5645134610073868 0.269382720249164 0.0 0.0 0.0 0.0 0.0 0.0 0.0 0.0 0.0 0.0 0.0 0.0 1.694946507515403e-17 -0.7998186258031201 -0.8456921628019337 -0.25261700746724114 0.00044087742943040405 0.0 1.9451205075227403e-16 -9.21271020070911 -7.140341486443441 -1.0426739698226233 0.0018302507050082584 0.0 0.2680395543575287 -1.389597241078512 1.4330863952636719 -1.6152156035052698 -1.5645960013019007 0.2693106234073639 0.0 0.0 -0.0 0.0 0.0 0.0 0.004486084450036287 -0.899459958076477 -0.9302751421928406 -0.31331828236579895 0.06490164250135422 -0.027974845841526985 0.006729126907885075 -0.8972169160842896 -0.9516257047653198 -0.3043663203716278 0.0682586282491684 -0.019022895023226738 -0.3000061841806593 -0.19997773221209866 0.3000145936448344 -2.2213881401994193 -2.2214423174259244 2.2276906283483666e-06 0.0 0.0 0.0 0.0 0.0 0.0 -1.3176935689434413 -1.118577267219167 -2.5151663976235983 0.3987969052982426 -0.09152763337203057 -0.12979330744129047 -0.29999999999027316 -0.1999999999970864 0.30000000000492744 2.221400000029067 2.221400000003588 -2.3788812377712793e-11 0.0 0.0 0.0 0.0 0.0 0.0
6053.0 0.2680872828884263 -1.3895566730145532 1.433086495482227 -1.615207786856626 -1.5645134610073868 0.269382720249164 0.0 0.0 0.0 0.0 0.0 0.0 0.0 0.0 0.0 0.0 0.0 0.0 1.694946507515403e-17 -0.7998186258031201 -0.8456921628019337 -0.25261700746724114 0.00044087742943040405 0.0 1.9451205075227403e-16 -9.21271020070911 -7.140341486443441 -1.0426739698226233 0.0018302507050082584 0.0 0.26805153489112854 -1.3896334807025355 1.433122158050537 -1.6152036825763147 -1.5645960013019007 0.26937130093574524 0.0 0.0 -0.0 0.0 0.0 0.0 0.008972168900072575 -0.903946042060852 -0.9104495644569397 -0.2931763827800751 0.0682586282491684 -0.01007094420492649 0.006729126907885075 -0.8972169160842896 -0.9485756158828735 -0.3043663203716278 0.0682586282491684 -0.017903901636600494 -0.2999945071829777 -0.19997874212210975 0.3000153068270389 -2.221446355346462 -2.221392017397827 -1.3449489860091687e-05 0.0 0.0 0.0 0.0 0.0 0.0 -2.3866366959572147 -1.3618997114830618 -2.119915103572626 0.4182375644085174 -0.11849418834099537 -0.04673099133781076 -0.29999999999027316 -0.1999999999970864 0.30000000000492744 2.221400000029067 2.221400000003588 -2.3788812377712793e-11 0.0 0.0 0.0 0.0 0.0 0.0
6053.008 0.2680872828884263 -1.3895566730145532 1.433086495482227 -1.615207786856626 -1.5645134610073868 0.269382720249164 0.0 0.0 0.0 0.0 0.0 0.0 0.0 0.0 0.0 0.0 0.0 0.0 1.694946507515403e-17 -0.7998186258031201 -0.8456921628019337 -0.25261700746724114 0.00044087742943040405 0.0 1.9451205075227403e-16 -9.21271020070911 -7.140341486443441 -1.0426739698226233 0.0018302507050082584 0.0 0.26802757382392883 -1.3896334807025355 1.433098316192627 -1.6152036825763147 -1.5645483175860804 0.2693106234073639 0.0 0.0 -0.0 0.0 0.0 0.0 0.011215210892260075 -0.886001706123352 -0.9211248755455017 -0.29653337597846985 0.067139632999897 -0.014546919614076614 0.006729126907885075 -0.8972169160842896 -0.9485756158828735 -0.3043663203716278 0.0682586282491684 -0.019022895023226738 -0.3000003593101753 -0.19997594578601705 0.30002241917276845 -2.2214264376684008 -2.2214539463316734 5.608373435965714e-05 0.0 0.0 0.0 0.0 0.0 0.0 -1.124885765491265 -0.49379343742051496 -2.455268430738457 0.33814721953034765 -0.00302056862143973 -0.06749456444852472 -0.29999999999027316 -0.1999999999970864 0.30000000000492744 2.221400000029067 2.221400000003588 -2.3788812377712793e-11 0.0 0.0 0.0 0.0 0.0 0.0
