mkrssg/UniversalRobots/rtde_client_3.5/examples/roboter/movel_x400_robo.csv
timestamp target_q_0 target_q_1 target_q_2 target_q_3 target_q_4 target_q_5 target_qd_0 target_qd_1 target_qd_2 target_qd_3 target_qd_4 target_qd_5 target_qdd_0 target_qdd_1 target_qdd_2 target_qdd_3 target_qdd_4 target_qdd_5 target_current_0 target_current_1 target_current_2 target_current_3 target_current_4 target_current_5 target_moment_0 target_moment_1 target_moment_2 target_moment_3 target_moment_4 target_moment_5 actual_q_0 actual_q_1 actual_q_2 actual_q_3 actual_q_4 actual_q_5 actual_qd_0 actual_qd_1 actual_qd_2 actual_qd_3 actual_qd_4 actual_qd_5 actual_current_0 actual_current_1 actual_current_2 actual_current_3 actual_current_4 actual_current_5 joint_control_output_0 joint_control_output_1 joint_control_output_2 joint_control_output_3 joint_control_output_4 joint_control_output_5 actual_TCP_pose_0 actual_TCP_pose_1 actual_TCP_pose_2 actual_TCP_pose_3 actual_TCP_pose_4 actual_TCP_pose_5 actual_TCP_speed_0 actual_TCP_speed_1 actual_TCP_speed_2 actual_TCP_speed_3 actual_TCP_speed_4 actual_TCP_speed_5 actual_TCP_force_0 actual_TCP_force_1 actual_TCP_force_2 actual_TCP_force_3 actual_TCP_force_4 actual_TCP_force_5 target_TCP_pose_0 target_TCP_pose_1 target_TCP_pose_2 target_TCP_pose_3 target_TCP_pose_4 target_TCP_pose_5 target_TCP_speed_0 target_TCP_speed_1 target_TCP_speed_2 target_TCP_speed_3 target_TCP_speed_4 target_TCP_speed_5
3360.2079999999996 0.3131362074608081 -1.5651339781111577 1.6273242740958471 -1.633869993133855 -1.5643449011933246 0.31408147965878097 0.0 0.0 0.0 0.0 -0.0 -0.0 0.0 0.0 0.0 0.0 0.0 0.0 -5.732286312588583e-19 -0.6250315642868575 -0.844979516405177 -0.25261712930657537 0.00045270534372544256 0.0 -6.578371418902513e-18 -7.199425572627419 -7.134324475933297 -1.0426744727131592 0.0018793528976635727 0.0 0.3131590485572815 -1.565230671559469 1.6273193359375 -1.6338484922992151 -1.5643799940692347 0.3140604794025421 -3.834952076431364e-05 0.0 -0.0 0.0 0.0 -7.190534961409867e-05 -0.004486084450036287 -0.7603912949562073 -0.8936741352081299 -0.24058367311954498 0.04699774086475372 -0.048116736114025116 -0.011215210892260075 -0.7559052109718323 -0.8890990018844604 -0.2528926134109497 0.04923573136329651 -0.04923573136329651 -0.24998146026035722 -0.1999981758122153 0.3000286025587067 -2.221386370956615 -2.2214836849479034 8.703315476350585e-05 -7.669834196135109e-06 9.58666920094806e-06 -2.0577559342189316e-26 3.280164991383152e-09 2.3541856435808443e-09 3.355582873642996e-05 -4.099131563799228 -4.403467872587668 -2.7735957742780775 0.47819800607528107 0.008036119684727321 -0.22324391236553728 -0.24999999998902778 -0.19999999999640986 0.3000000000068323 2.221400000032282 2.221399999992341 5.9472026516743075e-12 0.0 0.0 0.0 0.0 0.0 0.0
3360.216 0.3131362074608081 -1.5651339781111577 1.6273242740958471 -1.633869993133855 -1.5643449011933246 0.31408147965878097 0.0 0.0 0.0 0.0 -0.0 -0.0 0.0 0.0 0.0 0.0 0.0 0.0 -5.732286312588583e-19 -0.6250315642868575 -0.844979516405177 -0.25261712930657537 0.00045270534372544256 0.0 -6.578371418902513e-18 -7.199425572627419 -7.134324475933297 -1.0426744727131592 0.0018793528976635727 0.0 0.3131590485572815 -1.5651829878436487 1.6272711753845215 -1.6338723341571253 -1.5643323103534144 0.31402453780174255 -3.834952076431364e-05 0.0 -0.0 0.0 0.0 -7.190534961409867e-05 -0.011215210892260075 -0.7446900010108948 -0.8890990018844604 -0.24841663241386414 0.05371170490980148 -0.05371170490980148 -0.011215210892260075 -0.7559052109718323 -0.8890990018844604 -0.2528926134109497 0.05259270966053009 -0.04923573136329651 -0.24999320707989223 -0.20000616524677678 0.30003071775143775 2.221336702620405 2.22151456119797 -0.00015512368109967006 -7.670140587122206e-06 9.58711968584768e-06 1.203811830362871e-25 3.882498791433576e-09 6.159810044125885e-09 3.3555828481126394e-05 -3.439325358628826 -4.325714314472755 -2.3591264496286923 0.523550572434315 0.00394703534168911 -0.2492064677183801 -0.24999999998902778 -0.19999999999640986 0.3000000000068323 2.221400000032282 2.221399999992341 5.9472026516743075e-12 0.0 0.0 0.0 0.0 0.0 0.0
3360.2239999999997 0.3131362074608081 -1.5651339781111577 1.6273242740958471 -1.633869993133855 -1.5643449011933246 0.31408147965878097 0.0 0.0 0.0 0.0 -0.0 -0.0 0.0 0.0 0.0 0.0 0.0 0.0 -5.732286312588583e-19 -0.6250315642868575 -0.844979516405177 -0.25261712930657537 0.00045270534372544256 0.0 -6.578371418902513e-18 -7.199425572627419 -7.134324475933297 -1.0426744727131592 0.0018793528976635727 0.0 0.3131110966205597 -1.5651829878436487 1.627331256866455 -1.6339080969439905 -1.5643799940692347 0.31402453780174255 -3.834952076431364e-05 0.0 -0.0 0.0 0.0 -7.190534961409867e-05 -0.011215210892260075 -0.7469330430030823 -0.8936741352081299 -0.2573685944080353 0.04923573136329651 -0.05371170490980148 -0.011215210892260075 -0.7559052109718323 -0.895199179649353 -0.2528926134109497 0.0503547228872776 -0.04923573136329651 -0.2500013452223516 -0.19998953284704674 0.3000158563402894 -2.2213994631920766 -2.221470723631081 8.710627587851546e-05 -7.669502742563468e-06 9.58743177971097e-06 -5.908091730897094e-26 3.2778561303443603e-09 2.3612210338266344e-09 3.3555828736304556e-05 -3.390434072941997 -4.286208136687503 -2.3643462565260687 0.5131783386493722 -0.03746857740285787 -0.24920002302577057 -0.24999999998902778 -0.19999999999640986 0.3000000000068323 2.221400000032282 2.221399999992341 5.9472026516743075e-12 0.0 0.0 0.0 0.0 0.0 0.0
3360.232 0.3131362074608081 -1.5651339781111577 1.6273242740958471 -1.633869993133855 -1.5643449011933246 0.31408147965878097 0.0 0.0 0.0 0.0 -0.0 -0.0 0.0 0.0 0.0 0.0 0.0 0.0 -5.732286312588583e-19 -0.6250315642868575 -0.844979516405177 -0.25261712930657537 0.00045270534372544256 0.0 -6.578371418902513e-18 -7.199425572627419 -7.134324475933297 -1.0426744727131592 0.0018793528976635727 0.0 0.3131590485572815 -1.5651586691485804 1.6272950172424316 -1.6338723341571253 -1.564404312764303 0.31402453780174255 -3.834952076431364e-05 0.0 -0.0 0.0 0.0 -7.190534961409867e-05 -0.01345825381577015 -0.7200165390968323 -0.8890990018844604 -0.2551305890083313 0.051473718136548996 -0.051473718136548996 -0.011215210892260075 -0.7559052109718323 -0.8921490907669067 -0.2528926134109497 0.0503547228872776 -0.04923573136329651 -0.24999630271247172 -0.2000008960099206 0.30001632785058296 -2.2213386972131803 -2.221516139234682 3.638304544610492e-05 -7.669938514414395e-06 9.587238401873785e-06 1.2666492676364507e-26 2.187869039529259e-09 1.6757644115575802e-10 3.3555828816304535e-05 -2.3317884910363746 -3.5134006113182967 -2.129012352463484 0.4624134272782167 0.04375070149153228 -0.23880962489447818 -0.24999999998902778 -0.19999999999640986 0.3000000000068323 2.221400000032282 2.221399999992341 5.9472026516743075e-12 0.0 0.0 0.0 0.0 0.0 0.0
3360.24 0.3131362074608081 -1.5651339781111577 1.6273242740958471 -1.633869993133855 -1.5643449011933246 0.31408147965878097 0.0 0.0 0.0 0.0 -0.0 -0.0 0.0 0.0 0.0 0.0 0.0 0.0 -5.732286312588583e-19 -0.6250315642868575 -0.844979516405177 -0.25261712930657537 0.00045270534372544256 0.0 -6.578371418902513e-18 -7.199425572627419 -7.134324475933297 -1.0426744727131592 0.0018793528976635727 0.0 0.31317102909088135 -1.5651467482196253 1.6273193359375 -1.63383657137026 -1.5643919149981897 0.31408482789993286 -3.834952076431364e-05 0.0 -0.0 0.0 0.0 -7.190534961409867e-05 -0.01794433780014515 -0.7559052109718323 -0.884523868560791 -0.24953563511371613 0.05818767845630646 -0.04923573136329651 -0.011215210892260075 -0.7559052109718323 -0.8890990018844604 -0.2528926134109497 0.05259270966053009 -0.04923573136329651 -0.24999027030806736 -0.2000037260043994 0.3000024468860117 2.2213898957616283 2.2214593092158386 5.555677964746023e-05 -7.670047043346103e-06 9.587007062055611e-06 4.424387868915679e-26 -3.0110632688297136e-09 -5.856123178466768e-10 3.355582878435566e-05 -4.014847831822372 -5.049247875545534 -2.1819407270985427 0.6094016399351576 -0.05672523518087658 -0.22838798971721672 -0.24999999998902778 -0.19999999999640986 0.3000000000068323 2.221400000032282 2.221399999992341 5.9472026516743075e-12 0.0 0.0 0.0 0.0 0.0 0.0
3360.248 0.3131362074608081 -1.5651339781111577 1.6273242740958471 -1.633869993133855 -1.5643449011933246 0.31408147965878097 0.0 0.0 0.0 0.0 -0.0 -0.0 0.0 0.0 0.0 0.0 0.0 0.0 -5.732286312588583e-19 -0.6250315642868575 -0.844979516405177 -0.25261712930657537 0.00045270534372544256 0.0 -6.578371418902513e-18 -7.199425572627419 -7.134324475933297 -1.0426744727131592 0.0018793528976635727 0.0 0.31309911608695984 -1.5651705900775355 1.6272830963134766 -1.6338604132281702 -1.564404312764303 0.31400054693222046 -3.834952076431364e-05 0.0 -0.0 0.0 0.0 -7.190534961409867e-05 -0.006729126907885075 -0.7177734971046448 -0.8890990018844604 -0.24394066631793976 0.06602063775062561 -0.048116736114025116 -0.011215210892260075 -0.7559052109718323 -0.8906240463256836 -0.2528926134109497 0.051473718136548996 -0.04923573136329651 -0.2500067599464129 -0.19998542806376646 0.3000224359567383 -2.2213747963968467 -2.2214723541435855 5.3047563775394474e-05 -7.669345326091438e-06 9.587639431783782e-06 -7.849908150310782e-27 3.003689002873932e-09 4.305652064540795e-10 3.355582878575967e-05 -2.3379480848694256 -3.1094428897117745 -2.363840239769612 0.47134063745584687 0.13266321593151306 -0.22324231836682842 -0.24999999998902778 -0.19999999999640986 0.3000000000068323 2.221400000032282 2.221399999992341 5.9472026516743075e-12 0.0 0.0 0.0 0.0 0.0 0.0
3360.256 0.3131362074608081 -1.5651339781111577 1.6273242740958471 -1.633869993133855 -1.5643449011933246 0.31408147965878097 0.0 0.0 0.0 0.0 -0.0 -0.0 0.0 0.0 0.0 0.0 0.0 0.0 -5.732286312588583e-19 -0.6250315642868575 -0.844979516405177 -0.25261712930657537 0.00045270534372544256 0.0 -6.578371418902513e-18 -7.199425572627419 -7.134324475933297 -1.0426744727131592 0.0018793528976635727 0.0 0.31317102909088135 -1.5651944319354456 1.6272830963134766 -1.6338723341571253 -1.5643561522113245 0.314072847366333 -3.834952076431364e-05 0.0 -0.0 0.0 0.0 -7.190534961409867e-05 -0.02243042178452015 -0.7693634629249573 -0.8936741352081299 -0.2584875822067261 0.0503547228872776 -0.04699774086475372 -0.011215210892260075 -0.7559052109718323 -0.8906240463256836 -0.2528926134109497 0.051473718136548996 -0.04923573136329651 -0.2499887209584197 -0.20000640950053783 0.30003059198824655 2.221391985407694 2.221489025131429 -0.00013744406374490613 -7.670149954137347e-06 9.586947645238928e-06 -1.061234382339132e-25 4.379695707148826e-09 4.518109300089462e-09 3.355582857445748e-05 -4.262591306773604 -5.437123796502765 -2.4168465720674224 0.6133177724247658 -0.10886368424417794 -0.21806113983882544 -0.24999999998902778 -0.19999999999640986 0.3000000000068323 2.221400000032282 2.221399999992341 5.9472026516743075e-12 0.0 0.0 0.0 0.0 0.0 0.0
3360.2639999999997 0.3131362074608081 -1.5651339781111577 1.6273242740958471 -1.633869993133855 -1.5643449011933246 0.31408147965878097 0.0 0.0 0.0 0.0 -0.0 -0.0 0.0 0.0 0.0 0.0 0.0 0.0 -5.732286312588583e-19 -0.6250315642868575 -0.844979516405177 -0.25261712930657537 0.00045270534372544256 0.0 -6.578371418902513e-18 -7.199425572627419 -7.134324475933297 -1.0426744727131592 0.0018793528976635727 0.0 0.31314706802368164 -1.5651829878436487 1.6272830963134766 -1.6339080969439905 -1.5644281546222132 0.3140604794025421 -3.834952076431364e-05 0.0 -0.0 0.0 0.0 -7.190534961409867e-05 -0.008972168900072575 -0.7559052109718323 -0.8875739574432373 -0.26632052659988403 0.051473718136548996 -0.04923573136329651 -0.011215210892260075 -0.7559052109718323 -0.8906240463256836 -0.2528926134109497 0.04923573136329651 -0.04923573136329651 -0.24999975117334353 -0.1999962282836982 0.30003022597779333 -2.2213534844523655 -2.221425088678299 0.00012015049172026518 -7.66975950935027e-06 9.587370648695335e-06 -5.240627299559503e-27 7.641278277276665e-09 1.3727488389263442e-10 3.3555828443640165e-05 -4.036914336373785 -4.605150439795524 -1.9436146876519376 0.5732641036832791 -0.161187897407677 -0.2284736599666967 -0.24999999998902778 -0.19999999999640986 0.3000000000068323 2.221400000032282 2.221399999992341 5.9472026516743075e-12 0.0 0.0 0.0 0.0 0.0 0.0
3360.272 0.3131362074608081 -1.5651339781111577 1.6273242740958471 -1.633869993133855 -1.5643449011933246 0.31408147965878097 0.0 0.0 0.0 0.0 -0.0 -0.0 0.0 0.0 0.0 0.0 0.0 0.0 -5.732286312588583e-19 -0.6250315642868575 -0.844979516405177 -0.25261712930657537 0.00045270534372544256 0.0 -6.578371418902513e-18 -7.199425572627419 -7.134324475933297 -1.0426744727131592 0.0018793528976635727 0.0 0.31312307715415955 -1.5651467482196253 1.6273193359375 -1.6338842550860804 -1.5643680731402796 0.3140604794025421 -3.834952076431364e-05 0.0 -0.0 0.0 0.0 -7.190534961409867e-05 -0.006729126907885075 -0.7491760849952698 -0.8936741352081299 -0.2528926134109497 0.051473718136548996 -0.04587874934077263 -0.011215210892260075 -0.7559052109718323 -0.8921490907669067 -0.2528926134109497 0.051473718136548996 -0.04923573136329651 -0.2500029772768302 -0.19999484677086202 0.30000651861927985 2.221416005945873 2.221433718997721 -2.82162361830052e-05 -7.669706528995012e-06 9.587494368218017e-06 1.963612655444811e-26 -2.8077326069627147e-10 2.107426921546673e-09 3.3555828818354266e-05 -3.586180336410319 -4.066504771919948 -2.4682340986199303 0.49592861887467266 -0.022302544617952655 -0.21283683803239267 -0.24999999998902778 -0.19999999999640986 0.3000000000068323 2.221400000032282 2.221399999992341 5.9472026516743075e-12 0.0 0.0 0.0 0.0 0.0 0.0
3360.2799999999997 0.3131362074608081 -1.5651339781111577 1.6273242740958471 -1.633869993133855 -1.5643449011933246 0.31408147965878097 0.0 0.0 0.0 0.0 -0.0 -0.0 0.0 0.0 0.0 0.0 0.0 0.0 -5.732286312588583e-19 -0.6250315642868575 -0.844979516405177 -0.25261712930657537 0.00045270534372544256 0.0 -6.578371418902513e-18 -7.199425572627419 -7.134324475933297 -1.0426744727131592 0.0018793528976635727 0.0 0.3131590485572815 -1.5651829878436487 1.6272950172424316 -1.6338484922992151 -1.5643680731402796 0.31402453780174255 -3.834952076431364e-05 0.0 -0.0 0.0 0.0 -7.190534961409867e-05 -0.02467346377670765 -0.7536621689796448 -0.8936741352081299 -0.2506546378135681 0.051473718136548996 -0.04587874934077263 -0.011215210892260075 -0.7559052109718323 -0.8936741352081299 -0.2528926134109497 0.051473718136548996 -0.04923573136329651 -0.24999008997078365 -0.20000201320629074 0.30002157221052705 2.2213442444690834 2.2215214907675964 -6.286705801665092e-05 -7.669981358359295e-06 9.587000146207246e-06 -1.0326303734989671e-26 1.4165006280665337e-09 2.653327609533313e-09 3.3555828786878576e-05 -3.544417435195659 -4.9570573314268565 -2.5337273412658634 0.564472658195628 -0.0041069074929492725 -0.2128503965518559 -0.24999999998902778 -0.19999999999640986 0.3000000000068323 2.221400000032282 2.221399999992341 5.9472026516743075e-12 0.0 0.0 0.0 0.0 0.0 0.0
3360.288 0.3131362074608081 -1.5651339781111577 1.6273242740958471 -1.633869993133855 -1.5643449011933246 0.31408147965878097 0.0 0.0 0.0 0.0 -0.0 -0.0 0.0 0.0 0.0 0.0 0.0 0.0 -5.732286312588583e-19 -0.6250315642868575 -0.844979516405177 -0.25261712930657537 0.00045270534372544256 0.0 -6.578371418902513e-18 -7.199425572627419 -7.134324475933297 -1.0426744727131592 0.0018793528976635727 0.0 0.3131110966205597 -1.5651348272906702 1.6272592544555664 -1.6338484922992151 -1.5643799940692347 0.314072847366333 -3.834952076431364e-05 0.0 -0.0 0.0 0.0 -7.190534961409867e-05 -0.011215210892260075 -0.7357178330421448 -0.8890990018844604 -0.24729764461517334 0.054830700159072876 -0.054830700159072876 -0.011215210892260075 -0.7559052109718323 -0.8875739574432373 -0.2528926134109497 0.051473718136548996 -0.04923573136329651 -0.25001002329622857 -0.1999923669242238 0.3000178140726585 2.221454603375394 2.2214181407756763 -3.704349926591264e-05 -7.669611428065002e-06 9.58776457968521e-06 -1.4986030472369638e-26 8.325822671082552e-10 1.5655343041884698e-09 3.355582882792234e-05 -3.0380931062936436 -4.024949457739173 -2.3530879997307137 0.5023048116169146 0.04309503800993642 -0.2543758257789588 -0.24999999998902778 -0.19999999999640986 0.3000000000068323 2.221400000032282 2.221399999992341 5.9472026516743075e-12 0.0 0.0 0.0 0.0 0.0 0.0
3360.296 0.3131362074608081 -1.5651339781111577 1.6273242740958471 -1.633869993133855 -1.5643449011933246 0.31408147965878097 0.0 0.0 0.0 0.0 -0.0 -0.0 0.0 0.0 0.0 0.0 0.0 0.0 -5.732286312588583e-19 -0.6250315642868575 -0.844979516405177 -0.25261712930657537 0.00045270534372544256 0.0 -6.578371418902513e-18 -7.199425572627419 -7.134324475933297 -1.0426744727131592 0.0018793528976635727 0.0 0.31314706802368164 -1.5651586691485804 1.6272950172424316 -1.6338604132281702 -1.564404312764303 0.31402453780174255 -3.834952076431364e-05 0.0 -0.0 0.0 0.0 -7.190534961409867e-05 -0.01570129580795765 -0.7491760849952698 -0.8890990018844604 -0.2528926134109497 0.05371170490980148 -0.04699774086475372 -0.011215210892260075 -0.7559052109718323 -0.8906240463256836 -0.2528926134109497 0.051473718136548996 -0.04923573136329651 -0.2499977680461307 -0.19999759065624556 0.3000153093569119 -2.221355909910115 -2.221506567989094 1.9691525121002778e-05 -7.66981175568437e-06 9.587294596717155e-06 1.6772027466009772e-26 1.372902986811714e-09 -9.80656472303082e-11 3.35558288366116e-05 -3.609972788876485 -4.56826524507665 -2.2771701063364445 0.5522412069508171 -0.03675845680286735 -0.21804121689818157 -0.24999999998902778 -0.19999999999640986 0.3000000000068323 2.221400000032282 2.221399999992341 5.9472026516743075e-12 0.0 0.0 0.0 0.0 0.0 0.0
3360.3039999999996 0.3131362074608081 -1.5651339781111577 1.6273242740958471 -1.633869993133855 -1.5643449011933246 0.31408147965878097 0.0 0.0 0.0 0.0 -0.0 -0.0 0.0 0.0 0.0 0.0 0.0 0.0 -5.732286312588583e-19 -0.6250315642868575 -0.844979516405177 -0.25261712930657537 0.00045270534372544256 0.0 -6.578371418902513e-18 -7.199425572627419 -7.134324475933297 -1.0426744727131592 0.0018793528976635727 0.0 0.31317102909088135 -1.5651705900775355 1.6273193359375 -1.6338604132281702 -1.564404312764303 0.31402453780174255 -3.834952076431364e-05 0.0 -0.0 0.0 0.0 -7.190534961409867e-05 -0.01345825381577015 -0.7581482529640198 -0.8875739574432373 -0.2540116012096405 0.04364075884222984 -0.04587874934077263 -0.011215210892260075 -0.7559052109718323 -0.8906240463256836 -0.2528926134109497 0.051473718136548996 -0.04923573136329651 -0.24998908574235928 -0.20000229617101137 0.3000116265519778 -2.2213333510943363 -2.2215370749285874 2.334751148146553e-06 -7.66999220992044e-06 9.586961634528429e-06 9.472953696724387e-28 5.252669871243201e-10 -3.740804753892428e-10 3.355582884689344e-05 -4.090701841767537 -4.816855666083607 -2.219014969854245 0.5312959982264458 -0.10057961423594472 -0.21284383244275396 -0.24999999998902778 -0.19999999999640986 0.3000000000068323 2.221400000032282 2.221399999992341 5.9472026516743075e-12 0.0 0.0 0.0 0.0 0.0 0.0
3360.312 0.3131362074608081 -1.5651339781111577 1.6273242740958471 -1.633869993133855 -1.5643449011933246 0.31408147965878097 0.0 0.0 0.0 0.0 -0.0 -0.0 0.0 0.0 0.0 0.0 0.0 0.0 -5.732286312588583e-19 -0.6250315642868575 -0.844979516405177 -0.25261712930657537 0.00045270534372544256 0.0 -6.578371418902513e-18 -7.199425572627419 -7.134324475933297 -1.0426744727131592 0.0018793528976635727 0.0 0.31312307715415955 -1.5651829878436487 1.6272830963134766 -1.6338723341571253 -1.5643919149981897 0.3140125274658203 -3.834952076431364e-05 0.0 -0.0 0.0 0.0 -7.190534961409867e-05 -0.011215210892260075 -0.7693634629249573 -0.8906240463256836 -0.2383456975221634 0.04028377681970596 -0.044759754091501236 -0.011215210892260075 -0.7559052109718323 -0.8906240463256836 -0.2528926134109497 0.051473718136548996 -0.04699774086475372 -0.25000083505835885 -0.1999921385629062 0.3000271670749159 -2.2213613748912704 -2.2214857777852006 9.592502667087394e-05 -7.669602670517577e-06 9.587412215166095e-06 4.528355076356759e-26 4.391397025135087e-09 1.8186772090767562e-09 3.355582869268994e-05 -4.520390635290008 -5.024090746242821 -2.725143201645173 0.49779731328334376 -0.03072229438775515 -0.20767784102558418 -0.24999999998902778 -0.19999999999640986 0.3000000000068323 2.221400000032282 2.221399999992341 5.9472026516743075e-12 0.0 0.0 0.0 0.0 0.0 0.0
3360.3199999999997 0.3131362074608081 -1.5651339781111577 1.6273242740958471 -1.633869993133855 -1.5643449011933246 0.31408147965878097 0.0 0.0 0.0 0.0 -0.0 -0.0 0.0 0.0 0.0 0.0 0.0 0.0 -5.732286312588583e-19 -0.6250315642868575 -0.844979516405177 -0.25261712930657537 0.00045270534372544256 0.0 -6.578371418902513e-18 -7.199425572627419 -7.134324475933297 -1.0426744727131592 0.0018793528976635727 0.0 0.3131590485572815 -1.5651944319354456 1.6272830963134766 -1.6338604132281702 -1.5643919149981897 0.3140365183353424 -3.834952076431364e-05 0.0 -0.0 0.0 0.0 -7.190534961409867e-05 -0.008972168900072575 -0.7671204209327698 -0.8890990018844604 -0.24505965411663055 0.04252176731824875 -0.054830700159072876 -0.011215210892260075 -0.7559052109718323 -0.8906240463256836 -0.2528926134109497 0.051473718136548996 -0.0503547228872776 -0.24999109635874214 -0.20000030294922902 0.30002957654418644 -2.221348277214009 -2.2214991547127356 9.524304229719566e-05 -7.669915770820467e-06 9.587038740703177e-06 4.571940367246798e-27 4.359242617957254e-09 1.8066946655730669e-09 3.355582869494855e-05 -4.453379641410443 -5.042265858797182 -2.5083314002791406 0.5243596682911331 -0.06890067822045781 -0.25439912982412477 -0.24999999998902778 -0.19999999999640986 0.3000000000068323 2.221400000032282 2.221399999992341 5.9472026516743075e-12 0.0 0.0 0.0 0.0 0.0 0.0
3360.328 0.3131362074608081 -1.5651339781111577 1.6273242740958471 -1.633869993133855 -1.5643449011933246 0.31408147965878097 0.0 0.0 0.0 0.0 -0.0 -0.0 0.0 0.0 0.0 0.0 0.0 0.0 -5.732286312588583e-19 -0.6250315642868575 -0.844979516405177 -0.25261712930657537 0.00045270534372544256 0.0 -6.578371418902513e-18 -7.199425572627419 -7.134324475933297 -1.0426744727131592 0.0018793528976635727 0.0 0.31319499015808105 -1.5651586691485804 1.6272950172424316 -1.6338961760150355 -1.5643680731402796 0.31400054693222046 -3.834952076431364e-05 0.0 -0.0 0.0 0.0 -7.190534961409867e-05 -0.008972168900072575 -0.7402039170265198 -0.895199179649353 -0.24394066631793976 0.04364075884222984 -0.04587874934077263 -0.011215210892260075 -0.7559052109718323 -0.895199179649353 -0.2528926134109497 0.051473718136548996 -0.0503547228872776 -0.24999005348039513 -0.2000133403361678 0.30001836169920537 2.2212848210086027 2.221595820485653 -9.56155743745384e-05 -7.670415748361505e-06 9.58699874681829e-06 -2.3221955104023105e-26 3.0126340680521e-09 3.17728244055982e-09 3.3555828716477236e-05 -3.1094355893987613 -3.8010857207486652 -2.6959916534527504 0.42056416383629985 0.06363777110580014 -0.21285986089889705 -0.24999999998902778 -0.19999999999640986 0.3000000000068323 2.221400000032282 2.221399999992341 5.9472026516743075e-12 0.0 0.0 0.0 0.0 0.0 0.0
3360.336 0.3131362074608081 -1.5651339781111577 1.6273242740958471 -1.633869993133855 -1.5643449011933246 0.31408147965878097 0.0 0.0 0.0 0.0 -0.0 -0.0 0.0 0.0 0.0 0.0 0.0 0.0 -5.732286312588583e-19 -0.6250315642868575 -0.844979516405177 -0.25261712930657537 0.00045270534372544256 0.0 -6.578371418902513e-18 -7.199425572627419 -7.134324475933297 -1.0426744727131592 0.0018793528976635727 0.0 0.31309911608695984 -1.5651586691485804 1.627307415008545 -1.6338484922992151 -1.5643799940692347 0.3140365183353424 -3.834952076431364e-05 0.0 -0.0 0.0 0.0 -7.190534961409867e-05 -0.006729126907885075 -0.7200165390968323 -0.884523868560791 -0.2551305890083313 0.05259270966053009 -0.04587874934077263 -0.011215210892260075 -0.7559052109718323 -0.8890990018844604 -0.2528926134109497 0.051473718136548996 -0.04923573136329651 -0.25000468229297007 -0.19998681754392256 0.30001059080518555 2.221419923328061 2.2214372275354135 -2.99736172138022e-06 -7.66939861199054e-06 9.587559754769843e-06 -5.087041141766483e-27 -8.301039362936569e-10 1.0241387302583091e-09 3.355582883770017e-05 -2.5973814375824658 -3.275379589035773 -1.9358838578402429 0.45288635162616114 0.007786495587918735 -0.21283431071096773 -0.24999999998902778 -0.19999999999640986 0.3000000000068323 2.221400000032282 2.221399999992341 5.9472026516743075e-12 0.0 0.0 0.0 0.0 0.0 0.0
3360.344 0.3131362074608081 -1.5651339781111577 1.6273242740958471 -1.633869993133855 -1.5643449011933246 0.31408147965878097 0.0 0.0 0.0 0.0 -0.0 -0.0 0.0 0.0 0.0 0.0 0.0 0.0 -5.732286312588583e-19 -0.6250315642868575 -0.844979516405177 -0.25261712930657537 0.00045270534372544256 0.0 -6.578371418902513e-18 -7.199425572627419 -7.134324475933297 -1.0426744727131592 0.0018793528976635727 0.0 0.31314706802368164 -1.5651944319354456 1.6273193359375 -1.6338961760150355 -1.5643919149981897 0.31402453780174255 -3.834952076431364e-05 0.0 -0.0 0.0 0.0 -7.190534961409867e-05 -0.004486084450036287 -0.7424469590187073 -0.8906240463256836 -0.2540116012096405 0.04364075884222984 -0.04364075884222984 -0.011215210892260075 -0.7559052109718323 -0.8906240463256836 -0.2528926134109497 0.051473718136548996 -0.04923573136329651 -0.24999299289455404 -0.19999712868231057 0.300021822606425 -2.221348344084268 -2.2214994421962753 9.460213882511717e-05 -7.669794039205394e-06 9.587111471942579e-06 -5.0454984008770424e-27 4.325758027233936e-09 1.7986877493888105e-09 3.3555828697171485e-05 -3.4290325149559795 -3.7841139451836003 -2.292069713718002 0.4442145848358981 -0.03982708123053239 -0.20248273200156885 -0.24999999998902778 -0.19999999999640986 0.3000000000068323 2.221400000032282 2.221399999992341 5.9472026516743075e-12 0.0 0.0 0.0 0.0 0.0 0.0
3360.352 0.3131362074608081 -1.5651339781111577 1.6273242740958471 -1.633869993133855 -1.5643449011933246 0.31408147965878097 0.0 0.0 0.0 0.0 -0.0 -0.0 0.0 0.0 0.0 0.0 0.0 0.0 -5.732286312588583e-19 -0.6250315642868575 -0.844979516405177 -0.25261712930657537 0.00045270534372544256 0.0 -6.578371418902513e-18 -7.199425572627419 -7.134324475933297 -1.0426744727131592 0.0018793528976635727 0.0 0.31312307715415955 -1.5651467482196253 1.6273193359375 -1.6338723341571253 -1.5643680731402796 0.314072847366333 -3.834952076431364e-05 0.0 -0.0 0.0 0.0 -7.190534961409867e-05 -0.01345825381577015 -0.7446900010108948 -0.895199179649353 -0.2540116012096405 0.038045790046453476 -0.04923573136329651 -0.011215210892260075 -0.7559052109718323 -0.8906240463256836 -0.2528926134109497 0.048116736114025116 -0.04923573136329651 -0.2500020464801409 -0.1999945365354263 0.3000055001494323 2.2214260084597974 2.221416076233361 -1.1524527011981044e-05 -7.669694631614704e-06 9.587458672611055e-06 1.5830527248422883e-26 -1.095747509632691e-09 1.8418306796007453e-09 3.35558288178472e-05 -3.232693321832313 -4.192343995598455 -2.493234383349598 0.4478126884577637 -0.015499988300119566 -0.2284058254173945 -0.24999999998902778 -0.19999999999640986 0.3000000000068323 2.221400000032282 2.221399999992341 5.9472026516743075e-12 0.0 0.0 0.0 0.0 0.0 0.0
3360.3599999999997 0.3131362074608081 -1.5651339781111577 1.6273242740958471 -1.633869993133855 -1.5643449011933246 0.31408147965878097 0.0 0.0 0.0 0.0 -0.0 -0.0 0.0 0.0 0.0 0.0 0.0 0.0 -5.732286312588583e-19 -0.6250315642868575 -0.844979516405177 -0.25261712930657537 0.00045270534372544256 0.0 -6.578371418902513e-18 -7.199425572627419 -7.134324475933297 -1.0426744727131592 0.0018793528976635727 0.0 0.31314706802368164 -1.5651705900775355 1.6272711753845215 -1.6338484922992151 -1.5643919149981897 0.31402453780174255 -3.834952076431364e-05 0.0 -0.0 0.0 0.0 -7.190534961409867e-05 -0.006729126907885075 -0.7626343369483948 -0.8890990018844604 -0.26520153880119324 0.04699774086475372 -0.04923573136329651 -0.011215210892260075 -0.7559052109718323 -0.8906240463256836 -0.2528926134109497 0.0503547228872776 -0.04923573136329651 -0.24999700661344604 -0.19999844213421303 0.3000249720944338 -2.221356008580643 -2.221506746707064 6.188351401250399e-05 -7.669844409456212e-06 9.587265396138605e-06 -2.3619023103089595e-26 2.7285651715696546e-09 1.2776896681292578e-09 3.355582878666347e-05 -4.314022236479983 -4.71130710741691 -2.0545818211248985 0.5576952975539317 -0.17654425651484526 -0.22843107227758996 -0.24999999998902778 -0.19999999999640986 0.3000000000068323 2.221400000032282 2.221399999992341 5.9472026516743075e-12 0.0 0.0 0.0 0.0 0.0 0.0
3360.368 0.3131362074608081 -1.5651339781111577 1.6273242740958471 -1.633869993133855 -1.5643449011933246 0.31408147965878097 0.0 0.0 0.0 0.0 -0.0 -0.0 0.0 0.0 0.0 0.0 0.0 0.0 -5.732286312588583e-19 -0.6250315642868575 -0.844979516405177 -0.25261712930657537 0.00045270534372544256 0.0 -6.578371418902513e-18 -7.199425572627419 -7.134324475933297 -1.0426744727131592 0.0018793528976635727 0.0 0.31312307715415955 -1.5651944319354456 1.6272592544555664 -1.6338484922992151 -1.5643799940692347 0.31400054693222046 -3.834952076431364e-05 0.0 -0.0 0.0 0.0 -7.190534961409867e-05 -0.011215210892260075 -0.7760925889015198 -0.884523868560791 -0.24394066631793976 0.04923573136329651 -0.04923573136329651 -0.011215210892260075 -0.7559052109718323 -0.8890990018844604 -0.2528926134109497 0.05259270966053009 -0.0503547228872776 -0.24999922195282753 -0.19999266397063384 0.3000356685217992 -2.2213519245783457 -2.2215028496123055 0.00012041856000690059 -7.669622819651847e-06 9.587350353342151e-06 -6.329468485711765e-26 4.9100891293518134e-09 2.8856327917683524e-09 3.3555828624239556e-05 -4.9951741439384625 -5.487032020963099 -2.371004563940783 0.592827312529759 -0.11032045155947878 -0.2284491013748854 -0.24999999998902778 -0.19999999999640986 0.3000000000068323 2.221400000032282 2.221399999992341 5.9472026516743075e-12 0.0 0.0 0.0 0.0 0.0 0.0
3360.3759999999997 0.3131362074608081 -1.5651339781111577 1.6273242740958471 -1.633869993133855 -1.5643449011933246 0.31408147965878097 0.0 0.0 0.0 0.0 -0.0 -0.0 0.0 0.0 0.0 0.0 0.0 0.0 -5.732286312588583e-19 -0.6250315642868575 -0.844979516405177 -0.25261712930657537 0.00045270534372544256 0.0 -6.578371418902513e-18 -7.199425572627419 -7.134324475933297 -1.0426744727131592 0.0018793528976635727 0.0 0.31314706802368164 -1.5651586691485804 1.6273193359375 -1.6338842550860804 -1.5643799940692347 0.31402453780174255 -3.834952076431364e-05 0.0 -0.0 0.0 0.0 -4.793690095539205e-05 -0.011215210892260075 -0.7626343369483948 -0.8906240463256836 -0.2517736256122589 0.04587874934077263 -0.04923573136329651 -0.011215210892260075 -0.7559052109718323 -0.8890990018844604 -0.2528926134109497 0.051473718136548996 -0.04923573136329651 -0.2499968016202591 -0.19999937112320376 0.3000100905286591 2.2213607780056055 2.221511634520204 -3.6388704258975476e-05 -7.669880035739206e-06 9.587257534748111e-06 -8.668136803419715e-27 5.329895549343628e-10 1.037472507617756e-09 9.587380176888644e-06 -4.2032445167796375 -4.853541940698765 -2.4112053738922437 0.5359142117378242 -0.08104870560561853 -0.22841725101877114 -0.24999999998902778 -0.19999999999640986 0.3000000000068323 2.221400000032282 2.221399999992341 5.9472026516743075e-12 0.0 0.0 0.0 0.0 0.0 0.0
3360.384 0.3131362074608081 -1.5651339781111577 1.6273242740958471 -1.633869993133855 -1.5643449011933246 0.31408147965878097 0.0 0.0 0.0 0.0 -0.0 -0.0 0.0 0.0 0.0 0.0 0.0 0.0 -5.732286312588583e-19 -0.6250315642868575 -0.844979516405177 -0.25261712930657537 0.00045270534372544256 0.0 -6.578371418902513e-18 -7.199425572627419 -7.134324475933297 -1.0426744727131592 0.0018793528976635727 0.0 0.3131110966205597 -1.5651705900775355 1.6272711753845215 -1.6338842550860804 -1.5643799940692347 0.31402453780174255 -3.834952076431364e-05 0.0 -0.0 0.0 0.0 -4.793690095539205e-05 -0.011215210892260075 -0.7469330430030823 -0.8906240463256836 -0.2562496066093445 0.06154466047883034 -0.04587874934077263 -0.011215210892260075 -0.7559052109718323 -0.8890990018844604 -0.2528926134109497 0.051473718136548996 -0.04699774086475372 -0.25000668963095324 -0.1999913136570269 0.3000280266369336 -2.2213917419982714 -2.2214631098658586 0.00012046006057608997 -7.669571035772423e-06 9.587636735219597e-06 -2.61962755296403e-26 3.272509104784357e-09 1.926406415027019e-09 9.587380040668638e-06 -3.527116862629237 -4.250189685629106 -2.2599804789622686 0.5659144224817065 -0.03468478831894297 -0.21287666817599815 -0.24999999998902778 -0.19999999999640986 0.3000000000068323 2.221400000032282 2.221399999992341 5.9472026516743075e-12 0.0 0.0 0.0 0.0 0.0 0.0
3360.392 0.3131362074608081 -1.5651339781111577 1.6273242740958471 -1.633869993133855 -1.5643449011933246 0.31408147965878097 0.0 0.0 0.0 0.0 -0.0 -0.0 0.0 0.0 0.0 0.0 0.0 0.0 -5.732286312588583e-19 -0.6250315642868575 -0.844979516405177 -0.25261712930657537 0.00045270534372544256 0.0 -6.578371418902513e-18 -7.199425572627419 -7.134324475933297 -1.0426744727131592 0.0018793528976635727 0.0 0.31312307715415955 -1.5651705900775355 1.627307415008545 -1.6339200178729456 -1.5643799940692347 0.3140365183353424 -3.834952076431364e-05 0.0 -0.0 0.0 0.0 -4.793690095539205e-05 -0.008972168900072575 -0.7805786728858948 -0.8906240463256836 -0.24505965411663055 0.054830700159072876 -0.05594969168305397 -0.011215210892260075 -0.7559052109718323 -0.8890990018844604 -0.2528926134109497 0.051473718136548996 -0.05259270966053009 -0.2500037939622901 -0.19999412961433574 0.30002027270459847 -2.221391810044363 -2.2214633985099685 0.00011982003821265251 -7.669679026385664e-06 9.587525687713927e-06 1.730529284173772e-26 3.2501483179573415e-09 1.9211431204649252e-09 9.58738004240114e-06 -4.992673316857303 -5.494112159555429 -2.6190257989113808 0.6131536443368258 -0.08663190911542085 -0.2595983669707877 -0.24999999998902778 -0.19999999999640986 0.3000000000068323 2.221400000032282 2.221399999992341 5.9472026516743075e-12 0.0 0.0 0.0 0.0 0.0 0.0
3360.3999999999996 0.3131362074608081 -1.5651339781111577 1.6273242740958471 -1.633869993133855 -1.5643449011933246 0.31408147965878097 0.0 0.0 0.0 0.0 -0.0 -0.0 0.0 0.0 0.0 0.0 0.0 0.0 -5.732286312588583e-19 -0.6250315642868575 -0.844979516405177 -0.25261712930657537 0.00045270534372544256 0.0 -6.578371418902513e-18 -7.199425572627419 -7.134324475933297 -1.0426744727131592 0.0018793528976635727 0.0 0.31312307715415955 -1.5651944319354456 1.6272830963134766 -1.6339080969439905 -1.5643919149981897 0.314072847366333 -3.834952076431364e-05 0.0 -0.0 0.0 0.0 -4.793690095539205e-05 -0.011215210892260075 -0.7469330430030823 -0.884523868560791 -0.24394066631793976 0.06154466047883034 -0.05259270966053009 -0.011215210892260075 -0.7559052109718323 -0.8890990018844604 -0.2528926134109497 0.051473718136548996 -0.04923573136329651 -0.25000201332714683 -0.19999255111912928 0.3000336507762066 -2.221412959996717 -2.2214039095704696 0.00016200768757083906 -7.669618491850544e-06 9.587457401209556e-06 4.5073325904625585e-26 5.079470026340603e-09 1.912615864921296e-09 9.587379883808704e-06 -3.6923990710607124 -4.507187659841716 -2.27219556501757 0.5690819535943759 0.0069889576558666245 -0.24404722877971396 -0.24999999998902778 -0.19999999999640986 0.3000000000068323 2.221400000032282 2.221399999992341 5.9472026516743075e-12 0.0 0.0 0.0 0.0 0.0 0.0
3360.408 0.3131362074608081 -1.5651339781111577 1.6273242740958471 -1.633869993133855 -1.5643449011933246 0.31408147965878097 0.0 0.0 0.0 0.0 -0.0 -0.0 0.0 0.0 0.0 0.0 0.0 0.0 -5.732286312588583e-19 -0.6250315642868575 -0.844979516405177 -0.25261712930657537 0.00045270534372544256 0.0 -6.578371418902513e-18 -7.199425572627419 -7.134324475933297 -1.0426744727131592 0.0018793528976635727 0.0 0.31317102909088135 -1.5651829878436487 1.6272711753845215 -1.6338842550860804 -1.5643799940692347 0.3140365183353424 -1.917476038215682e-05 0.0 -0.0 0.0 0.0 -4.793690095539205e-05 -0.01345825381577015 -0.7379608750343323 -0.8890990018844604 -0.24729764461517334 0.044759754091501236 -0.051473718136548996 -0.011215210892260075 -0.7559052109718323 -0.8890990018844604 -0.2528926134109497 0.051473718136548996 -0.04923573136329651 -0.24999295489382212 -0.20000573549641948 0.3000317403623508 -2.221334476082721 -2.2215123993834642 0.00013780329243032793 -3.835062053201187e-06 4.793555007316382e-06 -2.9041622570509895e-26 3.837801756911433e-09 2.109681956699189e-09 2.8762140373186003e-05 -3.122844101937715 -4.1464702127259905 -2.360241366098161 0.46756868797757434 0.02208194039757224 -0.23883385903990775 -0.24999999998902778 -0.19999999999640986 0.3000000000068323 2.221400000032282 2.221399999992341 5.9472026516743075e-12 0.0 0.0 0.0 0.0 0.0 0.0
3360.4159999999997 0.3131362074608081 -1.5651339781111577 1.6273242740958471 -1.633869993133855 -1.5643449011933246 0.31408147965878097 0.0 0.0 0.0 0.0 -0.0 -0.0 0.0 0.0 0.0 0.0 0.0 0.0 -5.732286312588583e-19 -0.6250315642868575 -0.844979516405177 -0.25261712930657537 0.00045270534372544256 0.0 -6.578371418902513e-18 -7.199425572627419 -7.134324475933297 -1.0426744727131592 0.0018793528976635727 0.0 0.3131350576877594 -1.5651944319354456 1.6272473335266113 -1.6338604132281702 -1.5643919149981897 0.31404849886894226 -1.917476038215682e-05 0.0 -0.0 0.0 0.0 -4.793690095539205e-05 -0.008972168900072575 -0.7245026230812073 -0.8860489130020142 -0.2551305890083313 0.05371170490980148 -0.044759754091501236 -0.011215210892260075 -0.7559052109718323 -0.8890990018844604 -0.2528926134109497 0.051473718136548996 -0.04923573136329651 -0.24999914258878034 -0.1999954005805814 0.30004024392506756 -2.221376602056777 -2.221447858466686 0.0001452893375114297 -3.834863883665968e-06 4.793673654884477e-06 2.655651308667172e-26 4.536730063397677e-09 1.7338492807497336e-09 2.8762140327201868e-05 -2.7210639234794862 -3.4693658828616374 -2.0149914428729714 0.4717270598463245 0.005596405626162743 -0.20769306374171279 -0.24999999998902778 -0.19999999999640986 0.3000000000068323 2.221400000032282 2.221399999992341 5.9472026516743075e-12 0.0 0.0 0.0 0.0 0.0 0.0
3360.424 0.3131362074608081 -1.5651339781111577 1.6273242740958471 -1.633869993133855 -1.5643449011933246 0.31408147965878097 0.0 0.0 0.0 0.0 -0.0 -0.0 0.0 0.0 0.0 0.0 0.0 0.0 -5.732286312588583e-19 -0.6250315642868575 -0.844979516405177 -0.25261712930657537 0.00045270534372544256 0.0 -6.578371418902513e-18 -7.199425572627419 -7.134324475933297 -1.0426744727131592 0.0018793528976635727 0.0 0.31314706802368164 -1.5651829878436487 1.6272592544555664 -1.6338723341571253 -1.5643799940692347 0.3139885663986206 -1.917476038215682e-05 0.0 -0.0 0.0 0.0 -4.793690095539205e-05 -0.011215210892260075 -0.7379608750343323 -0.8875739574432373 -0.24729764461517334 0.05371170490980148 -0.051473718136548996 -0.011215210892260075 -0.7559052109718323 -0.8906240463256836 -0.2528926134109497 0.051473718136548996 -0.04923573136329651 -0.24999789919513862 -0.19999980019557267 0.30003427760195917 -2.2213078549109886 -2.2215389972837176 0.00013779290179097205 -3.8349482452294645e-06 4.793649813109398e-06 2.3461927102758342e-26 3.838051341278167e-09 2.109004489444707e-09 2.8762140373195825e-05 -3.202617612619409 -4.094699252643869 -2.2961942840809164 0.5045997893321242 0.023256448131637533 -0.23883687771745588 -0.24999999998902778 -0.19999999999640986 0.3000000000068323 2.221400000032282 2.221399999992341 5.9472026516743075e-12 0.0 0.0 0.0 0.0 0.0 0.0
3360.432 0.3131362074608081 -1.5651339781111577 1.6273242740958471 -1.633869993133855 -1.5643449011933246 0.31408147965878097 0.0 0.0 0.0 0.0 -0.0 -0.0 0.0 0.0 0.0 0.0 0.0 0.0 -5.732286312588583e-19 -0.6250315642868575 -0.844979516405177 -0.25261712930657537 0.00045270534372544256 0.0 -6.578371418902513e-18 -7.199425572627419 -7.134324475933297 -1.0426744727131592 0.0018793528976635727 0.0 0.31308713555336 -1.5651105085956019 1.6272592544555664 -1.6338484922992151 -1.5643799940692347 0.31402453780174255 -1.917476038215682e-05 0.0 -0.0 0.0 0.0 -4.793690095539205e-05 -0.008972168900072575 -0.8164673447608948 -0.8921490907669067 -0.24394066631793976 0.04699774086475372 -0.048116736114025116 -0.011215210892260075 -0.7559052109718323 -0.8890990018844604 -0.2528926134109497 0.051473718136548996 -0.04923573136329651 -0.25001824437036035 -0.19998747700490724 0.3000105293062806 2.2214197696022344 2.2214373288918448 -3.0268979296263857e-06 -3.834711951001223e-06 4.794039926969196e-06 -9.271328435201128e-29 -5.540200541387862e-10 6.846520971243283e-10 2.876214056514453e-05 -6.564285523013456 -6.605243142886931 -2.8291290415376085 0.6630963239300259 -0.20583389025373142 -0.2232112312178177 -0.24999999998902778 -0.19999999999640986 0.3000000000068323 2.221400000032282 2.221399999992341 5.9472026516743075e-12 0.0 0.0 0.0 0.0 0.0 0.0
3360.44 0.3131362074608081 -1.5651339781111577 1.6273242740958471 -1.633869993133855 -1.5643449011933246 0.31408147965878097 0.0 0.0 0.0 0.0 -0.0 -0.0 0.0 0.0 0.0 0.0 0.0 0.0 -5.732286312588583e-19 -0.6250315642868575 -0.844979516405177 -0.25261712930657537 0.00045270534372544256 0.0 -6.578371418902513e-18 -7.199425572627419 -7.134324475933297 -1.0426744727131592 0.0018793528976635727 0.0 0.31317102909088135 -1.5651705900775355 1.6272592544555664 -1.6338842550860804 -1.5643323103534144 0.314072847366333 -1.917476038215682e-05 0.0 -0.0 0.0 0.0 -4.793690095539205e-05 -0.01345825381577015 -0.7559052109718323 -0.8829988241195679 -0.2551305890083313 0.0503547228872776 -0.04923573136329651 -0.011215210892260075 -0.7559052109718323 -0.8875739574432373 -0.2528926134109497 0.051473718136548996 -0.04923573136329651 -0.2499945726470417 -0.20001039697984355 0.30003157836852173 2.2213805957618455 2.221477985335418 -0.00017115475516608211 -3.835151436028467e-06 4.793586027346716e-06 -1.485627512108256e-26 3.1096894776848054e-09 4.277086864347625e-09 2.87621402815639e-05 -4.124739222312725 -4.90650038099221 -1.9952341251355472 0.5757997698117358 -0.11671805056342775 -0.22843998627569498 -0.24999999998902778 -0.19999999999640986 0.3000000000068323 2.221400000032282 2.221399999992341 5.9472026516743075e-12 0.0 0.0 0.0 0.0 0.0 0.0
3360.448 0.3131362074608081 -1.5651339781111577 1.6273242740958471 -1.633869993133855 -1.5643449011933246 0.31408147965878097 0.0 0.0 0.0 0.0 -0.0 -0.0 0.0 0.0 0.0 0.0 0.0 0.0 -5.732286312588583e-19 -0.6250315642868575 -0.844979516405177 -0.25261712930657537 0.00045270534372544256 0.0 -6.578371418902513e-18 -7.199425572627419 -7.134324475933297 -1.0426744727131592 0.0018793528976635727 0.0 0.31312307715415955 -1.5651944319354456 1.627331256866455 -1.6338723341571253 -1.5643680731402796 0.31408482789993286 -1.917476038215682e-05 0.0 -0.0 0.0 0.0 -4.793690095539205e-05 -0.008972168900072575 -0.7671204209327698 -0.8814737796783447 -0.2517736256122589 0.05259270966053009 -0.05259270966053009 -0.008972168900072575 -0.7559052109718323 -0.8875739574432373 -0.2528926134109497 0.0503547228872776 -0.04923573136329651 -0.24999423996869158 -0.19999201307478337 0.3000162277488823 2.221450807999811 2.221414297153653 -6.154320110008838e-05 -3.834798929053867e-06 4.7935796483189765e-06 2.4803836749194398e-26 9.006668065231793e-10 1.7554556186483093e-09 2.8762140532631586e-05 -4.713146545514031 -5.208238347269058 -2.042768433542232 0.6045066424778391 -0.14327762288404 -0.24399275872872422 -0.24999999998902778 -0.19999999999640986 0.3000000000068323 2.221400000032282 2.221399999992341 5.9472026516743075e-12 0.0 0.0 0.0 0.0 0.0 0.0
3360.4559999999997 0.3131362074608081 -1.5651339781111577 1.6273242740958471 -1.633869993133855 -1.5643449011933246 0.31408147965878097 0.0 0.0 0.0 0.0 -0.0 -0.0 0.0 0.0 0.0 0.0 0.0 0.0 -5.732286312588583e-19 -0.6250315642868575 -0.844979516405177 -0.25261712930657537 0.00045270534372544256 0.0 -6.578371418902513e-18 -7.199425572627419 -7.134324475933297 -1.0426744727131592 0.0018793528976635727 0.0 0.31312307715415955 -1.5651705900775355 1.627307415008545 -1.6338484922992151 -1.5643919149981897 0.31402453780174255 -1.917476038215682e-05 0.0 -0.0 0.0 0.0 -4.793690095539205e-05 -0.006729126907885075 -0.7424469590187073 -0.8875739574432373 -0.24841663241386414 0.048116736114025116 -0.04364075884222984 -0.011215210892260075 -0.7559052109718323 -0.8875739574432373 -0.2528926134109497 0.05259270966053009 -0.04923573136329651 -0.24999851270761467 -0.1999913345046088 0.30001416268381886 2.2213913431228267 2.221488496868718 -1.116893362548309e-05 -3.8347859176335745e-06 4.793661577064044e-06 -4.084881057980064e-28 1.6677753613845457e-10 3.1525427639898926e-10 2.876214057190849e-05 -3.4979727821988367 -3.9544501723117795 -2.2860969032175937 0.4702599796024087 -0.015007381298776018 -0.20245854169661284 -0.24999999998902778 -0.19999999999640986 0.3000000000068323 2.221400000032282 2.221399999992341 5.9472026516743075e-12 0.0 0.0 0.0 0.0 0.0 0.0
3360.464 0.3131362074608081 -1.5651339781111577 1.6273242740958471 -1.633869993133855 -1.5643449011933246 0.31408147965878097 0.0 0.0 0.0 0.0 -0.0 -0.0 0.0 0.0 0.0 0.0 0.0 0.0 -5.732286312588583e-19 -0.6250315642868575 -0.844979516405177 -0.25261712930657537 0.00045270534372544256 0.0 -6.578371418902513e-18 -7.199425572627419 -7.134324475933297 -1.0426744727131592 0.0018793528976635727 0.0 0.31314706802368164 -1.5651348272906702 1.6273193359375 -1.6338723341571253 -1.5643919149981897 0.314072847366333 -1.917476038215682e-05 0.0 -0.0 0.0 0.0 -4.793690095539205e-05 -0.008972168900072575 -0.7289887070655823 -0.8921490907669067 -0.26296356320381165 0.051473718136548996 -0.04364075884222984 -0.011215210892260075 -0.7559052109718323 -0.8921490907669067 -0.2528926134109497 0.051473718136548996 -0.04699774086475372 -0.2499995357644711 -0.1999992063032016 0.30000193133864694 2.221410588589237 2.2214538672420376 2.2156890362171665e-05 -3.834936857485429e-06 4.793681193934139e-06 7.607478520522966e-27 -9.211146857035162e-10 -3.5153502534204964e-11 2.8762140564372665e-05 -2.726497350708088 -3.452768326055693 -2.1163368178164697 0.4690389402591495 -0.024383969071768215 -0.2024480095679591 -0.24999999998902778 -0.19999999999640986 0.3000000000068323 2.221400000032282 2.221399999992341 5.9472026516743075e-12 0.0 0.0 0.0 0.0 0.0 0.0
3360.4719999999998 0.3131362074608081 -1.5651339781111577 1.6273242740958471 -1.633869993133855 -1.5643449011933246 0.31408147965878097 0.0 0.0 0.0 0.0 -0.0 -0.0 0.0 0.0 0.0 0.0 0.0 0.0 -5.732286312588583e-19 -0.6250315642868575 -0.844979516405177 -0.25261712930657537 0.00045270534372544256 0.0 -6.578371418902513e-18 -7.199425572627419 -7.134324475933297 -1.0426744727131592 0.0018793528976635727 0.0 0.31317102909088135 -1.5651829878436487 1.6272950172424316 -1.633944336568014 -1.5643680731402796 0.31408482789993286 -1.917476038215682e-05 0.0 -0.0 0.0 0.0 -4.793690095539205e-05 -0.01345825381577015 -0.7850647568702698 -0.8967242240905762 -0.26184457540512085 0.05259270966053009 -0.04364075884222984 -0.011215210892260075 -0.7559052109718323 -0.895199179649353 -0.2528926134109497 0.051473718136548996 -0.04923573136329651 -0.24999517669434573 -0.2000075026613075 0.30002976132868914 -2.2213837013538997 -2.2214550039476 0.0001970669758496618 -3.835095938164444e-06 4.793597609809065e-06 -9.139796281672799e-27 5.312506030073398e-09 3.1927028711210743e-09 2.8762140172541072e-05 -4.992327076975606 -5.496850137520088 -2.5244607253520193 0.6300940544445125 -0.1716903342974433 -0.20251539988737377 -0.24999999998902778 -0.19999999999640986 0.3000000000068323 2.221400000032282 2.221399999992341 5.9472026516743075e-12 0.0 0.0 0.0 0.0 0.0 0.0
3360.48 0.3131362074608081 -1.5651339781111577 1.6273242740958471 -1.633869993133855 -1.5643449011933246 0.31408147965878097 0.0 0.0 0.0 0.0 -0.0 -0.0 0.0 0.0 0.0 0.0 0.0 0.0 -5.732286312588583e-19 -0.6250315642868575 -0.844979516405177 -0.25261712930657537 0.00045270534372544256 0.0 -6.578371418902513e-18 -7.199425572627419 -7.134324475933297 -1.0426744727131592 0.0018793528976635727 0.0 0.31317102909088135 -1.5651705900775355 1.6272711753845215 -1.6339080969439905 -1.564404312764303 0.3140365183353424 -1.917476038215682e-05 0.0 -0.0 0.0 0.0 -4.793690095539205e-05 -0.011215210892260075 -0.7648773789405823 -0.8936741352081299 -0.2506546378135681 0.05706868693232536 -0.05259270966053009 -0.011215210892260075 -0.7559052109718323 -0.895199179649353 -0.24953563511371613 0.051473718136548996 -0.048116736114025116 -0.24999718338749322 -0.20000501244942268 0.30003006589469816 -2.221315377654211 -2.221493552148996 0.00013649703688349202 -3.835048188947876e-06 4.79363608766934e-06 1.2316678576814838e-26 4.7191766287495266e-09 1.172053849472891e-09 2.876214032661585e-05 -4.186884175409912 -4.903044294131623 -2.5714470912983844 0.5836197244511478 -0.045493286716205686 -0.24404299127721013 -0.24999999998902778 -0.19999999999640986 0.3000000000068323 2.221400000032282 2.221399999992341 5.9472026516743075e-12 0.0 0.0 0.0 0.0 0.0 0.0
3360.488 0.3131362074608081 -1.5651339781111577 1.6273242740958471 -1.633869993133855 -1.5643449011933246 0.31408147965878097 0.0 0.0 0.0 0.0 -0.0 -0.0 0.0 0.0 0.0 0.0 0.0 0.0 -5.732286312588583e-19 -0.6250315642868575 -0.844979516405177 -0.25261712930657537 0.00045270534372544256 0.0 -6.578371418902513e-18 -7.199425572627419 -7.134324475933297 -1.0426744727131592 0.0018793528976635727 0.0 0.3131350576877594 -1.5652068297015589 1.6273193359375 -1.6338723341571253 -1.5643799940692347 0.31404849886894226 -1.917476038215682e-05 0.0 -0.0 0.0 0.0 -4.793690095539205e-05 -0.02018737979233265 -0.7289887070655823 -0.8936741352081299 -0.23498870432376862 0.044759754091501236 -0.04252176731824875 -0.011215210892260075 -0.7559052109718323 -0.8921490907669067 -0.2517736256122589 0.051473718136548996 -0.048116736114025116 -0.24999148189508585 -0.1999938782539901 0.3000234981299305 -2.221399601961911 -2.221470511702476 8.706527671012513e-05 -3.834834693418412e-06 4.793526762918591e-06 1.3857745617100086e-26 2.1861066044040967e-09 1.5715093726717388e-09 2.8762140497628502e-05 -2.5299745328265892 -3.852215193111628 -2.788984387784144 0.41459860930182346 0.159691068242684 -0.1972899524294157 -0.24999999998902778 -0.19999999999640986 0.3000000000068323 2.221400000032282 2.221399999992341 5.9472026516743075e-12 0.0 0.0 0.0 0.0 0.0 0.0
3360.4959999999996 0.3131362074608081 -1.5651339781111577 1.6273242740958471 -1.633869993133855 -1.5643449011933246 0.31408147965878097 0.0 0.0 0.0 0.0 -0.0 -0.0 0.0 0.0 0.0 0.0 0.0 0.0 -5.732286312588583e-19 -0.6250315642868575 -0.844979516405177 -0.25261712930657537 0.00045270534372544256 0.0 -6.578371418902513e-18 -7.199425572627419 -7.134324475933297 -1.0426744727131592 0.0018793528976635727 0.0 0.3131110966205597 -1.5652068297015589 1.6272950172424316 -1.6339080969439905 -1.5643561522113245 0.31404849886894226 -1.917476038215682e-05 0.0 -0.0 0.0 0.0 -4.793690095539205e-05 -0.011215210892260075 -0.7783356308937073 -0.8936741352081299 -0.2372266948223114 0.051473718136548996 -0.054830700159072876 -0.011215210892260075 -0.7559052109718323 -0.8921490907669067 -0.2540116012096405 0.048116736114025116 -0.0503547228872776 -0.2500006683871793 -0.19999143101033268 0.3000338055443558 -2.221421581426283 -2.2214400243756978 0.00018817749855983603 -3.83478776810776e-06 4.7937029117031725e-06 -8.568560798962071e-26 4.571834158317828e-09 3.5496445589151636e-09 2.8762140223800412e-05 -4.769159077453224 -5.41006539710397 -2.9093184023991605 0.572538978535366 -0.015007503184075597 -0.25442256602585106 -0.24999999998902778 -0.19999999999640986 0.3000000000068323 2.221400000032282 2.221399999992341 5.9472026516743075e-12 0.0 0.0 0.0 0.0 0.0 0.0
3360.504 0.3131362074608081 -1.5651339781111577 1.6273242740958471 -1.633869993133855 -1.5643449011933246 0.31408147965878097 0.0 0.0 0.0 0.0 -0.0 -0.0 0.0 0.0 0.0 0.0 0.0 0.0 -5.732286312588583e-19 -0.6250315642868575 -0.844979516405177 -0.25261712930657537 0.00045270534372544256 0.0 -6.578371418902513e-18 -7.199425572627419 -7.134324475933297 -1.0426744727131592 0.0018793528976635727 0.0 0.31317102909088135 -1.5651705900775355 1.6272950172424316 -1.6338241736041468 -1.5643799940692347 0.31404849886894226 -1.917476038215682e-05 0.0 -0.0 0.0 0.0 -4.793690095539205e-05 -0.01794433780014515 -0.7603912949562073 -0.895199179649353 -0.25960657000541687 0.05259270966053009 -0.0503547228872776 -0.011215210892260075 -0.7559052109718323 -0.8921490907669067 -0.2528926134109497 0.051473718136548996 -0.04923573136329651 -0.24998784656180936 -0.20000400276003916 0.3000157818912039 2.2213534852121875 2.2215037093827874 -2.9706492198399385e-06 -3.83502882839603e-06 4.793457056274057e-06 1.2275029818988248e-27 -5.528908415595338e-10 6.810582220984843e-10 2.8762140565208755e-05 -3.8609765399655855 -4.9470305112087605 -2.42599421538819 0.58416332169271 -0.07654706088784526 -0.23359641597924893 -0.24999999998902778 -0.19999999999640986 0.3000000000068323 2.221400000032282 2.221399999992341 5.9472026516743075e-12 0.0 0.0 0.0 0.0 0.0 0.0
3360.5119999999997 0.3131362074608081 -1.5651339781111577 1.6273242740958471 -1.633869993133855 -1.5643449011933246 0.31408147965878097 0.0 0.0 0.0 0.0 -0.0 -0.0 0.0 0.0 0.0 0.0 0.0 0.0 -5.732286312588583e-19 -0.6250315642868575 -0.844979516405177 -0.25261712930657537 0.00045270534372544256 0.0 -6.578371418902513e-18 -7.199425572627419 -7.134324475933297 -1.0426744727131592 0.0018793528976635727 0.0 0.3131590485572815 -1.5651586691485804 1.6273193359375 -1.6338484922992151 -1.5643799940692347 0.3140365183353424 -1.917476038215682e-05 0.0 -0.0 0.0 0.0 -4.793690095539205e-05 -0.011215210892260075 -0.7312317490577698 -0.895199179649353 -0.25960657000541687 0.05371170490980148 -0.04923573136329651 -0.011215210892260075 -0.7559052109718323 -0.8921490907669067 -0.2528926134109497 0.051473718136548996 -0.04923573136329651 -0.24999161314632906 -0.2000014353972278 0.30000703511915117 2.2213495738842366 2.2214999177190595 1.3686020244512139e-05 -3.83497959982956e-06 4.793529279629795e-06 -2.1807590927407612e-26 -1.0969524633342683e-09 5.062278249830239e-10 2.876214055801135e-05 -2.669294259653116 -3.6264068296520056 -2.325704908211462 0.4828870256269621 0.015406469733934154 -0.2284021591886448 -0.24999999998902778 -0.19999999999640986 0.3000000000068323 2.221400000032282 2.221399999992341 5.9472026516743075e-12 0.0 0.0 0.0 0.0 0.0 0.0
3360.52 0.3131362074608081 -1.5651339781111577 1.6273242740958471 -1.633869993133855 -1.5643449011933246 0.31408147965878097 0.0 0.0 0.0 0.0 -0.0 -0.0 0.0 0.0 0.0 0.0 0.0 0.0 -5.732286312588583e-19 -0.6250315642868575 -0.844979516405177 -0.25261712930657537 0.00045270534372544256 0.0 -6.578371418902513e-18 -7.199425572627419 -7.134324475933297 -1.0426744727131592 0.0018793528976635727 0.0 0.31314706802368164 -1.5651944319354456 1.627307415008545 -1.6338604132281702 -1.5643919149981897 0.31402453780174255 -1.917476038215682e-05 0.0 -0.0 0.0 0.0 -4.793690095539205e-05 -0.01345825381577015 -0.7850647568702698 -0.8890990018844604 -0.2562496066093445 0.04587874934077263 -0.04699774086475372 -0.011215210892260075 -0.7559052109718323 -0.8921490907669067 -0.2528926134109497 0.051473718136548996 -0.04923573136329651 -0.24999128353061353 -0.19999656308354233 0.3000223227952073 -2.221356184554684 -2.221506867432111 6.121071402327442e-05 -3.834886174381803e-06 4.793522959327308e-06 -7.702048274073945e-28 1.7974137740191049e-09 8.443851403736021e-10 2.876214053210112e-05 -5.223995165415472 -5.744197245283502 -2.3263128820122176 0.6179907395823202 -0.19197219271511173 -0.2180504131833797 -0.24999999998902778 -0.19999999999640986 0.3000000000068323 2.221400000032282 2.221399999992341 5.9472026516743075e-12 0.0 0.0 0.0 0.0 0.0 0.0
3360.528 0.3131362074608081 -1.5651339781111577 1.6273242740958471 -1.633869993133855 -1.5643449011933246 0.31408147965878097 0.0 0.0 0.0 0.0 -0.0 -0.0 0.0 0.0 0.0 0.0 0.0 0.0 -5.732286312588583e-19 -0.6250315642868575 -0.844979516405177 -0.25261712930657537 0.00045270534372544256 0.0 -6.578371418902513e-18 -7.199425572627419 -7.134324475933297 -1.0426744727131592 0.0018793528976635727 0.0 0.3131350576877594 -1.5651944319354456 1.627307415008545 -1.6338604132281702 -1.5643442312823694 0.31404849886894226 -1.917476038215682e-05 0.0 -0.0 0.0 0.0 -4.793690095539205e-05 -0.011215210892260075 -0.7469330430030823 -0.8921490907669067 -0.2383456975221634 0.04028377681970596 -0.04252176731824875 -0.011215210892260075 -0.7559052109718323 -0.8921490907669067 -0.2528926134109497 0.051473718136548996 -0.04923573136329651 -0.24999247236106162 -0.1999972956754009 0.3000223186900389 2.2213859291606446 2.2214568074772303 -9.522263908998103e-05 -3.834900221655291e-06 4.793545754866357e-06 1.1748992794129962e-26 1.0912918936281014e-09 3.018368637902721e-09 2.8762140465787022e-05 -3.4914718213844176 -4.159606225829087 -2.7123349973637234 0.42690024243883246 0.05309241131142056 -0.19727887158701937 -0.24999999998902778 -0.19999999999640986 0.3000000000068323 2.221400000032282 2.221399999992341 5.9472026516743075e-12 0.0 0.0 0.0 0.0 0.0 0.0
3360.536 0.3131362074608081 -1.5651339781111577 1.6273242740958471 -1.633869993133855 -1.5643449011933246 0.31408147965878097 0.0 0.0 0.0 0.0 -0.0 -0.0 0.0 0.0 0.0 0.0 0.0 0.0 -5.732286312588583e-19 -0.6250315642868575 -0.844979516405177 -0.25261712930657537 0.00045270534372544256 0.0 -6.578371418902513e-18 -7.199425572627419 -7.134324475933297 -1.0426744727131592 0.0018793528976635727 0.0 0.31314706802368164 -1.565230671559469 1.627307415008545 -1.6338961760150355 -1.564404312764303 0.3140365183353424 -1.917476038215682e-05 0.0 -0.0 0.0 0.0 -4.793690095539205e-05 -0.008972168900072575 -0.7671204209327698 -0.8921490907669067 -0.25960657000541687 0.04252176731824875 -0.0503547228872776 -0.011215210892260075 -0.7559052109718323 -0.8921490907669067 -0.2528926134109497 0.04699774086475372 -0.04923573136329651 -0.24998928063407025 -0.19999488201326276 0.30003623470094726 -2.2213382705356652 -2.2214629200782676 0.00015313267587523243 -3.834853940262109e-06 4.7934845542660865e-06 -2.7133342366116446e-26 5.263695258182891e-09 1.3454935588402897e-09 2.876214026536342e-05 -4.3769454882454255 -4.898094903486109 -2.319599551404248 0.5382793299341387 -0.14201757031682385 -0.23365936198093457 -0.24999999998902778 -0.19999999999640986 0.3000000000068323 2.221400000032282 2.221399999992341 5.9472026516743075e-12 0.0 0.0 0.0 0.0 0.0 0.0
3360.544 0.3131362074608081 -1.5651339781111577 1.6273242740958471 -1.633869993133855 -1.5643449011933246 0.31408147965878097 0.0 0.0 0.0 0.0 -0.0 -0.0 0.0 0.0 0.0 0.0 0.0 0.0 -5.732286312588583e-19 -0.6250315642868575 -0.844979516405177 -0.25261712930657537 0.00045270534372544256 0.0 -6.578371418902513e-18 -7.199425572627419 -7.134324475933297 -1.0426744727131592 0.0018793528976635727 0.0 0.3131350576877594 -1.5651944319354456 1.6272473335266113 -1.6338961760150355 -1.5643680731402796 0.3140604794025421 -1.917476038215682e-05 0.0 -0.0 0.0 0.0 -4.793690095539205e-05 -0.006729126907885075 -0.7177734971046448 -0.8890990018844604 -0.24394066631793976 0.051473718136548996 -0.04923573136329651 -0.011215210892260075 -0.7559052109718323 -0.8921490907669067 -0.2528926134109497 0.051473718136548996 -0.048116736114025116 -0.2500013280305632 -0.19999819875108735 0.30004329761085863 -2.2213931837841283 -2.2214383924292957 0.00021236989185781743 -3.834917537914964e-06 4.793715560206992e-06 1.2034449229487696e-25 5.81360582280839e-09 3.3520642910798454e-09 2.8762140103509953e-05 -2.3323038716751534 -3.1260268148623913 -2.363398956464402 0.40827562835278264 0.11217343057079139 -0.2284704067145779 -0.24999999998902778 -0.19999999999640986 0.3000000000068323 2.221400000032282 2.221399999992341 5.9472026516743075e-12 0.0 0.0 0.0 0.0 0.0 0.0
3360.5519999999997 0.3131362074608081 -1.5651339781111577 1.6273242740958471 -1.633869993133855 -1.5643449011933246 0.31408147965878097 0.0 0.0 0.0 0.0 -0.0 -0.0 0.0 0.0 0.0 0.0 0.0 0.0 -5.732286312588583e-19 -0.6250315642868575 -0.844979516405177 -0.25261712930657537 0.00045270534372544256 0.0 -6.578371418902513e-18 -7.199425572627419 -7.134324475933297 -1.0426744727131592 0.0018793528976635727 0.0 0.3131110966205597 -1.5651705900775355 1.6272711753845215 -1.6338723341571253 -1.5643561522113245 0.3140365183353424 -1.917476038215682e-05 0.0 -0.0 0.0 0.0 -4.793690095539205e-05 -0.02018737979233265 -0.7446900010108948 -0.8921490907669067 -0.24394066631793976 0.04699774086475372 -0.048116736114025116 -0.011215210892260075 -0.7559052109718323 -0.8921490907669067 -0.2528926134109497 0.05259270966053009 -0.044759754091501236 -0.2500051523560588 -0.19999287101239296 0.3000270060439362 2.221414349666367 2.2214589857911506 -0.00012077617944575423 -3.834815379802176e-06 4.793788890732044e-06 4.704675896887173e-26 2.3761506397162488e-09 2.8363595739681288e-09 2.876214043043264e-05 -3.2467593601320743 -4.529225501562914 -2.584625014147878 0.498412329863198 0.047853148342835015 -0.22324937208249646 -0.24999999998902778 -0.19999999999640986 0.3000000000068323 2.221400000032282 2.221399999992341 5.9472026516743075e-12 0.0 0.0 0.0 0.0 0.0 0.0
3360.56 0.3131362074608081 -1.5651339781111577 1.6273242740958471 -1.633869993133855 -1.5643449011933246 0.31408147965878097 0.0 0.0 0.0 0.0 -0.0 -0.0 0.0 0.0 0.0 0.0 0.0 0.0 -5.732286312588583e-19 -0.6250315642868575 -0.844979516405177 -0.25261712930657537 0.00045270534372544256 0.0 -6.578371418902513e-18 -7.199425572627419 -7.134324475933297 -1.0426744727131592 0.0018793528976635727 0.0 0.3131590485572815 -1.5652068297015589 1.6272592544555664 -1.6338484922992151 -1.5643799940692347 0.31402453780174255 -1.917476038215682e-05 0.0 -0.0 0.0 0.0 -4.793690095539205e-05 -0.011215210892260075 -0.7491760849952698 -0.8921490907669067 -0.24953563511371613 0.051473718136548996 -0.051473718136548996 -0.011215210892260075 -0.7559052109718323 -0.8906240463256836 -0.2528926134109497 0.051473718136548996 -0.0503547228872776 -0.24999027936284746 -0.20000109533578428 0.3000393821811143 -2.221334613183454 -2.2215121857808597 0.00013776149768575182 -3.83497307923286e-06 4.793503704651022e-06 3.9698421288403e-26 3.838733939099566e-09 2.1069456321529016e-09 2.8762140373231702e-05 -3.5488491848868784 -4.371837133130061 -2.4776556009437316 0.5159601858260187 -0.003640856848702775 -0.23883661142841686 -0.24999999998902778 -0.19999999999640986 0.3000000000068323 2.221400000032282 2.221399999992341 5.9472026516743075e-12 0.0 0.0 0.0 0.0 0.0 0.0
3360.5679999999998 0.3131362074608081 -1.5651339781111577 1.6273242740958471 -1.633869993133855 -1.5643449011933246 0.31408147965878097 0.0 0.0 0.0 0.0 -0.0 -0.0 0.0 0.0 0.0 0.0 0.0 0.0 -5.732286312588583e-19 -0.6250315642868575 -0.844979516405177 -0.25261712930657537 0.00045270534372544256 0.0 -6.578371418902513e-18 -7.199425572627419 -7.134324475933297 -1.0426744727131592 0.0018793528976635727 0.0 0.31312307715415955 -1.5651229063617151 1.6272830963134766 -1.6339080969439905 -1.564404312764303 0.3140125274658203 -1.917476038215682e-05 0.0 -0.0 0.0 0.0 -4.793690095539205e-05 -0.011215210892260075 -0.7716065049171448 -0.8921490907669067 -0.26072555780410767 0.054830700159072876 -0.04587874934077263 -0.011215210892260075 -0.7559052109718323 -0.8906240463256836 -0.2528926134109497 0.04923573136329651 -0.0503547228872776 -0.25001241485533116 -0.19999481774037636 0.3000122262845437 -2.221361272334359 -2.221485995716895 5.3113016230735985e-05 -3.834852707844859e-06 4.793928147415271e-06 2.2583857587012116e-26 2.0010371567169045e-09 2.9130142415076774e-10 2.8762140530585348e-05 -4.5666511784938635 -5.081655722878283 -2.3111660747082303 0.6098043869460088 -0.14571178118229003 -0.2128639979607341 -0.24999999998902778 -0.19999999999640986 0.3000000000068323 2.221400000032282 2.221399999992341 5.9472026516743075e-12 0.0 0.0 0.0 0.0 0.0 0.0
3360.576 0.3131362074608081 -1.5651339781111577 1.6273242740958471 -1.633869993133855 -1.5643449011933246 0.31408147965878097 0.0 0.0 0.0 0.0 -0.0 -0.0 0.0 0.0 0.0 0.0 0.0 0.0 -5.732286312588583e-19 -0.6250315642868575 -0.844979516405177 -0.25261712930657537 0.00045270534372544256 0.0 -6.578371418902513e-18 -7.199425572627419 -7.134324475933297 -1.0426744727131592 0.0018793528976635727 0.0 0.3131350576877594 -1.5651348272906702 1.6272711753845215 -1.6338723341571253 -1.5643919149981897 0.3140125274658203 -1.917476038215682e-05 0.0 -0.0 0.0 0.0 -4.793690095539205e-05 -0.01570129580795765 -0.7559052109718323 -0.8921490907669067 -0.2674395442008972 0.04587874934077263 -0.051473718136548996 -0.011215210892260075 -0.7536621689796448 -0.8921490907669067 -0.2528926134109497 0.051473718136548996 -0.04923573136329651 -0.2500063131187182 -0.19999767895107734 0.3000162963783112 -2.2213597509375713 -2.221510732707389 4.5240568753005827e-05 -3.8349075708743985e-06 4.793811148077877e-06 3.05490597909893e-26 1.2746779886607087e-09 6.778578189700639e-10 2.8762140551495247e-05 -3.787622081028133 -4.793291190559363 -2.1122040152073844 0.5612048928993616 -0.1400715061567438 -0.2388083952029172 -0.24999999998902778 -0.19999999999640986 0.3000000000068323 2.221400000032282 2.221399999992341 5.9472026516743075e-12 0.0 0.0 0.0 0.0 0.0 0.0
3360.584 0.3131362074608081 -1.5651339781111577 1.6273242740958471 -1.633869993133855 -1.5643449011933246 0.31408147965878097 0.0 0.0 0.0 0.0 -0.0 -0.0 0.0 0.0 0.0 0.0 0.0 0.0 -5.732286312588583e-19 -0.6250315642868575 -0.844979516405177 -0.25261712930657537 0.00045270534372544256 0.0 -6.578371418902513e-18 -7.199425572627419 -7.134324475933297 -1.0426744727131592 0.0018793528976635727 0.0 0.31314706802368164 -1.5651467482196253 1.6272711753845215 -1.6338723341571253 -1.5643799940692347 0.3140365183353424 -1.917476038215682e-05 0.0 -0.0 0.0 0.0 -4.793690095539205e-05 -0.02018737979233265 -0.7424469590187073 -0.8906240463256836 -0.24394066631793976 0.04699774086475372 -0.04587874934077263 -0.011215210892260075 -0.7603912949562073 -0.8906240463256836 -0.2528926134109497 0.0503547228872776 -0.04923573136329651 -0.2500019268048102 -0.20000107571714548 0.30001986627621735 -2.22137670433916 -2.221501130843753 7.041925947238392e-05 -3.8349727030498245e-06 4.79372704155972e-06 -2.5170245652247277e-26 1.6417961271187732e-09 1.397397100341954e-09 2.8762140524752615e-05 -3.207896433127486 -4.456733761113307 -2.5128521505123143 0.4943553757191989 0.045179910757723325 -0.21285767654816065 -0.24999999998902778 -0.19999999999640986 0.3000000000068323 2.221400000032282 2.221399999992341 5.9472026516743075e-12 0.0 0.0 0.0 0.0 0.0 0.0
3360.5919999999996 0.3131362074608081 -1.5651339781111577 1.6273242740958471 -1.633869993133855 -1.5643449011933246 0.31408147965878097 0.0 0.0 0.0 0.0 -0.0 -0.0 0.0 0.0 0.0 0.0 0.0 0.0 -5.732286312588583e-19 -0.6250315642868575 -0.844979516405177 -0.25261712930657537 0.00045270534372544256 0.0 -6.578371418902513e-18 -7.199425572627419 -7.134324475933297 -1.0426744727131592 0.0018793528976635727 0.0 0.3131350576877594 -1.5652068297015589 1.6272592544555664 -1.6338723341571253 -1.5643919149981897 0.3140604794025421 -1.917476038215682e-05 0.0 -0.0 0.0 0.0 -4.793690095539205e-05 -0.01345825381577015 -0.7402039170265198 -0.8921490907669067 -0.2506546378135681 0.04364075884222984 -0.048116736114025116 -0.011215210892260075 -0.7559052109718323 -0.895199179649353 -0.2528926134109497 0.0503547228872776 -0.04923573136329651 -0.2499972421733407 -0.19999478445206972 0.30004142036532433 -2.221385874582085 -2.2214306258477854 0.00016264057426484577 -3.834852069549611e-06 4.793637214873826e-06 -7.738157644175679e-26 5.101945758688809e-09 1.9174938753572706e-09 2.876214026338381e-05 -3.1390817582464514 -4.097001531319585 -2.4223948471530865 0.461747098559932 0.009351590178428683 -0.22327135402199227 -0.24999999998902778 -0.19999999999640986 0.3000000000068323 2.221400000032282 2.221399999992341 5.9472026516743075e-12 0.0 0.0 0.0 0.0 0.0 0.0
3360.6 0.3131362074608081 -1.5651339781111577 1.6273242740958471 -1.633869993133855 -1.5643449011933246 0.31408147965878097 0.0 0.0 0.0 0.0 -0.0 -0.0 0.0 0.0 0.0 0.0 0.0 0.0 -5.732286312588583e-19 -0.6250315642868575 -0.844979516405177 -0.25261712930657537 0.00045270534372544256 0.0 -6.578371418902513e-18 -7.199425572627419 -7.134324475933297 -1.0426744727131592 0.0018793528976635727 0.0 0.31312307715415955 -1.5651829878436487 1.6272711753845215 -1.6338723341571253 -1.5643919149981897 0.31402453780174255 -1.917476038215682e-05 0.0 -0.0 0.0 0.0 -4.793690095539205e-05 -0.004486084450036287 -0.7805786728858948 -0.8906240463256836 -0.24282166361808777 0.048116736114025116 -0.054830700159072876 -0.011215210892260075 -0.7559052109718323 -0.8906240463256836 -0.2528926134109497 0.05259270966053009 -0.04923573136329651 -0.2500019178371585 -0.19999250363601523 0.30003072285354215 -2.2213708388624123 -2.221468657214936 0.00011260734942859674 -3.834808335448105e-06 4.7937268696070875e-06 2.7497271930640496e-26 3.471113324553545e-09 1.3889302715296123e-09 2.876214042744196e-05 -5.0575882542289605 -5.294397694797843 -2.6666223732512946 0.5625228610314849 -0.0878605257868296 -0.2544072587093319 -0.24999999998902778 -0.19999999999640986 0.3000000000068323 2.221400000032282 2.221399999992341 5.9472026516743075e-12 0.0 0.0 0.0 0.0 0.0 0.0
3360.6079999999997 0.3131362074608081 -1.5651339781111577 1.6273242740958471 -1.633869993133855 -1.5643449011933246 0.31408147965878097 0.0 0.0 0.0 0.0 -0.0 -0.0 0.0 0.0 0.0 0.0 0.0 0.0 -5.732286312588583e-19 -0.6250315642868575 -0.844979516405177 -0.25261712930657537 0.00045270534372544256 0.0 -6.578371418902513e-18 -7.199425572627419 -7.134324475933297 -1.0426744727131592 0.0018793528976635727 0.0 0.3131350576877594 -1.5651829878436487 1.6272950172424316 -1.6338842550860804 -1.5643919149981897 0.3140604794025421 -1.917476038215682e-05 0.0 -0.0 0.0 0.0 -4.793690095539205e-05 -0.01345825381577015 -0.7648773789405823 -0.8875739574432373 -0.2528926134109497 0.054830700159072876 -0.051473718136548996 -0.011215210892260075 -0.7559052109718323 -0.8906240463256836 -0.2528926134109497 0.051473718136548996 -0.04699774086475372 -0.24999828694750117 -0.19999507882056705 0.30002462983914685 -2.2214013015790868 -2.221445871565606 9.593516754293239e-05 -3.834857713994911e-06 4.793657248167993e-06 3.558109235444889e-26 2.9273845549397196e-09 1.213072094667731e-09 2.8762140468502505e-05 -4.361189488222559 -5.1368914553833 -2.2669722218314123 0.6042490342978633 -0.09781021822926726 -0.2388298782626619 -0.24999999998902778 -0.19999999999640986 0.3000000000068323 2.221400000032282 2.221399999992341 5.9472026516743075e-12 0.0 0.0 0.0 0.0 0.0 0.0
3360.616 0.3131362074608081 -1.5651339781111577 1.6273242740958471 -1.633869993133855 -1.5643449011933246 0.31408147965878097 0.0 0.0 0.0 0.0 -0.0 -0.0 0.0 0.0 0.0 0.0 0.0 0.0 -5.732286312588583e-19 -0.6250315642868575 -0.844979516405177 -0.25261712930657537 0.00045270534372544256 0.0 -6.578371418902513e-18 -7.199425572627419 -7.134324475933297 -1.0426744727131592 0.0018793528976635727 0.0 0.31317102909088135 -1.5651348272906702 1.6273193359375 -1.6339324156390589 -1.5643442312823694 0.3140365183353424 -1.917476038215682e-05 0.0 -0.0 0.0 0.0 -4.793690095539205e-05 -0.008972168900072575 -0.8007660508155823 -0.8906240463256836 -0.2562496066093445 0.05706868693232536 -0.048116736114025116 -0.011215210892260075 -0.7559052109718323 -0.8906240463256836 -0.2528926134109497 0.051473718136548996 -0.048116736114025116 -0.24999822126662152 -0.20001049533593684 0.3000070603820234 2.2213323519799864 2.221510523151083 -9.597962112019976e-05 -3.835153321982943e-06 4.793655988752906e-06 2.5725847098706897e-26 1.110946224429869e-09 3.0313390874326873e-09 2.8762140464517127e-05 -5.921747962004565 -6.092365978952212 -2.4444343570745777 0.693052697755824 -0.22368101933026832 -0.22322375198944444 -0.24999999998902778 -0.19999999999640986 0.3000000000068323 2.221400000032282 2.221399999992341 5.9472026516743075e-12 0.0 0.0 0.0 0.0 0.0 0.0
3360.624 0.3131362074608081 -1.5651339781111577 1.6273242740958471 -1.633869993133855 -1.5643449011933246 0.31408147965878097 0.0 0.0 0.0 0.0 -0.0 -0.0 0.0 0.0 0.0 0.0 0.0 0.0 -5.732286312588583e-19 -0.6250315642868575 -0.844979516405177 -0.25261712930657537 0.00045270534372544256 0.0 -6.578371418902513e-18 -7.199425572627419 -7.134324475933297 -1.0426744727131592 0.0018793528976635727 0.0 0.31312307715415955 -1.5651467482196253 1.6272950172424316 -1.6338961760150355 -1.564404312764303 0.3140365183353424 -1.917476038215682e-05 0.0 -0.0 0.0 0.0 -4.793690095539205e-05 -0.004486084450036287 -0.7917938828468323 -0.8890990018844604 -0.2528926134109497 0.04252176731824875 -0.04923573136329651 -0.011215210892260075 -0.7559052109718323 -0.8906240463256836 -0.2528926134109497 0.048116736114025116 -0.051473718136548996 -0.2500070393222544 -0.19999306320864643 0.3000147939561978 -2.221387999546012 -2.2214592279563714 5.309008816081196e-05 -3.83481906511937e-06 4.793825072856693e-06 -2.2362190866918334e-26 2.0015458643147752e-09 2.8978191824703407e-10 2.876214053057332e-05 -5.629723002590555 -5.648098831724528 -2.4217656799604 0.5878433804333626 -0.20750249614743094 -0.22843633695524806 -0.24999999998902778 -0.19999999999640986 0.3000000000068323 2.221400000032282 2.221399999992341 5.9472026516743075e-12 0.0 0.0 0.0 0.0 0.0 0.0
3360.632 0.3131362074608081 -1.5651339781111577 1.6273242740958471 -1.633869993133855 -1.5643449011933246 0.31408147965878097 0.0 0.0 0.0 0.0 -0.0 -0.0 0.0 0.0 0.0 0.0 0.0 0.0 -5.732286312588583e-19 -0.6250315642868575 -0.844979516405177 -0.25261712930657537 0.00045270534372544256 0.0 -6.578371418902513e-18 -7.199425572627419 -7.134324475933297 -1.0426744727131592 0.0018793528976635727 0.0 0.3131110966205597 -1.5651348272906702 1.6272950172424316 -1.6338241736041468 -1.5643680731402796 0.31404849886894226 -1.917476038215682e-05 0.0 -0.0 0.0 0.0 -4.793690095539205e-05 -0.01570129580795765 -0.7514191269874573 -0.8829988241195679 -0.2540116012096405 0.054830700159072876 -0.044759754091501236 -0.011215210892260075 -0.7559052109718323 -0.8906240463256836 -0.2528926134109497 0.0503547228872776 -0.04923573136329651 -0.25000457222531236 -0.19999157246602006 0.3000050683206311 2.2214010759525897 2.2214180910488817 3.855033056431807e-05 -3.834790480486699e-06 4.793777766864007e-06 2.3468654034797516e-26 -2.3603865220214745e-09 6.965811710256502e-10 2.876214051006208e-05 -3.918443305149253 -4.773124366245714 -2.0044932773279136 0.5829060903404624 -0.08777283074186952 -0.20761823904194088 -0.24999999998902778 -0.19999999999640986 0.3000000000068323 2.221400000032282 2.221399999992341 5.9472026516743075e-12 0.0 0.0 0.0 0.0 0.0 0.0
3360.64 0.3131362074608081 -1.5651339781111577 1.6273242740958471 -1.633869993133855 -1.5643449011933246 0.31408147965878097 0.0 0.0 0.0 0.0 -0.0 -0.0 0.0 0.0 0.0 0.0 0.0 0.0 -5.732286312588583e-19 -0.6250315642868575 -0.844979516405177 -0.25261712930657537 0.00045270534372544256 0.0 -6.578371418902513e-18 -7.199425572627419 -7.134324475933297 -1.0426744727131592 0.0018793528976635727 0.0 0.31312307715415955 -1.5651586691485804 1.6272950172424316 -1.6338723341571253 -1.5643561522113245 0.314072847366333 -1.917476038215682e-05 0.0 -0.0 0.0 0.0 -4.793690095539205e-05 -0.01345825381577015 -0.7626343369483948 -0.8906240463256836 -0.25960657000541687 0.05594969168305397 -0.044759754091501236 -0.011215210892260075 -0.7559052109718323 -0.8906240463256836 -0.2528926134109497 0.0503547228872776 -0.048116736114025116 -0.2500022715993121 -0.1999956756137155 0.30001632365631076 2.2214300150657666 2.2214203372694517 -7.07350300179027e-05 -3.834869157360566e-06 4.7937336529116625e-06 -4.7119376012669494e-26 7.454162351839679e-10 2.3074187973644912e-09 2.876214051190641e-05 -4.195668329718852 -4.879696818124622 -2.240831957851765 0.598380149733031 -0.11435889930787976 -0.2076520166239682 -0.24999999998902778 -0.19999999999640986 0.3000000000068323 2.221400000032282 2.221399999992341 5.9472026516743075e-12 0.0 0.0 0.0 0.0 0.0 0.0
3360.6479999999997 0.3131362074608081 -1.5651339781111577 1.6273242740958471 -1.633869993133855 -1.5643449011933246 0.31408147965878097 0.0 0.0 0.0 0.0 -0.0 -0.0 0.0 0.0 0.0 0.0 0.0 0.0 -5.732286312588583e-19 -0.6250315642868575 -0.844979516405177 -0.25261712930657537 0.00045270534372544256 0.0 -6.578371418902513e-18 -7.199425572627419 -7.134324475933297 -1.0426744727131592 0.0018793528976635727 0.0 0.3131350576877594 -1.5651944319354456 1.6273193359375 -1.6338723341571253 -1.5643561522113245 0.31404849886894226 -1.917476038215682e-05 0.0 -0.0 0.0 0.0 -4.793690095539205e-05 -0.008972168900072575 -0.7491760849952698 -0.8890990018844604 -0.2506546378135681 0.05371170490980148 -0.0503547228872776 -0.011215210892260075 -0.7559052109718323 -0.8921490907669067 -0.2528926134109497 0.054830700159072876 -0.048116736114025116 -0.2499926235439075 -0.1999963070224498 0.30001978246512484 2.2213934067686765 2.221464334188285 -8.672886414016009e-05 -3.834881264471648e-06 4.793548653761176e-06 -2.204399232415938e-26 1.2676258498967687e-09 2.4754528511594548e-09 2.876214049255894e-05 -3.6835987823657486 -4.34320039363675 -2.3254259655765033 0.5291352125137337 -0.02882782991120769 -0.23361674503783267 -0.24999999998902778 -0.19999999999640986 0.3000000000068323 2.221400000032282 2.221399999992341 5.9472026516743075e-12 0.0 0.0 0.0 0.0 0.0 0.0
3360.656 0.3131362074608081 -1.5651339781111577 1.6273242740958471 -1.633869993133855 -1.5643449011933246 0.31408147965878097 0.0 0.0 0.0 0.0 -0.0 -0.0 0.0 0.0 0.0 0.0 0.0 0.0 -5.732286312588583e-19 -0.6250315642868575 -0.844979516405177 -0.25261712930657537 0.00045270534372544256 0.0 -6.578371418902513e-18 -7.199425572627419 -7.134324475933297 -1.0426744727131592 0.0018793528976635727 0.0 0.31314706802368164 -1.5652068297015589 1.6273431777954102 -1.6338842550860804 -1.5643799940692347 0.31404849886894226 -1.917476038215682e-05 0.0 -0.0 0.0 0.0 -4.793690095539205e-05 -0.011215210892260075 -0.7469330430030823 -0.8936741352081299 -0.24170267581939697 0.0682586282491684 -0.04252176731824875 -0.011215210892260075 -0.7559052109718323 -0.8890990018844604 -0.2528926134109497 0.051473718136548996 -0.04699774086475372 -0.24998784489267706 -0.19999646070323598 0.3000174051472668 -2.221390109057648 -2.2214876781370254 7.039179899056238e-05 -3.834884211263896e-06 4.793457024268896e-06 9.417121587844705e-27 1.642377692226309e-09 1.3956294157879264e-09 2.8762140524784182e-05 -3.4425123016448107 -4.120535761415753 -2.704158587268775 0.5524995115527075 0.08204585826505038 -0.19728712789054362 -0.24999999998902778 -0.19999999999640986 0.3000000000068323 2.221400000032282 2.221399999992341 5.9472026516743075e-12 0.0 0.0 0.0 0.0 0.0 0.0
3360.6639999999998 0.3131362074608081 -1.5651339781111577 1.6273242740958471 -1.633869993133855 -1.5643449011933246 0.31408147965878097 0.0 0.0 0.0 0.0 -0.0 -0.0 0.0 0.0 0.0 0.0 0.0 0.0 -5.732286312588583e-19 -0.6250315642868575 -0.844979516405177 -0.25261712930657537 0.00045270534372544256 0.0 -6.578371418902513e-18 -7.199425572627419 -7.134324475933297 -1.0426744727131592 0.0018793528976635727 0.0 0.31314706802368164 -1.5651705900775355 1.6272950172424316 -1.6338961760150355 -1.5643561522113245 0.31402453780174255 -1.917476038215682e-05 0.0 -0.0 0.0 0.0 -4.793690095539205e-05 -0.01345825381577015 -0.7985230088233948 -0.8921490907669067 -0.2551305890083313 0.05259270966053009 -0.04699774086475372 -0.011215210892260075 -0.7559052109718323 -0.8936741352081299 -0.2528926134109497 0.051473718136548996 -0.0503547228872776 -0.2499976539794073 -0.20000175416259955 0.3000219315745545 2.2213609955783356 2.2215123034903175 -0.00012079397854263984 -3.834985712078734e-06 4.793645111156465e-06 1.407102348749157e-26 2.375650460792984e-09 2.8376160578039784e-09 2.8762140430383075e-05 -5.718631834530785 -6.13988237297264 -2.524851739328035 0.673476255289358 -0.20202959772097973 -0.21805204026655034 -0.24999999998902778 -0.19999999999640986 0.3000000000068323 2.221400000032282 2.221399999992341 5.9472026516743075e-12 0.0 0.0 0.0 0.0 0.0 0.0
3360.672 0.3131362074608081 -1.5651339781111577 1.6273242740958471 -1.633869993133855 -1.5643449011933246 0.31408147965878097 0.0 0.0 0.0 0.0 -0.0 -0.0 0.0 0.0 0.0 0.0 0.0 0.0 -5.732286312588583e-19 -0.6250315642868575 -0.844979516405177 -0.25261712930657537 0.00045270534372544256 0.0 -6.578371418902513e-18 -7.199425572627419 -7.134324475933297 -1.0426744727131592 0.0018793528976635727 0.0 0.31314706802368164 -1.5651467482196253 1.6272711753845215 -1.6338604132281702 -1.5643799940692347 0.3140365183353424 -1.917476038215682e-05 0.0 -0.0 0.0 0.0 -4.793690095539205e-05 -0.006729126907885075 -0.7559052109718323 -0.884523868560791 -0.24505965411663055 0.04252176731824875 -0.04699774086475372 -0.011215210892260075 -0.7559052109718323 -0.8875739574432373 -0.2528926134109497 0.048116736114025116 -0.04923573136329651 -0.25000099605064335 -0.20000076547065634 0.3000188477708272 2.2213780698505694 2.2215023257204685 -5.372798618776466e-05 -3.8349667541477226e-06 4.793709194571604e-06 -1.782773368369968e-26 1.0984841711982252e-09 1.2203198337252158e-09 2.8762140545116523e-05 -4.174632368121862 -4.558196883001079 -2.2772269308726187 0.49064112496648554 -0.06479101943214098 -0.21804021657730402 -0.24999999998902778 -0.19999999999640986 0.3000000000068323 2.221400000032282 2.221399999992341 5.9472026516743075e-12 0.0 0.0 0.0 0.0 0.0 0.0
3360.68 0.3131362074608081 -1.5651339781111577 1.6273242740958471 -1.633869993133855 -1.5643449011933246 0.31408147965878097 0.0 0.0 0.0 0.0 -0.0 -0.0 0.0 0.0 0.0 0.0 0.0 0.0 -5.732286312588583e-19 -0.6250315642868575 -0.844979516405177 -0.25261712930657537 0.00045270534372544256 0.0 -6.578371418902513e-18 -7.199425572627419 -7.134324475933297 -1.0426744727131592 0.0018793528976635727 0.0 0.31317102909088135 -1.5651944319354456 1.6272950172424316 -1.6338961760150355 -1.5643919149981897 0.3140604794025421 -1.917476038215682e-05 0.0 -0.0 0.0 0.0 -4.793690095539205e-05 -0.011215210892260075 -0.7491760849952698 -0.8890990018844604 -0.2562496066093445 0.04252176731824875 -0.048116736114025116 -0.011215210892260075 -0.7559052109718323 -0.8906240463256836 -0.2528926134109497 0.0503547228872776 -0.04923573136329651 -0.24999040959236093 -0.20000386360523018 0.30002907639918935 -2.2213537449848855 -2.2214784239769485 0.00012863544299276925 -3.835026160136154e-06 4.79350620177071e-06 -6.346746629794567e-27 3.99256383913198e-09 1.5592641409756997e-09 2.876214038160967e-05 -3.664569009434652 -4.402148852799522 -2.2034137697125904 0.4956986360101878 -0.07800625633554663 -0.22326058381020908 -0.24999999998902778 -0.19999999999640986 0.3000000000068323 2.221400000032282 2.221399999992341 5.9472026516743075e-12 0.0 0.0 0.0 0.0 0.0 0.0
3360.6879999999996 0.3131362074608081 -1.5651339781111577 1.6273242740958471 -1.633869993133855 -1.5643449011933246 0.31408147965878097 0.0 0.0 0.0 0.0 -0.0 -0.0 0.0 0.0 0.0 0.0 0.0 0.0 -5.732286312588583e-19 -0.6250315642868575 -0.844979516405177 -0.25261712930657537 0.00045270534372544256 0.0 -6.578371418902513e-18 -7.199425572627419 -7.134324475933297 -1.0426744727131592 0.0018793528976635727 0.0 0.3131110966205597 -1.5651586691485804 1.6272711753845215 -1.6338723341571253 -1.5643919149981897 0.3140604794025421 -1.917476038215682e-05 0.0 -0.0 0.0 0.0 -4.793690095539205e-05 -0.01570129580795765 -0.7424469590187073 -0.895199179649353 -0.2528926134109497 0.05371170490980148 -0.05259270966053009 -0.011215210892260075 -0.7559052109718323 -0.895199179649353 -0.2528926134109497 0.04923573136329651 -0.04923573136329651 -0.25000774322368596 -0.19999060928937676 0.3000234382406673 -2.221431924701984 -2.2214232214838967 7.859095548196355e-05 -3.834772011805183e-06 4.793838569997977e-06 -2.0016724139515364e-26 2.3620386591883456e-09 1.0298378589197735e-09 2.876214050397968e-05 -3.0879210912573827 -4.254256560809134 -2.5105728576006667 0.520143445324906 0.02540990008663589 -0.24401282328060905 -0.24999999998902778 -0.19999999999640986 0.3000000000068323 2.221400000032282 2.221399999992341 5.9472026516743075e-12 0.0 0.0 0.0 0.0 0.0 0.0
3360.696 0.3131362074608081 -1.5651339781111577 1.6273242740958471 -1.633869993133855 -1.5643449011933246 0.31408147965878097 0.0 0.0 0.0 0.0 -0.0 -0.0 0.0 0.0 0.0 0.0 0.0 0.0 -5.732286312588583e-19 -0.6250315642868575 -0.844979516405177 -0.25261712930657537 0.00045270534372544256 0.0 -6.578371418902513e-18 -7.199425572627419 -7.134324475933297 -1.0426744727131592 0.0018793528976635727 0.0 0.3131590485572815 -1.5651586691485804 1.6272830963134766 -1.6338604132281702 -1.564404312764303 0.3140125274658203 -1.917476038215682e-05 0.0 -0.0 0.0 0.0 -4.793690095539205e-05 -0.011215210892260075 -0.7760925889015198 -0.8890990018844604 -0.2528926134109497 0.04699774086475372 -0.04699774086475372 -0.011215210892260075 -0.7559052109718323 -0.8906240463256836 -0.2517736256122589 0.0503547228872776 -0.04923573136329651 -0.24999645485019867 -0.20000095090397674 0.30001886508243475 -2.2213253857290587 -2.2215294330257596 3.637391233571126e-05 -3.8349703097876275e-06 4.793622118141348e-06 -1.803895310260135e-26 1.458778395458798e-09 1.1113212996594177e-10 2.8762140550910215e-05 -4.857563514963558 -5.335562935552354 -2.368491178734459 0.5833449185694968 -0.1418623359998477 -0.2180480457962723 -0.24999999998902778 -0.19999999999640986 0.3000000000068323 2.221400000032282 2.221399999992341 5.9472026516743075e-12 0.0 0.0 0.0 0.0 0.0 0.0
3360.7039999999997 0.3131362074608081 -1.5651339781111577 1.6273242740958471 -1.633869993133855 -1.5643449011933246 0.31408147965878097 0.0 0.0 0.0 0.0 -0.0 -0.0 0.0 0.0 0.0 0.0 0.0 0.0 -5.732286312588583e-19 -0.6250315642868575 -0.844979516405177 -0.25261712930657537 0.00045270534372544256 0.0 -6.578371418902513e-18 -7.199425572627419 -7.134324475933297 -1.0426744727131592 0.0018793528976635727 0.0 0.31314706802368164 -1.5651467482196253 1.6272711753845215 -1.6338484922992151 -1.5643561522113245 0.3140604794025421 -1.917476038215682e-05 0.0 -0.0 0.0 0.0 -4.793690095539205e-05 -0.01345825381577015 -0.7873077988624573 -0.884523868560791 -0.2540116012096405 0.05259270966053009 -0.0503547228872776 -0.011215210892260075 -0.7559052109718323 -0.8906240463256836 -0.2528926134109497 0.0503547228872776 -0.04923573136329651 -0.24999945867373088 -0.20000232275596927 0.30001782722460735 2.2213859036089927 2.221456811489831 -5.4041513933925365e-05 -3.834996614720429e-06 4.79367971573768e-06 9.66014894912494e-27 2.0209314088221366e-10 2.1302409126175986e-09 2.876214052547696e-05 -5.455685264238135 -5.991675118136533 -2.191238010764582 0.6684207908099188 -0.20249548046266544 -0.23359806063994668 -0.24999999998902778 -0.19999999999640986 0.3000000000068323 2.221400000032282 2.221399999992341 5.9472026516743075e-12 0.0 0.0 0.0 0.0 0.0 0.0
3360.712 0.3131362074608081 -1.5651339781111577 1.6273242740958471 -1.633869993133855 -1.5643449011933246 0.31408147965878097 0.0 0.0 0.0 0.0 -0.0 -0.0 0.0 0.0 0.0 0.0 0.0 0.0 -5.732286312588583e-19 -0.6250315642868575 -0.844979516405177 -0.25261712930657537 0.00045270534372544256 0.0 -6.578371418902513e-18 -7.199425572627419 -7.134324475933297 -1.0426744727131592 0.0018793528976635727 0.0 0.31317102909088135 -1.5651348272906702 1.6272711753845215 -1.6338484922992151 -1.5643561522113245 0.3140365183353424 -1.917476038215682e-05 0.0 -0.0 0.0 0.0 -4.793690095539205e-05 -0.006729126907885075 -0.7603912949562073 -0.8890990018844604 -0.2573685944080353 0.04923573136329651 -0.048116736114025116 -0.011215210892260075 -0.7559052109718323 -0.8906240463256836 -0.2528926134109497 0.0503547228872776 -0.048116736114025116 -0.2499963472477176 -0.2000088526322225 0.30001425630633005 2.2213288565656204 2.2215061863950076 -3.736615640392123e-05 -3.835121823532927e-06 4.79362005488949e-06 -2.3125797940195385e-26 -3.416195495909654e-10 1.954207907266539e-09 2.876214053218511e-05 -4.21951696023183 -4.615018523387246 -2.217314593111936 0.5441985571533641 -0.11784966339123025 -0.22321315226425562 -0.24999999998902778 -0.19999999999640986 0.3000000000068323 2.221400000032282 2.221399999992341 5.9472026516743075e-12 0.0 0.0 0.0 0.0 0.0 0.0
3360.72 0.3131362074608081 -1.5651339781111577 1.6273242740958471 -1.633869993133855 -1.5643449011933246 0.31408147965878097 0.0 0.0 0.0 0.0 -0.0 -0.0 0.0 0.0 0.0 0.0 0.0 0.0 -5.732286312588583e-19 -0.6250315642868575 -0.844979516405177 -0.25261712930657537 0.00045270534372544256 0.0 -6.578371418902513e-18 -7.199425572627419 -7.134324475933297 -1.0426744727131592 0.0018793528976635727 0.0 0.31314706802368164 -1.5651586691485804 1.6272592544555664 -1.6338604132281702 -1.5643919149981897 0.31404849886894226 -1.917476038215682e-05 0.0 -0.0 0.0 0.0 -4.793690095539205e-05 -0.008972168900072575 -0.7940369248390198 -0.8906240463256836 -0.24282166361808777 0.0503547228872776 -0.051473718136548996 -0.011215210892260075 -0.7581482529640198 -0.8906240463256836 -0.2528926134109497 0.05259270966053009 -0.051473718136548996 -0.2500007011999908 -0.19999965716287194 0.3000259754763593 -2.2213786929438886 -2.2214764366635236 7.858235943987241e-05 -3.83494550261146e-06 4.793703540881019e-06 -5.319934121839151e-27 2.362200623896679e-09 1.0293373276183805e-09 2.876214050398246e-05 -5.607578575309605 -5.903112710773007 -2.7128498293144165 0.6214496641593367 -0.12644749805438 -0.23882336146125607 -0.24999999998902778 -0.19999999999640986 0.3000000000068323 2.221400000032282 2.221399999992341 5.9472026516743075e-12 0.0 0.0 0.0 0.0 0.0 0.0
3360.728 0.3131362074608081 -1.5651339781111577 1.6273242740958471 -1.633869993133855 -1.5643449011933246 0.31408147965878097 0.0 0.0 0.0 0.0 -0.0 -0.0 0.0 0.0 0.0 0.0 0.0 0.0 -5.732286312588583e-19 -0.6250315642868575 -0.844979516405177 -0.25261712930657537 0.00045270534372544256 0.0 -6.578371418902513e-18 -7.199425572627419 -7.134324475933297 -1.0426744727131592 0.0018793528976635727 0.0 0.31314706802368164 -1.5651586691485804 1.6272950172424316 -1.6338961760150355 -1.5643561522113245 0.3139885663986206 -1.917476038215682e-05 0.0 -0.0 0.0 0.0 -4.793690095539205e-05 -0.011215210892260075 -0.7805786728858948 -0.8921490907669067 -0.2540116012096405 0.05706868693232536 -0.04587874934077263 -0.011215210892260075 -0.7559052109718323 -0.8906240463256836 -0.2528926134109497 0.051473718136548996 -0.04699774086475372 -0.24999933495372978 -0.20000229381725865 0.3000183606788324 2.221317222841325 2.2215484055296106 -0.0001041188613121376 -3.8349960598276926e-06 4.793677343436326e-06 -2.530990330800803e-26 1.8319846065848159e-09 2.6615912060006793e-09 2.876214046433963e-05 -4.961915531598114 -5.398243233677369 -2.4876912580334136 0.6315404975081605 -0.13119364636131597 -0.21285627963800255 -0.24999999998902778 -0.19999999999640986 0.3000000000068323 2.221400000032282 2.221399999992341 5.9472026516743075e-12 0.0 0.0 0.0 0.0 0.0 0.0
3360.736 0.3131362074608081 -1.5651339781111577 1.6273242740958471 -1.633869993133855 -1.5643449011933246 0.31408147965878097 0.0 0.0 0.0 0.0 -0.0 -0.0 0.0 0.0 0.0 0.0 0.0 0.0 -5.732286312588583e-19 -0.6250315642868575 -0.844979516405177 -0.25261712930657537 0.00045270534372544256 0.0 -6.578371418902513e-18 -7.199425572627419 -7.134324475933297 -1.0426744727131592 0.0018793528976635727 0.0 0.3131350576877594 -1.5651467482196253 1.6272711753845215 -1.6338604132281702 -1.5643680731402796 0.314072847366333 -1.917476038215682e-05 0.0 -0.0 0.0 0.0 -4.793690095539205e-05 -0.011215210892260075 -0.7581482529640198 -0.8936741352081299 -0.2584875822067261 0.04587874934077263 -0.04699774086475372 -0.011215210892260075 -0.7581482529640198 -0.8890990018844604 -0.2528926134109497 0.04923573136329651 -0.048116736114025116 -0.25000309481456207 -0.199998696631659 0.3000188467387244 2.221424238683561 2.221441137326535 -6.223049274267996e-05 -3.8349270846554255e-06 4.79374943786688e-06 3.5959912168791616e-26 9.219657861741412e-10 1.7638079002107732e-09 2.8762140531920102e-05 -3.917358862123402 -4.58318533287693 -2.3774788108131 0.524137797806191 -0.08978395849454127 -0.21803740001215297 -0.24999999998902778 -0.19999999999640986 0.3000000000068323 2.221400000032282 2.221399999992341 5.9472026516743075e-12 0.0 0.0 0.0 0.0 0.0 0.0
3360.7439999999997 0.3131362074608081 -1.5651339781111577 1.6273242740958471 -1.633869993133855 -1.5643449011933246 0.31408147965878097 0.0 0.0 0.0 0.0 -0.0 -0.0 0.0 0.0 0.0 0.0 0.0 0.0 -5.732286312588583e-19 -0.6250315642868575 -0.844979516405177 -0.25261712930657537 0.00045270534372544256 0.0 -6.578371418902513e-18 -7.199425572627419 -7.134324475933297 -1.0426744727131592 0.0018793528976635727 0.0 0.31314706802368164 -1.5651705900775355 1.6272473335266113 -1.6338842550860804 -1.564416233693258 0.31402453780174255 -1.917476038215682e-05 0.0 -0.0 0.0 0.0 -4.793690095539205e-05 -0.011215210892260075 -0.7312317490577698 -0.8906240463256836 -0.2551305890083313 0.044759754091501236 -0.0503547228872776 -0.011215210892260075 -0.7536621689796448 -0.8921490907669067 -0.2528926134109497 0.0503547228872776 -0.048116736114025116 -0.2500025830304435 -0.19999819814412773 0.3000351414395702 -2.2213212460292655 -2.2214726300440044 0.00012797416487107035 -3.834917526276764e-06 4.7937396245289984e-06 -3.3752257471558555e-27 4.896142419854217e-09 6.272705772043975e-10 2.876214031909199e-05 -2.81233858633453 -3.761638687688022 -2.2305994008442185 0.4504709843531809 0.0027289346082760646 -0.23365028785844327 -0.24999999998902778 -0.19999999999640986 0.3000000000068323 2.221400000032282 2.221399999992341 5.9472026516743075e-12 0.0 0.0 0.0 0.0 0.0 0.0
3360.752 0.3131362074608081 -1.5651339781111577 1.6273242740958471 -1.633869993133855 -1.5643449011933246 0.31408147965878097 0.0 0.0 0.0 0.0 -0.0 -0.0 0.0 0.0 0.0 0.0 0.0 0.0 -5.732286312588583e-19 -0.6250315642868575 -0.844979516405177 -0.25261712930657537 0.00045270534372544256 0.0 -6.578371418902513e-18 -7.199425572627419 -7.134324475933297 -1.0426744727131592 0.0018793528976635727 0.0 0.31314706802368164 -1.5651944319354456 1.627307415008545 -1.6338723341571253 -1.564416233693258 0.31404849886894226 -1.917476038215682e-05 0.0 -0.0 0.0 0.0 -4.793690095539205e-05 -0.011215210892260075 -0.7716065049171448 -0.8875739574432373 -0.24394066631793976 0.04699774086475372 -0.05259270966053009 -0.011215210892260075 -0.7559052109718323 -0.8890990018844604 -0.2528926134109497 0.05259270966053009 -0.0503547228872776 -0.24999283301715627 -0.19999496844029818 0.30002334347753024 -2.221363600463215 -2.2214611718417903 6.0555924351514045e-05 -3.834855597479717e-06 4.7935526703604724e-06 1.9211675159454259e-26 2.7008664768256944e-09 -8.727587282794308e-11 2.8762140497069504e-05 -4.681764810570861 -5.298769689360266 -2.484251300494368 0.5643956410166299 -0.0784275352467069 -0.24401858996088852 -0.24999999998902778 -0.19999999999640986 0.3000000000068323 2.221400000032282 2.221399999992341 5.9472026516743075e-12 0.0 0.0 0.0 0.0 0.0 0.0
3360.7599999999998 0.3131362074608081 -1.5651339781111577 1.6273242740958471 -1.633869993133855 -1.5643449011933246 0.31408147965878097 0.0 0.0 0.0 0.0 -0.0 -0.0 0.0 0.0 0.0 0.0 0.0 0.0 -5.732286312588583e-19 -0.6250315642868575 -0.844979516405177 -0.25261712930657537 0.00045270534372544256 0.0 -6.578371418902513e-18 -7.199425572627419 -7.134324475933297 -1.0426744727131592 0.0018793528976635727 0.0 0.3131110966205597 -1.5651467482196253 1.6272830963134766 -1.6338604132281702 -1.564404312764303 0.3140604794025421 -1.917476038215682e-05 0.0 -0.0 0.0 0.0 -4.793690095539205e-05 -0.01794433780014515 -0.7648773789405823 -0.8921490907669067 -0.24953563511371613 0.05371170490980148 -0.05706868693232536 -0.011215210892260075 -0.7559052109718323 -0.8906240463256836 -0.2528926134109497 0.051473718136548996 -0.04923573136329651 -0.2500077259546204 -0.19998950244277353 0.3000152941870853 -2.2214357609950834 -2.221426732423811 1.969876962984549e-05 -3.834750788286886e-06 4.7938382388677935e-06 -9.363555638510958e-27 9.151114959778416e-10 -6.494310368228194e-11 2.8762140564456535e-05 -4.125515871306416 -5.282689439074481 -2.5330252659758994 0.5994994809645452 -0.043611882435069034 -0.26476298132752635 -0.24999999998902778 -0.19999999999640986 0.3000000000068323 2.221400000032282 2.221399999992341 5.9472026516743075e-12 0.0 0.0 0.0 0.0 0.0 0.0
3360.768 0.3131362074608081 -1.5651339781111577 1.6273242740958471 -1.633869993133855 -1.5643449011933246 0.31408147965878097 0.0 0.0 0.0 0.0 -0.0 -0.0 0.0 0.0 0.0 0.0 0.0 0.0 -5.732286312588583e-19 -0.6250315642868575 -0.844979516405177 -0.25261712930657537 0.00045270534372544256 0.0 -6.578371418902513e-18 -7.199425572627419 -7.134324475933297 -1.0426744727131592 0.0018793528976635727 0.0 0.3131110966205597 -1.5651467482196253 1.6272950172424316 -1.6338604132281702 -1.564404312764303 0.3140125274658203 -1.917476038215682e-05 0.0 -0.0 0.0 0.0 -4.793690095539205e-05 -0.008972168900072575 -0.7491760849952698 -0.8906240463256836 -0.26184457540512085 0.0503547228872776 -0.04587874934077263 -0.011215210892260075 -0.7559052109718323 -0.8890990018844604 -0.2528926134109497 0.051473718136548996 -0.04699774086475372 -0.25000664299691433 -0.19998913732623627 0.3000117384751851 -2.22138637558666 -2.2214837736141075 3.015981277058892e-06 -3.834743787264947e-06 4.793817473413244e-06 -7.194314134719016e-27 3.715940992306124e-10 -2.4141529763059064e-10 2.8762140571187086e-05 -3.656407579755468 -4.238011185899448 -2.145758756275783 0.5264141154649948 -0.09538291156066772 -0.21284398906283294 -0.24999999998902778 -0.19999999999640986 0.3000000000068323 2.221400000032282 2.221399999992341 5.9472026516743075e-12 0.0 0.0 0.0 0.0 0.0 0.0
3360.776 0.3131362074608081 -1.5651339781111577 1.6273242740958471 -1.633869993133855 -1.5643449011933246 0.31408147965878097 0.0 0.0 0.0 0.0 -0.0 -0.0 0.0 0.0 0.0 0.0 0.0 0.0 -5.732286312588583e-19 -0.6250315642868575 -0.844979516405177 -0.25261712930657537 0.00045270534372544256 0.0 -6.578371418902513e-18 -7.199425572627419 -7.134324475933297 -1.0426744727131592 0.0018793528976635727 0.0 0.31312307715415955 -1.5651467482196253 1.6272950172424316 -1.6339080969439905 -1.5643680731402796 0.3140365183353424 -1.917476038215682e-05 0.0 -0.0 0.0 0.0 -4.793690095539205e-05 -0.01570129580795765 -0.7940369248390198 -0.8921490907669067 -0.24729764461517334 0.05259270966053009 -0.04587874934077263 -0.011215210892260075 -0.7559052109718323 -0.8890990018844604 -0.2528926134109497 0.051473718136548996 -0.048116736114025116 -0.2500070480908484 -0.1999962121049848 0.3000158092995231 2.2214045726920877 2.22147605137501 -9.563192730591971e-05 -3.83487944445207e-06 4.79382524099238e-06 7.563200778593859e-26 2.008221131185714e-09 2.1190964031756493e-09 2.876214048433168e-05 -5.495445496769907 -6.055661258770281 -2.6800603068401867 0.6512903398252978 -0.1366043470185683 -0.2128606742561122 -0.24999999998902778 -0.19999999999640986 0.3000000000068323 2.221400000032282 2.221399999992341 5.9472026516743075e-12 0.0 0.0 0.0 0.0 0.0 0.0
3360.7839999999997 0.3131362074608081 -1.5651339781111577 1.6273242740958471 -1.633869993133855 -1.5643449011933246 0.31408147965878097 0.0 0.0 0.0 0.0 -0.0 -0.0 0.0 0.0 0.0 0.0 0.0 0.0 -5.732286312588583e-19 -0.6250315642868575 -0.844979516405177 -0.25261712930657537 0.00045270534372544256 0.0 -6.578371418902513e-18 -7.199425572627419 -7.134324475933297 -1.0426744727131592 0.0018793528976635727 0.0 0.31312307715415955 -1.5651586691485804 1.627307415008545 -1.6338842550860804 -1.5643561522113245 0.3140125274658203 -1.917476038215682e-05 0.0 -0.0 0.0 0.0 -4.793690095539205e-05 -0.006729126907885075 -0.7693634629249573 -0.8875739574432373 -0.23386971652507782 0.05259270966053009 -0.04923573136329651 -0.011215210892260075 -0.7559052109718323 -0.8890990018844604 -0.2528926134109497 0.051473718136548996 -0.048116736114025116 -0.2500020761126641 -0.19999560611062622 0.300013644197309 2.2213628202953393 2.221487209594859 -7.007778744468456e-05 -3.834867824655598e-06 4.793729904502076e-06 3.061000090647029e-26 7.234765702371767e-10 2.300945151352921e-09 2.8762140512553724e-05 -4.657840191374822 -4.986168055000847 -2.6950550341506023 0.5434716395282279 -0.006891433507905461 -0.22842091817142615 -0.24999999998902778 -0.19999999999640986 0.3000000000068323 2.221400000032282 2.221399999992341 5.9472026516743075e-12 0.0 0.0 0.0 0.0 0.0 0.0
