mkrssg/UniversalRobots/rtde_client_3.5/examples/roboter/movej_0-30q1.csv
timestamp target_q_0 target_q_1 target_q_2 target_q_3 target_q_4 target_q_5 target_qd_0 target_qd_1 target_qd_2 target_qd_3 target_qd_4 target_qd_5 target_qdd_0 target_qdd_1 target_qdd_2 target_qdd_3 target_qdd_4 target_qdd_5 target_current_0 target_current_1 target_current_2 target_current_3 target_current_4 target_current_5 target_moment_0 target_moment_1 target_moment_2 target_moment_3 target_moment_4 target_moment_5 actual_q_0 actual_q_1 actual_q_2 actual_q_3 actual_q_4 actual_q_5 actual_qd_0 actual_qd_1 actual_qd_2 actual_qd_3 actual_qd_4 actual_qd_5 actual_current_0 actual_current_1 actual_current_2 actual_current_3 actual_current_4 actual_current_5 joint_control_output_0 joint_control_output_1 joint_control_output_2 joint_control_output_3 joint_control_output_4 joint_control_output_5 actual_TCP_pose_0 actual_TCP_pose_1 actual_TCP_pose_2 actual_TCP_pose_3 actual_TCP_pose_4 actual_TCP_pose_5 actual_TCP_speed_0 actual_TCP_speed_1 actual_TCP_speed_2 actual_TCP_speed_3 actual_TCP_speed_4 actual_TCP_speed_5 actual_TCP_force_0 actual_TCP_force_1 actual_TCP_force_2 actual_TCP_force_3 actual_TCP_force_4 actual_TCP_force_5 target_TCP_pose_0 target_TCP_pose_1 target_TCP_pose_2 target_TCP_pose_3 target_TCP_pose_4 target_TCP_pose_5 target_TCP_speed_0 target_TCP_speed_1 target_TCP_speed_2 target_TCP_speed_3 target_TCP_speed_4 target_TCP_speed_5

3779.5519999999997 0.0 -1.5707963267948966 1.5707963267948966 -1.5707963267948966 -1.5707963267948966 0.0 0.0 0.0 0.0 0.0 0.0 0.0 0.0 0.0 0.0 0.0 0.0 0.0 2.7100081908582143e-27 -0.620381750820575 -0.8463465614411209 -0.2525548825603051 -1.4392506443496177e-11 0.0 3.110005232743317e-26 -7.1458666999402505 -7.145866699940252 -1.0424175499402515 -5.974879480466362e-11 0.0 -4.7985707418263246e-05 -1.5707123915301722 1.5708250999450684 -1.5707243124591272 -1.5707185904132288 9.58738019107841e-05 0.0 0.0 -0.0 0.0 0.0 0.0 0.02467346377670765 -0.6415100693702698 -0.8113219141960144 -0.2361077070236206 -0.04699774086475372 0.1197323426604271 0.02467346377670765 -0.6280518174171448 -0.8021716475486755 -0.23498870432376862 -0.04923573136329651 0.11301837861537933 -0.29844082024428714 -0.11274704235399456 0.31314447428060177 -2.218117635403333 -2.219451564002361 -0.00829908083586346 0.0 0.0 0.0 0.0 0.0 0.0 -2.4766500902349944 1.9829677973822633 1.2071369626327473 -0.3828614258092309 -0.23384572112509167 0.5535593195492599 -0.2984301935029837 -0.11275507530515129 0.3131843183387717 -2.217827088832791 -2.2194802147226973 -0.008179933726190749 0.0 0.0 0.0 0.0 0.0 0.0

3779.56 0.0 -1.5707963267948966 1.5707963267948966 -1.5707963267948966 -1.5707963267948966 0.0 0.0 0.0 0.0 0.0 0.0 0.0 0.0 0.0 0.0 0.0 0.0 0.0 2.7100081908582143e-27 -0.620381750820575 -0.8463465614411209 -0.2525548825603051 -1.4392506443496177e-11 0.0 3.110005232743317e-26 -7.1458666999402505 -7.145866699940252 -1.0424175499402515 -5.974879480466362e-11 0.0 0.0 -1.5707362333880823 1.5707893371582031 -1.5707362333880823 -1.570742432271139 0.000107858024421148 0.0 0.0 -0.0 0.0 0.0 0.0 0.0291595496237278 -0.6302948594093323 -0.8052217364311218 -0.23386971652507782 -0.051473718136548996 0.11749435216188431 0.0291595496237278 -0.6280518174171448 -0.8021716475486755 -0.23498870432376862 -0.04923573136329651 0.11749435216188431 -0.29843550776506345 -0.11275945775704259 0.3131633033439979 -2.2180300137638986 -2.2194437844830235 -0.008245787131539575 0.0 0.0 0.0 0.0 0.0 0.0 -2.120516506474399 2.2764540203392722 1.430714999020762 -0.42795794194517234 -0.21303816256777175 0.5432862144249863 -0.2984301935029837 -0.11275507530515129 0.3131843183387717 -2.217827088832791 -2.2194802147226973 -0.008179933726190749 0.0 0.0 0.0 0.0 0.0 0.0

3779.5679999999998 0.0 -1.5707963267948966 1.5707963267948966 -1.5707963267948966 -1.5707963267948966 0.0 0.0 0.0 0.0 0.0 0.0 0.0 0.0 0.0 0.0 0.0 0.0 0.0 2.7100081908582143e-27 -0.620381750820575 -0.8463465614411209 -0.2525548825603051 -1.4392506443496177e-11 0.0 3.110005232743317e-26 -7.1458666999402505 -7.145866699940252 -1.0424175499402515 -5.974879480466362e-11 0.0 -2.366701234990387e-05 -1.5707362333880823 1.570777416229248 -1.5707481543170374 -1.5707548300372522 0.000107858024421148 0.0 0.0 -0.0 0.0 0.0 0.0 0.02467346377670765 -0.6437531113624573 -0.8052217364311218 -0.23386971652507782 -0.0503547228872776 0.11749435216188431 0.0269165076315403 -0.6280518174171448 -0.8021716475486755 -0.23498870432376862 -0.048116736114025116 0.11525636911392212 -0.29844014526543283 -0.11275139555775955 0.31316788831739933 -2.2180381968291685 -2.2193995309181442 -0.008233064983320328 0.0 0.0 0.0 0.0 0.0 0.0 -2.8316034737085434 1.8133184274273024 1.4284912729839474 -0.38459522147242997 -0.27167293329246384 0.5429600691814847 -0.2984301935029837 -0.11275507530515129 0.3131843183387717 -2.217827088832791 -2.2194802147226973 -0.008179933726190749 0.0 0.0 0.0 0.0 0.0 0.0

3779.576 0.0 -1.5707963267948966 1.5707963267948966 -1.5707963267948966 -1.5707963267948966 0.0 0.0 0.0 0.0 0.0 0.0 0.0 0.0 0.0 0.0 0.0 0.0 0.0 2.7100081908582143e-27 -0.620381750820575 -0.8463465614411209 -0.2525548825603051 -1.4392506443496177e-11 0.0 3.110005232743317e-26 -7.1458666999402505 -7.145866699940252 -1.0424175499402515 -5.974879480466362e-11 0.0 -4.7985707418263246e-05 -1.5707600752459925 1.5707893371582031 -1.5707481543170374 -1.5707667509662073 8.388957940042019e-05 0.0 0.0 -0.0 0.0 0.0 0.0 0.02243042178452015 -0.6392670273780823 -0.7869212627410889 -0.24282166361808777 -0.04252176731824875 0.1197323426604271 0.0269165076315403 -0.6280518174171448 -0.7975965142250061 -0.23498870432376862 -0.048116736114025116 0.11749435216188431 -0.29843805737992507 -0.11274315145555247 0.3131714533587678 -2.2180268121246742 -2.2193872337610294 -0.008233177900502304 0.0 0.0 0.0 0.0 0.0 0.0 -3.303118627810391 1.5699668750828732 2.433766752644151 -0.3286262797143336 -0.4378831632708913 0.5523289667759903 -0.2984301935029837 -0.11275507530515129 0.3131843183387717 -2.217827088832791 -2.2194802147226973 -0.008179933726190749 0.0 0.0 0.0 0.0 0.0 0.0

3779.584 0.0 -1.5707963267948966 1.5707963267948966 -1.5707963267948966 -1.5707963267948966 0.0 0.0 0.0 0.0 0.0 0.0 0.0 0.0 0.0 0.0 0.0 0.0 0.0 2.7100081908582143e-27 -0.620381750820575 -0.8463465614411209 -0.2525548825603051 -1.4392506443496177e-11 0.0 3.110005232743317e-26 -7.1458666999402505 -7.145866699940252 -1.0424175499402515 -5.974879480466362e-11 0.0 3.5952674807049334e-05 -1.5707362333880823 1.5708131790161133 -1.5707123915301722 -1.570742432271139 0.000107858024421148 0.0 0.0 -0.0 0.0 0.0 0.0 0.02467346377670765 -0.6437531113624573 -0.8006466031074524 -0.23498870432376862 -0.051473718136548996 0.11749435216188431 0.02243042178452015 -0.6280518174171448 -0.8036966919898987 -0.23498870432376862 -0.051473718136548996 0.11637535691261292 -0.29842751695799324 -0.11277014311467125 0.3131541488400377 -2.218013859224203 -2.21950721944805 -0.008298718465951623 0.0 0.0 0.0 0.0 0.0 0.0 -3.008946668456136 1.745280015801811 1.655329564449134 -0.38435666131086904 -0.310892363422188 0.5426847388991096 -0.2984301935029837 -0.11275507530515129 0.3131843183387717 -2.217827088832791 -2.2194802147226973 -0.008179933726190749 0.0 0.0 0.0 0.0 0.0 0.0

3779.5919999999996 0.0 -1.5707963267948966 1.5707963267948966 -1.5707963267948966 -1.5707963267948966 0.0 0.0 0.0 0.0 0.0 0.0 0.0 0.0 0.0 0.0 0.0 0.0 0.0 2.7100081908582143e-27 -0.620381750820575 -0.8463465614411209 -0.2525548825603051 -1.4392506443496177e-11 0.0 3.110005232743317e-26 -7.1458666999402505 -7.145866699940252 -1.0424175499402515 -5.974879480466362e-11 0.0 1.1984225238848012e-05 -1.5707243124591272 1.5708131790161133 -1.5707123915301722 -1.5707185904132288 0.00013182648399379104 0.0 0.0 -0.0 0.0 0.0 0.0 0.0269165076315403 -0.6325379014015198 -0.7914963960647583 -0.23163172602653503 -0.05594969168305397 0.12197033315896988 0.02467346377670765 -0.6280518174171448 -0.7991215586662292 -0.23498870432376862 -0.0503547228872776 0.11413737386465073 -0.2984321403599675 -0.11276494938158196 0.3131505754217774 -2.218084926855637 -2.2194720122855003 -0.008285567182879934 0.0 0.0 0.0 0.0 0.0 0.0 -2.770631888203367 2.0016434188839916 1.9899842693046965 -0.42650702428523046 -0.30430749974804977 0.5634493936233851 -0.2984301935029837 -0.11275507530515129 0.3131843183387717 -2.217827088832791 -2.2194802147226973 -0.008179933726190749 0.0 0.0 0.0 0.0 0.0 0.0

3779.6 0.0 -1.5707963267948966 1.5707963267948966 -1.5707963267948966 -1.5707963267948966 0.0 0.0 0.0 0.0 0.0 0.0 0.0 0.0 0.0 0.0 0.0 0.0 0.0 2.7100081908582143e-27 -0.620381750820575 -0.8463465614411209 -0.2525548825603051 -1.4392506443496177e-11 0.0 3.110005232743317e-26 -7.1458666999402505 -7.145866699940252 -1.0424175499402515 -5.974879480466362e-11 0.0 1.1984225238848012e-05 -1.5707243124591272 1.5708489418029785 -1.5707600752459925 -1.5707305113421839 9.58738019107841e-05 0.0 0.0 -0.0 0.0 0.0 0.0 0.0358886756002903 -0.6347809433937073 -0.7899713516235352 -0.23498870432376862 -0.05930667370557785 0.11637535691261292 0.0291595496237278 -0.6280518174171448 -0.8036966919898987 -0.23498870432376862 -0.04923573136329651 0.11413737386465073 -0.29843311113618826 -0.11276395983585354 0.31314397302804325 -2.2180330481188406 -2.21950020211467 -0.008285569497637337 0.0 0.0 0.0 0.0 0.0 0.0 -2.9493780987919216 2.23294819226341 2.130417943428059 -0.4612404788420528 -0.3462842163968638 0.5371885778207043 -0.2984301935029837 -0.11275507530515129 0.3131843183387717 -2.217827088832791 -2.2194802147226973 -0.008179933726190749 0.0 0.0 0.0 0.0 0.0 0.0

3779.6079999999997 0.0 -1.5707963267948966 1.5707963267948966 -1.5707963267948966 -1.5707963267948966 0.0 0.0 0.0 0.0 0.0 0.0 0.0 0.0 0.0 0.0 0.0 0.0 0.0 2.7100081908582143e-27 -0.620381750820575 -0.8463465614411209 -0.2525548825603051 -1.4392506443496177e-11 0.0 3.110005232743317e-26 -7.1458666999402505 -7.145866699940252 -1.0424175499402515 -5.974879480466362e-11 0.0 3.5952674807049334e-05 -1.5707481543170374 1.5707893371582031 -1.5707123915301722 -1.570742432271139 5.992112710373476e-05 0.0 0.0 -0.0 0.0 0.0 0.0 0.01794433780014515 -0.6302948594093323 -0.8021716475486755 -0.23498870432376862 -0.05371170490980148 0.11301837861537933 0.02243042178452015 -0.6280518174171448 -0.8021716475486755 -0.23498870432376862 -0.04923573136329651 0.11413737386465073 -0.2984275670959152 -0.11277017488513016 0.3131648271876687 -2.2179429681350102 -2.2195426452927385 -0.008259111390533765 0.0 0.0 0.0 0.0 0.0 0.0 -2.2372898500491063 1.6786781175457848 1.5885228333315369 -0.3892306448512368 -0.24153075091010806 0.5223730683774571 -0.2984301935029837 -0.11275507530515129 0.3131843183387717 -2.217827088832791 -2.2194802147226973 -0.008179933726190749 0.0 0.0 0.0 0.0 0.0 0.0

3779.616 0.0 -1.5707963267948966 1.5707963267948966 -1.5707963267948966 -1.5707963267948966 0.0 0.0 0.0 0.0 0.0 0.0 0.0 0.0 0.0 0.0 0.0 0.0 0.0 2.7100081908582143e-27 -0.620381750820575 -0.8463465614411209 -0.2525548825603051 -1.4392506443496177e-11 0.0 3.110005232743317e-26 -7.1458666999402505 -7.145866699940252 -1.0424175499402515 -5.974879480466362e-11 0.0 -2.366701234990387e-05 -1.5707600752459925 1.5708012580871582 -1.570676628743307 -1.570742432271139 5.992112710373476e-05 0.0 0.0 -0.0 0.0 0.0 0.0 0.02467346377670765 -0.6302948594093323 -0.7899713516235352 -0.22939373552799225 -0.04923573136329651 0.11413737386465073 0.0291595496237278 -0.6280518174171448 -0.8021716475486755 -0.23498870432376862 -0.04923573136329651 0.11413737386465073 -0.2984284351179277 -0.11275234846002387 0.3131617737797455 -2.2180271760725137 -2.219494259601192 -0.00829909607139375 0.0 0.0 0.0 0.0 0.0 0.0 -2.7108193796419235 1.806364770725661 2.008234087003158 -0.3791873088252957 -0.29038924917509956 0.5272476740461357 -0.2984301935029837 -0.11275507530515129 0.3131843183387717 -2.217827088832791 -2.2194802147226973 -0.008179933726190749 0.0 0.0 0.0 0.0 0.0 0.0

3779.624 0.0 -1.5707963267948966 1.5707963267948966 -1.5707963267948966 -1.5707963267948966 0.0 0.0 0.0 0.0 0.0 0.0 0.0 0.0 0.0 0.0 0.0 0.0 0.0 2.7100081908582143e-27 -0.620381750820575 -0.8463465614411209 -0.2525548825603051 -1.4392506443496177e-11 0.0 3.110005232743317e-26 -7.1458666999402505 -7.145866699940252 -1.0424175499402515 -5.974879480466362e-11 0.0 3.5952674807049334e-05 -1.5707243124591272 1.5708250999450684 -1.5707243124591272 -1.5707667509662073 4.793690095539205e-05 0.0 0.0 -0.0 0.0 0.0 0.0 0.02467346377670765 -0.6258087754249573 -0.7914963960647583 -0.22603675723075867 -0.04699774086475372 0.11749435216188431 0.0269165076315403 -0.6280518174171448 -0.8021716475486755 -0.23498870432376862 -0.04923573136329651 0.11413737386465073 -0.2984294364714418 -0.11276813060535992 0.3131480627415938 -2.2179411500248047 -2.219567562542924 -0.008339049713210098 0.0 0.0 0.0 0.0 0.0 0.0 -2.4147527217747005 1.971346122524294 1.8685792187671155 -0.38230037773189407 -0.23854729469656344 0.5431406737045592 -0.2984301935029837 -0.11275507530515129 0.3131843183387717 -2.217827088832791 -2.2194802147226973 -0.008179933726190749 0.0 0.0 0.0 0.0 0.0 0.0

3779.6319999999996 0.0 -1.5707963267948966 1.5707963267948966 -1.5707963267948966 -1.5707963267948966 0.0 0.0 0.0 0.0 0.0 0.0 0.0 0.0 0.0 0.0 0.0 0.0 0.0 2.7100081908582143e-27 -0.620381750820575 -0.8463465614411209 -0.2525548825603051 -1.4392506443496177e-11 0.0 3.110005232743317e-26 -7.1458666999402505 -7.145866699940252 -1.0424175499402515 -5.974879480466362e-11 0.0 1.1984225238848012e-05 -1.5707362333880823 1.5708250999450684 -1.5707243124591272 -1.570742432271139 3.5952674807049334e-05 0.0 0.0 -0.0 0.0 0.0 0.0 0.02243042178452015 -0.6370239853858948 -0.8097968697547913 -0.23386971652507782 -0.05594969168305397 0.10966140031814575 0.0269165076315403 -0.6280518174171448 -0.8021716475486755 -0.23498870432376862 -0.04923573136329651 0.11413737386465073 -0.2984302158058374 -0.1127629848694392 0.3131516064617619 -2.217960806385209 -2.2195606036080284 -0.00829899159059788 0.0 0.0 0.0 0.0 0.0 0.0 -2.298199393782082 1.7974907190947609 1.2256966026147353 -0.4092539309295143 -0.21025197229398682 0.5069644653710389 -0.2984301935029837 -0.11275507530515129 0.3131843183387717 -2.217827088832791 -2.2194802147226973 -0.008179933726190749 0.0 0.0 0.0 0.0 0.0 0.0

3779.64 0.0 -1.5707963267948966 1.5707963267948966 -1.5707963267948966 -1.5707963267948966 0.0 0.0 0.0 0.0 0.0 0.0 0.0 0.0 0.0 0.0 0.0 0.0 0.0 2.7100081908582143e-27 -0.620381750820575 -0.8463465614411209 -0.2525548825603051 -1.4392506443496177e-11 0.0 3.110005232743317e-26 -7.1458666999402505 -7.145866699940252 -1.0424175499402515 -5.974879480466362e-11 0.0 0.0 -1.5707123915301722 1.5707893371582031 -1.5707481543170374 -1.5707185904132288 8.388957940042019e-05 0.0 0.0 -0.0 0.0 0.0 0.0 0.02467346377670765 -0.6280518174171448 -0.8052217364311218 -0.24058367311954498 -0.0503547228872776 0.11078038811683655 0.02243042178452015 -0.6280518174171448 -0.8021716475486755 -0.23498870432376862 -0.04923573136329651 0.11637535691261292 -0.2984403327105304 -0.11276142078041494 0.3131571885116077 -2.218021269200382 -2.2194884468268294 -0.008232683208720398 0.0 0.0 0.0 0.0 0.0 0.0 -2.0013474325218144 2.0230178815359827 1.5754712674283526 -0.4019362918794504 -0.24657507372914136 0.5119507205720801 -0.2984301935029837 -0.11275507530515129 0.3131843183387717 -2.217827088832791 -2.2194802147226973 -0.008179933726190749 0.0 0.0 0.0 0.0 0.0 0.0

3779.6479999999997 0.0 -1.5707963267948966 1.5707963267948966 -1.5707963267948966 -1.5707963267948966 0.0 0.0 0.0 0.0 0.0 0.0 0.0 0.0 0.0 0.0 0.0 0.0 0.0 2.7100081908582143e-27 -0.620381750820575 -0.8463465614411209 -0.2525548825603051 -1.4392506443496177e-11 0.0 3.110005232743317e-26 -7.1458666999402505 -7.145866699940252 -1.0424175499402515 -5.974879480466362e-11 0.0 -1.1746083394825746e-05 -1.5707600752459925 1.5708370208740234 -1.5707600752459925 -1.5707305113421839 9.58738019107841e-05 0.0 0.0 -0.0 0.0 0.0 0.0 0.0336456336081028 -0.6302948594093323 -0.8021716475486755 -0.23386971652507782 -0.05594969168305397 0.12085133790969849 0.0291595496237278 -0.6280518174171448 -0.8021716475486755 -0.23498870432376862 -0.04923573136329651 0.11525636911392212 -0.29843100720810806 -0.11275690485855921 0.31315820904699937 -2.2180357605375094 -2.2194501016516215 -0.008232659571691853 0.0 0.0 0.0 0.0 0.0 0.0 -2.2391138042310894 2.4767246314988665 1.566657496376143 -0.46536073761007024 -0.23443463070637596 0.5586876046050666 -0.2984301935029837 -0.11275507530515129 0.3131843183387717 -2.217827088832791 -2.2194802147226973 -0.008179933726190749 0.0 0.0 0.0 0.0 0.0 0.0

3779.656 0.0 -1.5707963267948966 1.5707963267948966 -1.5707963267948966 -1.5707963267948966 0.0 0.0 0.0 0.0 0.0 0.0 0.0 0.0 0.0 0.0 0.0 0.0 0.0 2.7100081908582143e-27 -0.620381750820575 -0.8463465614411209 -0.2525548825603051 -1.4392506443496177e-11 0.0 3.110005232743317e-26 -7.1458666999402505 -7.145866699940252 -1.0424175499402515 -5.974879480466362e-11 0.0 -1.1746083394825746e-05 -1.5707724730121058 1.5708131790161133 -1.5707600752459925 -1.5707305113421839 9.58738019107841e-05 0.0 0.0 -0.0 0.0 0.0 0.0 0.0314025916159153 -0.6415100693702698 -0.8097968697547913 -0.23498870432376862 -0.05371170490980148 0.1186133474111557 0.0269165076315403 -0.6280518174171448 -0.8021716475486755 -0.23498870432376862 -0.04923573136329651 0.11637535691261292 -0.2984309803138668 -0.11275693680416904 0.31316902981403744 -2.2180177407928863 -2.219432038002555 -0.008192381417041381 0.0 0.0 0.0 0.0 0.0 0.0 -2.536475455537047 2.2329679928878714 1.2513129536920933 -0.4346696613201266 -0.23724321429565912 0.5483339535647682 -0.2984301935029837 -0.11275507530515129 0.3131843183387717 -2.217827088832791 -2.2194802147226973 -0.008179933726190749 0.0 0.0 0.0 0.0 0.0 0.0

3779.6639999999998 0.0 -1.5707963267948966 1.5707963267948966 -1.5707963267948966 -1.5707963267948966 0.0 0.0 0.0 0.0 0.0 0.0 0.0 0.0 0.0 0.0 0.0 0.0 0.0 2.7100081908582143e-27 -0.620381750820575 -0.8463465614411209 -0.2525548825603051 -1.4392506443496177e-11 0.0 3.110005232743317e-26 -7.1458666999402505 -7.145866699940252 -1.0424175499402515 -5.974879480466362e-11 0.0 -3.5587941304981996e-05 -1.5707243124591272 1.5708012580871582 -1.5707600752459925 -1.5707185904132288 9.58738019107841e-05 0.0 0.0 -0.0 0.0 0.0 0.0 0.01794433780014515 -0.6302948594093323 -0.8006466031074524 -0.23498870432376862 -0.05706868693232536 0.11749435216188431 0.02018737979233265 -0.6280518174171448 -0.8021716475486755 -0.23498870432376862 -0.04923573136329651 0.11637535691261292 -0.2984424194176439 -0.11275079894231248 0.31315820495496044 -2.218068162145651 -2.219429809471146 -0.00821949966191904 0.0 0.0 0.0 0.0 0.0 0.0 -2.2962389468225317 1.725784452768791 1.6565067301825758 -0.40876923522869213 -0.2523065193203682 0.5430597374567017 -0.2984301935029837 -0.11275507530515129 0.3131843183387717 -2.217827088832791 -2.2194802147226973 -0.008179933726190749 0.0 0.0 0.0 0.0 0.0 0.0

3779.672 0.0 -1.5707963267948966 1.5707963267948966 -1.5707963267948966 -1.5707963267948966 0.0 0.0 0.0 0.0 0.0 0.0 0.0 0.0 0.0 0.0 0.0 0.0 0.0 2.7100081908582143e-27 -0.620381750820575 -0.8463465614411209 -0.2525548825603051 -1.4392506443496177e-11 0.0 3.110005232743317e-26 -7.1458666999402505 -7.145866699940252 -1.0424175499402515 -5.974879480466362e-11 0.0 -1.1746083394825746e-05 -1.5707009474383753 1.5708131790161133 -1.5707009474383753 -1.570742432271139 3.5952674807049334e-05 0.0 0.0 -0.0 0.0 0.0 0.0 0.0336456336081028 -0.6235657334327698 -0.7899713516235352 -0.23051273822784424 -0.04923573136329651 0.12085133790969849 0.02467346377670765 -0.6280518174171448 -0.8021716475486755 -0.23498870432376862 -0.04923573136329651 0.11637535691261292 -0.29843764168552644 -0.11275588727736315 0.31314263822461674 -2.2180104414553212 -2.2195575981038766 -0.00835100535981805 0.0 0.0 0.0 0.0 0.0 0.0 -2.356225769358311 2.431670919810379 2.0348504012528688 -0.4307253044172807 -0.2684831221080997 0.5584610979718161 -0.2984301935029837 -0.11275507530515129 0.3131843183387717 -2.217827088832791 -2.2194802147226973 -0.008179933726190749 0.0 0.0 0.0 0.0 0.0 0.0

3779.68 0.0 -1.5707963267948966 1.5707963267948966 -1.5707963267948966 -1.5707963267948966 0.0 0.0 0.0 0.0 0.0 0.0 0.0 0.0 0.0 0.0 0.0 0.0 0.0 2.7100081908582143e-27 -0.620381750820575 -0.8463465614411209 -0.2525548825603051 -1.4392506443496177e-11 0.0 3.110005232743317e-26 -7.1458666999402505 -7.145866699940252 -1.0424175499402515 -5.974879480466362e-11 0.0 1.1984225238848012e-05 -1.5707009474383753 1.5707893371582031 -1.5707481543170374 -1.5707667509662073 7.190534961409867e-05 0.0 0.0 -0.0 0.0 0.0 0.0 0.02018737979233265 -0.6235657334327698 -0.8036966919898987 -0.24505965411663055 -0.04699774086475372 0.11637535691261292 0.02467346377670765 -0.6280518174171448 -0.8021716475486755 -0.2372266948223114 -0.04923573136329651 0.11637535691261292 -0.2984408294215955 -0.11276102680580406 0.3131538017191073 -2.2179761861753677 -2.2194965346115665 -0.008298713211196709 0.0 0.0 0.0 0.0 0.0 0.0 -1.82271458811414 1.9836445868249961 1.7407370579910568 -0.38315806792432805 -0.2668429425424706 0.5377800907278603 -0.2984301935029837 -0.11275507530515129 0.3131843183387717 -2.217827088832791 -2.2194802147226973 -0.008179933726190749 0.0 0.0 0.0 0.0 0.0 0.0

3779.6879999999996 0.0 -1.5707963267948966 1.5707963267948966 -1.5707963267948966 -1.5707963267948966 0.0 0.0 0.0 0.0 0.0 0.0 0.0 0.0 0.0 0.0 0.0 0.0 0.0 2.7100081908582143e-27 -0.620381750820575 -0.8463465614411209 -0.2525548825603051 -1.4392506443496177e-11 0.0 3.110005232743317e-26 -7.1458666999402505 -7.145866699940252 -1.0424175499402515 -5.974879480466362e-11 0.0 0.0 -1.5707481543170374 1.5708131790161133 -1.5707123915301722 -1.5707305113421839 9.58738019107841e-05 0.0 0.0 -0.0 0.0 0.0 0.0 0.0358886756002903 -0.6190796494483948 -0.8036966919898987 -0.2383456975221634 -0.05930667370557785 0.1197323426604271 0.0269165076315403 -0.6280518174171448 -0.8021716475486755 -0.23498870432376862 -0.04923573136329651 0.11637535691261292 -0.29842964838858804 -0.11276039994907165 0.3131577002123098 -2.218040617644104 -2.2194807566863792 -0.008272421142971538 0.0 0.0 0.0 0.0 0.0 0.0 -1.5872026250452431 2.80279554874775 1.5979259674482744 -0.507861510477561 -0.20392263068887476 0.5536302412428865 -0.2984301935029837 -0.11275507530515129 0.3131843183387717 -2.217827088832791 -2.2194802147226973 -0.008179933726190749 0.0 0.0 0.0 0.0 0.0 0.0

3779.696 8e-08 -1.5707963267948966 1.5707963267948966 -1.5707963267948966 -1.5707963267948966 0.0 4e-05 0.0 0.0 0.0 0.0 0.0 0.005 0.0 0.0 0.0 0.0 0.0 0.0013303214259916668 -0.620426167996756 -0.8463445877412075 -0.2525508451595778 1.0668682855840854e-05 0.0 0.00429578920929224 -7.146378319148517 -7.145850035612506 -1.0424008856123572 4.4289779913749545e-05 0.0 1.1984225238848012e-05 -1.5707362333880823 1.5708131790161133 -1.5707243124591272 -1.5707066694842737 9.58738019107841e-05 0.0 0.0 -0.0 0.0 0.0 0.0 0.01794433780014515 -0.6190796494483948 -0.806746780872345 -0.23498870432376862 -0.048116736114025116 0.10966140031814575 0.02243042178452015 -0.6280518174171448 -0.8021716475486755 -0.23498870432376862 -0.04923573136329651 0.11525636911392212 -0.2984311998236136 -0.11276594385695893 0.3131551442596493 -2.218039196200153 -2.2195060956084145 -0.008245967736279166 0.0 0.0 0.0 0.0 0.0 0.0 -1.464445783730831 1.8629443889568968 1.3867043013975644 -0.37831029802676003 -0.16039650979418554 0.5073272995745416 -0.2984301844825768 -0.11275509917957251 0.3131843183387717 -2.2178269999066336 -2.2194803032887216 -0.008179933478904035 4.510203967182715e-06 -1.193720737930307e-05 0.0 0.0 0.0 4e-05

3779.7039999999997 7.200000000000001e-07 -1.5707963267948966 1.5707963267948966 -1.5707963267948966 -1.5707963267948966 0.0 0.00018000000000000004 0.0 0.0 0.0 0.0 0.0 0.017500000000000005 0.0 0.0 0.0 0.0 0.0 0.005612319169732205 -0.6205372113291225 -0.8463396534633075 -0.25254075160024425 3.734040446080962e-05 0.0 0.015035262232522845 -7.147657371683442 -7.145808374555748 -1.0423592245552278 0.0001550142897493887 0.0 -2.366701234990387e-05 -1.5707243124591272 1.5708250999450684 -1.5707600752459925 -1.5707548300372522 7.190534961409867e-05 0.0 0.0 -0.0 0.0 0.0 0.0 0.0403747595846653 -0.6235657334327698 -0.8128469586372375 -0.24282166361808777 -0.05371170490980148 0.1197323426604271 0.0358886756002903 -0.6280518174171448 -0.8021716475486755 -0.23498870432376862 -0.04923573136329651 0.11637535691261292 -0.29843910504672566 -0.11275134476597133 0.3131511076305327 -2.218022052578657 -2.2194632680135054 -0.00828616284962065 0.0 0.0 0.0 0.0 0.0 0.0 -1.461289403467436 2.802208161852755 1.2889217123137124 -0.48175606259403836 -0.1879044229118886 0.5537614911156392 -0.29843011231925215 -0.11275529017487493 0.3131843183387717 -2.2178262884970885 -2.219481011816664 -0.008179931500788377 2.0295952231477905e-05 -5.37174202174654e-05 0.0 0.0 0.0 0.00018000000000000004

3779.712 2.8800000000000004e-06 -1.5707963267948966 1.5707963267948966 -1.5707963267948966 -1.5707963267948966 0.0 0.00048000000000000007 0.0 0.0 0.0 0.0 0.0 0.037500000000000006 0.0 0.0 0.0 0.0 0.0 0.014281064055023739 -0.6207148828357381 -0.8463317584626419 -0.25252460158614404 8.001503963157413e-05 0.0 0.032218419069691806 -7.149703880790089 -7.145741715547579 -1.0422925655464643 0.0003321730098230628 0.0 -1.1746083394825746e-05 -1.5707362333880823 1.5708370208740234 -1.5707009474383753 -1.570742432271139 5.992112710373476e-05 0.0 0.0 -0.0 0.0 0.0 0.0 0.0336456336081028 -0.6302948594093323 -0.8082718253135681 -0.2361077070236206 -0.05594969168305397 0.11749435216188431 0.0358886756002903 -0.6280518174171448 -0.8021716475486755 -0.23498870432376862 -0.04923573136329651 0.11525636911392212 -0.2984299802228891 -0.1127558730604391 0.31314605259116596 -2.2180313759204964 -2.219525171169686 -0.0083382444022146 0.0 0.0 0.0 0.0 0.0 0.0 -1.9828124585444553 1.9063213928043345 1.343187378629299 -0.41867069657356476 -0.20496327829694477 0.5433127155731731 -0.2984298687671291 -0.11275593478364279 0.3131843183387717 -2.2178238874882736 -2.2194834030967088 -0.00817992482437891 5.412284869615097e-05 -0.00014324633700822203 0.0 0.0 0.0 0.00048000000000000007

3779.72 8e-06 -1.5707963267948966 1.5707963267948966 -1.5707963267948966 -1.5707963267948966 0.0 0.001 0.0 0.0 0.0 0.0 0.0 0.06499999999999999 0.0 0.0 0.0 0.0 0.0 0.02877375035789583 -0.6209591884304059 -0.846320902314944 -0.25250239424939763 0.000138692263702845 0.0 0.055845259720799116 -7.152517914586596 -7.145650055005835 -1.0422009050039034 0.0005757645923250745 0.0 0.0 -1.5707724730121058 1.5708012580871582 -1.5707123915301722 -1.5707667509662073 9.58738019107841e-05 0.0 0.0 -0.0 0.0 0.0 0.0 0.0336456336081028 -0.6190796494483948 -0.7991215586662292 -0.2372266948223114 -0.04699774086475372 0.11749435216188431 0.0358886756002903 -0.6280518174171448 -0.8021716475486755 -0.2383456975221634 -0.04923573136329651 0.11637535691261292 -0.29842671546460414 -0.11275743805771239 0.31316854212261924 -2.2180044472998968 -2.2194444311514645 -0.008272273020201426 0.0 0.0 0.0 0.0 0.0 0.0 -1.7292246202359443 1.3772084394420125 1.7726808640594791 -0.33389223384601746 -0.22623010692505957 0.543292063051556 -0.29842929145283154 -0.1127574627430954 0.3131843183387717 -2.2178181961977774 -2.219489071305822 -0.008179908999169549 0.00011275746274308882 -0.00029842929145283155 0.0 0.0 0.0 0.001

3779.7279999999996 1.8e-05 -1.5707963267948966 1.5707963267948966 -1.5707963267948966 -1.5707963267948966 0.0 0.0018 0.0 0.0 0.0 0.0 0.0 0.09999999999999999 0.0 0.0 0.0 0.0 0.0 0.05053151317562895 -0.6212701412568611 -0.8463070840772596 -0.25247412766109806 0.00021337135508915753 0.0 0.08591578418584479 -7.156099624469067 -7.145533384968974 -1.0420842349660022 0.0008857860416783825 0.0 -3.5587941304981996e-05 -1.5707009474383753 1.570765495300293 -1.5707123915301722 -1.5707305113421839 8.388957940042019e-05 0.0 0.0 -0.0 0.0 0.0 0.0 0.0583190992474556 -0.6258087754249573 -0.796071469783783 -0.2372266948223114 -0.051473718136548996 0.11749435216188431 0.0605621412396431 -0.6280518174171448 -0.8021716475486755 -0.2372266948223114 -0.04923573136329651 0.11637535691261292 -0.29844521707720223 -0.11274981622613413 0.3131578466795642 -2.218066557249945 -2.2194545759202042 -0.008271988068055664 0.0 0.0 0.0 0.0 0.0 0.0 -2.1866326788449357 1.3289360895680122 1.907266504902992 -0.3511900637564404 -0.2755883610648488 0.5429539518364676 -0.29842816386328264 -0.1127604470303802 0.3131843183387717 -2.217807080354322 -2.2195001419846667 -0.008179878090447448 0.00020296880465468122 -0.0005371706949539088 0.0 0.0 0.0 0.0018

3779.736 3.5279999999999994e-05 -1.5707963267948966 1.5707963267948966 -1.5707963267948966 -1.5707963267948966 0.0 0.0029399999999999995 0.0 0.0 0.0 0.0 0.0 0.14249999999999993 0.0 0.0 0.0 0.0 0.0 0.08100181970178533 -0.6216477660758649 -0.8462903019732094 -0.25243979818748347 0.0003040509544352496 0.0 0.12242999246482879 -7.160449295644309 -7.145391690438683 -1.0419425404344484 0.0012622317146797728 0.0 -1.1746083394825746e-05 -1.5707600752459925 1.5707893371582031 -1.5707600752459925 -1.5707667509662073 9.58738019107841e-05 0.0 0.0 -0.0 0.0 0.0 0.0 0.1054229810833931 -0.6325379014015198 -0.8036966919898987 -0.22939373552799225 -0.04923573136329651 0.11189938336610794 0.1099090725183487 -0.6280518174171448 -0.8021716475486755 -0.2372266948223114 -0.04923573136329651 0.11637535691261292 -0.29843495352754956 -0.11275397496491821 0.3131724708599548 -2.2179938376179025 -2.21940815789355 -0.008219766770507132 0.0 0.0 0.0 0.0 0.0 0.0 -2.2285109164986787 1.9448930764765742 1.3999652571337262 -0.39162425819980357 -0.19912382292343786 0.5174697323318861 -0.29842621531820296 -0.11276560385220263 0.3131843183387717 -2.2177878720467654 -2.219519271986628 -0.008179824679415635 0.0003315308753255291 -0.0008773730730355167 0.0 0.0 0.0 0.0029399999999999995

3779.7439999999997 6.272e-05 -1.5707963267948966 1.5707963267948966 -1.5707963267948966 -1.5707963267948966 0.0 0.00448 0.0 0.0 0.0 0.0 0.0 0.1925 0.0 0.0 0.0 0.0 0.0 0.12164143440724744 -0.622092104705202 -0.846270553002714 -0.252399399691591 0.0004107287659625331 0.0 0.16538788455775125 -7.165567409790443 -7.145224946084714 -1.0417757960789935 0.0017050920806749208 0.0 5.992112710373476e-05 -1.5707123915301722 1.5708250999450684 -1.5707362333880823 -1.5707305113421839 0.00011984225420746952 0.0 0.0 -0.0 0.0 0.0 0.0 0.1839294582605362 -0.6258087754249573 -0.7975965142250061 -0.2394646853208542 -0.05371170490980148 0.1186133474111557 0.1861725002527237 -0.6280518174171448 -0.8021716475486755 -0.2383456975221634 -0.04923573136329651 0.11301837861537933 -0.2984296353231962 -0.11277827210694431 0.3131454990096471 -2.2180122900737573 -2.219532527946137 -0.008298623012442509 0.0 0.0 0.0 0.0 0.0 0.0 -2.0896622086396874 3.7318773642242964 1.894214919636844 -0.5604134932451061 -0.2759301202353602 0.5479094466764504 -0.29842312091768314 -0.11277379262510971 0.3131843183387717 -2.217757369627135 -2.2195496493801232 -0.008179739863607616 0.0005052265909604994 -0.0013369355817112202 0.0 0.0 0.0 0.00448

3779.752 0.00010368 -1.5707963267948966 1.5707963267948966 -1.5707963267948966 -1.5707963267948966 0.0 0.006479999999999999 0.0 0.0 0.0 0.0 0.0 0.2499999999999999 0.0 0.0 0.0 0.0 0.0 0.17391995812726338 -0.6226032225125806 -0.8462478324761818 -0.25235292258039216 0.0005334012010116525 0.0 0.21478946046461192 -7.171454719845359 -7.145033112311945 -1.0415839623045162 0.0022143522417673203 0.0 7.227985770441592e-05 -1.5707481543170374 1.570777416229248 -1.5707009474383753 -1.5707667509662073 7.190534961409867e-05 0.014074274338781834 0.0 -0.0 0.0 0.0 0.0 0.1278534084558487 -0.6415100693702698 -0.806746780872345 -0.23163172602653503 -0.04699774086475372 0.11413737386465073 0.1256103664636612 -0.6280518174171448 -0.8021716475486755 -0.23275071382522583 -0.04923573136329651 0.11413737386465073 -0.2984235150305424 -0.1127790187461715 0.31316742528406266 -2.2179034590468505 -2.219557040869103 -0.008285369769819232 0.001587282849492151 -0.004200094419683437 0.0 0.0 0.0 0.014074274338781834 -2.523775589780324 -1.1709900606546866 1.3051302673215979 -0.12562976786252886 -0.22792031055612696 0.5279176233176529 -0.2984185014528031 -0.11278601594152467 0.3131843183387717 -2.217711837545422 -2.2195949932818784 -0.008179613255316591 0.0007308533833010475 -0.0019337518894141635 0.0 0.0 0.0 0.006479999999999999

3779.7599999999998 0.00016199999999999998 -1.5707963267948966 1.5707963267948966 -1.5707963267948966 -1.5707963267948966 0.0 0.008999999999999998 0.0 0.0 0.0 0.0 0.0 0.31499999999999984 0.0 0.0 0.0 0.0 0.0 0.23932394105450042 -0.6231812159614339 -0.8462221334731609 -0.2523003526974096 0.0006720629637811384 0.0 0.27063472018541096 -7.17811233692304 -7.144816130689669 -1.0413669806803094 0.0027899902130611117 0.0 0.00014418520731851459 -1.5707481543170374 1.5708012580871582 -1.5707009474383753 -1.5707905928241175 7.190534961409867e-05 0.004084223881363869 0.0 -0.0 0.0 0.0 0.0 0.1973877102136612 -0.6392670273780823 -0.796071469783783 -0.22939373552799225 -0.054830700159072876 0.11637535691261292 0.1951446682214737 -0.6280518174171448 -0.8021716475486755 -0.2361077070236206 -0.04923573136329651 0.11637535691261292 -0.2984134344256178 -0.11279848552854416 0.31316032042537445 -2.2178234355758075 -2.219636512031761 -0.008338054896978836 0.0004606942683774084 -0.0012187872754009193 0.0 0.0 0.0 0.004084223881363869 -2.7875520879852997 -1.0592476126919632 1.7305286439979364 -0.17219297124079244 -0.2759391172328422 0.5379326598802948 -0.2984119232648632 -0.112803419516713 0.3131843183387717 -2.2176470060891282 -2.2196595535947785 -0.008179432980727609 0.0010152307756504427 -0.0026857073093837685 0.0 0.0 0.0 0.008999999999999998

3779.768 0.00024199999999999997 -1.5707963267948966 1.5707963267948966 -1.5707963267948966 -1.5707963267948966 0.0 0.012099999999999998 0.0 0.0 0.0 0.0 0.0 0.3875 0.0 0.0 0.0 0.0 0.0 0.26961261870452485 -0.623826221209627 -0.8461934462254528 -0.2522416700608159 0.00082670657926215 0.0 0.33292366372014864 -7.185541829357743 -7.14457391874311 -1.0411247687315959 0.0034319749629377824 0.0 0.0002400590165052563 -1.5707243124591272 1.5708131790161133 -1.5707481543170374 -1.5707548300372522 7.190534961409867e-05 0.019941750913858414 0.0 -0.0 0.0 0.0 0.0 0.1166381984949112 -0.6437531113624573 -0.7991215586662292 -0.2394646853208542 -0.04923573136329651 0.11301837861537933 0.1188812404870987 -0.6280518174171448 -0.7975965142250061 -0.2361077070236206 -0.04923573136329651 0.11637535691261292 -0.2984093632252064 -0.11283005237288744 0.3131536500087721 -2.2177289102004796 -2.219755188995349 -0.008285385488962564 0.0022500288000175976 -0.005950805191800167 0.0 0.0 0.0 0.019941750913858414 -2.8562888146616827 -5.925353355611745 1.8011769318446436 0.253911656937241 -0.3370848806710146 0.5224206894948263 -0.29840289803639336 -0.11282729210958846 0.3131843183387717 -2.2175580709969425 -2.2197481106181565 -0.00817918567934841 0.0013652102345261099 -0.0036106750662403585 0.0 0.0 0.0 0.012099999999999998

3779.776 0.00034847999999999997 -1.5707963267948966 1.5707963267948966 -1.5707963267948966 -1.5707963267948966 0.0 0.01584 0.0 0.0 0.0 0.0 0.0 0.46750000000000025 0.0 0.0 0.0 0.0 0.0 0.277044833416045 -0.6245384237610628 -0.8461617574246895 -0.25217684744701246 0.0009973218633693066 0.0 0.4016562910688247 -7.193745333876028 -7.144306364107158 -1.0408572140932666 0.004140264213366742 0.0 0.000335932825691998 -1.5707123915301722 1.5707893371582031 -1.5707362333880823 -1.5707548300372522 3.5952674807049334e-05 0.019750002771615982 0.0 -0.0 0.0 0.0 0.0 0.2893524467945099 -0.6123505234718323 -0.8036966919898987 -0.22939373552799225 -0.0503547228872776 0.11189938336610794 0.2915954887866974 -0.6280518174171448 -0.8036966919898987 -0.23498870432376862 -0.04923573136329651 0.11301837861537933 -0.2984014566059795 -0.11285867711282525 0.3131561933980786 -2.2175824888326736 -2.219901243305355 -0.00828520679975427 0.002228959185779318 -0.005893429595022342 0.0 0.0 0.0 0.019750002771615982 -1.0023428362020257 1.8877920764078457 1.4016754809712708 -0.39538685013771785 -0.09959778268220054 0.5180805660859711 -0.2983908824947076 -0.11285906541049663 0.3131843183387717 -2.2174396929103306 -2.2198659744954514 -0.008178856500899648 0.0017876875961022312 -0.004726511578716168 0.0 0.0 0.0 0.01584

3779.7839999999997 0.00048671999999999995 -1.5707963267948966 1.5707963267948966 -1.5707963267948966 -1.5707963267948966 0.0 0.02028 0.0 0.0 0.0 0.0 0.0 0.5549999999999999 0.0 0.0 0.0 0.0 0.0 0.2853093907409393 -0.6253180691701944 -0.8461270494543733 -0.2521058488196913 0.0011838953352676122 0.0 0.4768326022314386 -7.2027256788966625 -7.144013318042338 -1.0405641680258495 0.00491480200024979 0.0 0.0005040864925831556 -1.5707724730121058 1.5708489418029785 -1.570688549672262 -1.5707548300372522 0.000107858024421148 0.017736652866005898 0.0 -0.0 0.0 0.0 0.0 0.1278534084558487 -0.6258087754249573 -0.7930214405059814 -0.22827474772930145 -0.05259270966053009 0.12197033315896988 0.1256103664636612 -0.6280518174171448 -0.7991215586662292 -0.23498870432376862 -0.0503547228872776 0.11637535691261292 -0.2983639280722431 -0.11290876404616954 0.31315226068677937 -2.2174989688337363 -2.2200306335925415 -0.008337090087318047 0.0020026235534165208 -0.005291977419955328 0.0 0.0 0.0 0.017736652866005898 -2.060219823637222 -5.677475699180813 1.8316609282618244 0.21612763882571595 -0.2231773997025682 0.5646537094169444 -0.29837527800638564 -0.11290031388757794 0.3131843183387717 -2.2172859966238088 -2.220018984457776 -0.00817842910343625 0.0022896183656401876 -0.006051050637969501 0.0 0.0 0.0 0.02028

3779.792 0.00066248 -1.5707963267948966 1.5707963267948966 -1.5707963267948966 -1.5707963267948966 0.0 0.025480000000000003 0.0 0.0 0.0 0.0 0.0 0.6500000000000004 0.0 0.0 0.0 0.0 0.0 0.2944298681591568 -0.6261654747994373 -0.8460892995463816 -0.2520286276043772 0.0013864095718954766 0.0 0.5584525972079915 -7.212486519958378 -7.1436945883130125 -1.0402454382937016 0.005755515993799484 0.0 0.0006842243601568043 -1.5707243124591272 1.5707893371582031 -1.5707243124591272 -1.5707185904132288 4.793690095539205e-05 0.030967237427830696 0.0 -0.0 0.0 0.0 0.0 0.2355194389820099 -0.6437531113624573 -0.806746780872345 -0.2361077070236206 -0.041402772068977356 0.11637535691261292 0.2467346489429474 -0.6280518174171448 -0.806746780872345 -0.23498870432376862 -0.048116736114025116 0.11413737386465073 -0.29835922233144496 -0.11296557964157669 0.31315871243616594 -2.2172267395555454 -2.220291592822903 -0.00824404431661957 0.003498231925933474 -0.009239360876720781 0.0 0.0 0.0 0.030967237427830696 -2.4452857653004587 -1.6624803998303006 1.4011273928897532 -0.06308617231666651 -0.25228493836194527 0.5382190012949126 -0.2983554300386774 -0.11295275458234164 0.3131843183387717 -2.2170905700890184 -2.220213507819087 -0.008177885648809781 0.002878036186757677 -0.007602096357385503 0.0 0.0 0.0 0.025480000000000003

3779.7999999999997 0.0008820000000000001 -1.5707963267948966 1.5707963267948966 -1.5707963267948966 -1.5707963267948966 0.0 0.03150000000000001 0.0 0.0 0.0 0.0 0.0 0.7525000000000005 0.0 0.0 0.0 0.0 0.0 0.3044299669110891 -0.627081042629485 -0.8460484788619297 -0.2519451248084519 0.0016048425046838123 0.0 0.6465162759984826 -7.223032487275471 -7.14334993142778 -1.0399007814054275 0.0066623145789513295 0.0 0.0008999404381029308 -1.5707362333880823 1.5708131790161133 -1.5707009474383753 -1.570742432271139 7.190534961409867e-05 0.025981800630688667 0.0 -0.0 0.0 0.0 0.0 0.2198181450366974 -0.6258087754249573 -0.8006466031074524 -0.24394066631793976 -0.05259270966053009 0.11413737386465073 0.2265472710132599 -0.6280518174171448 -0.7991215586662292 -0.2361077070236206 -0.04923573136329651 0.11413737386465073 -0.2983290306483065 -0.11302792988769925 0.3131531721285696 -2.2170191051634696 -2.2205091403376116 -0.008308996967921332 0.0029366691400416088 -0.007751125396650909 0.0 0.0 0.0 0.025981800630688667 -1.6781436366406717 -2.5160393777402454 1.8410242564274222 -0.04605074474583426 -0.2638486680742622 0.5277723302311448 -0.2983306274614613 -0.11301824684426325 0.3131843183387717 -2.2168464631240012 -2.220456438673667 -0.008177206798810078 0.0035600747755943963 -0.009397414765036033 0.0 0.0 0.0 0.03150000000000001

3779.808 0.001152 -1.5707963267948966 1.5707963267948966 -1.5707963267948966 -1.5707963267948966 0.0 0.03840000000000001 0.0 0.0 0.0 0.0 0.0 0.8625000000000004 0.0 0.0 0.0 0.0 0.0 0.3153335322735457 -0.628065273122529 -0.8460045514970028 -0.25185526698665905 0.0018391666584712384 0.0 0.7410236386029118 -7.2343693454212925 -7.142979044242142 -1.0395298942165259 0.007635083695809921 0.0 0.0011160309659317136 -1.5707123915301722 1.5708012580871582 -1.5707243124591272 -1.5707305113421839 8.388957940042019e-05 0.035780102014541626 0.0 -0.0 0.0 0.0 0.0 0.2041168361902237 -0.6280518174171448 -0.8128469586372375 -0.23498870432376862 -0.0503547228872776 0.11749435216188431 0.2041168361902237 -0.6280518174171448 -0.8036966919898987 -0.2372266948223114 -0.04923573136329651 0.11413737386465073 -0.2983113529362187 -0.11309340378041771 0.3131516011735908 -2.2167922283321735 -2.2207354247008526 -0.008282353880087077 0.004046493524435083 -0.010673610640153834 0.0 0.0 0.0 0.035780102014541626 -1.2655194977987756 -3.4521976135719235 1.1037226447496118 0.04067108651293172 -0.1265643166162451 0.5443206886734834 -0.29830010166103277 -0.11309879199318344 0.3131843183387717 -2.2165461857749214 -2.2207551962406376 -0.008176371708333968 0.004342993612538411 -0.011454723903783664 0.0 0.0 0.0 0.03840000000000001

3779.816 0.0014796800000000001 -1.5707963267948966 1.5707963267948966 -1.5707963267948966 -1.5707963267948966 0.0 0.04624000000000002 0.0 0.0 0.0 0.0 0.0 0.9800000000000009 0.0 0.0 0.0 0.0 0.0 0.32716457537567606 -0.6291187801383786 -0.8459574734122461 -0.2517589640520917 0.002089348332615368 0.0 0.8419746850212798 -7.246504165139563 -7.142581554923361 -1.0391324048942603 0.00867368344012893 0.0 0.0014399795327335596 -1.5707600752459925 1.570777416229248 -1.5707481543170374 -1.5707066694842737 4.793690095539205e-05 0.04327743500471115 0.0 -0.0 0.0 0.0 0.0 0.2355194389820099 -0.5944061875343323 -0.8036966919898987 -0.23275071382522583 -0.0503547228872776 0.11413737386465073 0.2400055229663849 -0.6280518174171448 -0.8021716475486755 -0.23386971652507782 -0.04923573136329651 0.11413737386465073 -0.2982709443939538 -0.1131920551246801 0.31317497621896845 -2.2163566088520734 -2.2210982766853844 -0.008149043167756189 0.004898661808708231 -0.012908401409803146 0.0 0.0 0.0 0.04327743500471115 0.21343630501490277 -2.0979461491805993 1.4667610900018444 -0.07214218115385157 -0.025026973626201026 0.529285010543275 -0.298263025434671 -0.11319653289680326 0.3131843183387717 -2.2161817062725357 -2.2211177227978847 -0.008175358018310909 0.005234207681147797 -0.013791682296099197 0.0 0.0 0.0 0.04624000000000002

3779.8239999999996 0.0018727200000000002 -1.5707963267948966 1.5707963267948966 -1.5707963267948966 -1.5707963267948966 0.0 0.05508000000000002 0.0 0.0 0.0 0.0 0.0 1.105 0.0 0.0 0.0 0.0 0.0 0.3399472965548384 -0.6302423069034857 -0.8459071912873206 -0.25165610693265966 0.0023553467243001814 0.0 0.9493694152535851 -7.2594455072835755 -7.142157013277565 -1.0387078632447568 0.009777944423824955 0.0 0.0018002553842961788 -1.5707724730121058 1.570765495300293 -1.5707600752459925 -1.570742432271139 4.793690095539205e-05 0.04797524958848953 0.0 -0.0 0.0 0.0 0.0 0.2601929008960724 -0.6437531113624573 -0.7991215586662292 -0.24394066631793976 -0.04923573136329651 0.11749435216188431 0.2579498589038849 -0.6280518174171448 -0.8021716475486755 -0.23498870432376862 -0.04923573136329651 0.11413737386465073 -0.2982301208120929 -0.11329658882858167 0.313183276750045 -2.2159198544327934 -2.2214607905818493 -0.00814719236677425 0.0054354321265760825 -0.01430766448076554 0.0 0.0 0.0 0.04797524958848953 -2.5116950276245 -2.574815663915908 1.90764275485562 -0.028911842014815236 -0.33985950539707643 0.5428810628973982 -0.29821851163262514 -0.11331375344997656 0.3131843183387717 -2.2157444485222886 -2.2215524811408445 -0.0081741418465648 0.006241321540024778 -0.016425875620724992 0.0 0.0 0.0 0.05508000000000002

3779.832 0.00233928 -1.5707963267948966 1.5707963267948966 -1.5707963267948966 -1.5707963267948966 0.0 0.06498000000000002 0.0 0.0 0.0 0.0 0.0 1.2375000000000007 0.0 0.0 0.0 0.0 0.0 0.35370611025241794 -0.6314367430328706 -0.8458536412997192 -0.2515465650730397 0.0026371129940395113 0.0 1.06320782929983 -7.273203618883227 -7.141704880439061 -1.0382557304023292 0.010947663895525338 0.0 0.002244046190753579 -1.570688549672262 1.5707893371582031 -1.5707123915301722 -1.5707548300372522 0.00011984225420746952 0.059173308312892914 0.0 -0.0 0.0 0.0 0.0 0.2601929008960724 -0.6078644394874573 -0.7991215586662292 -0.23275071382522583 -0.05371170490980148 0.11749435216188431 0.2669220268726349 -0.6280518174171448 -0.8036966919898987 -0.23498870432376862 -0.04923573136329651 0.11749435216188431 -0.29818744600933944 -0.11342783389675758 0.313147040906037 -2.2155767702830853 -2.2219429934059187 -0.008332316527016312 0.006711900186436035 -0.017644737677744753 0.0 0.0 0.0 0.059173308312892914 -0.5463166225142246 -2.4175029445688048 1.6681537829252873 -0.06410574943971256 -0.10632719258319402 0.5443357162301332 -0.29816561151189463 -0.11345287794075418 0.3131843183387717 -2.215225289062063 -2.2220684514984415 -0.008172697775728497 0.007372168008589428 -0.01937480143604292 0.0 0.0 0.0 0.06498000000000002

3779.8399999999997 0.002888000000000001 -1.5707963267948966 1.5707963267948966 -1.5707963267948966 -1.5707963267948966 0.0 0.07600000000000001 0.0 0.0 0.0 0.0 0.0 1.3774999999999984 0.0 0.0 0.0 0.0 0.0 0.3684656714495899 -0.6327031426049524 -0.8457967478280507 -0.2514301837821068 0.0029345892733765745 0.0 1.1834899271600108 -7.287790641339947 -7.141224517921906 -1.0377753678810298 0.012182601621149688 0.0 0.002712179906666279 -1.5707600752459925 1.5708012580871582 -1.5707600752459925 -1.5707786718951624 3.5952674807049334e-05 0.0672842338681221 0.0 -0.0 0.0 0.0 0.0 0.3521576225757599 -0.6258087754249573 -0.8006466031074524 -0.24505965411663055 -0.04923573136329651 0.11637535691261292 0.3162689507007599 -0.6280518174171448 -0.7991215586662292 -0.23498870432376862 -0.04923573136329651 0.11413737386465073 -0.2981257306971945 -0.11356547226838384 0.3131689183607602 -2.2148974759681335 -2.2224882773823427 -0.008238115255634369 0.007641165795449574 -0.020059161386334828 0.0 0.0 0.0 0.0672842338681221 -1.3834256408207453 0.5738059951368804 1.873527683732918 -0.2908013616189255 -0.24867135116505462 0.538011865595998 -0.29810331276395174 -0.11361647028690738 0.3131843183387717 -2.2146145534184294 -2.222675127832597 -0.008170998840791812 0.00863485174180589 -0.022655851770060336 0.0 0.0 0.0 0.07600000000000001

3779.848 0.0035280000000000016 -1.5707963267948966 1.5707963267948966 -1.5707963267948966 -1.5707963267948966 0.0 0.08400000000000002 0.0 0.0 0.0 0.0 0.0 1.0000000000000009 0.0 0.0 0.0 0.0 0.0 0.343313050877364 -0.629368365839639 -0.8459444191640169 -0.2517322602807997 0.0021280749090940563 0.0 0.8591578418584488 -7.24937901783963 -7.14247133539632 -1.039022185366678 0.008834452259694606 0.0 0.0033716869074851274 -1.5707600752459925 1.5708370208740234 -1.5707243124591272 -1.5707305113421839 8.388957940042019e-05 0.07995875179767609 0.0 -0.0 0.0 0.0 0.0 0.3745880424976349 -0.6347809433937073 -0.8052217364311218 -0.24729764461517334 -0.05259270966053009 0.11749435216188431 0.3902893364429474 -0.6280518174171448 -0.8036966919898987 -0.2394646853208542 -0.04923573136329651 0.11413737386465073 -0.29804484792359587 -0.11376594397906428 0.31315515671895205 -2.214276214236747 -2.2232238921155747 -0.008262422940110556 0.009096582877649907 -0.023831294019698926 0.0 0.0 0.0 0.07995875179767609 -1.8752928595700293 2.455554573937368 1.7229558881723452 -0.45751682571767743 -0.28450963018546954 0.5427936086782653 -0.29803053717637573 -0.11380723312540468 0.3131843183387717 -2.2139020117873685 -2.2233825134429006 -0.00816901651271988 0.009559807582535777 -0.02503456512281557 0.0 0.0 0.0 0.08400000000000002

3779.8559999999998 0.004232000000000002 -1.5707963267948966 1.5707963267948966 -1.5707963267948966 -1.5707963267948966 0.0 0.09200000000000003 0.0 0.0 0.0 0.0 0.0 1.0000000000000009 0.0 0.0 0.0 0.0 0.0 0.34642494062161666 -0.6293889559364462 -0.8459429419951867 -0.2517292385841329 0.0021269445215388507 0.0 0.8591578418584488 -7.2496161848532115 -7.142458863375952 -1.0390097133463227 0.008829759588939105 0.0 0.003995989914983511 -1.5707123915301722 1.5708613395690918 -1.5707362333880823 -1.5707786718951624 7.190534961409867e-05 0.08810802549123764 0.0 -0.0 0.0 0.0 0.0 0.3723450005054474 -0.6258087754249573 -0.8082718253135681 -0.23498870432376862 -0.048116736114025116 0.11413737386465073 0.3813171684741974 -0.6280518174171448 -0.8036966919898987 -0.2372266948223114 -0.04923573136329651 0.11413737386465073 -0.2979804421236043 -0.11394801517595211 0.31313470707847896 -2.2135731637525558 -2.223932855621308 -0.008380682908368681 0.010039734625799032 -0.026254468390516785 0.0 0.0 0.0 0.08810802549123764 -1.282413866788162 2.401157400497139 1.3208781748993992 -0.43233608310079036 -0.14436757803043349 0.5281122804996321 -0.2979503430365253 -0.11401701840390548 0.3131843183387717 -2.2131179553531277 -2.2241603741121914 -0.00816683498918454 0.010489565693159503 -0.02741143155936034 0.0 0.0 0.0 0.09200000000000003

3779.864 0.005000000000000004 -1.5707963267948966 1.5707963267948966 -1.5707963267948966 -1.5707963267948966 0.0 0.10000000000000003 0.0 0.0 0.0 0.0 0.0 1.0000000000000009 0.0 0.0 0.0 0.0 0.0 0.3495395680502148 -0.6294114178602356 -0.8459413305382809 -0.2517259421877691 0.002125711371478624 0.0 0.8591578418584488 -7.249874912504389 -7.142445257535547 -1.0389961075059355 0.00882464031175128 0.0 0.00475212000310421 -1.5707123915301722 1.5707893371582031 -1.5707724730121058 -1.5707305113421839 4.793690095539205e-05 0.09470414370298386 0.0 -0.0 0.0 0.0 0.0 0.3409424126148224 -0.6235657334327698 -0.7975965142250061 -0.24394066631793976 -0.0503547228872776 0.11525636911392212 0.3544006645679474 -0.6280518174171448 -0.8021716475486755 -0.2372266948223114 -0.04923573136329651 0.11749435216188431 -0.29790311801547115 -0.11417741122072016 0.31315927146415556 -2.2126745909230636 -2.2247653342261025 -0.008204654281941526 0.010813073959882409 -0.028212659698104145 0.0 0.0 0.0 0.09470414370298386 -1.5660569630576209 0.8165826705454932 1.9848443478020124 -0.3120218049204253 -0.2670063809987261 0.5326907071030004 -0.2978626901058719 -0.11424581061988703 0.3131843183387717 -2.2122623097580223 -2.225008634445261 -0.008164453995675721 0.011424581061987711 -0.029786269010587202 0.0 0.0 0.0 0.10000000000000003

3779.872 0.005832000000000005 -1.5707963267948966 1.5707963267948966 -1.5707963267948966 -1.5707963267948966 0.0 0.10800000000000004 0.0 0.0 0.0 0.0 0.0 1.0000000000000009 0.0 0.0 0.0 0.0 0.0 0.3526569331631583 -0.6294357516110076 -0.8459395847932999 -0.2517223710917084 0.0021243754589133795 0.0 0.8591578418584488 -7.250155200793166 -7.142430517875112 -1.0389813678455162 0.008819094428131138 0.0 0.0055442024022340775 -1.5707123915301722 1.5708012580871582 -1.5707481543170374 -1.5707786718951624 7.190534961409867e-05 0.10730195790529251 0.0 -0.0 0.0 0.0 0.0 0.4216919243335724 -0.6213226914405823 -0.8036966919898987 -0.23051273822784424 -0.0503547228872776 0.11413737386465073 0.3970184624195099 -0.6280518174171448 -0.8036966919898987 -0.23498870432376862 -0.04923573136329651 0.11301837861537933 -0.297809621976978 -0.11440932572975306 0.3131536657689965 -2.21181234896258 -2.225607036967474 -0.008295792189104681 0.012276344653427765 -0.03195555552116478 0.0 0.0 0.0 0.10730195790529251 -1.2393801021996356 4.279778837528384 1.4316693997153693 -0.5975045118540653 -0.12899043073884972 0.5280806839285381 -0.297767534508557 -0.1144935928076194 0.3131843183387717 -2.2113349939351177 -2.225927212143228 -0.008161873232563071 0.012365308023222686 -0.032158893726924175 0.0 0.0 0.0 0.10800000000000004

3779.8799999999997 0.006728000000000006 -1.5707963267948966 1.5707963267948966 -1.5707963267948966 -1.5707963267948966 0.0 0.11600000000000005 0.0 0.0 0.0 0.0 0.0 1.0000000000000009 0.0 0.0 0.0 0.0 0.0 0.3557770359604473 -0.6294619571887617 -0.8459377047602429 -0.2517185252959507 0.002122936783843117 0.0 0.8591578418584488 -7.250457049719539 -7.142414644394639 -1.0389654943650641 0.00881312193807868 0.0 0.006479720585048199 -1.5707724730121058 1.5708613395690918 -1.5707243124591272 -1.5707786718951624 4.793690095539205e-05 0.11272841691970825 0.0 -0.0 0.0 0.0 0.0 0.3386993706226349 -0.6302948594093323 -0.7991215586662292 -0.24282166361808777 -0.04699774086475372 0.11637535691261292 0.3409424126148224 -0.6280518174171448 -0.8021716475486755 -0.23498870432376862 -0.04923573136329651 0.11525636911392212 -0.2976858386534456 -0.11468771089286231 0.31315162547046105 -2.2107546766200663 -2.226677765772626 -0.008319712758289908 0.012928564089097127 -0.03355765333081862 0.0 0.0 0.0 0.11272841691970825 -1.8573079235237617 0.3530086431884961 1.8912640958547953 -0.2580419922240567 -0.27845369765779854 0.5378348937727272 -0.2976648287368652 -0.11476034652419372 0.3131843183387717 -2.2103359201212855 -2.2269160179908614 -0.008159092375679846 0.013312200196807185 -0.03452912013347635 0.0 0.0 0.0 0.11600000000000005

3779.888 0.0076880000000000065 -1.5707963267948966 1.5707963267948966 -1.5707963267948966 -1.5707963267948966 0.0 0.12400000000000005 0.0 0.0 0.0 0.0 0.0 1.0000000000000009 0.0 0.0 0.0 0.0 0.0 0.35889987644208177 -0.6294900345934987 -0.8459356904391111 -0.251714404800496 0.0021213953462678346 0.0 0.8591578418584488 -7.250780459283513 -7.142397637094136 -1.0389484870645802 0.008806722841593902 0.0 0.007463925052434206 -1.5707009474383753 1.570777416229248 -1.5707481543170374 -1.5707305113421839 4.793690095539205e-05 0.12128035724163055 0.0 -0.0 0.0 0.0 0.0 0.2803802788257599 -0.6325379014015198 -0.7945464849472046 -0.24170267581939697 -0.051473718136548996 0.1186133474111557 0.2781372368335724 -0.6280518174171448 -0.8021716475486755 -0.23498870432376862 -0.04923573136329651 0.11637535691261292 -0.2975932239084195 -0.11498484425498544 0.3131573391758429 -2.209662842661519 -2.2277702476229173 -0.008223106085376325 0.01394540298861815 -0.03609221250830167 0.0 0.0 0.0 0.12128035724163055 -2.124039267832478 -2.373439215604293 2.063167845822711 -0.054192131438543276 -0.3119392548752114 0.5482268841125094 -0.2975545216571816 -0.11504605183432882 0.3131843183387717 -2.2092649938715767 -2.227974955842446 -0.008156111075726688 0.014265710427457844 -0.03689676068549053 0.0 0.0 0.0 0.12400000000000005

3779.8959999999997 0.008712000000000008 -1.5707963267948966 1.5707963267948966 -1.5707963267948966 -1.5707963267948966 0.0 0.13200000000000006 0.0 0.0 0.0 0.0 0.0 1.0000000000000009 0.0 0.0 0.0 0.0 0.0 0.3620254546080616 -0.6295199838252179 -0.8459335418299033 -0.25171000960534434 0.002119751146187534 0.0 0.8591578418584488 -7.251125429485083 -7.142379495973597 -1.0389303459440637 0.008799897138676805 0.0 0.008495692163705826 -1.5707123915301722 1.5707893371582031 -1.5707243124591272 -1.5707786718951624 8.388957940042019e-05 0.12881603837013245 0.0 -0.0 0.0 0.0 0.0 0.3005676567554474 -0.6145935654640198 -0.8036966919898987 -0.24394066631793976 -0.05259270966053009 0.12085133790969849 0.3162689507007599 -0.6280518174171448 -0.8021716475486755 -0.23498870432376862 -0.04923573136329651 0.11637535691261292 -0.2974696692279343 -0.11528779692337628 0.3131551907163781 -2.2085393251383443 -2.2288557457052045 -0.008300175145829414 0.014850917272089795 -0.038318864325216175 0.0 0.0 0.0 0.12881603837013245 -0.8293551954788999 -1.0995812386520858 1.7108839282508637 -0.16415375178880873 -0.1852546245667719 0.5593017708449836 -0.29743655851643996 -0.11535068729399651 0.3131843183387717 -2.208122114074767 -2.2291039226069 -0.008152928958922327 0.015226290722808615 -0.0392616257241701 0.0 0.0 0.0 0.13200000000000006

3779.904 0.00980000000000001 -1.5707963267948966 1.5707963267948966 -1.5707963267948966 -1.5707963267948966 0.0 0.14000000000000007 0.0 0.0 0.0 0.0 0.0 1.0000000000000009 0.0 0.0 0.0 0.0 0.0 0.365153770458387 -0.6295518048839197 -0.8459312589326202 -0.2517053397104957 0.0021180041836022143 0.0 0.8591578418584488 -7.251491960324254 -7.142360221033027 -1.0389110710035152 0.00879264482932739 0.0 0.009527833200991154 -1.5707481543170374 1.570777416229248 -1.5707600752459925 -1.5707667509662073 9.58738019107841e-05 0.13686944544315338 0.0 -0.0 0.0 0.0 0.0 0.2848663628101349 -0.6347809433937073 -0.8143720030784607 -0.22939373552799225 -0.048116736114025116 0.1197323426604271 0.3050537407398224 -0.6280518174171448 -0.8036966919898987 -0.23498870432376862 -0.04923573136329651 0.11525636911392212 -0.29734867312933294 -0.11559578219512653 0.31317247197497017 -2.2073650140704357 -2.2299445963545717 -0.008190677246811311 0.015821530604613294 -0.04069794799446928 0.0 0.0 0.0 0.13686944544315338 -1.4678769812296957 -2.179216389741459 0.9176300480711045 -0.055116344701417117 -0.10345227379197283 0.5547537375205915 -0.29731088094907115 -0.11567422993297573 0.3131843183387717 -2.2069071729696317 -2.2303028082317473 -0.008149545627177065 0.016194392190616483 -0.04162352333286998 0.0 0.0 0.0 0.14000000000000007

3779.912 0.010952000000000012 -1.5707963267948966 1.5707963267948966 -1.5707963267948966 -1.5707963267948966 0.0 0.14800000000000008 0.0 0.0 0.0 0.0 0.0 1.0000000000000009 0.0 0.0 0.0 0.0 0.0 0.36828482399305773 -0.6295854977696037 -0.8459288417472615 -0.25170039511595 0.002116154458511876 0.0 0.8591578418584488 -7.251880051801019 -7.14233981227242 -1.0388906622429341 0.008784965913545656 0.0 0.01066783256828785 -1.5707243124591272 1.5708131790161133 -1.5707243124591272 -1.5707305113421839 0.00011984225420746952 0.14421337842941284 0.0 -0.0 0.0 0.0 0.0 0.3252411186695099 -0.6190796494483948 -0.7945464849472046 -0.2383456975221634 -0.04587874934077263 0.11413737386465073 0.3274841606616974 -0.6280518174171448 -0.8021716475486755 -0.23498870432376862 -0.04923573136329651 0.11301837861537933 -0.29721460725911114 -0.11593757191043122 0.3131516001625512 -2.206183401747386 -2.23123963080663 -0.008253814388782206 0.01671974893210587 -0.0428623226314075 0.0 0.0 0.0 0.14421337842941284 -1.42244009574478 -0.6423106513199544 1.995286201259877 -0.1704877540849542 -0.23225089054313122 0.527854773915681 -0.2971774269844546 -0.11601665523621386 0.3131843183387717 -2.2056200561629464 -2.231571495685979 -0.008145960656958854 0.017170464974959464 -0.0439822591936993 0.0 0.0 0.0 0.14800000000000008

3779.9199999999996 0.012168000000000012 -1.5707963267948966 1.5707963267948966 -1.5707963267948966 -1.5707963267948966 0.0 0.15600000000000008 0.0 0.0 0.0 0.0 0.0 1.0000000000000009 0.0 0.0 0.0 0.0 0.0 0.371418615212074 -0.6296210624822702 -0.8459262902738273 -0.25169517582170725 0.002114201970916519 0.0 0.8591578418584488 -7.252289703915384 -7.14231826969178 -1.0388691196623205 0.008776860391331605 0.0 0.011855394579470158 -1.5707362333880823 1.5708250999450684 -1.5707481543170374 -1.570742432271139 9.58738019107841e-05 0.15334056317806244 0.0 -0.0 0.0 0.0 0.0 0.3095398247241974 -0.6235657334327698 -0.8021716475486755 -0.22939373552799225 -0.04923573136329651 0.11189938336610794 0.3072967827320099 -0.6280518174171448 -0.8036966919898987 -0.23498870432376862 -0.04923573136329651 0.11525636911392212 -0.2970757831556883 -0.11628946532646013 0.3131536413119779 -2.204811496047712 -2.232555607147838 -0.008236779880942749 0.017831892104834095 -0.04555376789565721 0.0 0.0 0.0 0.15334056317806244 -1.3493949964870797 -1.4642729661343052 1.4605756718792742 -0.11902068823838095 -0.140063343848641 0.5181166140342128 -0.29703613105488896 -0.11637793712402007 0.3131843183387717 -2.2042606426480162 -2.2329098609418923 -0.00814217360085374 0.018154958191347194 -0.046337636444562715 0.0 0.0 0.0 0.15600000000000008

3779.928 0.013448000000000015 -1.5707963267948966 1.5707963267948966 -1.5707963267948966 -1.5707963267948966 0.0 0.1640000000000001 0.0 0.0 0.0 0.0 0.0 1.0000000000000009 0.0 0.0 0.0 0.0 0.0 0.37455514411543567 -0.6296584990219195 -0.845923604512318 -0.2516896818277677 0.0021121467208161434 0.0 0.8591578418584488 -7.252720916667348 -7.1422955932911085 -1.0388464432616753 0.008768328262685235 0.0 0.013139205053448677 -1.5707362333880823 1.5708250999450684 -1.5707600752459925 -1.5707786718951624 3.5952674807049334e-05 0.16152818500995636 0.0 -0.0 0.0 0.0 0.0 0.2601929008960724 -0.6101074814796448 -0.7899713516235352 -0.24394066631793976 -0.051473718136548996 0.11189938336610794 0.2534637749195099 -0.6280518174171448 -0.8021716475486755 -0.23498870432376862 -0.04923573136329651 0.11413737386465073 -0.29692726810576914 -0.11666779532716962 0.31315468115496387 -2.203284706947987 -2.234009811782091 -0.008259598679825172 0.018845137228311035 -0.04796212269708958 0.0 0.0 0.0 0.16152818500995636 -1.0712449167849853 -3.633805171786717 2.312872006060226 0.050717953537385646 -0.2588966057974097 0.5175063101788476 -0.2968869240040818 -0.11675804793116788 0.3131843183387717 -2.20282880482472 -2.234317772956009 -0.008138183986627832 0.019148319860708786 -0.048689455536669465 0.0 0.0 0.0 0.1640000000000001

3779.9359999999997 0.014792000000000017 -1.5707963267948966 1.5707963267948966 -1.5707963267948966 -1.5707963267948966 0.0 0.1720000000000001 0.0 0.0 0.0 0.0 0.0 1.0000000000000009 0.0 0.0 0.0 0.0 0.0 0.3776944107031428 -0.6296978073885511 -0.8459207844627328 -0.2516839131341311 0.0021099887082107484 0.0 0.8591578418584488 -7.253173690056911 -7.142271783070402 -1.0388226330409973 0.008759369527606546 0.0 0.014483685605227947 -1.5707481543170374 1.5707893371582031 -1.5707600752459925 -1.5707185904132288 0.000107858024421148 0.17063619196414948 0.0 -0.0 0.0 0.0 0.0 0.3207550346851349 -0.6415100693702698 -0.8021716475486755 -0.23386971652507782 -0.044759754091501236 0.11189938336610794 0.3274841606616974 -0.6280518174171448 -0.8021716475486755 -0.23498870432376862 -0.04923573136329651 0.11413737386465073 -0.29677110233133397 -0.11707191067443679 0.3131688823973596 -2.2018669369067982 -2.2354155345626943 -0.008135881466994451 0.019976705023451696 -0.050639890786821753 0.0 0.0 0.0 0.17063619196414948 -2.288582467832484 -1.6278289799307193 1.555871875922521 -0.08420683701902622 -0.24670781495568161 0.5174767587623185 -0.2967297330961759 -0.11715695838477982 0.3131843183387717 -2.20132440852046 -2.235795093648816 -0.008133991317750892 0.020150996842183463 -0.05103751409254229 0.0 0.0 0.0 0.1720000000000001

3779.944 0.01620000000000002 -1.5707963267948966 1.5707963267948966 -1.5707963267948966 -1.5707963267948966 0.0 0.1800000000000001 0.0 0.0 0.0 0.0 0.0 1.0000000000000009 0.0 0.0 0.0 0.0 0.0 0.3808364149751953 -0.6297389875821651 -0.8459178301250724 -0.25167786974079753 0.002107727933100334 0.0 0.8591578418584488 -7.253648024084071 -7.142246839029663 -1.0387976890002872 0.008749984186095535 0.0 0.015863368287682533 -1.5707243124591272 1.5708131790161133 -1.5707009474383753 -1.5707905928241175 9.58738019107841e-05 0.17525731027126312 0.0 -0.0 0.0 0.0 0.0 0.3185119926929474 -0.6302948594093323 -0.8113219141960144 -0.2383456975221634 -0.0503547228872776 0.10966140031814575 0.3252411186695099 -0.6280518174171448 -0.8021716475486755 -0.23498870432376862 -0.04923573136329651 0.11413737386465073 -0.29660639817454953 -0.11747519504597022 0.31314964319236366 -2.2003247926146092 -2.236960800942985 -0.008330521782360671 0.02058838670735258 -0.05198243955331882 0.0 0.0 0.0 0.17525731027126312 -1.3372956514505034 -1.5220723621308885 1.2484249022376122 -0.11882992915277223 -0.16347564805187095 0.5075728534363365 -0.2965644820253154 -0.1175746375812362 0.3131843183387717 -2.1997473130125726 -2.2373416778834083 -0.008129595073227016 0.021163434764618714 -0.05338160676455679 0.0 0.0 0.0 0.1800000000000001

3779.9519999999998 0.01767200000000002 -1.5707963267948966 1.5707963267948966 -1.5707963267948966 -1.5707963267948966 0.0 0.1880000000000001 0.0 0.0 0.0 0.0 0.0 1.0000000000000009 0.0 0.0 0.0 0.0 0.0 0.3839811569315934 -0.6297820396027615 -0.8459147414993364 -0.251671551647767 0.0021053643954849024 0.0 0.8591578418584488 -7.254143918748828 -7.142220761168889 -1.038771611139545 0.008740172238152212 0.0 0.017339302226901054 -1.5707362333880823 1.570777416229248 -1.5707009474383753 -1.570742432271139 8.388957940042019e-05 0.18306143581867218 0.0 -0.0 0.0 0.0 0.0 0.3364563286304474 -0.6280518174171448 -0.8128469586372375 -0.24394066631793976 -0.054830700159072876 0.11413737386465073 0.3342132866382599 -0.6280518174171448 -0.8021716475486755 -0.23498870432376862 -0.04923573136329651 0.11413737386465073 -0.29643365334588 -0.11791686747923737 0.31316385152284676 -2.1986581101065084 -2.2385952573297443 -0.008219791436065516 0.02158603106798969 -0.05426557020647136 0.0 0.0 0.0 0.18306143581867218 -1.1701206565367859 -0.7466023114463739 1.3047490250296971 -0.2028925811485432 -0.1808865927706358 0.5281622846570752 -0.29639109092576743 -0.11801105296171915 0.3131843183387717 -2.1980973710514355 -2.238957373443429 -0.00812499470774076 0.022186077956802802 -0.0557215250940443 0.0 0.0 0.0 0.1880000000000001

3779.96 0.019208000000000024 -1.5707963267948966 1.5707963267948966 -1.5707963267948966 -1.5707963267948966 0.0 0.19600000000000012 0.0 0.0 0.0 0.0 0.0 1.0000000000000009 0.0 0.0 0.0 0.0 0.0 0.38712863657233687 -0.6298269634503403 -0.8459115185855247 -0.2516649588550395 0.0021028980953644513 0.0 0.8591578418584488 -7.254661374051183 -7.142193549488081 -1.0387443994587704 0.008729933683776567 0.0 0.018863171339035034 -1.5707481543170374 1.5708131790161133 -1.5707481543170374 -1.5707786718951624 5.992112710373476e-05 0.19299396872520447 0.0 -0.0 0.0 0.0 0.0 0.3813171684741974 -0.6347809433937073 -0.7975965142250061 -0.2383456975221634 -0.04699774086475372 0.1197323426604271 0.4059906303882599 -0.6280518174171448 -0.8021716475486755 -0.23498870432376862 -0.04923573136329651 0.11637535691261292 -0.2962526870666809 -0.11836545008019324 0.3131607822856346 -2.1968925276382145 -2.2402633225480875 -0.008228741993769603 0.022843817970921308 -0.05717498182250478 0.0 0.0 0.0 0.19299396872520447 -2.14713966887114 0.7576733175216657 1.862721544296513 -0.2901126311583673 -0.28211827232665376 0.5533862416319695 -0.2962094763826055 -0.11846617028688981 0.3131843183387717 -2.196374428885155 -2.2406420210096103 -0.008120189651813428 0.023219369376230235 -0.058057057370990706 0.0 0.0 0.0 0.19600000000000012

3779.968 0.020808000000000024 -1.5707963267948966 1.5707963267948966 -1.5707963267948966 -1.5707963267948966 0.0 0.20400000000000013 0.0 0.0 0.0 0.0 0.0 1.0000000000000009 0.0 0.0 0.0 0.0 0.0 0.3902788538974257 -0.6298737591249016 -0.8459081613836379 -0.2516580913626149 0.0021003290327389823 0.0 0.8591578418584488 -7.255200389991139 -7.142165203987241 -1.0387160539579634 0.008719268522968606 0.0 0.02044733613729477 -1.5707362333880823 1.5707893371582031 -1.5707009474383753 -1.570742432271139 3.5952674807049334e-05 0.1993599832057953 0.0 -0.0 0.0 0.0 0.0 0.4082336723804474 -0.6213226914405823 -0.7991215586662292 -0.22603675723075867 -0.04923573136329651 0.1197323426604271 0.3701019585132599 -0.6280518174171448 -0.8021716475486755 -0.23498870432376862 -0.04923573136329651 0.11749435216188431 -0.2960647469578787 -0.11883758847394373 0.3131602917129988 -2.1951231301498155 -2.2420621397340943 -0.00822392331671721 0.02369145964238603 -0.059023462981350784 0.0 0.0 0.0 0.1993599832057953 -1.4051460437269743 2.088256497240798 1.5324341032051587 -0.41155859095608893 -0.13573982348040742 0.5542181176344032 -0.2960195514429705 -0.1189399536102229 0.3131843183387717 -2.1945783262850287 -2.242395454135513 -0.008115179311747604 0.02426375053648548 -0.06038798849436602 0.0 0.0 0.0 0.20400000000000013

3779.9759999999997 0.022472000000000027 -1.5707963267948966 1.5707963267948966 -1.5707963267948966 -1.5707963267948966 0.0 0.21200000000000013 0.0 0.0 0.0 0.0 0.0 1.0000000000000009 0.0 0.0 0.0 0.0 0.0 0.39343180890686014 -0.6299224266264455 -0.8459046698936754 -0.2516509491704934 0.002097657207608493 0.0 0.8591578418584488 -7.255760966568691 -7.142135724666366 -1.0386865746371243 0.008708176755728323 0.0 0.022091420367360115 -1.5707600752459925 1.5708370208740234 -1.5707724730121058 -1.5707305113421839 9.58738019107841e-05 0.21159347891807556 0.0 -0.0 0.0 0.0 0.0 0.3499145805835724 -0.6280518174171448 -0.7914963960647583 -0.23163172602653503 -0.0503547228872776 0.11749435216188431 0.3768310844898224 -0.6280518174171448 -0.8021716475486755 -0.23498870432376862 -0.048116736114025116 0.11637535691261292 -0.2958670502342066 -0.11932512663242488 0.31315926721198567 -2.1933260461268396 -2.2437795731447676 -0.008152082186077741 0.025248418666493966 -0.06260353845628479 0.0 0.0 0.0 0.21159347891807556 -1.9844979104322087 -0.8564821953649037 1.9839475116905712 -0.1729443290621087 -0.25000053102205455 0.5433330692002624 -0.29582122562791635 -0.11943236525037364 0.3131843183387717 -2.192708896572485 -2.2442174992222363 -0.008109963069407512 0.0253196614330769 -0.06271409983311835 0.0 0.0 0.0 0.21200000000000013

3779.984 0.02420000000000003 -1.5707963267948966 1.5707963267948966 -1.5707963267948966 -1.5707963267948966 0.0 0.22000000000000014 0.0 0.0 0.0 0.0 0.0 1.0000000000000009 0.0 0.0 0.0 0.0 0.0 0.39658750160063994 -0.6299729659549717 -0.8459010441156376 -0.251643532278675 0.002094882619972985 0.0 0.8591578418584488 -7.256343103783842 -7.142105111525458 -1.038655961496253 0.008696658382055722 0.0 0.023866958916187286 -1.5707839171039026 1.570777416229248 -1.5707123915301722 -1.5707305113421839 7.190534961409867e-05 0.21774858236312866 0.0 -0.0 0.0 0.0 0.0 0.3566437065601349 -0.6504822373390198 -0.7991215586662292 -0.23386971652507782 -0.05259270966053009 0.11637535691261292 0.3409424126148224 -0.6280518174171448 -0.8021716475486755 -0.23498870432376862 -0.04923573136329651 0.11637535691261292 -0.2956508535229046 -0.11985020471499747 0.31317905579548927 -2.191292006407607 -2.245736962486117 -0.008120546609897344 0.026097212172620066 -0.06437755422906148 0.0 0.0 0.0 0.21774858236312866 -2.866171504176801 -1.0813209538182165 1.6923768766247063 -0.16483552487590764 -0.30891701463547644 0.5377757721870343 -0.29561440494485847 -0.11994336576234459 0.3131843183387717 -2.190765966646999 -2.2461079754920137 -0.008104540283229527 0.026387540467715197 -0.06503516908786891 0.0 0.0 0.0 0.22000000000000014

3779.9919999999997 0.025992000000000032 -1.5707963267948966 1.5707963267948966 -1.5707963267948966 -1.5707963267948966 0.0 0.22800000000000015 0.0 0.0 0.0 0.0 0.0 1.0000000000000009 0.0 0.0 0.0 0.0 0.0 0.3997459319787652 -0.6300253771104805 -0.8458972840495242 -0.2516358406871595 0.0020920052698324585 0.0 0.8591578418584488 -7.256946801636592 -7.142073364564517 -1.038624214535349 0.008684713401950803 0.0 0.025582950562238693 -1.5707009474383753 1.5708370208740234 -1.5707243124591272 -1.5707185904132288 9.58738019107841e-05 0.22582115232944489 0.0 -0.0 0.0 0.0 0.0 0.3207550346851349 -0.6235657334327698 -0.8021716475486755 -0.2361077070236206 -0.048116736114025116 0.11078038811683655 0.3207550346851349 -0.6280518174171448 -0.7991215586662292 -0.2361077070236206 -0.04923573136329651 0.11301837861537933 -0.29545415900389327 -0.12035849428380936 0.31313749809562397 -2.189457323243951 -2.247658204460852 -0.00824919559204815 0.02717949387180635 -0.06671979864678616 0.0 0.0 0.0 0.22582115232944489 -1.2854578610742282 -2.2283249816833606 1.6043098465054135 -0.049330815812011486 -0.18191821022431356 0.5127261037091554 -0.29539899190062824 -0.12047291390762097 0.3131843183387717 -2.188749357015188 -2.248066694961075 -0.008098910287230863 0.02746782437093823 -0.06735097015334329 0.0 0.0 0.0 0.22800000000000015

3780.0 0.027848000000000036 -1.5707963267948966 1.5707963267948966 -1.5707963267948966 -1.5707963267948966 0.0 0.23600000000000015 0.0 0.0 0.0 0.0 0.0 1.0000000000000009 0.0 0.0 0.0 0.0 0.0 0.4029071000412359 -0.6300796600929717 -0.8458933896953355 -0.2516278743959471 0.0020890251571869137 0.0 0.8591578418584488 -7.25757206012694 -7.142040483783542 -1.0385913337544133 0.008672341815413565 0.0 0.027430767193436623 -1.5707123915301722 1.5708250999450684 -1.5707481543170374 -1.570742432271139 0.000107858024421148 0.23439227044582367 0.0 -0.0 0.0 0.0 0.0 0.3072967827320099 -0.6190796494483948 -0.8021716475486755 -0.2383456975221634 -0.04587874934077263 0.11749435216188431 0.3072967827320099 -0.6280518174171448 -0.8036966919898987 -0.2383456975221634 -0.04923573136329651 0.11525636911392212 -0.295232413985426 -0.12090233570289437 0.3131465237620815 -2.1873549861556865 -2.249627768745367 -0.008216459597218919 0.02833857296760253 -0.06920019582324537 0.0 0.0 0.0 0.23439227044582367 -1.0248355667736762 -2.7441590736868386 1.6523893811928254 0.004128450753695438 -0.17555561679397713 0.5439610900560801 -0.29517488551516313 -0.12102096662318082 0.3131843183387717 -2.186658881821274 -2.250093462411034 -0.008093072391686587 0.02856094812306883 -0.06966127298157851 0.0 0.0 0.0 0.23600000000000015

3780.008 0.02976800000000004 -1.5707963267948966 1.5707963267948966 -1.5707963267948966 -1.5707963267948966 0.0 0.24400000000000016 0.0 0.0 0.0 0.0 0.0 1.0000000000000009 0.0 0.0 0.0 0.0 0.0 0.40607100578805205 -0.6301358149024454 -0.8458893610530712 -0.2516196334050376 0.0020859422820363495 0.0 0.8591578418584488 -7.258218879254886 -7.142006469182534 -1.038557319153445 0.00865954362244401 0.0 0.029386818408966064 -1.5707362333880823 1.5707893371582031 -1.5707362333880823 -1.5707548300372522 8.388957940042019e-05 0.2418895959854126 0.0 -0.0 0.0 0.0 0.0 0.2893524467945099 -0.6459961533546448 -0.8113219141960144 -0.23051273822784424 -0.048116736114025116 0.1186133474111557 0.2893524467945099 -0.6280518174171448 -0.8036966919898987 -0.2372266948223114 -0.04923573136329651 0.11413737386465073 -0.29499352075669055 -0.12147855983840873 0.3131633109951128 -2.1850940760822377 -2.2517583122928495 -0.008170377469362519 0.029384399760203718 -0.07135586355415019 0.0 0.0 0.0 0.2418895959854126 -2.044023539583402 -4.070917405851191 1.0716176810909797 0.10100036113143636 -0.17528536053175942 0.5492319324130109 -0.294941981335827 -0.12158747898940156 0.3131843183387717 -2.184494348878381 -2.2521880753598853 -0.008087025883330457 0.02966734487341312 -0.07196584344594187 0.0 0.0 0.0 0.24400000000000016

3780.0159999999996 0.031752000000000044 -1.5707963267948966 1.5707963267948966 -1.5707963267948966 -1.5707963267948966 0.0 0.25200000000000017 0.0 0.0 0.0 0.0 0.0 1.0000000000000009 0.0 0.0 0.0 0.0 0.0 0.4092376492192137 -0.6301938415389013 -0.8458851981227311 -0.25161111771443123 0.002082756644380767 0.0 0.8591578418584488 -7.258887259020428 -7.14197132076149 -1.0385221707324443 0.008646318823042135 0.0 0.031330883502960205 -1.5707839171039026 1.570777416229248 -1.5707123915301722 -1.5707786718951624 0.000107858024421148 0.24990464746952057 0.0 -0.0 0.0 0.0 0.0 0.2938385307788849 -0.6415100693702698 -0.7945464849472046 -0.24170267581939697 -0.04699774086475372 0.12085133790969849 0.2938385307788849 -0.6280518174171448 -0.8021716475486755 -0.2372266948223114 -0.04923573136329651 0.11413737386465073 -0.29474820072019353 -0.1220495971836104 0.3131790855410011 -2.1828986943152286 -2.25382102860768 -0.008150009687252126 0.030500761557967344 -0.07365894519325548 0.0 0.0 0.0 0.24990464746952057 -2.443318725257326 -4.154490842150519 2.0585324221629766 0.11688793084094042 -0.34457322603004104 0.5585212397176424 -0.2947001714523876 -0.12217240419683546 0.3131843183387717 -2.1822555597013276 -2.254350324031567 -0.008080770024868188 0.030787445857600723 -0.07426444320600169 0.0 0.0 0.0 0.25200000000000017

3780.024 0.033800000000000045 -1.5707963267948966 1.5707963267948966 -1.5707963267948966 -1.5707963267948966 0.0 0.2600000000000002 0.0 0.0 0.0 0.0 0.0 1.0000000000000009 0.0 0.0 0.0 0.0 0.0 0.4124070303347207 -0.6302537400023397 -0.8458809009043158 -0.2516023273241278 0.0020794682442201655 0.0 0.8591578418584488 -7.2595771994235685 -7.141935038520413 -1.0384858884914114 0.008632667417207942 0.0 0.033334869891405106 -1.5707362333880823 1.5708250999450684 -1.5707600752459925 -1.5707786718951624 0.000107858024421148 0.25813060998916626 0.0 -0.0 0.0 0.0 0.0 0.3117828667163849 -0.6145935654640198 -0.806746780872345 -0.24282166361808777 -0.04364075884222984 0.11525636911392212 0.3072967827320099 -0.6280518174171448 -0.7991215586662292 -0.2361077070236206 -0.04923573136329651 0.11413737386465073 -0.2945106935341898 -0.12264023974726923 0.31315468115496387 -2.180658389854049 -2.2560274370041546 -0.008197581028999158 0.031657199895179226 -0.07602222497031283 0.0 0.0 0.0 0.25813060998916626 -0.5810119568762632 -2.825870283233416 1.5467235700976654 0.022336874720128404 -0.15171948045129777 0.5337405216689948 -0.2944493445126632 -0.1227756935120464 0.3131843183387717 -2.179942309540558 -2.2565799913247395 -0.008074304055671272 0.03192168031313147 -0.07655682957329255 0.0 0.0 0.0 0.2600000000000002

3780.0319999999997 0.03591200000000005 -1.5707963267948966 1.5707963267948966 -1.5707963267948966 -1.5707963267948966 0.0 0.2680000000000002 0.0 0.0 0.0 0.0 0.0 1.0000000000000009 0.0 0.0 0.0 0.0 0.0 0.4155791491345732 -0.6303155102927607 -0.845876469397825 -0.2515932622341274 0.002076077081554546 0.0 0.8591578418584488 -7.260288700464309 -7.141897622459303 -1.0384484724303462 0.008618589404941434 0.0 0.03542274981737137 -1.5707362333880823 1.5708370208740234 -1.5707243124591272 -1.5707548300372522 4.793690095539205e-05 0.2647075653076172 0.0 -0.0 0.0 0.0 0.0 0.3611297905445099 -0.6280518174171448 -0.8021716475486755 -0.2383456975221634 -0.054830700159072876 0.1186133474111557 0.3544006645679474 -0.6280518174171448 -0.8036966919898987 -0.2383456975221634 -0.04923573136329651 0.11413737386465073 -0.2942499937867144 -0.12325665933252293 0.3131480543271208 -2.1782656690585034 -2.2584001291432676 -0.008219379981289271 0.03262697019986714 -0.0778901994470625 0.0 0.0 0.0 0.2647075653076172 -1.5260312853211908 -1.155403722416551 1.6558783062530298 -0.16758388896886622 -0.21975954622228847 0.5487174894423876 -0.2941893857388525 -0.1233972962422461 0.3131843183387717 -2.1775543874171452 -2.2588768527806056 -0.008067627191476077 0.03307047539292153 -0.07884275537801252 0.0 0.0 0.0 0.2680000000000002

3780.04 0.03808800000000005 -1.5707963267948966 1.5707963267948966 -1.5707963267948966 -1.5707963267948966 0.0 0.2760000000000002 0.0 0.0 0.0 0.0 0.0 1.0000000000000009 0.0 0.0 0.0 0.0 0.0 0.4187540056187712 -0.6303791524101642 -0.8458719036032589 -0.2515839224444302 0.002072583156383906 0.0 0.8591578418584488 -7.261021762142648 -7.1418590725781605 -1.0384099225492491 0.008604084786242602 0.0 0.03763046860694885 -1.5707481543170374 1.570777416229248 -1.570688549672262 -1.570742432271139 3.5952674807049334e-05 0.2740456759929657 0.0 -0.0 0.0 0.0 0.0 0.3723450005054474 -0.6347809433937073 -0.788446307182312 -0.23386971652507782 -0.048116736114025116 0.11749435216188431 0.3835602104663849 -0.6280518174171448 -0.8006466031074524 -0.23386971652507782 -0.04923573136329651 0.11413737386465073 -0.29397718193707006 -0.12390705012554841 0.3131663521234609 -2.175743067686745 -2.260800686890849 -0.008158774550022063 0.033956191311950885 -0.08056317555045144 0.0 0.0 0.0 0.2740456759929657 -2.4077915517125152 -1.1991906304926785 2.1665412907710166 -0.13194089565902184 -0.3146356857771436 0.5429537093771953 -0.29392017694456396 -0.12403715969892937 0.3131843183387717 -2.1750915761590495 -2.2612406765498227 -0.00806073862491284 0.03423425607690586 -0.08112196883669968 0.0 0.0 0.0 0.2760000000000002

3780.048 0.04032800000000006 -1.5707963267948966 1.5707963267948966 -1.5707963267948966 -1.5707963267948966 0.0 0.2840000000000002 0.0 0.0 0.0 0.0 0.0 1.0000000000000009 0.0 0.0 0.0 0.0 0.0 0.4219315997873146 -0.6304446663545501 -0.8458672035206173 -0.2515743079550358 0.002068986468708248 0.0 0.8591578418584488 -7.261776384458584 -7.141819388876984 -1.0383702388481193 0.008589153561111453 0.0 0.0399344339966774 -1.5707009474383753 1.5708012580871582 -1.570688549672262 -1.570742432271139 8.388957940042019e-05 0.2820223867893219 0.0 -0.0 0.0 0.0 0.0 0.3140259087085724 -0.6145935654640198 -0.7975965142250061 -0.23163172602653503 -0.05371170490980148 0.11749435216188431 0.3185119926929474 -0.6280518174171448 -0.8036966919898987 -0.23498870432376862 -0.04923573136329651 0.11525636911392212 -0.2936965606719603 -0.12458421425918474 0.31314513990810766 -2.173221104461099 -2.2632845709847507 -0.008232065029213292 0.035135537461646466 -0.08282900503252115 0.0 0.0 0.0 0.2820223867893219 -0.8887456836447671 -3.2515713804142887 1.7088540455685817 0.009633404968372691 -0.14292097842457477 0.5441740738522566 -0.293641596552558 -0.12469522916039485 0.3131843183387717 -2.172553652438803 -2.263671223358151 -0.008053637524828447 0.035413445081556263 -0.08339421342092651 0.0 0.0 0.0 0.2840000000000002

3780.056 0.04263200000000006 -1.5707963267948966 1.5707963267948966 -1.5707963267948966 -1.5707963267948966 0.0 0.2920000000000002 0.0 0.0 0.0 0.0 0.0 1.0000000000000009 0.0 0.0 0.0 0.0 0.0 0.42511193164020344 -0.6305120521259184 -0.8458623691498998 -0.25156441876594454 0.0020652870185275713 0.0 0.8591578418584488 -7.262552567412118 -7.141778571355772 -1.0383294213269576 0.008573795729547985 0.0 0.04215451329946518 -1.5707123915301722 1.5707893371582031 -1.5707362333880823 -1.5707786718951624 4.793690095539205e-05 0.2899223864078522 0.0 -0.0 0.0 0.0 0.0 0.3140259087085724 -0.6258087754249573 -0.8082718253135681 -0.24282166361808777 -0.04587874934077263 0.1197323426604271 0.3185119926929474 -0.6280518174171448 -0.8021716475486755 -0.2372266948223114 -0.04923573136329651 0.11749435216188431 -0.2934224433160969 -0.12523313502265065 0.3131562081473049 -2.170610600422127 -2.265676281050593 -0.008184045625741447 0.03630788936310377 -0.08506973499182563 0.0 0.0 0.0 0.2899223864078522 -1.0495361306960818 -3.4301409160467804 1.4771302360777971 0.06249383548221893 -0.18732254799879577 0.5543035179741438 -0.293353519613225 -0.12537144783336868 0.3131843183387717 -2.169940386812053 -2.2661682464717186 -0.008046323037299645 0.03660846276734616 -0.08565922772706171 0.0 0.0 0.0 0.2920000000000002

3780.064 0.04500000000000006 -1.5707963267948966 1.5707963267948966 -1.5707963267948966 -1.5707963267948966 0.0 0.3000000000000002 0.0 0.0 0.0 0.0 0.0 1.0000000000000009 0.0 0.0 0.0 0.0 0.0 0.4282950011774377 -0.6305813097242693 -0.8458574004911072 -0.25155425487715627 0.0020614848058418756 0.0 0.8591578418584488 -7.263350311003251 -7.1417366200145285 -1.0382874699857634 0.008558011291552198 0.0 0.04453038424253464 -1.5707243124591272 1.570765495300293 -1.5707362333880823 -1.5707548300372522 7.190534961409867e-05 0.2985701858997345 0.0 -0.0 0.0 0.0 0.0 0.2512207329273224 -0.6235657334327698 -0.8036966919898987 -0.23163172602653503 -0.05818767845630646 0.1186133474111557 0.2624359428882599 -0.6280518174171448 -0.8006466031074524 -0.23498870432376862 -0.051473718136548996 0.11637535691261292 -0.2931240374510726 -0.12593191025475364 0.3131668718853043 -2.167935422459603 -2.268217452215383 -0.008110203508730785 0.037599513855469655 -0.0875180983534475 0.0 0.0 0.0 0.2985701858997345 -0.9596372936689992 -6.310129242949877 1.430463178075721 0.24030776541021753 -0.12899006188218273 0.549618250064537 -0.29305581782381174 -0.12606575681331733 0.3131843183387717 -2.1672515437575695 -2.2687314916608603 -0.008038794285266538 0.037819727043999954 -0.08791674534714357 0.0 0.0 0.0 0.3000000000000002

3780.0719999999997 0.047432000000000064 -1.5707963267948966 1.5707963267948966 -1.5707963267948966 -1.5707963267948966 0.0 0.3080000000000002 0.0 0.0 0.0 0.0 0.0 1.0000000000000009 0.0 0.0 0.0 0.0 0.0 0.4314808083990174 -0.6306524391496025 -0.845852297544239 -0.2515438162886709 0.0020575798306511624 0.0 0.8591578418584488 -7.264169615231981 -7.14169353485325 -1.0382443848245366 0.008541800247124098 0.0 0.04695456847548485 -1.5707243124591272 1.570777416229248 -1.5707123915301722 -1.5707305113421839 7.190534961409867e-05 0.3040350079536438 0.0 -0.0 0.0 0.0 0.0 0.3117828667163849 -0.6123505234718323 -0.7945464849472046 -0.23386971652507782 -0.04923573136329651 0.1197323426604271 0.3117828667163849 -0.6280518174171448 -0.8006466031074524 -0.23498870432376862 -0.04923573136329651 0.11637535691261292 -0.2928148531342347 -0.12664395797122383 0.3131612621477288 -2.1652094530940182 -2.2708694843488093 -0.008117094041938661 0.0385041967690677 -0.08902596620161214 0.0 0.0 0.0 0.3040350079536438 -0.8304445356732394 -3.7254589027126497 1.8917687935072496 0.07120629857021658 -0.1653278279782662 0.5544580415134056 -0.2927483595484113 -0.1267780950441175 0.3131843183387717 -2.164486881718638 -2.271360697163222 -0.00803105036860381 0.039047653273590915 -0.09016649474091082 0.0 0.0 0.0 0.3080000000000002

3780.08 0.04992800000000007 -1.5707963267948966 1.5707963267948966 -1.5707963267948966 -1.5707963267948966 0.0 0.3160000000000002 0.0 0.0 0.0 0.0 0.0 1.0000000000000009 0.0 0.0 0.0 0.0 0.0 0.4346693533049426 -0.6307254404019182 -0.8458470603092955 -0.25153310300048876 0.002053572092955429 0.0 0.8591578418584488 -7.265010480098311 -7.1416493158719385 -1.0382001658432782 0.008525162596263675 0.0 0.04943830147385597 -1.5707362333880823 1.570765495300293 -1.570688549672262 -1.5707548300372522 7.190534961409867e-05 0.3118966519832611 0.0 -0.0 0.0 0.0 0.0 0.3790741264820099 -0.6280518174171448 -0.8006466031074524 -0.24170267581939697 -0.05371170490980148 0.1197323426604271 0.3678589165210724 -0.6280518174171448 -0.8006466031074524 -0.2383456975221634 -0.04923573136329651 0.11637535691261292 -0.29249660396020666 -0.1273686983551919 0.3131663608549892 -2.162371170262381 -2.273539042627801 -0.008135731615181904 0.039725870584446994 -0.0912287114916624 0.0 0.0 0.0 0.3118966519832611 -1.543477194690284 -1.2246629062259038 1.796406515238299 -0.1538994703366081 -0.25243403659248353 0.5537263699639556 -0.2924310098387414 -0.12750839927625754 0.3131843183387717 -2.161646153145212 -2.2740555936460636 -0.008023090364579965 0.04029265417129871 -0.09240819910904229 0.0 0.0 0.0 0.3160000000000002

3780.0879999999997 0.052488000000000076 -1.5707963267948966 1.5707963267948966 -1.5707963267948966 -1.5707963267948966 0.0 0.32400000000000023 0.0 0.0 0.0 0.0 0.0 1.0000000000000009 0.0 0.0 0.0 0.0 0.0 0.43786063589521323 -0.6308003134812162 -0.8458416887862762 -0.25152211501260946 0.002049461592754677 0.0 0.8591578418584488 -7.265872905602237 -7.141603963070592 -1.0381548130419869 0.008508098338970933 0.0 0.05199393630027771 -1.5707123915301722 1.5708012580871582 -1.570688549672262 -1.5707905928241175 0.00011984225420746952 0.32278791069984436 0.0 -0.0 0.0 0.0 0.0 0.3992615044116974 -0.6392670273780823 -0.8006466031074524 -0.24170267581939697 -0.048116736114025116 0.10630441457033157 0.3858032524585724 -0.6280518174171448 -0.8006466031074524 -0.2372266948223114 -0.04923573136329651 0.11301837861537933 -0.292171183561504 -0.1281128511470113 0.3131485861236667 -2.159524335779927 -2.2762544221940053 -0.008234149732502447 0.04135327955553878 -0.09430932590851855 0.0 0.0 0.0 0.32278791069984436 -2.1462686767177295 -0.9601138689356125 1.795162271177863 -0.1494022472484805 -0.3007266395232747 0.4911031618471755 -0.29210363045572396 -0.12825660402445693 0.3131843183387717 -2.1587291045378825 -2.2768159041674614 -0.008014913327675437 0.041555139703922946 -0.09464157626765467 0.0 0.0 0.0 0.32400000000000023

3780.096 0.05511200000000008 -1.5707963267948966 1.5707963267948966 -1.5707963267948966 -1.5707963267948966 0.0 0.33200000000000024 0.0 0.0 0.0 0.0 0.0 1.0000000000000009 0.0 0.0 0.0 0.0 0.0 0.44105465616982936 -0.630877058387497 -0.8458361829751817 -0.2515108523250333 0.002045248330048906 0.0 0.8591578418584488 -7.266756891743763 -7.141557476449215 -1.0381083264206639 0.008490607475245873 0.0 0.05458590015769005 -1.5707243124591272 1.570777416229248 -1.5707243124591272 -1.5707667509662073 7.190534961409867e-05 0.33122479915618896 0.0 -0.0 0.0 0.0 0.0 0.3611297905445099 -0.6280518174171448 -0.7899713516235352 -0.22939373552799225 -0.051473718136548996 0.11525636911392212 0.3499145805835724 -0.6280518174171448 -0.8036966919898987 -0.2372266948223114 -0.051473718136548996 0.11413737386465073 -0.29184101939869855 -0.12887189775237604 0.31316230195521444 -2.15649153589948 -2.279075284918218 -0.008118958781945679 0.04268556844991036 -0.09666498303587143 0.0 0.0 0.0 0.33122479915618896 -1.8695622278391864 -2.5226521030124616 1.999058212305426 -0.03818784133017172 -0.241097275175356 0.5331162836522612 -0.29176607989188397 -0.12902264152397006 0.3131843183387717 -2.1557354764926533 -2.279641344136764 -0.008006518289746176 0.04283551698595779 -0.09686633852410553 0.0 0.0 0.0 0.33200000000000024

3780.104 0.05780000000000008 -1.5707963267948966 1.5707963267948966 -1.5707963267948966 -1.5707963267948966 0.0 0.34000000000000025 0.0 0.0 0.0 0.0 0.0 1.0000000000000009 0.0 0.0 0.0 0.0 0.0 0.4442514141287909 -0.63095567512076 -0.8458305428760118 -0.25149931493776 0.002040932304838116 0.0 0.8591578418584488 -7.267662438522887 -7.1415098560078025 -1.0380607059793079 0.008472690005088494 0.0 0.05720220506191254 -1.5707481543170374 1.5707893371582031 -1.5707481543170374 -1.5707305113421839 7.190534961409867e-05 0.34037116169929504 0.0 -0.0 0.0 0.0 0.0 0.3319702446460724 -0.6325379014015198 -0.8036966919898987 -0.23051273822784424 -0.054830700159072876 0.11525636911392212 0.3364563286304474 -0.6280518174171448 -0.8021716475486755 -0.23498870432376862 -0.04587874934077263 0.11413737386465073 -0.2914998179204008 -0.1296378283528362 0.3131678722410301 -2.1535050226832757 -2.2818909642070118 -0.008030971932047588 0.044124978236627525 -0.09921813166069944 0.0 0.0 0.0 0.34037116169929504 -1.4872544295614973 -3.7868660380952353 1.411508443297963 0.048405342009608256 -0.16701053595572926 0.53365880643849 -0.29141821339459484 -0.12980644168608685 0.3131843183387717 -2.152665003747426 -2.2825316212740847 -0.007997904259976513 0.04413419017326872 -0.09908219255416224 0.0 0.0 0.0 0.34000000000000025

3780.1119999999996 0.060552000000000085 -1.5707963267948966 1.5707963267948966 -1.5707963267948966 -1.5707963267948966 0.0 0.34800000000000025 0.0 0.0 0.0 0.0 0.0 1.0000000000000009 0.0 0.0 0.0 0.0 0.0 0.44745090977209784 -0.6310361636810056 -0.8458247684887661 -0.25148750285078986 0.0020365135171223083 0.0 0.8591578418584488 -7.268589545939609 -7.141461101746356 -1.03801195171792 0.008454345928498797 0.0 0.0599256195127964 -1.5707481543170374 1.5707893371582031 -1.5707481543170374 -1.5707548300372522 7.190534961409867e-05 0.34708234667778015 0.0 -0.0 0.0 0.0 0.0 0.3050537407398224 -0.6325379014015198 -0.7991215586662292 -0.22939373552799225 -0.05259270966053009 0.11525636911392212 0.3185119926929474 -0.6280518174171448 -0.7975965142250061 -0.2361077070236206 -0.0503547228872776 0.11413737386465073 -0.2911458011944902 -0.13042922230825293 0.3131678872370426 -2.1503788289417933 -2.2848032763461883 -0.008048565986878399 0.045269680554105886 -0.10105156790396655 0.0 0.0 0.0 0.34708234667778015 -1.5641008879625065 -5.161035799274636 1.5866539996256526 0.17264783092173616 -0.18398789813822444 0.5336191502225474 -0.29105988299017993 -0.13060793205255555 0.3131843183387717 -2.1495174152292575 -2.2854864355690183 -0.007989070225940958 0.045451560354288746 -0.10128883928058227 0.0 0.0 0.0 0.34800000000000025

3780.12 0.06336800000000009 -1.5707963267948966 1.5707963267948966 -1.5707963267948966 -1.5707963267948966 0.0 0.35600000000000026 0.0 0.0 0.0 0.0 0.0 1.0000000000000009 0.0 0.0 0.0 0.0 0.0 0.4506531430997503 -0.6311185240682334 -0.8458188598134451 -0.25147541606412277 0.002031991966901481 0.0 0.8591578418584488 -7.269538213993928 -7.141411213664876 -1.0379620636365001 0.008435575245476782 0.0 0.06280557811260223 -1.5707243124591272 1.5707893371582031 -1.5707481543170374 -1.5707305113421839 2.3968450477696024e-05 0.35553839802742004 0.0 -0.0 0.0 0.0 0.0 0.3386993706226349 -0.6213226914405823 -0.7975965142250061 -0.23051273822784424 -0.05371170490980148 0.11637535691261292 0.3454284965991974 -0.6280518174171448 -0.8036966919898987 -0.23498870432376862 -0.048116736114025116 0.11413737386465073 -0.2907726736742426 -0.1312693993475426 0.3131607546664425 -2.147049979470552 -2.287968489168094 -0.008040901104908913 0.046671311954045856 -0.10338085058828998 0.0 0.0 0.0 0.35553839802742004 -1.1117173299071235 -3.602679982682115 1.68327605017595 0.0400243006854001 -0.16041882958810413 0.5388860807938262 -0.2906909375088918 -0.13142703774909628 0.3131843183387717 -2.146292434103338 -2.28850547923837 -0.007980015152404143 0.04678802543867552 -0.10348597375316569 0.0 0.0 0.0 0.35600000000000026

3780.1279999999997 0.0662480000000001 -1.5707963267948966 1.5707963267948966 -1.5707963267948966 -1.5707963267948966 0.0 0.36400000000000027 0.0 0.0 0.0 0.0 0.0 1.0000000000000009 0.0 0.0 0.0 0.0 0.0 0.4538581141117482 -0.6312027562824438 -0.8458128168500485 -0.2514630545777586 0.002027367654175635 0.0 0.8591578418584488 -7.270508442685845 -7.141360191763361 -1.0379110417350474 0.008416377956022448 0.0 0.065601646900177 -1.5707362333880823 1.5708613395690918 -1.5707243124591272 -1.5707548300372522 9.58738019107841e-05 0.36121413111686707 0.0 -0.0 0.0 0.0 0.0 0.4194488823413849 -0.6258087754249573 -0.788446307182312 -0.2372266948223114 -0.048116736114025116 0.11749435216188431 0.4441223740577698 -0.6280518174171448 -0.8021716475486755 -0.23498870432376862 -0.04923573136329651 0.11413737386465073 -0.2903948162229765 -0.13207916725627294 0.3131407924006032 -2.1439535593334305 -2.290913974054277 -0.008154295498322379 0.04770886163911581 -0.10489471122282489 0.0 0.0 0.0 0.36121413111686707 -1.9024140082174534 -0.5199974297301754 2.241741465158575 -0.18293949644265156 -0.30146159392082855 0.5430093040458517 -0.29031122261080367 -0.13226368143795342 0.3131843183387717 -2.142989777823166 -2.291588436683051 -0.007970737982214517 0.048143980043423094 -0.10567328503033273 0.0 0.0 0.0 0.36400000000000027

3780.136 0.0691920000000001 -1.5707963267948966 1.5707963267948966 -1.5707963267948966 -1.5707963267948966 0.0 0.3720000000000003 0.0 0.0 0.0 0.0 0.0 1.0000000000000009 0.0 0.0 0.0 0.0 0.0 0.4570658228080915 -0.6312888603236368 -0.8458066395985768 -0.2514504183916975 0.0020226405789447706 0.0 0.8591578418584488 -7.271500232015364 -7.141308036041817 -1.037858886013563 0.008396754060135795 0.0 0.06858984380960464 -1.570688549672262 1.5708250999450684 -1.5707243124591272 -1.5707305113421839 8.388957940042019e-05 0.36976608633995056 0.0 -0.0 0.0 0.0 0.0 0.4351502060890198 -0.6101074814796448 -0.8113219141960144 -0.22939373552799225 -0.05371170490980148 0.1186133474111557 0.4620667099952698 -0.6280518174171448 -0.8021716475486755 -0.23498870432376862 -0.04923573136329651 0.1186133474111557 -0.29000936219867857 -0.1329490874252867 0.3131373640191116 -2.140526674991912 -2.294140767360441 -0.008132204447223748 0.0491600637397246 -0.10723562686215066 0.0 0.0 0.0 0.36976608633995056 -0.2681054433379148 0.800731810817029 1.0623041012005983 -0.3260373728091125 -0.0320955489464081 0.5498529850567648 -0.28992058081260885 -0.13311778326947785 0.3131843183387717 -2.13960915818185 -2.2947349844444025 -0.007961237636765248 0.04951981537624598 -0.10785045606229103 0.0 0.0 0.0 0.3720000000000003

3780.144 0.07220000000000011 -1.5707963267948966 1.5707963267948966 -1.5707963267948966 -1.5707963267948966 0.0 0.3800000000000003 0.0 0.0 0.0 0.0 0.0 1.0000000000000009 0.0 0.0 0.0 0.0 0.0 0.4602762691887803 -0.6313768361918121 -0.845800328059029 -0.25143750750593946 0.0020178107412088873 0.0 0.8591578418584488 -7.272513581982477 -7.141254746500235 -1.037805596472046 0.008376703557816827 0.0 0.07160162925720215 -1.5707243124591272 1.5708131790161133 -1.5707009474383753 -1.5707786718951624 7.190534961409867e-05 0.3805422782897949 0.0 -0.0 0.0 0.0 0.0 0.3790741264820099 -0.6145935654640198 -0.796071469783783 -0.23275071382522583 -0.04364075884222984 0.10966140031814575 0.3902893364429474 -0.6280518174171448 -0.8021716475486755 -0.23498870432376862 -0.04923573136329651 0.11189938336610794 -0.28960123180966596 -0.13381750407915488 0.3131496358001495 -2.1370152988570457 -2.2973305099743966 -0.008146395858191205 0.050923217877337966 -0.11020551254838142 0.0 0.0 0.0 0.3805422782897949 -0.8693120542923115 -2.256411501664623 1.8026535709768285 -0.022104603507396334 -0.1589896180231197 0.5076999937650648 -0.2895188515153722 -0.1339892608327901 0.3131843183387717 -2.136150281364901 -2.297944791159258 -0.007951513015181775 0.050915919116459374 -0.11001716357584157 0.0 0.0 0.0 0.3800000000000003

3780.152 0.07527200000000012 -1.5707963267948966 1.5707963267948966 -1.5707963267948966 -1.5707963267948966 0.0 0.3880000000000003 0.0 0.0 0.0 0.0 0.0 1.0000000000000009 0.0 0.0 0.0 0.0 0.0 0.46348945325381447 -0.6314666838869698 -0.8457938822314061 -0.25142432192048436 0.0020128781409679847 0.0 0.8591578418584488 -7.273548492587189 -7.14120032313862 -1.0377511731104967 0.008356226449065536 0.0 0.07476957887411118 -1.5707123915301722 1.5708370208740234 -1.5707243124591272 -1.5707548300372522 5.992112710373476e-05 0.3866207003593445 0.0 -0.0 0.0 0.0 0.0 0.3386993706226349 -0.6190796494483948 -0.8052217364311218 -0.2383456975221634 -0.05259270966053009 0.11749435216188431 0.3454284965991974 -0.6280518174171448 -0.8021716475486755 -0.23498870432376862 -0.04923573136329651 0.11749435216188431 -0.2891775745578828 -0.1347363556971596 0.31314093684755573 -2.1333719065822914 -2.3007385481923635 -0.008125384883412112 0.05209186420350491 -0.11180203640378561 0.0 0.0 0.0 0.3866207003593445 -0.6069519829124125 -3.9534655416476947 1.5145335553848147 0.07677506579800283 -0.14374685300059026 0.544202610296669 -0.2891058710332457 -0.13487802910558755 0.3131843183387717 -2.132612848004314 -2.3012175175144782 -0.007941562995333539 0.052332675292973585 -0.1121730779608993 0.0 0.0 0.0 0.3880000000000003

3780.16 0.07840800000000012 -1.5707963267948966 1.5707963267948966 -1.5707963267948966 -1.5707963267948966 0.0 0.3960000000000003 0.0 0.0 0.0 0.0 0.0 1.0000000000000009 0.0 0.0 0.0 0.0 0.0 0.46670537500319415 -0.6315584034091102 -0.8457873021157079 -0.25141086163533233 0.002007842778222064 0.0 0.8591578418584488 -7.274604963829501 -7.141144765956973 -1.0376956159289152 0.00833532273388193 0.0 0.07792555540800095 -1.5707362333880823 1.570777416229248 -1.5707362333880823 -1.5707548300372522 3.5952674807049334e-05 0.39429059624671936 0.0 -0.0 0.0 0.0 0.0 0.3880462944507599 -0.6168366074562073 -0.8052217364311218 -0.22603675723075867 -0.0503547228872776 0.11525636911392212 0.3745880424976349 -0.6280518174171448 -0.8021716475486755 -0.23498870432376862 -0.04923573136329651 0.11413737386465073 -0.2887529664729345 -0.13564856716073725 0.31316687083961614 -2.1296618517403294 -2.3040743957055434 -0.008005590049199797 0.05348495442582178 -0.1138525793186224 0.0 0.0 0.0 0.39429059624671936 -0.6326768947911868 -1.9521610800640998 1.2524300566571873 -0.08344792513558226 -0.06560349874063824 0.5342381300535711 -0.28868147262316507 -0.1357840004029257 0.3131843183387717 -2.128996553234015 -2.3045528162007507 -0.007931386433696045 0.053770464159557524 -0.11431786315877325 0.0 0.0 0.0 0.3960000000000003

