mkrssg/UniversalRobots/rtde_client_3.5/examples/roboter/movej_0-90q1.csv
timestamp target_q_0 target_q_1 target_q_2 target_q_3 target_q_4 target_q_5 target_qd_0 target_qd_1 target_qd_2 target_qd_3 target_qd_4 target_qd_5 target_qdd_0 target_qdd_1 target_qdd_2 target_qdd_3 target_qdd_4 target_qdd_5 target_current_0 target_current_1 target_current_2 target_current_3 target_current_4 target_current_5 target_moment_0 target_moment_1 target_moment_2 target_moment_3 target_moment_4 target_moment_5 actual_q_0 actual_q_1 actual_q_2 actual_q_3 actual_q_4 actual_q_5 actual_qd_0 actual_qd_1 actual_qd_2 actual_qd_3 actual_qd_4 actual_qd_5 actual_current_0 actual_current_1 actual_current_2 actual_current_3 actual_current_4 actual_current_5 joint_control_output_0 joint_control_output_1 joint_control_output_2 joint_control_output_3 joint_control_output_4 joint_control_output_5 actual_TCP_pose_0 actual_TCP_pose_1 actual_TCP_pose_2 actual_TCP_pose_3 actual_TCP_pose_4 actual_TCP_pose_5 actual_TCP_speed_0 actual_TCP_speed_1 actual_TCP_speed_2 actual_TCP_speed_3 actual_TCP_speed_4 actual_TCP_speed_5 actual_TCP_force_0 actual_TCP_force_1 actual_TCP_force_2 actual_TCP_force_3 actual_TCP_force_4 actual_TCP_force_5 target_TCP_pose_0 target_TCP_pose_1 target_TCP_pose_2 target_TCP_pose_3 target_TCP_pose_4 target_TCP_pose_5 target_TCP_speed_0 target_TCP_speed_1 target_TCP_speed_2 target_TCP_speed_3 target_TCP_speed_4 target_TCP_speed_5

3462.544 0.0 -1.5707963267948966 1.570796326794896 -1.5707963267948966 -1.5707963267948966 0.0 -0.0 0.0 0.0 -0.0 0.0 -0.0 0.0 0.0 0.0 0.0 0.0 0.0 2.072980291448686e-26 -0.620381750820575 -0.8463465614411209 -0.25255488256030517 -1.4392506443496167e-11 0.0 2.378952054656901e-25 -7.1458666999402505 -7.145866699940252 -1.0424175499402517 -5.974879480466358e-11 0.0 0.0 -1.5707123915301722 1.5708131790161133 -1.5707123915301722 -1.5707548300372522 0.0 0.0 0.0 -2.3968450477696024e-05 2.3968450477696024e-05 2.3968450477696024e-05 2.3968450477696024e-05 0.006729126907885075 -0.4755249619483948 -0.7975965142250061 -0.22603675723075867 -0.04699774086475372 0.16001611948013306 0.006729126907885075 -0.4800110459327698 -0.7991215586662292 -0.2215607762336731 -0.04923573136329651 0.15889713168144226 -0.2984354158723394 -0.1127583839195023 0.3131470389880039 -2.2179399290297495 -2.2195929278628967 -0.008339355606858074 -6.68541610524129e-09 -1.9847488365542526e-06 5.096950784745754e-06 -2.392065493163609e-05 1.3703070838439086e-07 -2.4040351244399956e-05 5.770916302754154 4.965616653667178 1.620849978472827 -0.6287931903011302 0.4574304793898609 0.7446127998815073 -0.2984301935029838 -0.11275507530515129 0.3131843183387719 -2.21782708883282 -2.2194802147227084 -0.00817993372618954 0.0 0.0 0.0 0.0 0.0 0.0

3462.5519999999997 0.0 -1.5707963267948966 1.570796326794896 -1.5707963267948966 -1.5707963267948966 0.0 -0.0 0.0 0.0 -0.0 0.0 -0.0 0.0 0.0 0.0 0.0 0.0 0.0 2.072980291448686e-26 -0.620381750820575 -0.8463465614411209 -0.25255488256030517 -1.4392506443496167e-11 0.0 2.378952054656901e-25 -7.1458666999402505 -7.145866699940252 -1.0424175499402517 -5.974879480466358e-11 0.0 -1.1746083394825746e-05 -1.5707600752459925 1.5708489418029785 -1.5707243124591272 -1.570742432271139 1.1984225238848012e-05 0.0 0.0 -2.3968450477696024e-05 2.3968450477696024e-05 2.3968450477696024e-05 2.3968450477696024e-05 0.004486084450036287 -0.4755249619483948 -0.7914963960647583 -0.22267977893352509 -0.05259270966053009 0.16113510727882385 0.006729126907885075 -0.4800110459327698 -0.7975965142250061 -0.2215607762336731 -0.04923573136329651 0.15889713168144226 -0.2984270751976347 -0.11275588452454303 0.31315160426636 -2.217960684131229 -2.2195608833864497 -0.008299155750452553 -6.648205142066611e-09 -1.984749051665042e-06 5.096975277634179e-06 -2.3921225442901157e-05 1.3701462069703923e-07 -2.4039782573712282e-05 5.5350467442230515 4.796809222375818 1.8181026186551605 -0.6410351126468846 0.4365128209752533 0.7496660735257262 -0.2984301935029838 -0.11275507530515129 0.3131843183387719 -2.21782708883282 -2.2194802147227084 -0.00817993372618954 0.0 0.0 0.0 0.0 0.0 0.0

3462.56 0.0 -1.5707963267948966 1.570796326794896 -1.5707963267948966 -1.5707963267948966 0.0 -0.0 0.0 0.0 -0.0 0.0 -0.0 0.0 0.0 0.0 0.0 0.0 0.0 2.072980291448686e-26 -0.620381750820575 -0.8463465614411209 -0.25255488256030517 -1.4392506443496167e-11 0.0 2.378952054656901e-25 -7.1458666999402505 -7.145866699940252 -1.0424175499402517 -5.974879480466358e-11 0.0 0.0 -1.5706647078143519 1.5708732604980469 -1.5707481543170374 -1.5707548300372522 -1.1746083394825746e-05 0.0 0.0 -2.3968450477696024e-05 2.3968450477696024e-05 2.3968450477696024e-05 2.3968450477696024e-05 0.008972168900072575 -0.4889832139015198 -0.8006466031074524 -0.22379876673221588 -0.0503547228872776 0.16225410997867584 0.006729126907885075 -0.4800110459327698 -0.7991215586662292 -0.2215607762336731 -0.04923573136329651 0.15889713168144226 -0.2984410781055928 -0.11275832227116685 0.31311791476651557 -2.2179625635951923 -2.219642069045178 -0.00841936029038468 -7.235305782225002e-09 -1.984748943602296e-06 5.0969500101594e-06 -2.391892141750458e-05 1.3703141419661252e-07 -2.4042072761625194e-05 5.177114103741429 4.871988577215795 1.4364914868907448 -0.6366681378076025 0.43448953932132517 0.7547936600392852 -0.2984301935029838 -0.11275507530515129 0.3131843183387719 -2.21782708883282 -2.2194802147227084 -0.00817993372618954 0.0 0.0 0.0 0.0 0.0 0.0

3462.5679999999998 0.0 -1.5707963267948966 1.570796326794896 -1.5707963267948966 -1.5707963267948966 0.0 -0.0 0.0 0.0 -0.0 0.0 -0.0 0.0 0.0 0.0 0.0 0.0 0.0 2.072980291448686e-26 -0.620381750820575 -0.8463465614411209 -0.25255488256030517 -1.4392506443496167e-11 0.0 2.378952054656901e-25 -7.1458666999402505 -7.145866699940252 -1.0424175499402517 -5.974879480466358e-11 0.0 -3.5587941304981996e-05 -1.570688549672262 1.5708131790161133 -1.5707481543170374 -1.5707305113421839 2.3968450477696024e-05 0.0 0.0 -2.3968450477696024e-05 2.3968450477696024e-05 2.3968450477696024e-05 2.3968450477696024e-05 0.006729126907885075 -0.4755249619483948 -0.8006466031074524 -0.2204417884349823 -0.04923573136329651 0.16001611948013306 0.006729126907885075 -0.4777680039405823 -0.7991215586662292 -0.2215607762336731 -0.04923573136329651 0.15889713168144226 -0.298446217651706 -0.11274978182146587 0.31314295854959967 -2.2180121561651807 -2.2195334063226264 -0.008299155087389026 -6.877843151495144e-09 -1.9847488119717738e-06 5.0969986569966154e-06 -2.3920933753989035e-05 1.372927732973591e-07 -2.4040069076181244e-05 5.889235942521127 5.01114046640372 1.3645415394420612 -0.6428230623413425 0.5149539243308698 0.744961975520259 -0.2984301935029838 -0.11275507530515129 0.3131843183387719 -2.21782708883282 -2.2194802147227084 -0.00817993372618954 0.0 0.0 0.0 0.0 0.0 0.0

3462.576 0.0 -1.5707963267948966 1.570796326794896 -1.5707963267948966 -1.5707963267948966 0.0 -0.0 0.0 0.0 -0.0 0.0 -0.0 0.0 0.0 0.0 0.0 0.0 0.0 2.072980291448686e-26 -0.620381750820575 -0.8463465614411209 -0.25255488256030517 -1.4392506443496167e-11 0.0 2.378952054656901e-25 -7.1458666999402505 -7.145866699940252 -1.0424175499402517 -5.974879480466358e-11 0.0 -1.1746083394825746e-05 -1.5707243124591272 1.5708613395690918 -1.5707481543170374 -1.5707548300372522 4.793690095539205e-05 0.0 0.0 -2.3968450477696024e-05 2.3968450477696024e-05 2.3968450477696024e-05 2.3968450477696024e-05 0.006729126907885075 -0.4777680039405823 -0.7945464849472046 -0.22267977893352509 -0.05259270966053009 0.15665914118289948 0.006729126907885075 -0.4800110459327698 -0.7991215586662292 -0.2215607762336731 -0.04923573136329651 0.15889713168144226 -0.29843378040565566 -0.11275485257817906 0.3131392684518456 -2.218006261960079 -2.2195270037801547 -0.008339754073450549 -6.893826622708853e-09 -1.9847488210339573e-06 5.096950531190478e-06 -2.3920639381040342e-05 1.3730940893443028e-07 -2.404036188972529e-05 5.534266980102444 4.823725369861926 1.6827661319806646 -0.6431937602478901 0.44816378798822004 0.7289632651118247 -0.2984301935029838 -0.11275507530515129 0.3131843183387719 -2.21782708883282 -2.2194802147227084 -0.00817993372618954 0.0 0.0 0.0 0.0 0.0 0.0

3462.584 0.0 -1.5707963267948966 1.570796326794896 -1.5707963267948966 -1.5707963267948966 0.0 -0.0 0.0 0.0 -0.0 0.0 -0.0 0.0 0.0 0.0 0.0 0.0 0.0 2.072980291448686e-26 -0.620381750820575 -0.8463465614411209 -0.25255488256030517 -1.4392506443496167e-11 0.0 2.378952054656901e-25 -7.1458666999402505 -7.145866699940252 -1.0424175499402517 -5.974879480466358e-11 0.0 -3.5587941304981996e-05 -1.5707243124591272 1.5708370208740234 -1.5707362333880823 -1.5707667509662073 2.3968450477696024e-05 0.0 0.0 -2.3968450477696024e-05 2.3968450477696024e-05 2.3968450477696024e-05 2.3968450477696024e-05 0.006729126907885075 -0.4777680039405823 -0.8006466031074524 -0.2215607762336731 -0.0503547228872776 0.16001611948013306 0.006729126907885075 -0.4800110459327698 -0.7991215586662292 -0.2215607762336731 -0.04923573136329651 0.15889713168144226 -0.2984374991565624 -0.11274677512328812 0.3131455203633922 -2.2179940903501127 -2.2195150284082152 -0.008339322402679162 -6.816927540703536e-09 -1.9847484283144793e-06 5.096927202605738e-06 -2.3920935171271162e-05 1.3816521750931057e-07 -2.4040063743819366e-05 5.770697197564889 4.966135320364747 1.3884740236462831 -0.6443387953346186 0.4979324363891633 0.7448696310593454 -0.2984301935029838 -0.11275507530515129 0.3131843183387719 -2.21782708883282 -2.2194802147227084 -0.00817993372618954 0.0 0.0 0.0 0.0 0.0 0.0

3462.5919999999996 0.0 -1.5707963267948966 1.570796326794896 -1.5707963267948966 -1.5707963267948966 0.0 -0.0 0.0 0.0 -0.0 0.0 -0.0 0.0 0.0 0.0 0.0 0.0 0.0 2.072980291448686e-26 -0.620381750820575 -0.8463465614411209 -0.25255488256030517 -1.4392506443496167e-11 0.0 2.378952054656901e-25 -7.1458666999402505 -7.145866699940252 -1.0424175499402517 -5.974879480466358e-11 0.0 1.1984225238848012e-05 -1.5707243124591272 1.5708370208740234 -1.5707481543170374 -1.570742432271139 0.0 0.0 0.0 -2.3968450477696024e-05 2.3968450477696024e-05 2.3968450477696024e-05 2.3968450477696024e-05 0.006729126907885075 -0.4822540879249573 -0.8036966919898987 -0.22267977893352509 -0.04923573136329651 0.15889713168144226 0.006729126907885075 -0.4800110459327698 -0.7991215586662292 -0.2215607762336731 -0.04923573136329651 0.15889713168144226 -0.2984331159431733 -0.11276298343851092 0.3131465227510519 -2.2179208813971267 -2.2196006649933135 -0.008299063565636639 -6.722676327044185e-09 -1.9847490644496016e-06 5.096975186991453e-06 -2.392122704472498e-05 1.3644202491097108e-07 -2.4039782078004444e-05 5.651405987217713 4.903956741966186 1.2769317890293852 -0.6339329340780712 0.492434872850853 0.7396498160296385 -0.2984301935029838 -0.11275507530515129 0.3131843183387719 -2.21782708883282 -2.2194802147227084 -0.00817993372618954 0.0 0.0 0.0 0.0 0.0 0.0

3462.6 0.0 -1.5707963267948966 1.570796326794896 -1.5707963267948966 -1.5707963267948966 0.0 -0.0 0.0 0.0 -0.0 0.0 -0.0 0.0 0.0 0.0 0.0 0.0 0.0 2.072980291448686e-26 -0.620381750820575 -0.8463465614411209 -0.25255488256030517 -1.4392506443496167e-11 0.0 2.378952054656901e-25 -7.1458666999402505 -7.145866699940252 -1.0424175499402517 -5.974879480466358e-11 0.0 0.0 -1.5707243124591272 1.5708250999450684 -1.5707243124591272 -1.570742432271139 1.1984225238848012e-05 0.0 0.0 -2.3968450477696024e-05 2.3968450477696024e-05 2.3968450477696024e-05 2.3968450477696024e-05 0.011215210892260075 -0.4777680039405823 -0.796071469783783 -0.22267977893352509 -0.054830700159072876 0.16113510727882385 0.006729126907885075 -0.4800110459327698 -0.7991215586662292 -0.2215607762336731 -0.04923573136329651 0.15889713168144226 -0.29843348914136203 -0.11275940399692544 0.313148047721687 -2.217953483151229 -2.2195799272992587 -0.008312340426951042 -6.685569446270801e-09 -1.9847490254289926e-06 5.0969752389776e-06 -2.392094047489369e-05 1.3673213428491332e-07 -2.4040067741331215e-05 5.5927744696407995 5.109031865873084 1.6159940977090879 -0.6770622383662531 0.45867815906859344 0.7497618393282456 -0.2984301935029838 -0.11275507530515129 0.3131843183387719 -2.21782708883282 -2.2194802147227084 -0.00817993372618954 0.0 0.0 0.0 0.0 0.0 0.0

3462.6079999999997 0.0 -1.5707963267948966 1.570796326794896 -1.5707963267948966 -1.5707963267948966 0.0 -0.0 0.0 0.0 -0.0 0.0 -0.0 0.0 0.0 0.0 0.0 0.0 0.0 2.072980291448686e-26 -0.620381750820575 -0.8463465614411209 -0.25255488256030517 -1.4392506443496167e-11 0.0 2.378952054656901e-25 -7.1458666999402505 -7.145866699940252 -1.0424175499402517 -5.974879480466358e-11 0.0 0.0 -1.5707009474383753 1.5708131790161133 -1.5707123915301722 -1.570742432271139 5.992112710373476e-05 0.0 0.0 -2.3968450477696024e-05 2.3968450477696024e-05 2.3968450477696024e-05 2.3968450477696024e-05 0.004486084450036287 -0.4822540879249573 -0.8006466031074524 -0.2204417884349823 -0.051473718136548996 0.16001611948013306 0.006729126907885075 -0.4822540879249573 -0.7991215586662292 -0.2215607762336731 -0.04923573136329651 0.15889713168144226 -0.2984372601806904 -0.11275940072215038 0.31314361490281234 -2.2180182084589988 -2.2195383260477892 -0.008338165210647817 -6.7438479589757e-09 -1.984749018301677e-06 5.096975158970632e-06 -2.3920379592784697e-05 1.3673388828762034e-07 -2.404062690025625e-05 5.5335545672462505 4.779756776277914 1.3633738595472888 -0.634202951618149 0.4856069206147037 0.7447746383170821 -0.2984301935029838 -0.11275507530515129 0.3131843183387719 -2.21782708883282 -2.2194802147227084 -0.00817993372618954 0.0 0.0 0.0 0.0 0.0 0.0

3462.616 0.0 -1.5707963267948966 1.570796326794896 -1.5707963267948966 -1.5707963267948966 0.0 -0.0 0.0 0.0 -0.0 0.0 -0.0 0.0 0.0 0.0 0.0 0.0 0.0 2.072980291448686e-26 -0.620381750820575 -0.8463465614411209 -0.25255488256030517 -1.4392506443496167e-11 0.0 2.378952054656901e-25 -7.1458666999402505 -7.145866699940252 -1.0424175499402517 -5.974879480466358e-11 0.0 -3.5587941304981996e-05 -1.5707481543170374 1.5708131790161133 -1.570676628743307 -1.570742432271139 4.793690095539205e-05 0.0 0.0 -2.3968450477696024e-05 2.3968450477696024e-05 2.3968450477696024e-05 2.3968450477696024e-05 0.006729126907885075 -0.4800110459327698 -0.8021716475486755 -0.2215607762336731 -0.051473718136548996 0.16449210047721863 0.006729126907885075 -0.4822540879249573 -0.7975965142250061 -0.2215607762336731 -0.04923573136329651 0.15889713168144226 -0.29843071515648917 -0.1127487727856346 0.31315465533461245 -2.2180389966278087 -2.2195062700724533 -0.008325662353535377 -6.573683968898128e-09 -1.9847489290147534e-06 5.0969753980275095e-06 -2.3920652302037466e-05 1.3759086664232255e-07 -2.4040353900037063e-05 5.7112266459354375 5.013316869402774 1.3208317217422318 -0.6534040712232425 0.49869510579490395 0.765610068027144 -0.2984301935029838 -0.11275507530515129 0.3131843183387719 -2.21782708883282 -2.2194802147227084 -0.00817993372618954 0.0 0.0 0.0 0.0 0.0 0.0

3462.624 0.0 -1.5707963267948966 1.570796326794896 -1.5707963267948966 -1.5707963267948966 0.0 -0.0 0.0 0.0 -0.0 0.0 -0.0 0.0 0.0 0.0 0.0 0.0 0.0 2.072980291448686e-26 -0.620381750820575 -0.8463465614411209 -0.25255488256030517 -1.4392506443496167e-11 0.0 2.378952054656901e-25 -7.1458666999402505 -7.145866699940252 -1.0424175499402517 -5.974879480466358e-11 0.0 1.1984225238848012e-05 -1.5707481543170374 1.5708613395690918 -1.5707243124591272 -1.570742432271139 0.0 0.0 0.0 -2.3968450477696024e-05 2.3968450477696024e-05 2.3968450477696024e-05 2.3968450477696024e-05 0.008972168900072575 -0.4844971299171448 -0.8006466031074524 -0.2204417884349823 -0.051473718136548996 0.16225410997867584 0.006729126907885075 -0.4822540879249573 -0.7991215586662292 -0.2215607762336731 -0.04923573136329651 0.15889713168144226 -0.2984252956352357 -0.11276294763395538 0.31314434343089037 -2.2179331097092265 -2.2196126012817454 -0.008326146195649182 -6.725175687948508e-09 -1.984749260465248e-06 5.0969750953507255e-06 -2.3920644058507306e-05 1.3644862939698972e-07 -2.404036429602268e-05 5.414386782398868 4.962957975566792 1.3637795737707028 -0.6492846250648182 0.47577855891675824 0.7550848249513404 -0.2984301935029838 -0.11275507530515129 0.3131843183387719 -2.21782708883282 -2.2194802147227084 -0.00817993372618954 0.0 0.0 0.0 0.0 0.0 0.0

3462.632 0.0 -1.5707963267948966 1.570796326794896 -1.5707963267948966 -1.5707963267948966 0.0 -0.0 0.0 0.0 -0.0 0.0 -0.0 0.0 0.0 0.0 0.0 0.0 0.0 2.072980291448686e-26 -0.620381750820575 -0.8463465614411209 -0.25255488256030517 -1.4392506443496167e-11 0.0 2.378952054656901e-25 -7.1458666999402505 -7.145866699940252 -1.0424175499402517 -5.974879480466358e-11 0.0 0.0 -1.5707243124591272 1.5708012580871582 -1.5707123915301722 -1.5707185904132288 3.5952674807049334e-05 0.0 0.0 -2.3968450477696024e-05 2.3968450477696024e-05 2.3968450477696024e-05 2.3968450477696024e-05 0.011215210892260075 -0.4867401719093323 -0.796071469783783 -0.2193228006362915 -0.051473718136548996 0.16337309777736664 0.006729126907885075 -0.4822540879249573 -0.7991215586662292 -0.2215607762336731 -0.04923573136329651 0.15889713168144226 -0.298434477941141 -0.11276138657506206 0.3131541352076006 -2.2179860938935607 -2.2195593187790656 -0.008272632295711664 -6.563995289898251e-09 -1.984749323294987e-06 5.0970224323128174e-06 -2.392122746716818e-05 1.361605100609805e-07 -2.403978649340489e-05 5.118246574604329 4.964261810715367 1.5419926264599189 -0.6494735620152366 0.44130359686838616 0.7600598506058267 -0.2984301935029838 -0.11275507530515129 0.3131843183387719 -2.21782708883282 -2.2194802147227084 -0.00817993372618954 0.0 0.0 0.0 0.0 0.0 0.0

3462.64 0.0 -1.5707963267948966 1.570796326794896 -1.5707963267948966 -1.5707963267948966 0.0 -0.0 0.0 0.0 -0.0 0.0 -0.0 0.0 0.0 0.0 0.0 0.0 0.0 2.072980291448686e-26 -0.620381750820575 -0.8463465614411209 -0.25255488256030517 -1.4392506443496167e-11 0.0 2.378952054656901e-25 -7.1458666999402505 -7.145866699940252 -1.0424175499402517 -5.974879480466358e-11 0.0 -3.5587941304981996e-05 -1.5707009474383753 1.5708732604980469 -1.570688549672262 -1.5707305113421839 3.5952674807049334e-05 0.0 0.0 -2.3968450477696024e-05 2.3968450477696024e-05 2.3968450477696024e-05 2.3968450477696024e-05 0.008972168900072575 -0.4822540879249573 -0.8006466031074524 -0.22267977893352509 -0.04699774086475372 0.16113510727882385 0.006729126907885075 -0.4822540879249573 -0.7991215586662292 -0.2215607762336731 -0.04923573136329651 0.15889713168144226 -0.29843433603674036 -0.11274967632769699 0.3131236319164252 -2.2180790519272535 -2.219573201537338 -0.00841847156635011 -7.121170286164796e-09 -1.9847492840035837e-06 5.096998109006404e-06 -2.391835848160321e-05 1.3731045548854755e-07 -2.4042636606323037e-05 5.533116245115721 4.989776815719578 1.4127673671063161 -0.630747162693428 0.4711748433408548 0.7498185023316769 -0.2984301935029838 -0.11275507530515129 0.3131843183387719 -2.21782708883282 -2.2194802147227084 -0.00817993372618954 0.0 0.0 0.0 0.0 0.0 0.0

3462.6479999999997 0.0 -1.5707963267948966 1.570796326794896 -1.5707963267948966 -1.5707963267948966 0.0 -0.0 0.0 0.0 -0.0 0.0 -0.0 0.0 0.0 0.0 0.0 0.0 0.0 2.072980291448686e-26 -0.620381750820575 -0.8463465614411209 -0.25255488256030517 -1.4392506443496167e-11 0.0 2.378952054656901e-25 -7.1458666999402505 -7.145866699940252 -1.0424175499402517 -5.974879480466358e-11 0.0 0.0 -1.5707481543170374 1.5708250999450684 -1.5707362333880823 -1.5707548300372522 1.1984225238848012e-05 0.0 0.0 -2.3968450477696024e-05 2.3968450477696024e-05 2.3968450477696024e-05 2.3968450477696024e-05 0.0022430422250181437 -0.4867401719093323 -0.7975965142250061 -0.2215607762336731 -0.0503547228872776 0.16449210047721863 0.006729126907885075 -0.4822540879249573 -0.7991215586662292 -0.2215607762336731 -0.04923573136329651 0.15889713168144226 -0.29843062806541143 -0.11275840009179368 0.31315619026101466 -2.217929476343481 -2.219555873249078 -0.00828631740870834 -6.563940919984e-09 -1.984748799632168e-06 5.096950969023668e-06 -2.3921799597815748e-05 1.3702624882356497e-07 -2.403921009016173e-05 5.178492104197744 4.617731613319057 1.5221516109808262 -0.6156943057282481 0.4373730497305774 0.7652927703132509 -0.2984301935029838 -0.11275507530515129 0.3131843183387719 -2.21782708883282 -2.2194802147227084 -0.00817993372618954 0.0 0.0 0.0 0.0 0.0 0.0

3462.656 0.0 -1.5707963267948966 1.570796326794896 -1.5707963267948966 -1.5707963267948966 0.0 -0.0 0.0 0.0 -0.0 0.0 -0.0 0.0 0.0 0.0 0.0 0.0 0.0 2.072980291448686e-26 -0.620381750820575 -0.8463465614411209 -0.25255488256030517 -1.4392506443496167e-11 0.0 2.378952054656901e-25 -7.1458666999402505 -7.145866699940252 -1.0424175499402517 -5.974879480466358e-11 0.0 0.0 -1.5707243124591272 1.5708489418029785 -1.5707362333880823 -1.5707667509662073 3.5952674807049334e-05 0.0 0.0 -2.3968450477696024e-05 2.3968450477696024e-05 2.3968450477696024e-05 2.3968450477696024e-05 0.006729126907885075 -0.4800110459327698 -0.7975965142250061 -0.2215607762336731 -0.04923573136329651 0.16337309777736664 0.006729126907885075 -0.4822540879249573 -0.7991215586662292 -0.2215607762336731 -0.04923573136329651 0.15889713168144226 -0.2984325002370422 -0.11275738214849805 0.31314196058942717 -2.2179737426176356 -2.2195470451920354 -0.008352434085272847 -6.807139640990848e-09 -1.984748719366891e-06 5.096927102351143e-06 -2.3920653487599504e-05 1.373151872078424e-07 -2.4040348898631672e-05 5.533713485855411 4.928401675699668 1.5236435396699115 -0.6361096573586348 0.46675605007040766 0.7602443128416174 -0.2984301935029838 -0.11275507530515129 0.3131843183387719 -2.21782708883282 -2.2194802147227084 -0.00817993372618954 0.0 0.0 0.0 0.0 0.0 0.0

3462.6639999999998 0.0 -1.5707963267948966 1.570796326794896 -1.5707963267948966 -1.5707963267948966 0.0 -0.0 0.0 0.0 -0.0 0.0 -0.0 0.0 0.0 0.0 0.0 0.0 0.0 2.072980291448686e-26 -0.620381750820575 -0.8463465614411209 -0.25255488256030517 -1.4392506443496167e-11 0.0 2.378952054656901e-25 -7.1458666999402505 -7.145866699940252 -1.0424175499402517 -5.974879480466358e-11 0.0 -1.1746083394825746e-05 -1.5707243124591272 1.5708489418029785 -1.5707243124591272 -1.5707548300372522 0.0 0.0 0.0 -2.3968450477696024e-05 2.3968450477696024e-05 2.3968450477696024e-05 2.3968450477696024e-05 0.01345825381577015 -0.4777680039405823 -0.7945464849472046 -0.2204417884349823 -0.04923573136329651 0.16001611948013306 0.006729126907885075 -0.4822540879249573 -0.7991215586662292 -0.2215607762336731 -0.04923573136329651 0.15889713168144226 -0.2984328417388834 -0.11275485019269112 0.31314093583653657 -2.217958916634686 -2.2195858605430994 -0.008352642957403119 -6.8304999525539445e-09 -1.9847488614820544e-06 5.096950588681941e-06 -2.3920365904710236e-05 1.3731278704931254e-07 -2.4040636140130823e-05 5.53335980494183 5.165952673638112 1.6351199053995296 -0.6557445960238314 0.46263463190095083 0.7446090304439303 -0.2984301935029838 -0.11275507530515129 0.3131843183387719 -2.21782708883282 -2.2194802147227084 -0.00817993372618954 0.0 0.0 0.0 0.0 0.0 0.0

3462.672 0.0 -1.5707963267948966 1.570796326794896 -1.5707963267948966 -1.5707963267948966 0.0 -0.0 0.0 0.0 -0.0 0.0 -0.0 0.0 0.0 0.0 0.0 0.0 0.0 2.072980291448686e-26 -0.620381750820575 -0.8463465614411209 -0.25255488256030517 -1.4392506443496167e-11 0.0 2.378952054656901e-25 -7.1458666999402505 -7.145866699940252 -1.0424175499402517 -5.974879480466358e-11 0.0 0.0 -1.570688549672262 1.5708250999450684 -1.5707481543170374 -1.570742432271139 0.0 0.0 0.0 -2.3968450477696024e-05 2.3968450477696024e-05 2.3968450477696024e-05 2.3968450477696024e-05 0.011215210892260075 -0.4844971299171448 -0.8036966919898987 -0.22379876673221588 -0.04252176731824875 0.16113510727882385 0.006729126907885075 -0.4844971299171448 -0.7991215586662292 -0.2215607762336731 -0.04923573136329651 0.15889713168144226 -0.2984412193072476 -0.1127594073916552 0.3131394061205399 -2.217945996488949 -2.219599366820228 -0.008325571856261964 -6.867985125268464e-09 -1.9847489292581483e-06 5.096975045907725e-06 -2.3920652246562643e-05 1.3672846318723893e-07 -2.404035240040709e-05 5.532147660774095 5.086542456643843 1.301611389368011 -0.61774798313321 0.47542864649596417 0.7499257903342018 -0.2984301935029838 -0.11275507530515129 0.3131843183387719 -2.21782708883282 -2.2194802147227084 -0.00817993372618954 0.0 0.0 0.0 0.0 0.0 0.0

3462.68 0.0 -1.5707963267948966 1.570796326794896 -1.5707963267948966 -1.5707963267948966 0.0 -0.0 0.0 0.0 -0.0 0.0 -0.0 0.0 0.0 0.0 0.0 0.0 0.0 2.072980291448686e-26 -0.620381750820575 -0.8463465614411209 -0.25255488256030517 -1.4392506443496167e-11 0.0 2.378952054656901e-25 -7.1458666999402505 -7.145866699940252 -1.0424175499402517 -5.974879480466358e-11 0.0 -2.366701234990387e-05 -1.5707009474383753 1.5708489418029785 -1.5707362333880823 -1.5706947485553187 2.3968450477696024e-05 0.0 0.0 -2.3968450477696024e-05 2.3968450477696024e-05 2.3968450477696024e-05 2.3968450477696024e-05 0.008972168900072575 -0.4889832139015198 -0.8021716475486755 -0.2215607762336731 -0.054830700159072876 0.16337309777736664 0.006729126907885075 -0.4844971299171448 -0.7991215586662292 -0.2215607762336731 -0.04923573136329651 0.15889713168144226 -0.2984389314355623 -0.11275624024214652 0.313134941086361 -2.2180344762919844 -2.219582058298711 -0.008298778524057278 -6.973691239893986e-09 -1.9847496136104453e-06 5.097068944090244e-06 -2.392008730638514e-05 1.361562259480459e-07 -2.4040918845148012e-05 5.2364285806108635 4.9122528465306905 1.320276165832559 -0.6607180801751931 0.45958346319429616 0.7601223284948899 -0.2984301935029838 -0.11275507530515129 0.3131843183387719 -2.21782708883282 -2.2194802147227084 -0.00817993372618954 0.0 0.0 0.0 0.0 0.0 0.0

3462.6879999999996 0.0 -1.5707963267948966 1.570796326794896 -1.5707963267948966 -1.5707963267948966 0.0 -0.0 0.0 0.0 -0.0 0.0 -0.0 0.0 0.0 0.0 0.0 0.0 0.0 2.072980291448686e-26 -0.620381750820575 -0.8463465614411209 -0.25255488256030517 -1.4392506443496167e-11 0.0 2.378952054656901e-25 -7.1458666999402505 -7.145866699940252 -1.0424175499402517 -5.974879480466358e-11 0.0 -3.5587941304981996e-05 -1.5707481543170374 1.5707893371582031 -1.5707481543170374 -1.5707667509662073 3.5952674807049334e-05 0.0 0.0 -2.3968450477696024e-05 2.3968450477696024e-05 2.3968450477696024e-05 2.3968450477696024e-05 0.008972168900072575 -0.4777680039405823 -0.8021716475486755 -0.2215607762336731 -0.05371170490980148 0.16001611948013306 0.006729126907885075 -0.4844971299171448 -0.7991215586662292 -0.2215607762336731 -0.04923573136329651 0.15889713168144226 -0.29843858181011956 -0.11274684693420356 0.3131678946058185 -2.217965833730974 -2.2194601770847613 -0.008246527050891014 -6.4519924773281025e-09 -1.9847481999125826e-06 5.096927772575592e-06 -2.3922940346239012e-05 1.3815718783654319e-07 -2.403806730572953e-05 5.829595495798117 5.085401905565338 1.320816882689089 -0.6696867786193961 0.5085487049776037 0.7449664586594952 -0.2984301935029838 -0.11275507530515129 0.3131843183387719 -2.21782708883282 -2.2194802147227084 -0.00817993372618954 0.0 0.0 0.0 0.0 0.0 0.0

3462.696 0.0 -1.5707963267948966 1.570796326794896 -1.5707963267948966 -1.5707963267948966 0.0 -0.0 0.0 0.0 -0.0 0.0 -0.0 0.0 0.0 0.0 0.0 0.0 0.0 2.072980291448686e-26 -0.620381750820575 -0.8463465614411209 -0.25255488256030517 -1.4392506443496167e-11 0.0 2.378952054656901e-25 -7.1458666999402505 -7.145866699940252 -1.0424175499402517 -5.974879480466358e-11 0.0 -1.1746083394825746e-05 -1.5707243124591272 1.5708250999450684 -1.5707362333880823 -1.5707305113421839 2.3968450477696024e-05 0.0 0.0 -2.3968450477696024e-05 2.3968450477696024e-05 2.3968450477696024e-05 2.3968450477696024e-05 0.011215210892260075 -0.4912262558937073 -0.806746780872345 -0.2215607762336731 -0.054830700159072876 0.16225410997867584 0.006729126907885075 -0.4844971299171448 -0.7991215586662292 -0.2215607762336731 -0.04923573136329651 0.15889713168144226 -0.2984357951114349 -0.11275688862994195 0.31314905778433366 -2.2179798287032386 -2.2195537192665196 -0.008285876799425638 -6.708976264567439e-09 -1.984749076998892e-06 5.096998772858614e-06 -2.3921224420854225e-05 1.3672504554862637e-07 -2.403978416114186e-05 5.294776043152274 5.014281547102256 1.1172214152694993 -0.6689760248741363 0.4817817116264125 0.7551121771510476 -0.2984301935029838 -0.11275507530515129 0.3131843183387719 -2.21782708883282 -2.2194802147227084 -0.00817993372618954 0.0 0.0 0.0 0.0 0.0 0.0

3462.7039999999997 0.0 -1.5707963267948966 1.570796326794896 -1.5707963267948966 -1.5707963267948966 0.0 -0.0 0.0 0.0 -0.0 0.0 -0.0 0.0 0.0 0.0 0.0 0.0 0.0 2.072980291448686e-26 -0.620381750820575 -0.8463465614411209 -0.25255488256030517 -1.4392506443496167e-11 0.0 2.378952054656901e-25 -7.1458666999402505 -7.145866699940252 -1.0424175499402517 -5.974879480466358e-11 0.0 2.3968450477696024e-05 -1.5707481543170374 1.5708250999450684 -1.5707243124591272 -1.5707305113421839 0.0 0.0 0.0 -2.3968450477696024e-05 2.3968450477696024e-05 2.3968450477696024e-05 2.3968450477696024e-05 0.006729126907885075 -0.4912262558937073 -0.7991215586662292 -0.22267977893352509 -0.05371170490980148 0.16001611948013306 0.006729126907885075 -0.4844971299171448 -0.7991215586662292 -0.2215607762336731 -0.04923573136329651 0.15889713168144226 -0.2984269416492201 -0.11276754744493185 0.3131551578339971 -2.217907720716533 -2.2196138375058023 -0.008272623017540335 -6.516488929906491e-09 -1.984749361303599e-06 5.096998905873372e-06 -2.392151668783e-05 1.3587236747050147e-07 -2.4039499245780623e-05 4.999745005380059 4.673768530168814 1.478382330574711 -0.6359110484451257 0.42134316300941976 0.7443855911429181 -0.2984301935029838 -0.11275507530515129 0.3131843183387719 -2.21782708883282 -2.2194802147227084 -0.00817993372618954 0.0 0.0 0.0 0.0 0.0 0.0

3462.712 0.0 -1.5707963267948966 1.570796326794896 -1.5707963267948966 -1.5707963267948966 0.0 -0.0 0.0 0.0 -0.0 0.0 -0.0 0.0 0.0 0.0 0.0 0.0 0.0 2.072980291448686e-26 -0.620381750820575 -0.8463465614411209 -0.25255488256030517 -1.4392506443496167e-11 0.0 2.378952054656901e-25 -7.1458666999402505 -7.145866699940252 -1.0424175499402517 -5.974879480466358e-11 0.0 -1.1746083394825746e-05 -1.5707009474383753 1.5708370208740234 -1.5707123915301722 -1.5707667509662073 2.3968450477696024e-05 0.0 0.0 -2.3968450477696024e-05 2.3968450477696024e-05 2.3968450477696024e-05 2.3968450477696024e-05 0.01345825381577015 -0.4822540879249573 -0.7975965142250061 -0.22267977893352509 -0.04364075884222984 0.16225410997867584 0.006729126907885075 -0.4844971299171448 -0.7991215586662292 -0.2215607762336731 -0.04923573136329651 0.15889713168144226 -0.29843661337354455 -0.11275386510862034 0.31313651043242935 -2.217991106623952 -2.2195648901829865 -0.008391736392730553 -6.8887060948178825e-09 -1.984748677161961e-06 5.0969269971820586e-06 -2.391980521323021e-05 1.3760025452928083e-07 -2.4041193448145925e-05 5.414203738787652 5.155433763508222 1.5481721775330641 -0.6288007958310228 0.449865356623993 0.7549300444492274 -0.2984301935029838 -0.11275507530515129 0.3131843183387719 -2.21782708883282 -2.2194802147227084 -0.00817993372618954 0.0 0.0 0.0 0.0 0.0 0.0

3462.72 0.0 -1.5707963267948966 1.570796326794896 -1.5707963267948966 -1.5707963267948966 0.0 -0.0 0.0 0.0 -0.0 0.0 -0.0 0.0 0.0 0.0 0.0 0.0 0.0 2.072980291448686e-26 -0.620381750820575 -0.8463465614411209 -0.25255488256030517 -1.4392506443496167e-11 0.0 2.378952054656901e-25 -7.1458666999402505 -7.145866699940252 -1.0424175499402517 -5.974879480466358e-11 0.0 -3.5587941304981996e-05 -1.5707243124591272 1.5708250999450684 -1.5707362333880823 -1.5707667509662073 1.1984225238848012e-05 0.0 0.0 -2.3968450477696024e-05 2.3968450477696024e-05 2.3968450477696024e-05 2.3968450477696024e-05 0.006729126907885075 -0.4912262558937073 -0.7991215586662292 -0.2204417884349823 -0.0503547228872776 0.16561108827590942 0.006729126907885075 -0.4867401719093323 -0.7991215586662292 -0.2215607762336731 -0.04923573136329651 0.15889713168144226 -0.2984384854195324 -0.11274678876779705 0.3131490801491148 -2.2179748769944303 -2.2195224114663765 -0.008326105163147211 -6.7560823226205575e-09 -1.984748380768372e-06 5.096927302135003e-06 -2.3921221753456052e-05 1.3816396107594392e-07 -2.4039778585590722e-05 4.999921902984078 4.760647623128121 1.430438653885407 -0.6274364464347734 0.4357336422970256 0.7704514524262697 -0.2984301935029838 -0.11275507530515129 0.3131843183387719 -2.21782708883282 -2.2194802147227084 -0.00817993372618954 0.0 0.0 0.0 0.0 0.0 0.0

3462.728 0.0 -1.5707963267948966 1.570796326794896 -1.5707963267948966 -1.5707963267948966 0.0 -0.0 0.0 0.0 -0.0 0.0 -0.0 0.0 0.0 0.0 0.0 0.0 0.0 2.072980291448686e-26 -0.620381750820575 -0.8463465614411209 -0.25255488256030517 -1.4392506443496167e-11 0.0 2.378952054656901e-25 -7.1458666999402505 -7.145866699940252 -1.0424175499402517 -5.974879480466358e-11 0.0 0.0 -1.5707481543170374 1.5708012580871582 -1.570688549672262 -1.5707305113421839 5.992112710373476e-05 0.0 0.0 -2.3968450477696024e-05 2.3968450477696024e-05 2.3968450477696024e-05 2.3968450477696024e-05 0.008972168900072575 -0.4844971299171448 -0.7975965142250061 -0.2204417884349823 -0.04699774086475372 0.15889713168144226 0.006729126907885075 -0.4867401719093323 -0.7991215586662292 -0.22267977893352509 -0.04923573136329651 0.15889713168144226 -0.2984286701221355 -0.11276039700535202 0.31315922517140365 -2.218006787828039 -2.2195265376626425 -0.008285805104860183 -6.442298835681847e-09 -1.984749242217135e-06 5.096999028540033e-06 -2.3921229319389497e-05 1.3645024376788088e-07 -2.4039785165003603e-05 5.296197923287911 4.865694762418726 1.4981207547693072 -0.62049335211094 0.45464733514629185 0.7394162738011406 -0.2984301935029838 -0.11275507530515129 0.3131843183387719 -2.21782708883282 -2.2194802147227084 -0.00817993372618954 0.0 0.0 0.0 0.0 0.0 0.0

3462.736 0.0 -1.5707963267948966 1.570796326794896 -1.5707963267948966 -1.5707963267948966 0.0 -0.0 0.0 0.0 -0.0 0.0 -0.0 0.0 0.0 0.0 0.0 0.0 0.0 2.072980291448686e-26 -0.620381750820575 -0.8463465614411209 -0.25255488256030517 -1.4392506443496167e-11 0.0 2.378952054656901e-25 -7.1458666999402505 -7.145866699940252 -1.0424175499402517 -5.974879480466358e-11 0.0 2.3968450477696024e-05 -1.5707481543170374 1.5708250999450684 -1.5707481543170374 -1.570742432271139 -1.1746083394825746e-05 0.0 0.0 -2.3968450477696024e-05 2.3968450477696024e-05 2.3968450477696024e-05 2.3968450477696024e-05 0.008972168900072575 -0.4732819199562073 -0.7991215586662292 -0.22267977893352509 -0.0503547228872776 0.15777812898159027 0.006729126907885075 -0.4844971299171448 -0.7991215586662292 -0.2215607762336731 -0.04923573136329651 0.15889713168144226 -0.2984289067438293 -0.11276658235025351 0.31315720005255787 -2.2178767895788956 -2.219609117157938 -0.008259326146429331 -6.516465583280584e-09 -1.9847490939649517e-06 5.096975443309365e-06 -2.392208839990506e-05 1.3615337522233707e-07 -2.40389265765951e-05 5.9482958873213185 5.095751779304933 1.4806983933621507 -0.6550232459031632 0.49961130752466143 0.7345054715957493 -0.2984301935029838 -0.11275507530515129 0.3131843183387719 -2.21782708883282 -2.2194802147227084 -0.00817993372618954 0.0 0.0 0.0 0.0 0.0 0.0

3462.7439999999997 0.0 -1.5707963267948966 1.570796326794896 -1.5707963267948966 -1.5707963267948966 0.0 -0.0 0.0 0.0 -0.0 0.0 -0.0 0.0 0.0 0.0 0.0 0.0 0.0 2.072980291448686e-26 -0.620381750820575 -0.8463465614411209 -0.25255488256030517 -1.4392506443496167e-11 0.0 2.378952054656901e-25 -7.1458666999402505 -7.145866699940252 -1.0424175499402517 -5.974879480466358e-11 0.0 -1.1746083394825746e-05 -1.5707243124591272 1.5708370208740234 -1.5707123915301722 -1.5707548300372522 1.1984225238848012e-05 0.0 0.0 -2.3968450477696024e-05 2.3968450477696024e-05 2.3968450477696024e-05 2.3968450477696024e-05 0.011215210892260075 -0.4755249619483948 -0.8006466031074524 -0.21596580743789673 -0.054830700159072876 0.16001611948013306 0.006729126907885075 -0.4732819199562073 -0.7991215586662292 -0.2215607762336731 -0.04923573136329651 0.15889713168144226 -0.29843284582182067 -0.11275485556060309 0.3131434782146789 -2.217972226876179 -2.2195725041319383 -0.008352619336533433 -6.769630779043392e-09 -1.9847488581890533e-06 5.096950665165269e-06 -2.3920366729283193e-05 1.3731386973819282e-07 -2.4040636392686202e-05 5.888661621196311 5.205127848881279 1.2679325195193987 -0.684823502398944 0.5439373155072931 0.7450994756120176 -0.2984301935029838 -0.11275507530515129 0.3131843183387719 -2.21782708883282 -2.2194802147227084 -0.00817993372618954 0.0 0.0 0.0 0.0 0.0 0.0

3462.752 0.0 -1.5707963267948966 1.570796326794896 -1.5707963267948966 -1.5707963267948966 0.0 -0.0 0.0 0.0 -0.0 0.0 -0.0 0.0 0.0 0.0 0.0 0.0 0.0 2.072980291448686e-26 -0.620381750820575 -0.8463465614411209 -0.25255488256030517 -1.4392506443496167e-11 0.0 2.378952054656901e-25 -7.1458666999402505 -7.145866699940252 -1.0424175499402517 -5.974879480466358e-11 0.0 -2.366701234990387e-05 -1.5707481543170374 1.5708370208740234 -1.5707600752459925 -1.570742432271139 4.793690095539205e-05 0.0 0.0 -2.3968450477696024e-05 2.3968450477696024e-05 2.3968450477696024e-05 2.3968450477696024e-05 0.011215210892260075 -0.4777680039405823 -0.806746780872345 -0.2193228006362915 -0.04699774086475372 0.16001611948013306 0.006729126907885075 -0.4755249619483948 -0.7991215586662292 -0.2215607762336731 -0.04923573136329651 0.15889713168144226 -0.29843427410146695 -0.11275236105545615 0.3131546576742818 -2.2179958337848418 -2.2194901256650623 -0.00825927825890246 -6.671879193516134e-09 -1.984748783873065e-06 5.096975369002021e-06 -2.3922081062455304e-05 1.3729183210123993e-07 -2.4038926324066084e-05 6.006393589958914 5.250027450374853 1.0700038302541686 -0.6518860943826924 0.555041454193956 0.7452466218164557 -0.2984301935029838 -0.11275507530515129 0.3131843183387719 -2.21782708883282 -2.2194802147227084 -0.00817993372618954 0.0 0.0 0.0 0.0 0.0 0.0

3462.7599999999998 0.0 -1.5707963267948966 1.570796326794896 -1.5707963267948966 -1.5707963267948966 0.0 -0.0 0.0 0.0 -0.0 0.0 -0.0 0.0 0.0 0.0 0.0 0.0 0.0 2.072980291448686e-26 -0.620381750820575 -0.8463465614411209 -0.25255488256030517 -1.4392506443496167e-11 0.0 2.378952054656901e-25 -7.1458666999402505 -7.145866699940252 -1.0424175499402517 -5.974879480466358e-11 0.0 0.0 -1.5707724730121058 1.5708012580871582 -1.5707600752459925 -1.570742432271139 3.5952674807049334e-05 0.0 0.0 -2.3968450477696024e-05 2.3968450477696024e-05 2.3968450477696024e-05 2.3968450477696024e-05 0.006729126907885075 -0.4800110459327698 -0.796071469783783 -0.2193228006362915 -0.0503547228872776 0.16337309777736664 0.006729126907885075 -0.4732819199562073 -0.7991215586662292 -0.2215607762336731 -0.04923573136329651 0.15889713168144226 -0.2984306425348391 -0.11275947410603002 0.3131725970390912 -2.217926382467018 -2.2194996795799953 -0.008192471498989986 -6.318357870315161e-09 -1.984748795304098e-06 5.096975815045978e-06 -2.3923528571587115e-05 1.367211690639255e-07 -2.4037489016661173e-05 5.474698183772398 4.90646032026744 1.5421227091463172 -0.6394352173924992 0.47058088577023677 0.7603301426727037 -0.2984301935029838 -0.11275507530515129 0.3131843183387719 -2.21782708883282 -2.2194802147227084 -0.00817993372618954 0.0 0.0 0.0 0.0 0.0 0.0

3462.768 0.0 -1.5707963267948966 1.570796326794896 -1.5707963267948966 -1.5707963267948966 0.0 -0.0 0.0 0.0 -0.0 0.0 -0.0 0.0 0.0 0.0 0.0 0.0 0.0 2.072980291448686e-26 -0.620381750820575 -0.8463465614411209 -0.25255488256030517 -1.4392506443496167e-11 0.0 2.378952054656901e-25 -7.1458666999402505 -7.145866699940252 -1.0424175499402517 -5.974879480466358e-11 0.0 1.1984225238848012e-05 -1.5707362333880823 1.5708370208740234 -1.5707481543170374 -1.5707548300372522 0.0 0.0 0.0 -2.3968450477696024e-05 2.3968450477696024e-05 2.3968450477696024e-05 2.3968450477696024e-05 0.0022430422250181437 -0.4800110459327698 -0.7991215586662292 -0.2215607762336731 -0.05259270966053009 0.15665914118289948 0.006729126907885075 -0.4732819199562073 -0.7991215586662292 -0.2215607762336731 -0.04923573136329651 0.15889713168144226 -0.2984311947343488 -0.11276196678918636 0.313150089153895 -2.217908753303477 -2.2195884634563177 -0.008299547402342799 -6.661813764921318e-09 -1.9847488820374083e-06 5.096950815961709e-06 -2.3921513840448367e-05 1.3673882785769391e-07 -2.403949500581719e-05 5.593376059326293 4.653574193502648 1.45488118762012 -0.6290315624509923 0.47753896743624974 0.7291903301810041 -0.2984301935029838 -0.11275507530515129 0.3131843183387719 -2.21782708883282 -2.2194802147227084 -0.00817993372618954 0.0 0.0 0.0 0.0 0.0 0.0

3462.776 0.0 -1.5707963267948966 1.570796326794896 -1.5707963267948966 -1.5707963267948966 0.0 -0.0 0.0 0.0 -0.0 0.0 -0.0 0.0 0.0 0.0 0.0 0.0 0.0 2.072980291448686e-26 -0.620381750820575 -0.8463465614411209 -0.25255488256030517 -1.4392506443496167e-11 0.0 2.378952054656901e-25 -7.1458666999402505 -7.145866699940252 -1.0424175499402517 -5.974879480466358e-11 0.0 -2.366701234990387e-05 -1.5707243124591272 1.5708012580871582 -1.5707243124591272 -1.5707305113421839 0.0 0.0 0.0 -2.3968450477696024e-05 2.3968450477696024e-05 2.3968450477696024e-05 2.3968450477696024e-05 0.006729126907885075 -0.4732819199562073 -0.796071469783783 -0.22491776943206787 -0.051473718136548996 0.15889713168144226 0.006729126907885075 -0.4777680039405823 -0.7991215586662292 -0.2215607762336731 -0.04923573136329651 0.15889713168144226 -0.29843812946974474 -0.112753350014071 0.3131551599600821 -2.2179606216424497 -2.219561173207163 -0.008272742200498413 -6.6109210704039724e-09 -1.9847489460300838e-06 5.096998945973252e-06 -2.39215101926538e-05 1.370100316017677e-07 -2.4039499252028097e-05 5.830639125305073 4.970742240188214 1.6642488487248743 -0.6500470850671478 0.4638096438154508 0.7394510469518548 -0.2984301935029838 -0.11275507530515129 0.3131843183387719 -2.21782708883282 -2.2194802147227084 -0.00817993372618954 0.0 0.0 0.0 0.0 0.0 0.0

3462.7839999999997 0.0 -1.5707963267948966 1.570796326794896 -1.5707963267948966 -1.5707963267948966 0.0 -0.0 0.0 0.0 -0.0 0.0 -0.0 0.0 0.0 0.0 0.0 0.0 0.0 2.072980291448686e-26 -0.620381750820575 -0.8463465614411209 -0.25255488256030517 -1.4392506443496167e-11 0.0 2.378952054656901e-25 -7.1458666999402505 -7.145866699940252 -1.0424175499402517 -5.974879480466358e-11 0.0 -1.1746083394825746e-05 -1.5707362333880823 1.5707893371582031 -1.5707362333880823 -1.5707305113421839 0.0 0.0 0.0 -2.3968450477696024e-05 2.3968450477696024e-05 2.3968450477696024e-05 2.3968450477696024e-05 0.01345825381577015 -0.4732819199562073 -0.8021716475486755 -0.22267977893352509 -0.051473718136548996 0.16337309777736664 0.006729126907885075 -0.4777680039405823 -0.7991215586662292 -0.22491776943206787 -0.04923573136329651 0.15889713168144226 -0.2984368315259044 -0.11275693406621064 0.31316329599909426 -2.2179295540968735 -2.2195565883317983 -0.00823294770512403 -6.465648129581467e-09 -1.9847489322907223e-06 5.09699914368227e-06 -2.392237071345271e-05 1.3672091652357185e-07 -2.4038643490936943e-05 6.066100516238448 5.420675824334953 1.3465235450682158 -0.6869080173190868 0.5207726756588791 0.7605666714251857 -0.2984301935029838 -0.11275507530515129 0.3131843183387719 -2.21782708883282 -2.2194802147227084 -0.00817993372618954 0.0 0.0 0.0 0.0 0.0 0.0

3462.792 0.0 -1.5707963267948966 1.570796326794896 -1.5707963267948966 -1.5707963267948966 0.0 -0.0 0.0 0.0 -0.0 0.0 -0.0 0.0 0.0 0.0 0.0 0.0 0.0 2.072980291448686e-26 -0.620381750820575 -0.8463465614411209 -0.25255488256030517 -1.4392506443496167e-11 0.0 2.378952054656901e-25 -7.1458666999402505 -7.145866699940252 -1.0424175499402517 -5.974879480466358e-11 0.0 -2.366701234990387e-05 -1.5706647078143519 1.5708370208740234 -1.5707243124591272 -1.5707305113421839 2.3968450477696024e-05 0.0 0.0 -2.3968450477696024e-05 2.3968450477696024e-05 2.3968450477696024e-05 2.3968450477696024e-05 0.011215210892260075 -0.4710388779640198 -0.8052217364311218 -0.22267977893352509 -0.04587874934077263 0.15889713168144226 0.006729126907885075 -0.4755249619483948 -0.7991215586662292 -0.22267977893352509 -0.04923573136329651 0.15889713168144226 -0.29844477982213286 -0.11275328677013763 0.3131266866175595 -2.218034534812505 -2.21958216752446 -0.008378641187251519 -7.097408847788189e-09 -1.9847490757002215e-06 5.096998241278108e-06 -2.3919217477820843e-05 1.3701548974320806e-07 -2.4041780465234662e-05 6.303054943651405 5.344188925833801 1.2116742421627522 -0.6545867582524154 0.5520274890115472 0.7399486750561654 -0.2984301935029838 -0.11275507530515129 0.3131843183387719 -2.21782708883282 -2.2194802147227084 -0.00817993372618954 0.0 0.0 0.0 0.0 0.0 0.0

3462.7999999999997 0.0 -1.5707963267948966 1.570796326794896 -1.5707963267948966 -1.5707963267948966 0.0 -0.0 0.0 0.0 -0.0 0.0 -0.0 0.0 0.0 0.0 0.0 0.0 0.0 2.072980291448686e-26 -0.620381750820575 -0.8463465614411209 -0.25255488256030517 -1.4392506443496167e-11 0.0 2.378952054656901e-25 -7.1458666999402505 -7.145866699940252 -1.0424175499402517 -5.974879480466358e-11 0.0 -1.1746083394825746e-05 -1.5707243124591272 1.5708012580871582 -1.570688549672262 -1.5707548300372522 3.5952674807049334e-05 0.0 0.0 -2.3968450477696024e-05 2.3968450477696024e-05 2.3968450477696024e-05 2.3968450477696024e-05 0.01345825381577015 -0.4732819199562073 -0.8006466031074524 -0.2193228006362915 -0.05259270966053009 0.15554013848304749 0.006729126907885075 -0.4755249619483948 -0.7991215586662292 -0.2215607762336731 -0.04923573136329651 0.15889713168144226 -0.29843384012310414 -0.11275487996432934 0.31315212273351023 -2.2179929110428973 -2.219539861499049 -0.008339318694219196 -6.587046930882241e-09 -1.9847488025962206e-06 5.096950914033388e-06 -2.3920654967413555e-05 1.37314771848577e-07 -2.404035174633205e-05 6.006982909404428 5.27673333469054 1.3406017641851793 -0.680321644571814 0.5321345520987698 0.7242714051095948 -0.2984301935029838 -0.11275507530515129 0.3131843183387719 -2.21782708883282 -2.2194802147227084 -0.00817993372618954 0.0 0.0 0.0 0.0 0.0 0.0

3462.808 0.0 -1.5707963267948966 1.570796326794896 -1.5707963267948966 -1.5707963267948966 0.0 -0.0 0.0 0.0 -0.0 0.0 -0.0 0.0 0.0 0.0 0.0 0.0 0.0 2.072980291448686e-26 -0.620381750820575 -0.8463465614411209 -0.25255488256030517 -1.4392506443496167e-11 0.0 2.378952054656901e-25 -7.1458666999402505 -7.145866699940252 -1.0424175499402517 -5.974879480466358e-11 0.0 0.0 -1.5707243124591272 1.5708250999450684 -1.5707481543170374 -1.5707548300372522 3.5952674807049334e-05 0.0 0.0 -2.3968450477696024e-05 2.3968450477696024e-05 2.3968450477696024e-05 2.3968450477696024e-05 0.008972168900072575 -0.4844971299171448 -0.7991215586662292 -0.2215607762336731 -0.054830700159072876 0.15889713168144226 0.006729126907885075 -0.4755249619483948 -0.7991215586662292 -0.22491776943206787 -0.04923573136329651 0.15889713168144226 -0.29843545428997037 -0.11275839958456968 0.31315009019958273 -2.2179618815231428 -2.219535294917397 -0.008299464645254735 -6.685543290178499e-09 -1.984748750757101e-06 5.0969508360119716e-06 -2.3921512202170028e-05 1.370245845386168e-07 -2.4039495008946805e-05 5.355387024797287 4.887910330371383 1.455263962900112 -0.65874862374025 0.45794595592626763 0.7394157069820481 -0.2984301935029838 -0.11275507530515129 0.3131843183387719 -2.21782708883282 -2.2194802147227084 -0.00817993372618954 0.0 0.0 0.0 0.0 0.0 0.0

3462.816 0.0 -1.5707963267948966 1.570796326794896 -1.5707963267948966 -1.5707963267948966 0.0 -0.0 0.0 0.0 -0.0 0.0 -0.0 0.0 0.0 0.0 0.0 0.0 0.0 2.072980291448686e-26 -0.620381750820575 -0.8463465614411209 -0.25255488256030517 -1.4392506443496167e-11 0.0 2.378952054656901e-25 -7.1458666999402505 -7.145866699940252 -1.0424175499402517 -5.974879480466358e-11 0.0 -3.5587941304981996e-05 -1.5707243124591272 1.5708489418029785 -1.5707481543170374 -1.5707548300372522 0.0 0.0 0.0 -2.3968450477696024e-05 2.3968450477696024e-05 2.3968450477696024e-05 2.3968450477696024e-05 0.008972168900072575 -0.4822540879249573 -0.8006466031074524 -0.22267977893352509 -0.04923573136329651 0.16113510727882385 0.006729126907885075 -0.4755249619483948 -0.7991215586662292 -0.2215607762336731 -0.04923573136329651 0.15889713168144226 -0.29843749439608147 -0.11274775152065626 0.3131429706164751 -2.21797348274514 -2.219547692625577 -0.008326183886884024 -6.877867404052186e-09 -1.984748606665556e-06 5.09695063622586e-06 -2.3920934149615397e-05 1.3787841470018761e-07 -2.4040065328801417e-05 5.533184865543876 4.989940742554999 1.4125479875935645 -0.6411000658309745 0.4711184456285505 0.7498860971360217 -0.2984301935029838 -0.11275507530515129 0.3131843183387719 -2.21782708883282 -2.2194802147227084 -0.00817993372618954 0.0 0.0 0.0 0.0 0.0 0.0

3462.824 0.0 -1.5707963267948966 1.570796326794896 -1.5707963267948966 -1.5707963267948966 0.0 -0.0 0.0 0.0 -0.0 0.0 -0.0 0.0 0.0 0.0 0.0 0.0 0.0 2.072980291448686e-26 -0.620381750820575 -0.8463465614411209 -0.25255488256030517 -1.4392506443496167e-11 0.0 2.378952054656901e-25 -7.1458666999402505 -7.145866699940252 -1.0424175499402517 -5.974879480466358e-11 0.0 -2.366701234990387e-05 -1.5707481543170374 1.5708250999450684 -1.5707362333880823 -1.5707667509662073 2.3968450477696024e-05 0.0 0.0 -2.3968450477696024e-05 2.3968450477696024e-05 2.3968450477696024e-05 2.3968450477696024e-05 0.006729126907885075 -0.4687958359718323 -0.788446307182312 -0.2215607762336731 -0.051473718136548996 0.15889713168144226 0.006729126907885075 -0.4777680039405823 -0.7991215586662292 -0.2204417884349823 -0.04923573136329651 0.15889713168144226 -0.29843329732520574 -0.11275035533373735 0.31315619762980573 -2.2179630833196105 -2.219510363603197 -0.008299550202116661 -6.6108441456172724e-09 -1.9847484672196657e-06 5.096927458917686e-06 -2.3921796548583756e-05 1.3787812639635635e-07 -2.4039208252619574e-05 5.772438875913355 4.948606902726098 1.9297247305103309 -0.6483794010644068 0.4518718335740251 0.739400665560346 -0.2984301935029838 -0.11275507530515129 0.3131843183387719 -2.21782708883282 -2.2194802147227084 -0.00817993372618954 0.0 0.0 0.0 0.0 0.0 0.0

3462.832 0.0 -1.5707963267948966 1.570796326794896 -1.5707963267948966 -1.5707963267948966 0.0 -0.0 0.0 0.0 -0.0 0.0 -0.0 0.0 0.0 0.0 0.0 0.0 0.0 2.072980291448686e-26 -0.620381750820575 -0.8463465614411209 -0.25255488256030517 -1.4392506443496167e-11 0.0 2.378952054656901e-25 -7.1458666999402505 -7.145866699940252 -1.0424175499402517 -5.974879480466358e-11 0.0 -1.1746083394825746e-05 -1.5707362333880823 1.5708370208740234 -1.5707481543170374 -1.570742432271139 3.5952674807049334e-05 0.0 0.0 -2.3968450477696024e-05 2.3968450477696024e-05 2.3968450477696024e-05 2.3968450477696024e-05 0.01345825381577015 -0.4800110459327698 -0.8006466031074524 -0.2215607762336731 -0.05594969168305397 0.16337309777736664 0.006729126907885075 -0.4777680039405823 -0.7991215586662292 -0.2215607762336731 -0.04923573136329651 0.15889713168144226 -0.2984338697978294 -0.11275590592890296 0.3131500815027875 -2.217981184064328 -2.2195284888435407 -0.008285785251275976 -6.7089853965598255e-09 -1.984748906663049e-06 5.096975266472448e-06 -2.392151037679939e-05 1.3700934381673575e-07 -2.403949691324203e-05 5.651237526649798 5.26316995726494 1.3892667097543998 -0.6948258889481277 0.48802159374828125 0.7603300204434965 -0.2984301935029838 -0.11275507530515129 0.3131843183387719 -2.21782708883282 -2.2194802147227084 -0.00817993372618954 0.0 0.0 0.0 0.0 0.0 0.0

3462.8399999999997 0.0 -1.5707963267948966 1.570796326794896 -1.5707963267948966 -1.5707963267948966 0.0 -0.0 0.0 0.0 -0.0 0.0 -0.0 0.0 0.0 0.0 0.0 0.0 0.0 2.072980291448686e-26 -0.620381750820575 -0.8463465614411209 -0.25255488256030517 -1.4392506443496167e-11 0.0 2.378952054656901e-25 -7.1458666999402505 -7.145866699940252 -1.0424175499402517 -5.974879480466358e-11 0.0 -1.1746083394825746e-05 -1.5707123915301722 1.5707893371582031 -1.5707481543170374 -1.570742432271139 2.3968450477696024e-05 0.0 0.0 -2.3968450477696024e-05 2.3968450477696024e-05 2.3968450477696024e-05 2.3968450477696024e-05 0.01345825381577015 -0.4732819199562073 -0.8021716475486755 -0.2193228006362915 -0.04923573136329651 0.16113510727882385 0.006729126907885075 -0.4777680039405823 -0.7991215586662292 -0.2215607762336731 -0.04923573136329651 0.15889713168144226 -0.2984416585963951 -0.1127559517369173 0.31315720318965273 -2.2179559807917633 -2.2195300152390898 -0.008259292555852572 -6.587181510322495e-09 -1.9847487060541484e-06 5.096975503460189e-06 -2.3922083528446372e-05 1.370049689826337e-07 -2.4038926585975e-05 6.0660060748872455 5.386251441630536 1.2735552812926003 -0.6736361714510806 0.5426013722399297 0.7503357752717074 -0.2984301935029838 -0.11275507530515129 0.3131843183387719 -2.21782708883282 -2.2194802147227084 -0.00817993372618954 0.0 0.0 0.0 0.0 0.0 0.0

3462.848 0.0 -1.5707963267948966 1.570796326794896 -1.5707963267948966 -1.5707963267948966 0.0 -0.0 0.0 0.0 -0.0 0.0 -0.0 0.0 0.0 0.0 0.0 0.0 0.0 2.072980291448686e-26 -0.620381750820575 -0.8463465614411209 -0.25255488256030517 -1.4392506443496167e-11 0.0 2.378952054656901e-25 -7.1458666999402505 -7.145866699940252 -1.0424175499402517 -5.974879480466358e-11 0.0 -4.7985707418263246e-05 -1.5707009474383753 1.5708012580871582 -1.5707243124591272 -1.5707305113421839 2.3968450477696024e-05 0.0 0.0 -2.3968450477696024e-05 2.3968450477696024e-05 2.3968450477696024e-05 2.3968450477696024e-05 0.0022430422250181437 -0.4822540879249573 -0.7991215586662292 -0.2215607762336731 -0.0503547228872776 0.15777812898159027 0.006729126907885075 -0.4777680039405823 -0.7991215586662292 -0.2215607762336731 -0.04923573136329651 0.15889713168144226 -0.2984446385192514 -0.11274608353135211 0.3131481847170036 -2.2180257935265124 -2.2195193176843784 -0.008298696983169136 -6.7783358124559924e-09 -1.984748775844175e-06 5.096998792352813e-06 -2.392094516022925e-05 1.3759241586017917e-07 -2.4040058171781977e-05 5.474955436058005 4.625472106954835 1.4546476759180043 -0.6163138713139976 0.4677989407309831 0.7343062772870582 -0.2984301935029838 -0.11275507530515129 0.3131843183387719 -2.21782708883282 -2.2194802147227084 -0.00817993372618954 0.0 0.0 0.0 0.0 0.0 0.0

3462.8559999999998 0.0 -1.5707963267948966 1.570796326794896 -1.5707963267948966 -1.5707963267948966 0.0 -0.0 0.0 0.0 -0.0 0.0 -0.0 0.0 0.0 0.0 0.0 0.0 0.0 2.072980291448686e-26 -0.620381750820575 -0.8463465614411209 -0.25255488256030517 -1.4392506443496167e-11 0.0 2.378952054656901e-25 -7.1458666999402505 -7.145866699940252 -1.0424175499402517 -5.974879480466358e-11 0.0 -1.1746083394825746e-05 -1.5707362333880823 1.5708613395690918 -1.5707481543170374 -1.5707305113421839 1.1984225238848012e-05 0.0 0.0 -2.3968450477696024e-05 2.3968450477696024e-05 2.3968450477696024e-05 2.3968450477696024e-05 0.008972168900072575 -0.4867401719093323 -0.7975965142250061 -0.22379876673221588 -0.05259270966053009 0.16337309777736664 0.006729126907885075 -0.4777680039405823 -0.7991215586662292 -0.2215607762336731 -0.04923573136329651 0.15889713168144226 -0.2984318571007443 -0.11275685981135819 0.3131428121835963 -2.2179727188069274 -2.2195732058014457 -0.008299694914208677 -6.833181501718546e-09 -1.9847491825481313e-06 5.09699857276615e-06 -2.3920925548576638e-05 1.3672620075109044e-07 -2.4040080469943924e-05 5.177744887921112 4.889598072326802 1.5716050826188925 -0.6485451982504769 0.4229245583193288 0.7599404158155446 -0.2984301935029838 -0.11275507530515129 0.3131843183387719 -2.21782708883282 -2.2194802147227084 -0.00817993372618954 0.0 0.0 0.0 0.0 0.0 0.0

3462.864 0.0 -1.5707963267948966 1.570796326794896 -1.5707963267948966 -1.5707963267948966 0.0 -0.0 0.0 0.0 -0.0 0.0 -0.0 0.0 0.0 0.0 0.0 0.0 0.0 2.072980291448686e-26 -0.620381750820575 -0.8463465614411209 -0.25255488256030517 -1.4392506443496167e-11 0.0 2.378952054656901e-25 -7.1458666999402505 -7.145866699940252 -1.0424175499402517 -5.974879480466358e-11 0.0 -1.1746083394825746e-05 -1.5707362333880823 1.5708613395690918 -1.5707362333880823 -1.5707667509662073 1.1984225238848012e-05 0.0 0.0 -2.3968450477696024e-05 2.3968450477696024e-05 2.3968450477696024e-05 2.3968450477696024e-05 0.006729126907885075 -0.4800110459327698 -0.7975965142250061 -0.21820379793643951 -0.054830700159072876 0.16225410997867584 0.006729126907885075 -0.4777680039405823 -0.7991215586662292 -0.2215607762336731 -0.04923573136329651 0.15889713168144226 -0.2984308770086021 -0.1127538669449932 0.31314181715303535 -2.217960509516738 -2.2195608671887217 -0.00835308157100313 -6.8329426256126995e-09 -1.9847486925291278e-06 5.096927078275617e-06 -2.3920640407373353e-05 1.3759713582224686e-07 -2.4040360301620618e-05 5.533851838017602 4.911398373726411 1.450800962769493 -0.6607215387720071 0.4885020412968409 0.7551658549876487 -0.2984301935029838 -0.11275507530515129 0.3131843183387719 -2.21782708883282 -2.2194802147227084 -0.00817993372618954 0.0 0.0 0.0 0.0 0.0 0.0

3462.872 0.0 -1.5707963267948966 1.570796326794896 -1.5707963267948966 -1.5707963267948966 0.0 -0.0 0.0 0.0 -0.0 0.0 -0.0 0.0 0.0 0.0 0.0 0.0 0.0 2.072980291448686e-26 -0.620381750820575 -0.8463465614411209 -0.25255488256030517 -1.4392506443496167e-11 0.0 2.378952054656901e-25 -7.1458666999402505 -7.145866699940252 -1.0424175499402517 -5.974879480466358e-11 0.0 -5.990663637334137e-05 -1.5707123915301722 1.5708131790161133 -1.5707362333880823 -1.5707305113421839 2.3968450477696024e-05 0.0 0.0 -2.3968450477696024e-05 2.3968450477696024e-05 2.3968450477696024e-05 2.3968450477696024e-05 0.011215210892260075 -0.4822540879249573 -0.7930214405059814 -0.2204417884349823 -0.051473718136548996 0.16337309777736664 0.006729126907885075 -0.4777680039405823 -0.7991215586662292 -0.2215607762336731 -0.04923573136329651 0.15889713168144226 -0.2984441334121888 -0.11274252476212275 0.31314905879537325 -2.218033338599694 -2.219500435390979 -0.008286008419976818 -6.804506715072642e-09 -1.984748700289178e-06 5.096998792909555e-06 -2.3921217810545692e-05 1.378761806665595e-07 -2.4039784164265624e-05 5.237583663660132 5.0086705123540245 1.7020795593910463 -0.6532172307106171 0.4323340389893855 0.7600034740601033 -0.2984301935029838 -0.11275507530515129 0.3131843183387719 -2.21782708883282 -2.2194802147227084 -0.00817993372618954 0.0 0.0 0.0 0.0 0.0 0.0

3462.8799999999997 0.0 -1.5707963267948966 1.570796326794896 -1.5707963267948966 -1.5707963267948966 0.0 -0.0 0.0 0.0 -0.0 0.0 -0.0 0.0 0.0 0.0 0.0 0.0 0.0 2.072980291448686e-26 -0.620381750820575 -0.8463465614411209 -0.25255488256030517 -1.4392506443496167e-11 0.0 2.378952054656901e-25 -7.1458666999402505 -7.145866699940252 -1.0424175499402517 -5.974879480466358e-11 0.0 -2.366701234990387e-05 -1.5707362333880823 1.5708370208740234 -1.5707243124591272 -1.5708025137530726 -2.366701234990387e-05 0.0 0.0 -2.3968450477696024e-05 2.3968450477696024e-05 2.3968450477696024e-05 2.3968450477696024e-05 0.004486084450036287 -0.4844971299171448 -0.7930214405059814 -0.2204417884349823 -0.048116736114025116 0.16113510727882385 0.006729126907885075 -0.4800110459327698 -0.7991215586662292 -0.2215607762336731 -0.04923573136329651 0.15889713168144226 -0.2984332529964108 -0.1127473836391925 0.3131480838725228 -2.217910183860919 -2.219563076831236 -0.008379045865607433 -6.732242411015192e-09 -1.9847480269587902e-06 5.096856728012219e-06 -2.3920938240496368e-05 1.3873922466711243e-07 -2.404005846016297e-05 5.119606991632752 4.639483840082443 1.700777359832669 -0.6072038503422571 0.42261164691444913 0.7496313795931376 -0.2984301935029838 -0.11275507530515129 0.3131843183387719 -2.21782708883282 -2.2194802147227084 -0.00817993372618954 0.0 0.0 0.0 0.0 0.0 0.0

3462.888 0.0 -1.5707963267948966 1.570796326794896 -1.5707963267948966 -1.5707963267948966 0.0 -0.0 0.0 0.0 -0.0 0.0 -0.0 0.0 0.0 0.0 0.0 0.0 0.0 2.072980291448686e-26 -0.620381750820575 -0.8463465614411209 -0.25255488256030517 -1.4392506443496167e-11 0.0 2.378952054656901e-25 -7.1458666999402505 -7.145866699940252 -1.0424175499402517 -5.974879480466358e-11 0.0 -3.5587941304981996e-05 -1.5707243124591272 1.5708370208740234 -1.5707481543170374 -1.5707185904132288 4.793690095539205e-05 0.0 0.0 -2.3968450477696024e-05 2.3968450477696024e-05 2.3968450477696024e-05 2.3968450477696024e-05 0.004486084450036287 -0.4732819199562073 -0.8052217364311218 -0.2193228006362915 -0.05371170490980148 0.16337309777736664 0.006729126907885075 -0.4710388779640198 -0.7991215586662292 -0.2215607762336731 -0.04923573136329651 0.15889713168144226 -0.29843847863010436 -0.1127507497317386 0.3131465080729801 -2.218038833485591 -2.2195067356774585 -0.008272666609184092 -6.817235951945484e-09 -1.9847490939810377e-06 5.097022207209116e-06 -2.3921220132598273e-05 1.370085690678533e-07 -2.4039785735769642e-05 6.185510501225239 5.079655734360237 1.138051362332735 -0.6691687252582075 0.5637673061666644 0.7608212013810739 -0.2984301935029838 -0.11275507530515129 0.3131843183387719 -2.21782708883282 -2.2194802147227084 -0.00817993372618954 0.0 0.0 0.0 0.0 0.0 0.0

3462.8959999999997 0.0 -1.5707963267948966 1.570796326794896 -1.5707963267948966 -1.5707963267948966 0.0 -0.0 0.0 0.0 -0.0 0.0 -0.0 0.0 0.0 0.0 0.0 0.0 0.0 2.072980291448686e-26 -0.620381750820575 -0.8463465614411209 -0.25255488256030517 -1.4392506443496167e-11 0.0 2.378952054656901e-25 -7.1458666999402505 -7.145866699940252 -1.0424175499402517 -5.974879480466358e-11 0.0 -5.990663637334137e-05 -1.5707123915301722 1.5708489418029785 -1.5707481543170374 -1.5707185904132288 1.1984225238848012e-05 0.0 0.0 -2.3968450477696024e-05 2.3968450477696024e-05 2.3968450477696024e-05 2.3968450477696024e-05 0.006729126907885075 -0.4710388779640198 -0.7991215586662292 -0.22379876673221588 -0.051473718136548996 0.16225410997867584 0.006729126907885075 -0.4777680039405823 -0.7991215586662292 -0.2215607762336731 -0.04923573136329651 0.15889713168144226 -0.29844215607565866 -0.11274347391885214 0.31313938952442993 -2.218037881593455 -2.2195316459754952 -0.008299339375844558 -6.9871390031664156e-09 -1.98474896843957e-06 5.0970220260181415e-06 -2.3920643627933225e-05 1.3759187669518922e-07 -2.4040356051914487e-05 6.067592594816063 5.1128598338891855 1.5058738237726546 -0.6616938905410967 0.5020371984679637 0.7552275698896886 -0.2984301935029838 -0.11275507530515129 0.3131843183387719 -2.21782708883282 -2.2194802147227084 -0.00817993372618954 0.0 0.0 0.0 0.0 0.0 0.0

3462.904 0.0 -1.5707963267948966 1.570796326794896 -1.5707963267948966 -1.5707963267948966 0.0 -0.0 0.0 0.0 -0.0 0.0 -0.0 0.0 0.0 0.0 0.0 0.0 0.0 2.072980291448686e-26 -0.620381750820575 -0.8463465614411209 -0.25255488256030517 -1.4392506443496167e-11 0.0 2.378952054656901e-25 -7.1458666999402505 -7.145866699940252 -1.0424175499402517 -5.974879480466358e-11 0.0 0.0 -1.570688549672262 1.5708489418029785 -1.5707600752459925 -1.5707305113421839 2.3968450477696024e-05 0.0 0.0 -2.3968450477696024e-05 2.3968450477696024e-05 2.3968450477696024e-05 2.3968450477696024e-05 0.008972168900072575 -0.4755249619483948 -0.7975965142250061 -0.22379876673221588 -0.0503547228872776 0.15889713168144226 0.006729126907885075 -0.4777680039405823 -0.796071469783783 -0.2215607762336731 -0.04923573136329651 0.15889713168144226 -0.2984402280430658 -0.11276037010946112 0.3131332966355448 -2.2179844349442566 -2.2195847096126538 -0.008325544663635229 -6.98977132440953e-09 -1.984749158912867e-06 5.096998375643852e-06 -2.392036462568161e-05 1.3644292699215684e-07 -2.4040639129780746e-05 5.770635891798426 5.04494768495725 1.5728222933706484 -0.6509378127431668 0.4719214211843771 0.7394711357189713 -0.2984301935029838 -0.11275507530515129 0.3131843183387719 -2.21782708883282 -2.2194802147227084 -0.00817993372618954 0.0 0.0 0.0 0.0 0.0 0.0

3462.912 0.0 -1.5707963267948966 1.570796326794896 -1.5707963267948966 -1.5707963267948966 0.0 -0.0 0.0 0.0 -0.0 0.0 -0.0 0.0 0.0 0.0 0.0 0.0 0.0 2.072980291448686e-26 -0.620381750820575 -0.8463465614411209 -0.25255488256030517 -1.4392506443496167e-11 0.0 2.378952054656901e-25 -7.1458666999402505 -7.145866699940252 -1.0424175499402517 -5.974879480466358e-11 0.0 -1.1746083394825746e-05 -1.5707481543170374 1.5708613395690918 -1.5707243124591272 -1.570742432271139 2.3968450477696024e-05 0.0 0.0 -2.3968450477696024e-05 2.3968450477696024e-05 2.3968450477696024e-05 2.3968450477696024e-05 0.004486084450036287 -0.4777680039405823 -0.7991215586662292 -0.2193228006362915 -0.05259270966053009 0.15665914118289948 0.006729126907885075 -0.4777680039405823 -0.7991215586662292 -0.2215607762336731 -0.04923573136329651 0.15889713168144226 -0.2984279714507594 -0.11275586587783863 0.31314434343089037 -2.217986045016495 -2.2195597038762864 -0.008326145491060892 -6.772274398561777e-09 -1.98474910031592e-06 5.096975095350725e-06 -2.3920640813804026e-05 1.3701627362474146e-07 -2.404036429602268e-05 5.711818363466389 4.795355865690724 1.4069270007832173 -0.6407134615449157 0.5018535441565397 0.7293047166135618 -0.2984301935029838 -0.11275507530515129 0.3131843183387719 -2.21782708883282 -2.2194802147227084 -0.00817993372618954 0.0 0.0 0.0 0.0 0.0 0.0

3462.9199999999996 0.0 -1.5707963267948966 1.570796326794896 -1.5707963267948966 -1.5707963267948966 0.0 -0.0 0.0 0.0 -0.0 0.0 -0.0 0.0 0.0 0.0 0.0 0.0 0.0 2.072980291448686e-26 -0.620381750820575 -0.8463465614411209 -0.25255488256030517 -1.4392506443496167e-11 0.0 2.378952054656901e-25 -7.1458666999402505 -7.145866699940252 -1.0424175499402517 -5.974879480466358e-11 0.0 0.0 -1.5707243124591272 1.5708613395690918 -1.5707600752459925 -1.570742432271139 3.5952674807049334e-05 0.0 0.0 -2.3968450477696024e-05 2.3968450477696024e-05 2.3968450477696024e-05 2.3968450477696024e-05 0.0022430422250181437 -0.4822540879249573 -0.7991215586662292 -0.2204417884349823 -0.04587874934077263 0.16001611948013306 0.006729126907885075 -0.4777680039405823 -0.7991215586662292 -0.2215607762336731 -0.04923573136329651 0.15777812898159027 -0.2984334374388233 -0.11275938734600571 0.31314027819611234 -2.217980177371962 -2.2195536699297684 -0.008312763951579406 -6.8706107972938215e-09 -1.9847490394468877e-06 5.096975005470675e-06 -2.3920926537748985e-05 1.3672893687185568e-07 -2.4040078389912952e-05 5.474686624390274 4.6608152905790865 1.4307066371104802 -0.5983854774750494 0.4749754386982253 0.744759528027639 -0.2984301935029838 -0.11275507530515129 0.3131843183387719 -2.21782708883282 -2.2194802147227084 -0.00817993372618954 0.0 0.0 0.0 0.0 0.0 0.0

3462.928 0.0 -1.5707963267948966 1.570796326794896 -1.5707963267948966 -1.5707963267948966 0.0 -0.0 0.0 0.0 -0.0 0.0 -0.0 0.0 0.0 0.0 0.0 0.0 0.0 2.072980291448686e-26 -0.620381750820575 -0.8463465614411209 -0.25255488256030517 -1.4392506443496167e-11 0.0 2.378952054656901e-25 -7.1458666999402505 -7.145866699940252 -1.0424175499402517 -5.974879480466358e-11 0.0 -1.1746083394825746e-05 -1.5707481543170374 1.5708489418029785 -1.5707123915301722 -1.570742432271139 0.0 0.0 0.0 -2.3968450477696024e-05 2.3968450477696024e-05 2.3968450477696024e-05 2.3968450477696024e-05 0.006729126907885075 -0.4844971299171448 -0.8036966919898987 -0.2193228006362915 -0.051473718136548996 0.16001611948013306 0.006729126907885075 -0.4777680039405823 -0.7991215586662292 -0.2215607762336731 -0.04923573136329651 0.15665914118289948 -0.29842801495530147 -0.11275587179249862 0.3131470281997861 -2.2179592852835333 -2.219586048613471 -0.008325698124164897 -6.708971392898523e-09 -1.9847490950643365e-06 5.096975175105587e-06 -2.3920653101883987e-05 1.3701730578401093e-07 -2.4040353142449572e-05 5.53294844370387 4.876720666721537 1.2038800174725979 -0.6420948139890957 0.504397228616225 0.7448937675234822 -0.2984301935029838 -0.11275507530515129 0.3131843183387719 -2.21782708883282 -2.2194802147227084 -0.00817993372618954 0.0 0.0 0.0 0.0 0.0 0.0

3462.9359999999997 0.0 -1.5707963267948966 1.570796326794896 -1.5707963267948966 -1.5707963267948966 0.0 -0.0 0.0 0.0 -0.0 0.0 -0.0 0.0 0.0 0.0 0.0 0.0 0.0 2.072980291448686e-26 -0.620381750820575 -0.8463465614411209 -0.25255488256030517 -1.4392506443496167e-11 0.0 2.378952054656901e-25 -7.1458666999402505 -7.145866699940252 -1.0424175499402517 -5.974879480466358e-11 0.0 -1.1746083394825746e-05 -1.570688549672262 1.5708613395690918 -1.5707123915301722 -1.5707548300372522 2.3968450477696024e-05 0.0 0.0 -2.3968450477696024e-05 2.3968450477696024e-05 2.3968450477696024e-05 2.3968450477696024e-05 0.006729126907885075 -0.4822540879249573 -0.8006466031074524 -0.2215607762336731 -0.048116736114025116 0.16001611948013306 0.006729126907885075 -0.4777680039405823 -0.7991215586662292 -0.2215607762336731 -0.04923573136329651 0.15889713168144226 -0.29843659892683533 -0.11275481438181699 0.3131255401206822 -2.218015341819639 -2.2195891859939123 -0.008419348084799867 -7.076123607692481e-09 -1.9847489512136633e-06 5.096950212651017e-06 -2.3918922275617497e-05 1.373174641105226e-07 -2.4042073513209884e-05 5.5332686382834275 4.87604905586538 1.3881607492282806 -0.6265639756288371 0.47840819196418166 0.7447049430134443 -0.2984301935029838 -0.11275507530515129 0.3131843183387719 -2.21782708883282 -2.2194802147227084 -0.00817993372618954 0.0 0.0 0.0 0.0 0.0 0.0

3462.944 0.0 -1.5707963267948966 1.570796326794896 -1.5707963267948966 -1.5707963267948966 0.0 -0.0 0.0 0.0 -0.0 0.0 -0.0 0.0 0.0 0.0 0.0 0.0 0.0 2.072980291448686e-26 -0.620381750820575 -0.8463465614411209 -0.25255488256030517 -1.4392506443496167e-11 0.0 2.378952054656901e-25 -7.1458666999402505 -7.145866699940252 -1.0424175499402517 -5.974879480466358e-11 0.0 -4.7985707418263246e-05 -1.5707123915301722 1.5708613395690918 -1.5707009474383753 -1.570742432271139 0.0 0.0 0.0 -2.3968450477696024e-05 2.3968450477696024e-05 2.3968450477696024e-05 2.3968450477696024e-05 0.004486084450036287 -0.4687958359718323 -0.7991215586662292 -0.22267977893352509 -0.04923573136329651 0.16337309777736664 0.006729126907885075 -0.4777680039405823 -0.7991215586662292 -0.2215607762336731 -0.04923573136329651 0.16001611948013306 -0.2984358977736124 -0.11274502118314599 0.3131316733257916 -2.2180292046109913 -2.219575643461345 -0.008392048454119548 -7.026524019895348e-09 -1.9847489296414976e-06 5.0969748058793825e-06 -2.3919215939711153e-05 1.378887124969609e-07 -2.4041779117230834e-05 6.1863780406534525 5.078885893793125 1.481805046879853 -0.6485178040370142 0.5190574404142583 0.7605159667040133 -0.2984301935029838 -0.11275507530515129 0.3131843183387719 -2.21782708883282 -2.2194802147227084 -0.00817993372618954 0.0 0.0 0.0 0.0 0.0 0.0

3462.9519999999998 0.0 -1.5707963267948966 1.570796326794896 -1.5707963267948966 -1.5707963267948966 0.0 -0.0 0.0 0.0 -0.0 0.0 -0.0 0.0 0.0 0.0 0.0 0.0 0.0 2.072980291448686e-26 -0.620381750820575 -0.8463465614411209 -0.25255488256030517 -1.4392506443496167e-11 0.0 2.378952054656901e-25 -7.1458666999402505 -7.145866699940252 -1.0424175499402517 -5.974879480466358e-11 0.0 -4.7985707418263246e-05 -1.5707362333880823 1.5708489418029785 -1.5707243124591272 -1.5707305113421839 5.992112710373476e-05 0.0 0.0 -2.3968450477696024e-05 2.3968450477696024e-05 2.3968450477696024e-05 2.3968450477696024e-05 0.01345825381577015 -0.4755249619483948 -0.796071469783783 -0.22491776943206787 -0.04587874934077263 0.15777812898159027 0.006729126907885075 -0.4777680039405823 -0.7991215586662292 -0.2215607762336731 -0.04923573136329651 0.15889713168144226 -0.29843500448429655 -0.1127460423275378 0.313144479557052 -2.2180718776316475 -2.21948543638146 -0.008312407109487961 -6.841781941963071e-09 -1.9847489763564827e-06 5.096998629504341e-06 -2.3920647104801216e-05 1.3759645421779548e-07 -2.4040354723622746e-05 5.711246995089699 5.198019148163354 1.6646452668693925 -0.6427489666657041 0.45417086718565847 0.7341826219703314 -0.2984301935029838 -0.11275507530515129 0.3131843183387719 -2.21782708883282 -2.2194802147227084 -0.00817993372618954 0.0 0.0 0.0 0.0 0.0 0.0

3462.96 0.0 -1.5707963267948966 1.570796326794896 -1.5707963267948966 -1.5707963267948966 0.0 -0.0 0.0 0.0 -0.0 0.0 -0.0 0.0 0.0 0.0 0.0 0.0 0.0 2.072980291448686e-26 -0.620381750820575 -0.8463465614411209 -0.25255488256030517 -1.4392506443496167e-11 0.0 2.378952054656901e-25 -7.1458666999402505 -7.145866699940252 -1.0424175499402517 -5.974879480466358e-11 0.0 -4.7985707418263246e-05 -1.5707243124591272 1.5708131790161133 -1.5707839171039026 -1.5707305113421839 0.0 0.0 0.0 -2.3968450477696024e-05 2.3968450477696024e-05 2.3968450477696024e-05 2.3968450477696024e-05 0.008972168900072575 -0.4822540879249573 -0.8021716475486755 -0.2204417884349823 -0.05259270966053009 0.15889713168144226 0.006729126907885075 -0.4800110459327698 -0.7991215586662292 -0.2215607762336731 -0.04923573136329651 0.15777812898159027 -0.29844479607528346 -0.11274612004615144 0.31315668737596253 -2.217963744305249 -2.219510747668586 -0.008219745127831758 -6.720149157850204e-09 -1.9847486029723504e-06 5.096998966758707e-06 -2.3922649012167026e-05 1.375813461210343e-07 -2.4038357308680462e-05 5.592371030433773 4.977963993662969 1.2960833846493003 -0.6556242089571581 0.4962872364793111 0.7396841505002146 -0.2984301935029838 -0.11275507530515129 0.3131843183387719 -2.21782708883282 -2.2194802147227084 -0.00817993372618954 0.0 0.0 0.0 0.0 0.0 0.0

3462.968 0.0 -1.5707963267948966 1.570796326794896 -1.5707963267948966 -1.5707963267948966 0.0 -0.0 0.0 0.0 -0.0 0.0 -0.0 0.0 0.0 0.0 0.0 0.0 0.0 2.072980291448686e-26 -0.620381750820575 -0.8463465614411209 -0.25255488256030517 -1.4392506443496167e-11 0.0 2.378952054656901e-25 -7.1458666999402505 -7.145866699940252 -1.0424175499402517 -5.974879480466358e-11 0.0 2.3968450477696024e-05 -1.5707123915301722 1.5708131790161133 -1.570688549672262 -1.5707066694842737 2.3968450477696024e-05 0.0 0.0 -2.3968450477696024e-05 2.3968450477696024e-05 2.3968450477696024e-05 2.3968450477696024e-05 0.0 -0.4867401719093323 -0.7945464849472046 -0.2204417884349823 -0.05259270966053009 0.16001611948013306 0.006729126907885075 -0.4755249619483948 -0.7991215586662292 -0.2215607762336731 -0.04923573136329651 0.15889713168144226 -0.29843074568962635 -0.11276948658322435 0.31314497458064017 -2.217975935562137 -2.2196288299699964 -0.008312425589911427 -6.638086337370576e-09 -1.9847497978860875e-06 5.097045718044487e-06 -2.392008581210792e-05 1.3530777025172657e-07 -2.4040929437933244e-05 5.060461708636065 4.406539355921132 1.632434248611603 -0.6088282607999398 0.4234490139126448 0.7443811571412086 -0.2984301935029838 -0.11275507530515129 0.3131843183387719 -2.21782708883282 -2.2194802147227084 -0.00817993372618954 0.0 0.0 0.0 0.0 0.0 0.0

3462.9759999999997 0.0 -1.5707963267948966 1.570796326794896 -1.5707963267948966 -1.5707963267948966 0.0 -0.0 0.0 0.0 -0.0 0.0 -0.0 0.0 0.0 0.0 0.0 0.0 0.0 2.072980291448686e-26 -0.620381750820575 -0.8463465614411209 -0.25255488256030517 -1.4392506443496167e-11 0.0 2.378952054656901e-25 -7.1458666999402505 -7.145866699940252 -1.0424175499402517 -5.974879480466358e-11 0.0 -3.5587941304981996e-05 -1.5707600752459925 1.5708489418029785 -1.5707362333880823 -1.570742432271139 1.1984225238848012e-05 0.0 0.0 -2.3968450477696024e-05 2.3968450477696024e-05 2.3968450477696024e-05 2.3968450477696024e-05 0.004486084450036287 -0.4755249619483948 -0.8021716475486755 -0.2204417884349823 -0.05706868693232536 0.16001611948013306 0.006729126907885075 -0.4777680039405823 -0.7991215586662292 -0.2215607762336731 -0.04923573136329651 0.15889713168144226 -0.2984307456207352 -0.11274877771328944 0.31315262168561375 -2.2179812184280583 -2.219528601368925 -0.008285961898021226 -6.695548629149212e-09 -1.984748846894046e-06 5.0969753014068805e-06 -2.3921507923660857e-05 1.3758260797356993e-07 -2.4039497159527754e-05 5.948822746312896 4.93737499093275 1.2967041196902922 -0.6731528376012574 0.5255359345448474 0.7450194250139714 -0.2984301935029838 -0.11275507530515129 0.3131843183387719 -2.21782708883282 -2.2194802147227084 -0.00817993372618954 0.0 0.0 0.0 0.0 0.0 0.0

3462.984 0.0 -1.5707963267948966 1.570796326794896 -1.5707963267948966 -1.5707963267948966 0.0 -0.0 0.0 0.0 -0.0 0.0 -0.0 0.0 0.0 0.0 0.0 0.0 0.0 2.072980291448686e-26 -0.620381750820575 -0.8463465614411209 -0.25255488256030517 -1.4392506443496167e-11 0.0 2.378952054656901e-25 -7.1458666999402505 -7.145866699940252 -1.0424175499402517 -5.974879480466358e-11 0.0 -2.366701234990387e-05 -1.5707362333880823 1.570885181427002 -1.5707123915301722 -1.5707667509662073 -2.366701234990387e-05 0.0 0.0 -2.3968450477696024e-05 2.3968450477696024e-05 2.3968450477696024e-05 2.3968450477696024e-05 0.008972168900072575 -0.4732819199562073 -0.7991215586662292 -0.2215607762336731 -0.04923573136329651 0.15665914118289948 0.006729126907885075 -0.4732819199562073 -0.7991215586662292 -0.2215607762336731 -0.04923573136329651 0.15889713168144226 -0.2984282838466241 -0.11275026547463467 0.3131326629325976 -2.2179580725649015 -2.2196109051941995 -0.008406258790114494 -6.978245185288084e-09 -1.984748798860422e-06 5.096926827990312e-06 -2.391949403765301e-05 1.378894967130236e-07 -2.4041501391333165e-05 5.948493258113338 5.078104405008889 1.456710575541764 -0.6484319683884218 0.5069650845503733 0.7293106258356442 -0.2984301935029838 -0.11275507530515129 0.3131843183387719 -2.21782708883282 -2.2194802147227084 -0.00817993372618954 0.0 0.0 0.0 0.0 0.0 0.0

3462.9919999999997 0.0 -1.5707963267948966 1.570796326794896 -1.5707963267948966 -1.5707963267948966 0.0 -0.0 0.0 0.0 -0.0 0.0 -0.0 0.0 0.0 0.0 0.0 0.0 0.0 2.072980291448686e-26 -0.620381750820575 -0.8463465614411209 -0.25255488256030517 -1.4392506443496167e-11 0.0 2.378952054656901e-25 -7.1458666999402505 -7.145866699940252 -1.0424175499402517 -5.974879480466358e-11 0.0 -3.5587941304981996e-05 -1.5707362333880823 1.5708370208740234 -1.5707481543170374 -1.5707548300372522 3.5952674807049334e-05 0.0 0.0 -2.3968450477696024e-05 2.3968450477696024e-05 2.3968450477696024e-05 2.3968450477696024e-05 0.004486084450036287 -0.4800110459327698 -0.8021716475486755 -0.2204417884349823 -0.0503547228872776 0.16225410997867584 0.006729126907885075 -0.4800110459327698 -0.7991215586662292 -0.2215607762336731 -0.04923573136329651 0.15777812898159027 -0.29843655872771924 -0.11274776964309192 0.313150089153895 -2.218001468416513 -2.2194958579570137 -0.008299582093241007 -6.756232561711563e-09 -1.984748562874641e-06 5.096950815961709e-06 -2.3921507308417558e-05 1.3787682594293395e-07 -2.403949500581719e-05 5.711458633199147 4.882101026771902 1.2962702753059205 -0.6373520169282982 0.5059707671954591 0.7553206260294519 -0.2984301935029838 -0.11275507530515129 0.3131843183387719 -2.21782708883282 -2.2194802147227084 -0.00817993372618954 0.0 0.0 0.0 0.0 0.0 0.0

3463.0 0.0 -1.5707963267948966 1.570796326794896 -1.5707963267948966 -1.5707963267948966 0.0 -0.0 0.0 0.0 -0.0 0.0 -0.0 0.0 0.0 0.0 0.0 0.0 0.0 2.072980291448686e-26 -0.620381750820575 -0.8463465614411209 -0.25255488256030517 -1.4392506443496167e-11 0.0 2.378952054656901e-25 -7.1458666999402505 -7.145866699940252 -1.0424175499402517 -5.974879480466358e-11 0.0 -3.5587941304981996e-05 -1.5707009474383753 1.5708370208740234 -1.5707362333880823 -1.5707305113421839 2.3968450477696024e-05 0.0 0.0 -2.3968450477696024e-05 2.3968450477696024e-05 2.3968450477696024e-05 2.3968450477696024e-05 0.008972168900072575 -0.4822540879249573 -0.7991215586662292 -0.2204417884349823 -0.051473718136548996 0.15777812898159027 0.006729126907885075 -0.4755249619483948 -0.7991215586662292 -0.2215607762336731 -0.04923573136329651 0.15777812898159027 -0.2984412639949984 -0.11274975091284124 0.31313852280171217 -2.2180238520394013 -2.21954494658546 -0.00832515470074927 -6.936290671523947e-09 -1.9847489566689984e-06 5.096998515440804e-06 -2.3920372865305104e-05 1.3729727971031936e-07 -2.4040628225714065e-05 5.474077618998772 4.915379857036453 1.431296174136577 -0.6454064199917755 0.475061167114204 0.734306126610989 -0.2984301935029838 -0.11275507530515129 0.3131843183387719 -2.21782708883282 -2.2194802147227084 -0.00817993372618954 0.0 0.0 0.0 0.0 0.0 0.0

3463.008 0.0 -1.5707963267948966 1.570796326794896 -1.5707963267948966 -1.5707963267948966 0.0 -0.0 0.0 0.0 -0.0 0.0 -0.0 0.0 0.0 0.0 0.0 0.0 0.0 2.072980291448686e-26 -0.620381750820575 -0.8463465614411209 -0.25255488256030517 -1.4392506443496167e-11 0.0 2.378952054656901e-25 -7.1458666999402505 -7.145866699940252 -1.0424175499402517 -5.974879480466358e-11 0.0 1.1984225238848012e-05 -1.5706647078143519 1.5708370208740234 -1.5707243124591272 -1.5707305113421839 1.1984225238848012e-05 0.0 0.0 -2.3968450477696024e-05 2.3968450477696024e-05 2.3968450477696024e-05 2.3968450477696024e-05 0.006729126907885075 -0.4800110459327698 -0.7930214405059814 -0.2193228006362915 -0.048116736114025116 0.15554013848304749 0.006729126907885075 -0.4777680039405823 -0.7991215586662292 -0.2215607762336731 -0.04923573136329651 0.15665914118289948 -0.29844075983825485 -0.11276392662424022 0.3131266866175595 -2.217981624233142 -2.219634950874168 -0.008378572093368689 -7.026650082441007e-09 -1.9847493274703122e-06 5.096998241278109e-06 -2.3919222347391834e-05 1.3616273995107586e-07 -2.4041780465234662e-05 5.356254692491015 4.739098140538806 1.6771491159666365 -0.6154371911564263 0.44956339006206225 0.7237638637007229 -0.2984301935029838 -0.11275507530515129 0.3131843183387719 -2.21782708883282 -2.2194802147227084 -0.00817993372618954 0.0 0.0 0.0 0.0 0.0 0.0

3463.0159999999996 0.0 -1.5707963267948966 1.570796326794896 -1.5707963267948966 -1.5707963267948966 0.0 -0.0 0.0 0.0 -0.0 0.0 -0.0 0.0 0.0 0.0 0.0 0.0 0.0 2.072980291448686e-26 -0.620381750820575 -0.8463465614411209 -0.25255488256030517 -1.4392506443496167e-11 0.0 2.378952054656901e-25 -7.1458666999402505 -7.145866699940252 -1.0424175499402517 -5.974879480466358e-11 0.0 -1.1746083394825746e-05 -1.570688549672262 1.5708012580871582 -1.5707724730121058 -1.5707548300372522 5.992112710373476e-05 0.0 0.0 -2.3968450477696024e-05 2.3968450477696024e-05 2.3968450477696024e-05 2.3968450477696024e-05 0.004486084450036287 -0.4777680039405823 -0.8006466031074524 -0.2215607762336731 -0.0503547228872776 0.16001611948013306 0.006729126907885075 -0.4777680039405823 -0.7991215586662292 -0.2215607762336731 -0.04923573136329651 0.15889713168144226 -0.29844652079642814 -0.11275492510129002 0.31314860887887547 -2.2179951730474765 -2.2194896971569427 -0.008285587000060936 -6.769581656104298e-09 -1.9847484739587606e-06 5.0969508451329e-06 -2.392180695366273e-05 1.3729927365051453e-07 -2.4039197931428664e-05 5.770808958121558 4.869564923837679 1.388236447034387 -0.636357764369477 0.49788059769348625 0.7448949960053045 -0.2984301935029838 -0.11275507530515129 0.3131843183387719 -2.21782708883282 -2.2194802147227084 -0.00817993372618954 0.0 0.0 0.0 0.0 0.0 0.0

3463.024 0.0 -1.5707963267948966 1.570796326794896 -1.5707963267948966 -1.5707963267948966 0.0 -0.0 0.0 0.0 -0.0 0.0 -0.0 0.0 0.0 0.0 0.0 0.0 0.0 2.072980291448686e-26 -0.620381750820575 -0.8463465614411209 -0.25255488256030517 -1.4392506443496167e-11 0.0 2.378952054656901e-25 -7.1458666999402505 -7.145866699940252 -1.0424175499402517 -5.974879480466358e-11 0.0 2.3968450477696024e-05 -1.570688549672262 1.5708250999450684 -1.5707123915301722 -1.570742432271139 1.1984225238848012e-05 0.0 0.0 -2.3968450477696024e-05 2.3968450477696024e-05 2.3968450477696024e-05 2.3968450477696024e-05 0.011215210892260075 -0.4777680039405823 -0.7991215586662292 -0.2215607762336731 -0.044759754091501236 0.16113510727882385 0.006729126907885075 -0.4777680039405823 -0.7945464849472046 -0.2215607762336731 -0.04923573136329651 0.15665914118289948 -0.29843556981477054 -0.11276653552724397 0.31313635400328677 -2.217950535238595 -2.2196302477504677 -0.008365261640773095 -6.8203436030160415e-09 -1.9847492304028284e-06 5.096974974592969e-06 -2.3919798213727614e-05 1.3616219064367413e-07 -2.4041208602082252e-05 5.710606202945841 5.154323846434645 1.456630167583432 -0.6338677455157764 0.48729568680005725 0.7499618462012518 -0.2984301935029838 -0.11275507530515129 0.3131843183387719 -2.21782708883282 -2.2194802147227084 -0.00817993372618954 0.0 0.0 0.0 0.0 0.0 0.0

3463.0319999999997 0.0 -1.5707963267948966 1.570796326794896 -1.5707963267948966 -1.5707963267948966 0.0 -0.0 0.0 0.0 -0.0 0.0 -0.0 0.0 0.0 0.0 0.0 0.0 0.0 2.072980291448686e-26 -0.620381750820575 -0.8463465614411209 -0.25255488256030517 -1.4392506443496167e-11 0.0 2.378952054656901e-25 -7.1458666999402505 -7.145866699940252 -1.0424175499402517 -5.974879480466358e-11 0.0 0.0 -1.5707243124591272 1.5708250999450684 -1.5707600752459925 -1.5707305113421839 0.0 0.0 0.0 -2.3968450477696024e-05 2.3968450477696024e-05 2.3968450477696024e-05 2.3968450477696024e-05 0.008972168900072575 -0.4822540879249573 -0.7945464849472046 -0.2204417884349823 -0.05706868693232536 0.16001611948013306 0.006729126907885075 -0.4777680039405823 -0.7975965142250061 -0.2215607762336731 -0.04923573136329651 0.16001611948013306 -0.29843643502261535 -0.11276041069747586 0.3131510926345729 -2.2179282776491283 -2.219581576267245 -0.008259383378238293 -6.685709446057756e-09 -1.984749064267479e-06 5.09699882040433e-06 -2.3921797530100724e-05 1.3643936615704695e-07 -2.4039213329359618e-05 5.2967620203963515 4.882806698400906 1.6340695675548218 -0.6688367518449818 0.4429721604828604 0.7444972002697542 -0.2984301935029838 -0.11275507530515129 0.3131843183387719 -2.21782708883282 -2.2194802147227084 -0.00817993372618954 0.0 0.0 0.0 0.0 0.0 0.0

3463.04 0.0 -1.5707963267948966 1.570796326794896 -1.5707963267948966 -1.5707963267948966 0.0 -0.0 0.0 0.0 -0.0 0.0 -0.0 0.0 0.0 0.0 0.0 0.0 0.0 2.072980291448686e-26 -0.620381750820575 -0.8463465614411209 -0.25255488256030517 -1.4392506443496167e-11 0.0 2.378952054656901e-25 -7.1458666999402505 -7.145866699940252 -1.0424175499402517 -5.974879480466358e-11 0.0 2.3968450477696024e-05 -1.5707243124591272 1.5708250999450684 -1.5707243124591272 -1.5707548300372522 5.992112710373476e-05 0.0 0.0 -2.3968450477696024e-05 2.3968450477696024e-05 2.3968450477696024e-05 2.3968450477696024e-05 0.008972168900072575 -0.4844971299171448 -0.7975965142250061 -0.22379876673221588 -0.054830700159072876 0.16225410997867584 0.006729126907885075 -0.4777680039405823 -0.7975965142250061 -0.2215607762336731 -0.04923573136329651 0.15889713168144226 -0.2984307871527336 -0.1127655359170446 0.31314805537280854 -2.217973729601218 -2.2195469773273744 -0.00832585243141687 -6.6379245787001484e-09 -1.9847490018268723e-06 5.096950788466928e-06 -2.3920943967959326e-05 1.364559352695673e-07 -2.4040065833902278e-05 5.296198953458078 4.917331186048906 1.5717089552076147 -0.6612481424375438 0.432697198859989 0.7548091403144498 -0.2984301935029838 -0.11275507530515129 0.3131843183387719 -2.21782708883282 -2.2194802147227084 -0.00817993372618954 0.0 0.0 0.0 0.0 0.0 0.0

3463.048 0.0 -1.5707963267948966 1.570796326794896 -1.5707963267948966 -1.5707963267948966 0.0 -0.0 0.0 0.0 -0.0 0.0 -0.0 0.0 0.0 0.0 0.0 0.0 0.0 2.072980291448686e-26 -0.620381750820575 -0.8463465614411209 -0.25255488256030517 -1.4392506443496167e-11 0.0 2.378952054656901e-25 -7.1458666999402505 -7.145866699940252 -1.0424175499402517 -5.974879480466358e-11 0.0 1.1984225238848012e-05 -1.5707362333880823 1.5708012580871582 -1.5707481543170374 -1.5707548300372522 0.0 0.0 0.0 -2.3968450477696024e-05 2.3968450477696024e-05 2.3968450477696024e-05 2.3968450477696024e-05 0.006729126907885075 -0.4800110459327698 -0.8006466031074524 -0.22267977893352509 -0.0503547228872776 0.15889713168144226 0.006729126907885075 -0.4777680039405823 -0.8021716475486755 -0.2215607762336731 -0.04923573136329651 0.15889713168144226 -0.29843415323043915 -0.11276200786363151 0.31316076861673114 -2.217890944904817 -2.2195706735020475 -0.008259788515292257 -6.479277268966462e-09 -1.984748730704249e-06 5.096951110200889e-06 -2.3922373556247373e-05 1.3673501758792607e-07 -2.403863950041345e-05 5.651874620883633 4.903953860350209 1.4120719529681158 -0.6391822382804666 0.4809021449346317 0.7396067121654598 -0.2984301935029838 -0.11275507530515129 0.3131843183387719 -2.21782708883282 -2.2194802147227084 -0.00817993372618954 0.0 0.0 0.0 0.0 0.0 0.0

3463.056 0.0 -1.5707963267948966 1.570796326794896 -1.5707963267948966 -1.5707963267948966 0.0 -0.0 0.0 0.0 -0.0 0.0 -0.0 0.0 0.0 0.0 0.0 0.0 0.0 2.072980291448686e-26 -0.620381750820575 -0.8463465614411209 -0.25255488256030517 -1.4392506443496167e-11 0.0 2.378952054656901e-25 -7.1458666999402505 -7.145866699940252 -1.0424175499402517 -5.974879480466358e-11 0.0 -4.7985707418263246e-05 -1.5707009474383753 1.5708131790161133 -1.5707362333880823 -1.5707185904132288 2.3968450477696024e-05 0.0 0.0 -2.3968450477696024e-05 2.3968450477696024e-05 2.3968450477696024e-05 2.3968450477696024e-05 0.0022430422250181437 -0.4844971299171448 -0.796071469783783 -0.22379876673221588 -0.05594969168305397 0.16001611948013306 0.006729126907885075 -0.4777680039405823 -0.7991215586662292 -0.2215607762336731 -0.04923573136329651 0.15889713168144226 -0.29844463380227776 -0.11274705992909882 0.3131456350056559 -2.218031740374912 -2.2195253560041115 -0.008285486927596104 -6.83927566780013e-09 -1.984748952591775e-06 5.097022226732341e-06 -2.3920944142091586e-05 1.3730561297880162e-07 -2.4040059746407837e-05 5.238267147083258 4.569787901526579 1.6383974976127116 -0.6378652246063594 0.42211669167436777 0.7443681661386321 -0.2984301935029838 -0.11275507530515129 0.3131843183387719 -2.21782708883282 -2.2194802147227084 -0.00817993372618954 0.0 0.0 0.0 0.0 0.0 0.0

3463.064 0.0 -1.5707963267948966 1.570796326794896 -1.5707963267948966 -1.5707963267948966 0.0 -0.0 0.0 0.0 -0.0 0.0 -0.0 0.0 0.0 0.0 0.0 0.0 0.0 2.072980291448686e-26 -0.620381750820575 -0.8463465614411209 -0.25255488256030517 -1.4392506443496167e-11 0.0 2.378952054656901e-25 -7.1458666999402505 -7.145866699940252 -1.0424175499402517 -5.974879480466358e-11 0.0 0.0 -1.5707009474383753 1.5708012580871582 -1.5707481543170374 -1.5707548300372522 2.3968450477696024e-05 0.0 0.0 -2.3968450477696024e-05 2.3968450477696024e-05 2.3968450477696024e-05 2.3968450477696024e-05 0.008972168900072575 -0.4979553818702698 -0.8006466031074524 -0.2215607762336731 -0.051473718136548996 0.15665914118289948 0.006729126907885075 -0.4800110459327698 -0.7991215586662292 -0.2215607762336731 -0.04923573136329651 0.15554013848304749 -0.2984411938351366 -0.11275841830107314 0.3131502345407064 -2.2179483146161103 -2.219548442140394 -0.00829894835344032 -6.682999413236078e-09 -1.984748648213251e-06 5.096950879278573e-06 -2.392152366945996e-05 1.3702272258344727e-07 -2.4039483608544484e-05 4.702716922295754 4.605539362961238 1.3856297711456125 -0.6198280855725385 0.41005240381363256 0.7287665809422643 -0.2984301935029838 -0.11275507530515129 0.3131843183387719 -2.21782708883282 -2.2194802147227084 -0.00817993372618954 0.0 0.0 0.0 0.0 0.0 0.0

3463.0719999999997 0.0 -1.5707963267948966 1.570796326794896 -1.5707963267948966 -1.5707963267948966 0.0 -0.0 0.0 0.0 -0.0 0.0 -0.0 0.0 0.0 0.0 0.0 0.0 0.0 2.072980291448686e-26 -0.620381750820575 -0.8463465614411209 -0.25255488256030517 -1.4392506443496167e-11 0.0 2.378952054656901e-25 -7.1458666999402505 -7.145866699940252 -1.0424175499402517 -5.974879480466358e-11 0.0 0.0 -1.570688549672262 1.5708370208740234 -1.5707600752459925 -1.5707185904132288 3.5952674807049334e-05 0.0 0.0 -2.3968450477696024e-05 2.3968450477696024e-05 2.3968450477696024e-05 2.3968450477696024e-05 0.011215210892260075 -0.4665527939796448 -0.8021716475486755 -0.2215607762336731 -0.0503547228872776 0.15889713168144226 0.006729126907885075 -0.4755249619483948 -0.7991215586662292 -0.2215607762336731 -0.04923573136329651 0.15777812898159027 -0.2984412137386274 -0.11276136555445879 0.3131368490645107 -2.2179977560436503 -2.219571462192943 -0.008299058072351444 -6.928996224159203e-09 -1.984749284862653e-06 5.09702198818498e-06 -2.3920651007314084e-05 1.361559402168942e-07 -2.404035580557196e-05 6.42206233020773 5.389523537848586 1.3230239534694734 -0.6791751687201902 0.5574544825239078 0.7399889774256807 -0.2984301935029838 -0.11275507530515129 0.3131843183387719 -2.21782708883282 -2.2194802147227084 -0.00817993372618954 0.0 0.0 0.0 0.0 0.0 0.0

3463.08 0.0 -1.5707963267948966 1.570796326794896 -1.5707963267948966 -1.5707963267948966 0.0 -0.0 0.0 0.0 -0.0 0.0 -0.0 0.0 0.0 0.0 0.0 0.0 0.0 2.072980291448686e-26 -0.620381750820575 -0.8463465614411209 -0.25255488256030517 -1.4392506443496167e-11 0.0 2.378952054656901e-25 -7.1458666999402505 -7.145866699940252 -1.0424175499402517 -5.974879480466358e-11 0.0 -2.366701234990387e-05 -1.5707362333880823 1.5708370208740234 -1.5707123915301722 -1.570742432271139 7.190534961409867e-05 0.0 0.0 -2.3968450477696024e-05 2.3968450477696024e-05 2.3968450477696024e-05 2.3968450477696024e-05 0.011215210892260075 -0.4732819199562073 -0.8006466031074524 -0.2215607762336731 -0.0503547228872776 0.16225410997867584 0.006729126907885075 -0.4777680039405823 -0.7991215586662292 -0.2215607762336731 -0.04923573136329651 0.15777812898159027 -0.2984322673012548 -0.11275232344661693 0.3131470292801528 -2.2180521744234456 -2.21949300942832 -0.008325509435034191 -6.732575292008527e-09 -1.9847489636478537e-06 5.096975195155182e-06 -2.3920651468972746e-05 1.3730153808236976e-07 -2.4040353145576164e-05 6.0073263064869105 5.284198877813944 1.389703949033417 -0.6705419468472057 0.5174379128701013 0.7553290025656517 -0.2984301935029838 -0.11275507530515129 0.3131843183387719 -2.21782708883282 -2.2194802147227084 -0.00817993372618954 0.0 0.0 0.0 0.0 0.0 0.0

3463.0879999999997 0.0 -1.5707963267948966 1.570796326794896 -1.5707963267948966 -1.5707963267948966 0.0 -0.0 0.0 0.0 -0.0 0.0 -0.0 0.0 0.0 0.0 0.0 0.0 0.0 2.072980291448686e-26 -0.620381750820575 -0.8463465614411209 -0.25255488256030517 -1.4392506443496167e-11 0.0 2.378952054656901e-25 -7.1458666999402505 -7.145866699940252 -1.0424175499402517 -5.974879480466358e-11 0.0 0.0 -1.5707243124591272 1.5708250999450684 -1.5707724730121058 -1.570742432271139 4.793690095539205e-05 0.0 0.0 -2.3968450477696024e-05 2.3968450477696024e-05 2.3968450477696024e-05 2.3968450477696024e-05 0.004486084450036287 -0.4755249619483948 -0.8036966919898987 -0.2215607762336731 -0.051473718136548996 0.16225410997867584 0.006729126907885075 -0.4800110459327698 -0.7991215586662292 -0.2215607762336731 -0.04923573136329651 0.16001611948013306 -0.29843745719517767 -0.11275943757652615 0.31315215812006875 -2.2179692007401917 -2.2195162097023586 -0.008258642612936806 -6.6856639240243995e-09 -1.984748840805686e-06 5.096975335019847e-06 -2.392209491454409e-05 1.3672264293958416e-07 -2.4038914660869715e-05 6.007609637363383 4.994678443605798 1.2536270865541959 -0.6517862710226281 0.5288621120741396 0.7554618688694071 -0.2984301935029838 -0.11275507530515129 0.3131843183387719 -2.21782708883282 -2.2194802147227084 -0.00817993372618954 0.0 0.0 0.0 0.0 0.0 0.0

3463.096 0.0 -1.5707963267948966 1.570796326794896 -1.5707963267948966 -1.5707963267948966 0.0 -0.0 0.0 0.0 -0.0 0.0 -0.0 0.0 0.0 0.0 0.0 0.0 0.0 2.072980291448686e-26 -0.620381750820575 -0.8463465614411209 -0.25255488256030517 -1.4392506443496167e-11 0.0 2.378952054656901e-25 -7.1458666999402505 -7.145866699940252 -1.0424175499402517 -5.974879480466358e-11 0.0 -5.990663637334137e-05 -1.5707724730121058 1.5708370208740234 -1.5707123915301722 -1.570742432271139 3.5952674807049334e-05 0.0 0.0 -2.3968450477696024e-05 2.3968450477696024e-05 2.3968450477696024e-05 2.3968450477696024e-05 0.008972168900072575 -0.4777680039405823 -0.7991215586662292 -0.22491776943206787 -0.05371170490980148 0.16113510727882385 0.006729126907885075 -0.4755249619483948 -0.7991215586662292 -0.2215607762336731 -0.04923573136329651 0.15665914118289948 -0.2984305102942393 -0.11274152205404288 0.3131578476379472 -2.2180346614481503 -2.219474688859739 -0.008285468156601814 -6.619701346373251e-09 -1.9847487342557267e-06 5.096975432324829e-06 -2.3921517680640742e-05 1.381674243424536e-07 -2.403948625478682e-05 5.711607794762196 5.057165415462173 1.529002024029671 -0.6675086052404611 0.4655172207414692 0.7498319365027035 -0.2984301935029838 -0.11275507530515129 0.3131843183387719 -2.21782708883282 -2.2194802147227084 -0.00817993372618954 0.0 0.0 0.0 0.0 0.0 0.0

3463.104 0.0 -1.5707963267948966 1.570796326794896 -1.5707963267948966 -1.5707963267948966 0.0 -0.0 0.0 0.0 -0.0 0.0 -0.0 0.0 0.0 0.0 0.0 0.0 0.0 2.072980291448686e-26 -0.620381750820575 -0.8463465614411209 -0.25255488256030517 -1.4392506443496167e-11 0.0 2.378952054656901e-25 -7.1458666999402505 -7.145866699940252 -1.0424175499402517 -5.974879480466358e-11 0.0 0.0 -1.5707123915301722 1.5708250999450684 -1.5707243124591272 -1.5707185904132288 2.3968450477696024e-05 0.0 0.0 -2.3968450477696024e-05 2.3968450477696024e-05 2.3968450477696024e-05 2.3968450477696024e-05 0.006729126907885075 -0.4822540879249573 -0.8036966919898987 -0.2193228006362915 -0.05594969168305397 0.15889713168144226 0.006729126907885075 -0.4800110459327698 -0.7991215586662292 -0.2215607762336731 -0.04923573136329651 0.15777812898159027 -0.29843540965410337 -0.11276136311806846 0.31314447428060177 -2.2179846298055446 -2.2195845708691877 -0.008299151297274019 -6.7465010114896e-09 -1.984749375435616e-06 5.097022179715352e-06 -2.3920653476904697e-05 1.3616103652823248e-07 -2.4040356557053746e-05 5.651532809454265 4.904196673713414 1.2042210846866623 -0.6651892043588244 0.514149111575763 0.7397275248584444 -0.2984301935029838 -0.11275507530515129 0.3131843183387719 -2.21782708883282 -2.2194802147227084 -0.00817993372618954 0.0 0.0 0.0 0.0 0.0 0.0

3463.1119999999996 0.0 -1.5707963267948966 1.570796326794896 -1.5707963267948966 -1.5707963267948966 0.0 -0.0 0.0 0.0 -0.0 0.0 -0.0 0.0 0.0 0.0 0.0 0.0 0.0 2.072980291448686e-26 -0.620381750820575 -0.8463465614411209 -0.25255488256030517 -1.4392506443496167e-11 0.0 2.378952054656901e-25 -7.1458666999402505 -7.145866699940252 -1.0424175499402517 -5.974879480466358e-11 0.0 -1.1746083394825746e-05 -1.570676628743307 1.570777416229248 -1.5707123915301722 -1.5707667509662073 1.1984225238848012e-05 0.0 0.0 -2.3968450477696024e-05 2.3968450477696024e-05 2.3968450477696024e-05 2.3968450477696024e-05 0.006729126907885075 -0.4732819199562073 -0.7991215586662292 -0.22267977893352509 -0.05259270966053009 0.16113510727882385 0.006729126907885075 -0.4777680039405823 -0.7991215586662292 -0.2215607762336731 -0.04923573136329651 0.15777812898159027 -0.2984454656592103 -0.11275392440663572 0.3131470491818082 -2.2179602047893945 -2.2195607259939334 -0.008352519144769982 -6.708489708411038e-09 -1.984748427464337e-06 5.096927334798367e-06 -2.3920653530832764e-05 1.3759463010726774e-07 -2.4040349416256817e-05 5.9486906712960765 5.050727364738871 1.480984959469715 -0.6617803599545687 0.4995212957183385 0.7500445868324775 -0.2984301935029838 -0.11275507530515129 0.3131843183387719 -2.21782708883282 -2.2194802147227084 -0.00817993372618954 0.0 0.0 0.0 0.0 0.0 0.0

3463.12 0.0 -1.5707963267948966 1.570796326794896 -1.5707963267948966 -1.5707963267948966 0.0 -0.0 0.0 0.0 -0.0 0.0 -0.0 0.0 0.0 0.0 0.0 0.0 0.0 2.072980291448686e-26 -0.620381750820575 -0.8463465614411209 -0.25255488256030517 -1.4392506443496167e-11 0.0 2.378952054656901e-25 -7.1458666999402505 -7.145866699940252 -1.0424175499402517 -5.974879480466358e-11 0.0 3.5952674807049334e-05 -1.5707009474383753 1.5708732604980469 -1.5707243124591272 -1.5707548300372522 3.5952674807049334e-05 0.0 0.0 -2.3968450477696024e-05 2.3968450477696024e-05 2.3968450477696024e-05 2.3968450477696024e-05 0.006729126907885075 -0.4710388779640198 -0.7975965142250061 -0.22379876673221588 -0.05259270966053009 0.16113510727882385 0.006729126907885075 -0.4755249619483948 -0.7991215586662292 -0.2215607762336731 -0.04923573136329651 0.16001611948013306 -0.2984292175376718 -0.11276904845461186 0.3131266988540752 -2.21796941466049 -2.219622519341861 -0.00840538901285062 -6.979101796568845e-09 -1.9847492920521085e-06 5.096950219708434e-06 -2.391922604167937e-05 1.3617511151077698e-07 -2.4041776717724666e-05 6.008013982367044 5.073386301943536 1.5735396444841674 -0.6637372405801593 0.4913709087236341 0.7499448092769344 -0.2984301935029838 -0.11275507530515129 0.3131843183387719 -2.21782708883282 -2.2194802147227084 -0.00817993372618954 0.0 0.0 0.0 0.0 0.0 0.0

