mkrssg/UniversalRobots/rtde_client_3.5/examples/roboter/movej_0-30q1_t=10.csv
timestamp target_q_0 target_q_1 target_q_2 target_q_3 target_q_4 target_q_5 target_qd_0 target_qd_1 target_qd_2 target_qd_3 target_qd_4 target_qd_5 target_qdd_0 target_qdd_1 target_qdd_2 target_qdd_3 target_qdd_4 target_qdd_5 target_current_0 target_current_1 target_current_2 target_current_3 target_current_4 target_current_5 target_moment_0 target_moment_1 target_moment_2 target_moment_3 target_moment_4 target_moment_5 actual_q_0 actual_q_1 actual_q_2 actual_q_3 actual_q_4 actual_q_5 actual_qd_0 actual_qd_1 actual_qd_2 actual_qd_3 actual_qd_4 actual_qd_5 actual_current_0 actual_current_1 actual_current_2 actual_current_3 actual_current_4 actual_current_5 joint_control_output_0 joint_control_output_1 joint_control_output_2 joint_control_output_3 joint_control_output_4 joint_control_output_5 actual_TCP_pose_0 actual_TCP_pose_1 actual_TCP_pose_2 actual_TCP_pose_3 actual_TCP_pose_4 actual_TCP_pose_5 actual_TCP_speed_0 actual_TCP_speed_1 actual_TCP_speed_2 actual_TCP_speed_3 actual_TCP_speed_4 actual_TCP_speed_5 actual_TCP_force_0 actual_TCP_force_1 actual_TCP_force_2 actual_TCP_force_3 actual_TCP_force_4 actual_TCP_force_5 target_TCP_pose_0 target_TCP_pose_1 target_TCP_pose_2 target_TCP_pose_3 target_TCP_pose_4 target_TCP_pose_5 target_TCP_speed_0 target_TCP_speed_1 target_TCP_speed_2 target_TCP_speed_3 target_TCP_speed_4 target_TCP_speed_5
4126.952 1.2195106036116955e-18 -1.5707963267948966 1.5707963267948966 -1.5707963267948966 -1.5707963267948966 0.0 0.0 0.0 0.0 0.0 0.0 0.0 0.0 0.0 0.0 0.0 0.0 0.0 2.7100081908582143e-27 -0.620381750820575 -0.8463465614411209 -0.2525548825603051 -1.4392506443496177e-11 0.0 3.110005232743317e-26 -7.1458666999402505 -7.145866699940252 -1.0424175499402515 -5.974879480466362e-11 0.0 1.1984225238848012e-05 -1.5707600752459925 1.5708012580871582 -1.5707839171039026 -1.5707548300372522 7.190534961409867e-05 0.0 0.0 -0.0 0.0 0.0 0.0 0.0403747595846653 -0.5652466416358948 -0.7914963960647583 -0.22939373552799225 -0.048116736114025116 0.09399548172950745 0.0426178015768528 -0.5742188096046448 -0.8006466031074524 -0.23498870432376862 -0.0503547228872776 0.08951950818300247 -0.29843325526324305 -0.1127620416078039 0.3131709386256133 -2.2179408829858906 -2.2194612084443106 -0.008193293516218593 0.0 0.0 0.0 0.0 0.0 0.0 0.785944669794754 3.497380241683149 1.9487616768876137 -0.5131556374065164 0.004313909268499391 0.4356066177189684 -0.2984301935029837 -0.11275507530515129 0.3131843183387717 -2.217827088832791 -2.2194802147226973 -0.008179933726190749 0.0 0.0 0.0 0.0 0.0 0.0
4126.96 1.2195106036116955e-18 -1.5707963267948966 1.5707963267948966 -1.5707963267948966 -1.5707963267948966 0.0 0.0 0.0 0.0 0.0 0.0 0.0 0.0 0.0 0.0 0.0 0.0 0.0 2.7100081908582143e-27 -0.620381750820575 -0.8463465614411209 -0.2525548825603051 -1.4392506443496177e-11 0.0 3.110005232743317e-26 -7.1458666999402505 -7.145866699940252 -1.0424175499402515 -5.974879480466362e-11 0.0 -3.5587941304981996e-05 -1.5707724730121058 1.5708131790161133 -1.570688549672262 -1.5707548300372522 4.793690095539205e-05 0.0 0.0 -0.0 0.0 0.0 0.0 0.0426178015768528 -0.5787048935890198 -0.8052217364311218 -0.22827474772930145 -0.05259270966053009 0.09063850343227386 0.0426178015768528 -0.5742188096046448 -0.8006466031074524 -0.23498870432376862 -0.048116736114025116 0.08951950818300247 -0.2984277770138465 -0.11274776916108695 0.3131629400459316 -2.218014752565584 -2.219481978394979 -0.00829910943755924 0.0 0.0 0.0 0.0 0.0 0.0 0.6060126484375544 3.474681870736399 1.3147867055275104 -0.5318120988693186 0.0488614786795713 0.4202504974425111 -0.2984301935029837 -0.11275507530515129 0.3131843183387717 -2.217827088832791 -2.2194802147226973 -0.008179933726190749 0.0 0.0 0.0 0.0 0.0 0.0
4126.968 1.2195106036116955e-18 -1.5707963267948966 1.5707963267948966 -1.5707963267948966 -1.5707963267948966 0.0 0.0 0.0 0.0 0.0 0.0 0.0 0.0 0.0 0.0 0.0 0.0 0.0 2.7100081908582143e-27 -0.620381750820575 -0.8463465614411209 -0.2525548825603051 -1.4392506443496177e-11 0.0 3.110005232743317e-26 -7.1458666999402505 -7.145866699940252 -1.0424175499402515 -5.974879480466362e-11 0.0 -3.5587941304981996e-05 -1.5707839171039026 1.570765495300293 -1.5707123915301722 -1.5707305113421839 4.793690095539205e-05 0.0 0.0 -0.0 0.0 0.0 0.0 0.0403747595846653 -0.5764618515968323 -0.8021716475486755 -0.2394646853208542 -0.044759754091501236 0.0850435346364975 0.0426178015768528 -0.5742188096046448 -0.8006466031074524 -0.23498870432376862 -0.04923573136329651 0.08951950818300247 -0.29843183840484616 -0.11274984739255663 0.3131826156753467 -2.217985591187746 -2.2194529893677046 -0.0081799332146233 0.0 0.0 0.0 0.0 0.0 0.0 0.6067169675737247 3.2897318695899274 1.6919906201230337 -0.48025773906460134 -0.03494588708237844 0.3938502570532734 -0.2984301935029837 -0.11275507530515129 0.3131843183387717 -2.217827088832791 -2.2194802147226973 -0.008179933726190749 0.0 0.0 0.0 0.0 0.0 0.0
4126.976 1.2195106036116955e-18 -1.5707963267948966 1.5707963267948966 -1.5707963267948966 -1.5707963267948966 0.0 0.0 0.0 0.0 0.0 0.0 0.0 0.0 0.0 0.0 0.0 0.0 0.0 2.7100081908582143e-27 -0.620381750820575 -0.8463465614411209 -0.2525548825603051 -1.4392506443496177e-11 0.0 3.110005232743317e-26 -7.1458666999402505 -7.145866699940252 -1.0424175499402515 -5.974879480466362e-11 0.0 -5.990663637334137e-05 -1.5707600752459925 1.5708131790161133 -1.5707243124591272 -1.5707667509662073 8.388957940042019e-05 0.0 0.0 -0.0 0.0 0.0 0.0 0.0426178015768528 -0.5787048935890198 -0.7853962182998657 -0.23275071382522583 -0.04923573136329651 0.08840051293373108 0.0426178015768528 -0.5742188096046448 -0.8006466031074524 -0.23498870432376862 -0.0503547228872776 0.09063850343227386 -0.29843546501454354 -0.11273955004145363 0.3131622987141745 -2.218063874373732 -2.219397666580454 -0.008286249183135589 0.0 0.0 0.0 0.0 0.0 0.0 -0.16207885734777402 3.1462045191982653 2.2897340628677334 -0.48965916613879645 -0.11843160236624481 0.4088471912894951 -0.2984301935029837 -0.11275507530515129 0.3131843183387717 -2.217827088832791 -2.2194802147226973 -0.008179933726190749 0.0 0.0 0.0 0.0 0.0 0.0
4126.9839999999995 1.2195106036116955e-18 -1.5707963267948966 1.5707963267948966 -1.5707963267948966 -1.5707963267948966 0.0 0.0 0.0 0.0 0.0 0.0 0.0 0.0 0.0 0.0 0.0 0.0 0.0 2.7100081908582143e-27 -0.620381750820575 -0.8463465614411209 -0.2525548825603051 -1.4392506443496177e-11 0.0 3.110005232743317e-26 -7.1458666999402505 -7.145866699940252 -1.0424175499402515 -5.974879480466362e-11 0.0 1.1984225238848012e-05 -1.5707724730121058 1.570777416229248 -1.5707123915301722 -1.5707548300372522 8.388957940042019e-05 0.0 0.0 -0.0 0.0 0.0 0.0 0.0448608435690403 -0.5988922715187073 -0.7991215586662292 -0.22827474772930145 -0.04587874934077263 0.09287648648023605 0.0426178015768528 -0.5742188096046448 -0.8006466031074524 -0.23498870432376862 -0.04923573136329651 0.09175749868154526 -0.29842733534223204 -0.11276202361059472 0.3131756544556743 -2.2179719558435442 -2.219465148260008 -0.008232569146739416 0.0 0.0 0.0 0.0 0.0 0.0 -0.6983875861163572 3.1108436540898623 1.5827051066053117 -0.47072075997462715 -0.0817063521460141 0.4298865772205374 -0.2984301935029837 -0.11275507530515129 0.3131843183387717 -2.217827088832791 -2.2194802147226973 -0.008179933726190749 0.0 0.0 0.0 0.0 0.0 0.0
4126.992 1.2195106036116955e-18 -1.5707963267948966 1.5707963267948966 -1.5707963267948966 -1.5707963267948966 0.0 0.0 0.0 0.0 0.0 0.0 0.0 0.0 0.0 0.0 0.0 0.0 0.0 2.7100081908582143e-27 -0.620381750820575 -0.8463465614411209 -0.2525548825603051 -1.4392506443496177e-11 0.0 3.110005232743317e-26 -7.1458666999402505 -7.145866699940252 -1.0424175499402515 -5.974879480466362e-11 0.0 -1.1746083394825746e-05 -1.5707839171039026 1.570765495300293 -1.570688549672262 -1.5707786718951624 0.000107858024421148 0.0 0.0 -0.0 0.0 0.0 0.0 0.0471038855612278 -0.5674896836280823 -0.7853962182998657 -0.23051273822784424 -0.048116736114025116 0.08728151768445969 0.0426178015768528 -0.5742188096046448 -0.8006466031074524 -0.23498870432376862 -0.04587874934077263 0.08951950818300247 -0.2984271887448797 -0.11275297959820794 0.3131806104302103 -2.218013257259727 -2.219400374052192 -0.00825952732114552 0.0 0.0 0.0 0.0 0.0 0.0 0.4302894747493218 3.5474547387792374 2.242948617675246 -0.5174600372680845 -0.055030894256501345 0.4040534341812027 -0.2984301935029837 -0.11275507530515129 0.3131843183387717 -2.217827088832791 -2.2194802147226973 -0.008179933726190749 0.0 0.0 0.0 0.0 0.0 0.0
4127.0 1.2195106036116955e-18 -1.5707963267948966 1.5707963267948966 -1.5707963267948966 -1.5707963267948966 0.0 0.0 0.0 0.0 0.0 0.0 0.0 0.0 0.0 0.0 0.0 0.0 0.0 2.7100081908582143e-27 -0.620381750820575 -0.8463465614411209 -0.2525548825603051 -1.4392506443496177e-11 0.0 3.110005232743317e-26 -7.1458666999402505 -7.145866699940252 -1.0424175499402515 -5.974879480466362e-11 0.0 -4.7985707418263246e-05 -1.570796314870016 1.5708131790161133 -1.5707009474383753 -1.5707305113421839 2.3968450477696024e-05 0.0 0.0 -0.0 0.0 0.0 0.0 0.0515899695456028 -0.5787048935890198 -0.8097968697547913 -0.23386971652507782 -0.051473718136548996 0.08728151768445969 0.0426178015768528 -0.5742188096046448 -0.8006466031074524 -0.23498870432376862 -0.05259270966053009 0.09063850343227386 -0.29842635054595507 -0.11274608971405961 0.3131711004283974 -2.2179961492689664 -2.2194890532309732 -0.008232015686600203 0.0 0.0 0.0 0.0 0.0 0.0 0.7822709533504556 3.8758216985269414 1.2341166621172273 -0.559559061940076 0.04470638496465912 0.4046396679586688 -0.2984301935029837 -0.11275507530515129 0.3131843183387717 -2.217827088832791 -2.2194802147226973 -0.008179933726190749 0.0 0.0 0.0 0.0 0.0 0.0
4127.008 1.2195106036116955e-18 -1.5707963267948966 1.5707963267948966 -1.5707963267948966 -1.5707963267948966 0.0 0.0 0.0 0.0 0.0 0.0 0.0 0.0 0.0 0.0 0.0 0.0 0.0 2.7100081908582143e-27 -0.620381750820575 -0.8463465614411209 -0.2525548825603051 -1.4392506443496177e-11 0.0 3.110005232743317e-26 -7.1458666999402505 -7.145866699940252 -1.0424175499402515 -5.974879480466362e-11 0.0 -4.7985707418263246e-05 -1.570808235798971 1.5708012580871582 -1.5707481543170374 -1.5707185904132288 9.58738019107841e-05 0.0 0.0 -0.0 0.0 0.0 0.0 0.0448608435690403 -0.5831909775733948 -0.796071469783783 -0.2394646853208542 -0.04364075884222984 0.0839245393872261 0.0426178015768528 -0.5742188096046448 -0.8006466031074524 -0.23498870432376862 -0.04923573136329651 0.08951950818300247 -0.2984293026843429 -0.11274712234162047 0.31318224087377083 -2.2180463030556377 -2.2193799671659344 -0.00813957994567659 0.0 0.0 0.0 0.0 0.0 0.0 0.01404754838991101 3.240399718469245 1.9616803553362017 -0.471126526716297 -0.10677752851574737 0.38822060513361384 -0.2984301935029837 -0.11275507530515129 0.3131843183387717 -2.217827088832791 -2.2194802147226973 -0.008179933726190749 0.0 0.0 0.0 0.0 0.0 0.0
4127.016 1.2195106036116955e-18 -1.5707963267948966 1.5707963267948966 -1.5707963267948966 -1.5707963267948966 0.0 0.0 0.0 0.0 0.0 0.0 0.0 0.0 0.0 0.0 0.0 0.0 0.0 2.7100081908582143e-27 -0.620381750820575 -0.8463465614411209 -0.2525548825603051 -1.4392506443496177e-11 0.0 3.110005232743317e-26 -7.1458666999402505 -7.145866699940252 -1.0424175499402515 -5.974879480466362e-11 0.0 0.0 -1.5707481543170374 1.5708250999450684 -1.5707362333880823 -1.5707786718951624 4.793690095539205e-05 0.0 0.0 -0.0 0.0 0.0 0.0 0.0403747595846653 -0.5719757676124573 -0.7975965142250061 -0.22715574502944946 -0.0503547228872776 0.1007094457745552 0.0426178015768528 -0.5742188096046448 -0.8006466031074524 -0.23498870432376862 -0.04923573136329651 0.09399548172950745 -0.29843062948973653 -0.11275643656166102 0.3131562050103004 -2.2179573494945464 -2.2195039451914136 -0.00831260480076247 0.0 0.0 0.0 0.0 0.0 0.0 0.6664947022865139 3.557036465238813 1.629881065700984 -0.5283586857310647 0.03187954375579353 0.4668738366790593 -0.2984301935029837 -0.11275507530515129 0.3131843183387717 -2.217827088832791 -2.2194802147226973 -0.008179933726190749 0.0 0.0 0.0 0.0 0.0 0.0
4127.023999999999 1.2195106036116955e-18 -1.5707963267948966 1.5707963267948966 -1.5707963267948966 -1.5707963267948966 0.0 0.0 0.0 0.0 0.0 0.0 0.0 0.0 0.0 0.0 0.0 0.0 0.0 2.7100081908582143e-27 -0.620381750820575 -0.8463465614411209 -0.2525548825603051 -1.4392506443496177e-11 0.0 3.110005232743317e-26 -7.1458666999402505 -7.145866699940252 -1.0424175499402515 -5.974879480466362e-11 0.0 -1.1746083394825746e-05 -1.5707243124591272 1.5707893371582031 -1.5707600752459925 -1.5707786718951624 7.190534961409867e-05 0.0 0.0 -0.0 0.0 0.0 0.0 0.0381317175924778 -0.5742188096046448 -0.7945464849472046 -0.23051273822784424 -0.04923573136329651 0.08951950818300247 0.0426178015768528 -0.5742188096046448 -0.8006466031074524 -0.23498870432376862 -0.048116736114025116 0.09175749868154526 -0.2984407207866606 -0.11275297990348074 0.3131618018776911 -2.217979033742694 -2.2194466868364713 -0.008272762361718554 0.0 0.0 0.0 0.0 0.0 0.0 0.4299904523076321 3.195947008304817 1.8361211978609375 -0.4934973754451424 -0.020601474580215107 0.4146760845175423 -0.2984301935029837 -0.11275507530515129 0.3131843183387717 -2.217827088832791 -2.2194802147226973 -0.008179933726190749 0.0 0.0 0.0 0.0 0.0 0.0
4127.032 1.2195106036116955e-18 -1.5707963267948966 1.5707963267948966 -1.5707963267948966 -1.5707963267948966 0.0 0.0 0.0 0.0 0.0 0.0 0.0 0.0 0.0 0.0 0.0 0.0 0.0 2.7100081908582143e-27 -0.620381750820575 -0.8463465614411209 -0.2525548825603051 -1.4392506443496177e-11 0.0 3.110005232743317e-26 -7.1458666999402505 -7.145866699940252 -1.0424175499402515 -5.974879480466362e-11 0.0 -2.366701234990387e-05 -1.5707600752459925 1.5708131790161133 -1.5707481543170374 -1.5707905928241175 7.190534961409867e-05 0.0 0.0 -0.0 0.0 0.0 0.0 0.0471038855612278 -0.5742188096046448 -0.8082718253135681 -0.2361077070236206 -0.04699774086475372 0.09623347222805023 0.0426178015768528 -0.5742188096046448 -0.8006466031074524 -0.23498870432376862 -0.04699774086475372 0.09063850343227386 -0.29843334486839634 -0.11274841820359471 0.31316434840727775 -2.2179864178327624 -2.219427339949144 -0.00828604123639139 0.0 0.0 0.0 0.0 0.0 0.0 0.9607810468576041 3.888891066409152 1.3511826989884126 -0.539862983282881 0.038829600529724194 0.4461611351594696 -0.2984301935029837 -0.11275507530515129 0.3131843183387717 -2.217827088832791 -2.2194802147226973 -0.008179933726190749 0.0 0.0 0.0 0.0 0.0 0.0
4127.04 1.2195106036116955e-18 -1.5707963267948966 1.5707963267948966 -1.5707963267948966 -1.5707963267948966 0.0 0.0 0.0 0.0 0.0 0.0 0.0 0.0 0.0 0.0 0.0 0.0 0.0 2.7100081908582143e-27 -0.620381750820575 -0.8463465614411209 -0.2525548825603051 -1.4392506443496177e-11 0.0 3.110005232743317e-26 -7.1458666999402505 -7.145866699940252 -1.0424175499402515 -5.974879480466362e-11 0.0 0.0 -1.5707481543170374 1.570765495300293 -1.5707600752459925 -1.5707667509662073 8.388957940042019e-05 0.0 0.0 -0.0 0.0 0.0 0.0 0.0471038855612278 -0.5809479355812073 -0.7975965142250061 -0.22939373552799225 -0.04699774086475372 0.08951950818300247 0.0426178015768528 -0.5742188096046448 -0.8006466031074524 -0.23498870432376862 -0.048116736114025116 0.09063850343227386 -0.29843752324278106 -0.1127575033489353 0.31317603186639614 -2.2179615414048595 -2.2194285818951136 -0.008206503286476458 0.0 0.0 0.0 0.0 0.0 0.0 0.19116645196113385 3.4926050701861406 1.6767606730690034 -0.507405122987932 -0.021324742308775128 0.4146818646196624 -0.2984301935029837 -0.11275507530515129 0.3131843183387717 -2.217827088832791 -2.2194802147226973 -0.008179933726190749 0.0 0.0 0.0 0.0 0.0 0.0
4127.048 1.2195106036116955e-18 -1.5707963267948966 1.5707963267948966 -1.5707963267948966 -1.5707963267948966 0.0 0.0 0.0 0.0 0.0 0.0 0.0 0.0 0.0 0.0 0.0 0.0 0.0 2.7100081908582143e-27 -0.620381750820575 -0.8463465614411209 -0.2525548825603051 -1.4392506443496177e-11 0.0 3.110005232743317e-26 -7.1458666999402505 -7.145866699940252 -1.0424175499402515 -5.974879480466362e-11 0.0 0.0 -1.5707839171039026 1.5708131790161133 -1.5707009474383753 -1.5707066694842737 5.992112710373476e-05 0.0 0.0 -0.0 0.0 0.0 0.0 0.0381317175924778 -0.5697327256202698 -0.7975965142250061 -0.22939373552799225 -0.05259270966053009 0.09511447697877884 0.0426178015768528 -0.5742188096046448 -0.8006466031074524 -0.23498870432376862 -0.05259270966053009 0.09063850343227386 -0.29842293767760414 -0.11276236872892137 0.313167384815154 -2.2180007454147392 -2.2195204376357736 -0.008219140811153512 0.0 0.0 0.0 0.0 0.0 0.0 0.7854992559068491 3.4183356899321913 1.6779437200714589 -0.5273545256758694 0.027296776010627924 0.4408930824177234 -0.2984301935029837 -0.11275507530515129 0.3131843183387717 -2.217827088832791 -2.2194802147226973 -0.008179933726190749 0.0 0.0 0.0 0.0 0.0 0.0
4127.056 1.2195106036116955e-18 -1.5707963267948966 1.5707963267948966 -1.5707963267948966 -1.5707963267948966 0.0 0.0 0.0 0.0 0.0 0.0 0.0 0.0 0.0 0.0 0.0 0.0 0.0 2.7100081908582143e-27 -0.620381750820575 -0.8463465614411209 -0.2525548825603051 -1.4392506443496177e-11 0.0 3.110005232743317e-26 -7.1458666999402505 -7.145866699940252 -1.0424175499402515 -5.974879480466362e-11 0.0 0.0 -1.5707600752459925 1.5707893371582031 -1.570688549672262 -1.5707786718951624 3.5952674807049334e-05 0.0 0.0 -0.0 0.0 0.0 0.0 0.0403747595846653 -0.5674896836280823 -0.7899713516235352 -0.23051273822784424 -0.0503547228872776 0.09287648648023605 0.0426178015768528 -0.5742188096046448 -0.8006466031074524 -0.23498870432376862 -0.0503547228872776 0.09175749868154526 -0.2984277369419227 -0.11275644876310387 0.3131663734089976 -2.217944229893414 -2.2195170467015446 -0.008312699383718957 0.0 0.0 0.0 0.0 0.0 0.0 0.608333395029257 3.4121746639654194 2.040221567710195 -0.5166429479979177 -0.023313449799886612 0.43019082258721275 -0.2984301935029837 -0.11275507530515129 0.3131843183387717 -2.217827088832791 -2.2194802147226973 -0.008179933726190749 0.0 0.0 0.0 0.0 0.0 0.0
4127.063999999999 1.2195106036116955e-18 -1.5707963267948966 1.5707963267948966 -1.5707963267948966 -1.5707963267948966 0.0 0.0 0.0 0.0 0.0 0.0 0.0 0.0 0.0 0.0 0.0 0.0 0.0 2.7100081908582143e-27 -0.620381750820575 -0.8463465614411209 -0.2525548825603051 -1.4392506443496177e-11 0.0 3.110005232743317e-26 -7.1458666999402505 -7.145866699940252 -1.0424175499402515 -5.974879480466362e-11 0.0 -1.1746083394825746e-05 -1.570820156727926 1.570777416229248 -1.5707009474383753 -1.5707185904132288 2.3968450477696024e-05 0.0 0.0 -0.0 0.0 0.0 0.0 0.0403747595846653 -0.5809479355812073 -0.7991215586662292 -0.22827474772930145 -0.04699774086475372 0.09287648648023605 0.0426178015768528 -0.5742188096046448 -0.8006466031074524 -0.23498870432376862 -0.048116736114025116 0.09063850343227386 -0.2984213767127467 -0.11275793613216387 0.31318888989565835 -2.2179322133301076 -2.2195054479061413 -0.008152468281963175 0.0 0.0 0.0 0.0 0.0 0.0 0.2512378243263814 3.2779822758847605 1.5845440373187125 -0.4896755695482795 -0.003544405541139817 0.43038769791708575 -0.2984301935029837 -0.11275507530515129 0.3131843183387717 -2.217827088832791 -2.2194802147226973 -0.008179933726190749 0.0 0.0 0.0 0.0 0.0 0.0
4127.072 1.2195106036116955e-18 -1.5707963267948966 1.5707963267948966 -1.5707963267948966 -1.5707963267948966 0.0 0.0 0.0 0.0 0.0 0.0 0.0 0.0 0.0 0.0 0.0 0.0 0.0 2.7100081908582143e-27 -0.620381750820575 -0.8463465614411209 -0.2525548825603051 -1.4392506443496177e-11 0.0 3.110005232743317e-26 -7.1458666999402505 -7.145866699940252 -1.0424175499402515 -5.974879480466362e-11 0.0 -1.1746083394825746e-05 -1.5707839171039026 1.5708250999450684 -1.5707009474383753 -1.5707667509662073 7.190534961409867e-05 0.0 0.0 -0.0 0.0 0.0 0.0 0.0448608435690403 -0.5787048935890198 -0.806746780872345 -0.23275071382522583 -0.054830700159072876 0.08280554413795471 0.0426178015768528 -0.5742188096046448 -0.8006466031074524 -0.2383456975221634 -0.05259270966053009 0.09063850343227386 -0.29842327965927873 -0.11275390165532304 0.3131638620134112 -2.2180028794749806 -2.219469834331827 -0.008298909203710188 0.0 0.0 0.0 0.0 0.0 0.0 0.6648236159890276 3.4715060476988255 1.3438525425202679 -0.5419621458064882 0.030721672411532504 0.3837909608851513 -0.2984301935029837 -0.11275507530515129 0.3131843183387717 -2.217827088832791 -2.2194802147226973 -0.008179933726190749 0.0 0.0 0.0 0.0 0.0 0.0
4127.08 1.2195106036116955e-18 -1.5707963267948966 1.5707963267948966 -1.5707963267948966 -1.5707963267948966 0.0 0.0 0.0 0.0 0.0 0.0 0.0 0.0 0.0 0.0 0.0 0.0 0.0 2.7100081908582143e-27 -0.620381750820575 -0.8463465614411209 -0.2525548825603051 -1.4392506443496177e-11 0.0 3.110005232743317e-26 -7.1458666999402505 -7.145866699940252 -1.0424175499402515 -5.974879480466362e-11 0.0 -5.990663637334137e-05 -1.5707600752459925 1.5707530975341797 -1.5707123915301722 -1.5707667509662073 5.992112710373476e-05 0.0 0.0 -0.0 0.0 0.0 0.0 0.0448608435690403 -0.5697327256202698 -0.796071469783783 -0.2383456975221634 -0.05594969168305397 0.09399548172950745 0.0426178015768528 -0.5742188096046448 -0.8006466031074524 -0.2372266948223114 -0.051473718136548996 0.09063850343227386 -0.29843945222834334 -0.11273961043616267 0.31317922288946615 -2.2180133701890488 -2.2194002929623347 -0.008232792129560821 0.0 0.0 0.0 0.0 0.0 0.0 0.7258832504140085 3.6667840297585945 1.9403767896859727 -0.5635504401790026 -0.041290380295203905 0.43525141979619486 -0.2984301935029837 -0.11275507530515129 0.3131843183387717 -2.217827088832791 -2.2194802147226973 -0.008179933726190749 0.0 0.0 0.0 0.0 0.0 0.0
4127.088 1.2195106036116955e-18 -1.5707963267948966 1.5707963267948966 -1.5707963267948966 -1.5707963267948966 0.0 0.0 0.0 0.0 0.0 0.0 0.0 0.0 0.0 0.0 0.0 0.0 0.0 2.7100081908582143e-27 -0.620381750820575 -0.8463465614411209 -0.2525548825603051 -1.4392506443496177e-11 0.0 3.110005232743317e-26 -7.1458666999402505 -7.145866699940252 -1.0424175499402515 -5.974879480466362e-11 0.0 -1.1746083394825746e-05 -1.5707481543170374 1.570765495300293 -1.5707123915301722 -1.570742432271139 5.992112710373476e-05 0.0 0.0 -0.0 0.0 0.0 0.0 0.0426178015768528 -0.5831909775733948 -0.7853962182998657 -0.22939373552799225 -0.04364075884222984 0.09399548172950745 0.0426178015768528 -0.5742188096046448 -0.8006466031074524 -0.23386971652507782 -0.04923573136329651 0.09063850343227386 -0.2984349177760457 -0.11275596746854426 0.3131719468651084 -2.2179841177912434 -2.219477977349037 -0.008232747915264717 0.0 0.0 0.0 0.0 0.0 0.0 -0.39959794660604014 3.143618291846135 2.21677354683724 -0.46335632462336673 -0.11637863148608309 0.43485800463746593 -0.2984301935029837 -0.11275507530515129 0.3131843183387717 -2.217827088832791 -2.2194802147226973 -0.008179933726190749 0.0 0.0 0.0 0.0 0.0 0.0
4127.096 1.2195106036116955e-18 -1.5707963267948966 1.5707963267948966 -1.5707963267948966 -1.5707963267948966 0.0 0.0 0.0 0.0 0.0 0.0 0.0 0.0 0.0 0.0 0.0 0.0 0.0 2.7100081908582143e-27 -0.620381750820575 -0.8463465614411209 -0.2525548825603051 -1.4392506443496177e-11 0.0 3.110005232743317e-26 -7.1458666999402505 -7.145866699940252 -1.0424175499402515 -5.974879480466362e-11 0.0 -4.7985707418263246e-05 -1.5707481543170374 1.5707530975341797 -1.5707123915301722 -1.5707548300372522 9.58738019107841e-05 0.0 0.0 -0.0 0.0 0.0 0.0 0.0403747595846653 -0.5719757676124573 -0.7914963960647583 -0.23163172602653503 -0.0503547228872776 0.09175749868154526 0.0426178015768528 -0.5742188096046448 -0.8006466031074524 -0.23498870432376862 -0.04923573136329651 0.09063850343227386 -0.298440029890369 -0.11274414536703589 0.31317565676710235 -2.2180518388321735 -2.219385514214927 -0.008232691170537633 0.0 0.0 0.0 0.0 0.0 0.0 0.4303412977449269 3.327133919949675 1.9962487940901796 -0.5095897906481726 -0.039415416176699254 0.4249282575455975 -0.2984301935029837 -0.11275507530515129 0.3131843183387717 -2.217827088832791 -2.2194802147226973 -0.008179933726190749 0.0 0.0 0.0 0.0 0.0 0.0
4127.103999999999 1.2195106036116955e-18 -1.5707963267948966 1.5707963267948966 -1.5707963267948966 -1.5707963267948966 0.0 0.0 0.0 0.0 0.0 0.0 0.0 0.0 0.0 0.0 0.0 0.0 0.0 2.7100081908582143e-27 -0.620381750820575 -0.8463465614411209 -0.2525548825603051 -1.4392506443496177e-11 0.0 3.110005232743317e-26 -7.1458666999402505 -7.145866699940252 -1.0424175499402515 -5.974879480466362e-11 0.0 -3.5587941304981996e-05 -1.5707600752459925 1.5708131790161133 -1.570688549672262 -1.5707786718951624 4.793690095539205e-05 0.0 0.0 -0.0 0.0 0.0 0.0 0.0448608435690403 -0.5630035996437073 -0.8036966919898987 -0.23275071382522583 -0.048116736114025116 0.09063850343227386 0.0426178015768528 -0.5742188096046448 -0.8006466031074524 -0.2372266948223114 -0.04699774086475372 0.08840051293373108 -0.2984297773667428 -0.11274580097400262 0.31315925380190796 -2.218008939192207 -2.219476193402414 -0.008339276467040687 0.0 0.0 0.0 0.0 0.0 0.0 1.3768941071367633 3.8631661847454093 1.4816681883526068 -0.543059716428105 0.07767247729328834 0.42041899286798257 -0.2984301935029837 -0.11275507530515129 0.3131843183387717 -2.217827088832791 -2.2194802147226973 -0.008179933726190749 0.0 0.0 0.0 0.0 0.0 0.0
4127.112 1.2195106036116955e-18 -1.5707963267948966 1.5707963267948966 -1.5707963267948966 -1.5707963267948966 0.0 0.0 0.0 0.0 0.0 0.0 0.0 0.0 0.0 0.0 0.0 0.0 0.0 2.7100081908582143e-27 -0.620381750820575 -0.8463465614411209 -0.2525548825603051 -1.4392506443496177e-11 0.0 3.110005232743317e-26 -7.1458666999402505 -7.145866699940252 -1.0424175499402515 -5.974879480466362e-11 0.0 -5.990663637334137e-05 -1.5707724730121058 1.570765495300293 -1.5707362333880823 -1.5707305113421839 3.5952674807049334e-05 0.0 0.0 -0.0 0.0 0.0 0.0 0.0493469275534153 -0.5787048935890198 -0.8143720030784607 -0.24505965411663055 -0.04699774086475372 0.08616252988576889 0.0426178015768528 -0.5742188096046448 -0.8006466031074524 -0.2383456975221634 -0.048116736114025116 0.09287648648023605 -0.29843838991574756 -0.11274260204882623 0.31318123434322087 -2.2179930802028145 -2.2194333325060023 -0.008166225959223025 0.0 0.0 0.0 0.0 0.0 0.0 0.9598497871562062 3.82795988698608 1.2738163205307313 -0.5347476135054622 0.004198161364615607 0.39924584467566604 -0.2984301935029837 -0.11275507530515129 0.3131843183387717 -2.217827088832791 -2.2194802147226973 -0.008179933726190749 0.0 0.0 0.0 0.0 0.0 0.0
4127.12 1.2195106036116955e-18 -1.5707963267948966 1.5707963267948966 -1.5707963267948966 -1.5707963267948966 0.0 0.0 0.0 0.0 0.0 0.0 0.0 0.0 0.0 0.0 0.0 0.0 0.0 2.7100081908582143e-27 -0.620381750820575 -0.8463465614411209 -0.2525548825603051 -1.4392506443496177e-11 0.0 3.110005232743317e-26 -7.1458666999402505 -7.145866699940252 -1.0424175499402515 -5.974879480466362e-11 0.0 -3.5587941304981996e-05 -1.5707600752459925 1.5708012580871582 -1.5707123915301722 -1.5707667509662073 7.190534961409867e-05 0.0 0.0 -0.0 0.0 0.0 0.0 0.0426178015768528 -0.5876770615577698 -0.8113219141960144 -0.23386971652507782 -0.05371170490980148 0.09287648648023605 0.0426178015768528 -0.5742188096046448 -0.8006466031074524 -0.2372266948223114 -0.05259270966053009 0.09063850343227386 -0.2984327271487432 -0.11274681293692629 0.31316484109261306 -2.2180235984931147 -2.219437860734096 -0.008286223954583153 0.0 0.0 0.0 0.0 0.0 0.0 0.3679600924159942 3.4188108893135842 1.1650798219456548 -0.5323097083968441 0.016023084055940922 0.43043421471886806 -0.2984301935029837 -0.11275507530515129 0.3131843183387717 -2.217827088832791 -2.2194802147226973 -0.008179933726190749 0.0 0.0 0.0 0.0 0.0 0.0
4127.128 1.2195106036116955e-18 -1.5707963267948966 1.5707963267948966 -1.5707963267948966 -1.5707963267948966 0.0 0.0 0.0 0.0 0.0 0.0 0.0 0.0 0.0 0.0 0.0 0.0 0.0 2.7100081908582143e-27 -0.620381750820575 -0.8463465614411209 -0.2525548825603051 -1.4392506443496177e-11 0.0 3.110005232743317e-26 -7.1458666999402505 -7.145866699940252 -1.0424175499402515 -5.974879480466362e-11 0.0 -2.366701234990387e-05 -1.5707600752459925 1.570777416229248 -1.5707123915301722 -1.5707667509662073 4.793690095539205e-05 0.0 0.0 -0.0 0.0 0.0 0.0 0.0493469275534153 -0.5854340195655823 -0.8082718253135681 -0.2383456975221634 -0.05706868693232536 0.08728151768445969 0.0426178015768528 -0.5742188096046448 -0.8006466031074524 -0.2361077070236206 -0.0503547228872776 0.09063850343227386 -0.2984333551032472 -0.11275039783682499 0.31317196077004794 -2.2179719208655446 -2.219465824960671 -0.008259754288144256 0.0 0.0 0.0 0.0 0.0 0.0 0.3676131541108366 3.6208918307627496 1.39779429609024 -0.5646816475041371 -0.024332950627303094 0.40419799006589424 -0.2984301935029837 -0.11275507530515129 0.3131843183387717 -2.217827088832791 -2.2194802147226973 -0.008179933726190749 0.0 0.0 0.0 0.0 0.0 0.0
4127.1359999999995 1.2195106036116955e-18 -1.5707963267948966 1.5707963267948966 -1.5707963267948966 -1.5707963267948966 0.0 0.0 0.0 0.0 0.0 0.0 0.0 0.0 0.0 0.0 0.0 0.0 0.0 2.7100081908582143e-27 -0.620381750820575 -0.8463465614411209 -0.2525548825603051 -1.4392506443496177e-11 0.0 3.110005232743317e-26 -7.1458666999402505 -7.145866699940252 -1.0424175499402515 -5.974879480466362e-11 0.0 -3.5587941304981996e-05 -1.5707839171039026 1.5708012580871582 -1.5707123915301722 -1.5707548300372522 4.793690095539205e-05 0.0 0.0 -0.0 0.0 0.0 0.0 0.0471038855612278 -0.5764618515968323 -0.8158970475196838 -0.22939373552799225 -0.05594969168305397 0.1018284410238266 0.0426178015768528 -0.5742188096046448 -0.8006466031074524 -0.23498870432376862 -0.04923573136329651 0.09063850343227386 -0.29842888206948326 -0.1127478036577143 0.31317195106717316 -2.217991204266415 -2.2194585487516507 -0.008246614907143965 0.0 0.0 0.0 0.0 0.0 0.0 1.1377630764780806 4.044468808323023 0.8681694679685465 -0.5940927232126341 0.1255565694872561 0.47261892673233685 -0.2984301935029837 -0.11275507530515129 0.3131843183387717 -2.217827088832791 -2.2194802147226973 -0.008179933726190749 0.0 0.0 0.0 0.0 0.0 0.0
4127.144 1.2195106036116955e-18 -1.5707963267948966 1.5707963267948966 -1.5707963267948966 -1.5707963267948966 0.0 0.0 0.0 0.0 0.0 0.0 0.0 0.0 0.0 0.0 0.0 0.0 0.0 2.7100081908582143e-27 -0.620381750820575 -0.8463465614411209 -0.2525548825603051 -1.4392506443496177e-11 0.0 3.110005232743317e-26 -7.1458666999402505 -7.145866699940252 -1.0424175499402515 -5.974879480466362e-11 0.0 1.1984225238848012e-05 -1.5707839171039026 1.5708131790161133 -1.5707009474383753 -1.5707667509662073 9.58738019107841e-05 0.0 0.0 -0.0 0.0 0.0 0.0 0.0403747595846653 -0.5764618515968323 -0.8097968697547913 -0.22939373552799225 -0.04923573136329651 0.09287648648023605 0.0426178015768528 -0.5742188096046448 -0.8006466031074524 -0.23498870432376862 -0.04587874934077263 0.09063850343227386 -0.2984215899339711 -0.11276099699152539 0.3131674218350114 -2.217997118828556 -2.219463551809575 -0.008285512552315901 0.0 0.0 0.0 0.0 0.0 0.0 0.9019657021426438 3.525514291198387 1.1366289873900568 -0.5202622940840729 0.08324416144038829 0.430879801145546 -0.2984301935029837 -0.11275507530515129 0.3131843183387717 -2.217827088832791 -2.2194802147226973 -0.008179933726190749 0.0 0.0 0.0 0.0 0.0 0.0
4127.152 1.2195106036116955e-18 -1.5707963267948966 1.5707963267948966 -1.5707963267948966 -1.5707963267948966 0.0 0.0 0.0 0.0 0.0 0.0 0.0 0.0 0.0 0.0 0.0 0.0 0.0 2.7100081908582143e-27 -0.620381750820575 -0.8463465614411209 -0.2525548825603051 -1.4392506443496177e-11 0.0 3.110005232743317e-26 -7.1458666999402505 -7.145866699940252 -1.0424175499402515 -5.974879480466362e-11 0.0 -3.5587941304981996e-05 -1.5707481543170374 1.5707292556762695 -1.570688549672262 -1.5707305113421839 5.992112710373476e-05 0.0 0.0 -0.0 0.0 0.0 0.0 0.0448608435690403 -0.5831909775733948 -0.7853962182998657 -0.2372266948223114 -0.05259270966053009 0.09399548172950745 0.0426178015768528 -0.5742188096046448 -0.8006466031074524 -0.2361077070236206 -0.051473718136548996 0.09175749868154526 -0.29843863823825256 -0.1127498588845162 0.31318072652825296 -2.218010490375438 -2.2194513218475724 -0.008205862475427214 0.0 0.0 0.0 0.0 0.0 0.0 -0.3995895078312539 3.2390666964173644 2.3871670813262473 -0.5129490171402773 -0.16718411552800275 0.4344905120505926 -0.2984301935029837 -0.11275507530515129 0.3131843183387717 -2.217827088832791 -2.2194802147226973 -0.008179933726190749 0.0 0.0 0.0 0.0 0.0 0.0
4127.16 1.2195106036116955e-18 -1.5707963267948966 1.5707963267948966 -1.5707963267948966 -1.5707963267948966 0.0 0.0 0.0 0.0 0.0 0.0 0.0 0.0 0.0 0.0 0.0 0.0 0.0 2.7100081908582143e-27 -0.620381750820575 -0.8463465614411209 -0.2525548825603051 -1.4392506443496177e-11 0.0 3.110005232743317e-26 -7.1458666999402505 -7.145866699940252 -1.0424175499402515 -5.974879480466362e-11 0.0 1.1984225238848012e-05 -1.5707600752459925 1.5707530975341797 -1.5707123915301722 -1.5707786718951624 0.000107858024421148 0.0 0.0 -0.0 0.0 0.0 0.0 0.0403747595846653 -0.5787048935890198 -0.8128469586372375 -0.22827474772930145 -0.054830700159072876 0.08840051293373108 0.0426178015768528 -0.5742188096046448 -0.8006466031074524 -0.23498870432376862 -0.04923573136329651 0.09287648648023605 -0.2984313472330095 -0.11276008344914727 0.3131792302699861 -2.217980587432207 -2.219420640665867 -0.008245625775504474 0.0 0.0 0.0 0.0 0.0 0.0 0.9015802358444935 3.4560966751928697 0.9765856173844363 -0.5404823095933319 0.10209404930103085 0.4102420971723522 -0.2984301935029837 -0.11275507530515129 0.3131843183387717 -2.217827088832791 -2.2194802147226973 -0.008179933726190749 0.0 0.0 0.0 0.0 0.0 0.0
4127.168 1.2195106036116955e-18 -1.5707963267948966 1.5707963267948966 -1.5707963267948966 -1.5707963267948966 0.0 0.0 0.0 0.0 0.0 0.0 0.0 0.0 0.0 0.0 0.0 0.0 0.0 2.7100081908582143e-27 -0.620381750820575 -0.8463465614411209 -0.2525548825603051 -1.4392506443496177e-11 0.0 3.110005232743317e-26 -7.1458666999402505 -7.145866699940252 -1.0424175499402515 -5.974879480466362e-11 0.0 -1.1746083394825746e-05 -1.5707362333880823 1.5708250999450684 -1.5707362333880823 -1.5707548300372522 4.793690095539205e-05 0.0 0.0 -0.0 0.0 0.0 0.0 0.0403747595846653 -0.5719757676124573 -0.788446307182312 -0.2394646853208542 -0.04699774086475372 0.09959045052528381 0.0426178015768528 -0.5742188096046448 -0.8006466031074524 -0.23498870432376862 -0.04923573136329651 0.09399548172950745 -0.29843387454891757 -0.11275489026092753 0.31315263153213413 -2.2179882753663587 -2.219508897598372 -0.00829948697382856 0.0 0.0 0.0 0.0 0.0 0.0 0.31203355869948196 3.4026595780189757 2.3020662180732643 -0.500355143831229 -0.11167608918885587 0.4607823448272512 -0.2984301935029837 -0.11275507530515129 0.3131843183387717 -2.217827088832791 -2.2194802147226973 -0.008179933726190749 0.0 0.0 0.0 0.0 0.0 0.0
4127.1759999999995 1.2195106036116955e-18 -1.5707963267948966 1.5707963267948966 -1.5707963267948966 -1.5707963267948966 0.0 0.0 0.0 0.0 0.0 0.0 0.0 0.0 0.0 0.0 0.0 0.0 0.0 2.7100081908582143e-27 -0.620381750820575 -0.8463465614411209 -0.2525548825603051 -1.4392506443496177e-11 0.0 3.110005232743317e-26 -7.1458666999402505 -7.145866699940252 -1.0424175499402515 -5.974879480466362e-11 0.0 -4.7985707418263246e-05 -1.5707243124591272 1.570765495300293 -1.5707600752459925 -1.5707548300372522 4.793690095539205e-05 0.0 0.0 -0.0 0.0 0.0 0.0 0.0471038855612278 -0.5719757676124573 -0.8006466031074524 -0.2372266948223114 -0.04699774086475372 0.1018284410238266 0.0426178015768528 -0.5742188096046448 -0.8006466031074524 -0.23498870432376862 -0.0503547228872776 0.09175749868154526 -0.2984467774821312 -0.11274415524492143 0.31316890685257853 -2.2179928482890316 -2.219433320614531 -0.00822004362498372 0.0 0.0 0.0 0.0 0.0 0.0 0.7840065992613507 3.907831174191422 1.714047450598932 -0.5416095034309911 -0.012041326929328017 0.47180036879683734 -0.2984301935029837 -0.11275507530515129 0.3131843183387717 -2.217827088832791 -2.2194802147226973 -0.008179933726190749 0.0 0.0 0.0 0.0 0.0 0.0
4127.184 1.2195106036116955e-18 -1.5707963267948966 1.5707963267948966 -1.5707963267948966 -1.5707963267948966 0.0 0.0 0.0 0.0 0.0 0.0 0.0 0.0 0.0 0.0 0.0 0.0 0.0 2.7100081908582143e-27 -0.620381750820575 -0.8463465614411209 -0.2525548825603051 -1.4392506443496177e-11 0.0 3.110005232743317e-26 -7.1458666999402505 -7.145866699940252 -1.0424175499402515 -5.974879480466362e-11 0.0 -2.366701234990387e-05 -1.5707839171039026 1.570765495300293 -1.5707243124591272 -1.5707786718951624 5.992112710373476e-05 0.0 0.0 -0.0 0.0 0.0 0.0 0.0448608435690403 -0.5540314316749573 -0.8021716475486755 -0.22603675723075867 -0.04923573136329651 0.09511447697877884 0.0426178015768528 -0.5742188096046448 -0.8006466031074524 -0.23498870432376862 -0.04923573136329651 0.09063850343227386 -0.2984314791832406 -0.11274944692662249 0.3131836629337371 -2.217955493833266 -2.219422767878095 -0.008219914978198406 0.0 0.0 0.0 0.0 0.0 0.0 1.7922099093558792 4.091321123298878 1.40505071420308 -0.5669916849905441 0.1494514767575102 0.44168253597263185 -0.2984301935029837 -0.11275507530515129 0.3131843183387717 -2.217827088832791 -2.2194802147226973 -0.008179933726190749 0.0 0.0 0.0 0.0 0.0 0.0
4127.192 1.2195106036116955e-18 -1.5707963267948966 1.5707963267948966 -1.5707963267948966 -1.5707963267948966 0.0 0.0 0.0 0.0 0.0 0.0 0.0 0.0 0.0 0.0 0.0 0.0 0.0 2.7100081908582143e-27 -0.620381750820575 -0.8463465614411209 -0.2525548825603051 -1.4392506443496177e-11 0.0 3.110005232743317e-26 -7.1458666999402505 -7.145866699940252 -1.0424175499402515 -5.974879480466362e-11 0.0 -2.366701234990387e-05 -1.570820156727926 1.570777416229248 -1.5707243124591272 -1.5707905928241175 9.58738019107841e-05 0.0 0.0 -0.0 0.0 0.0 0.0 0.0403747595846653 -0.5742188096046448 -0.8036966919898987 -0.22939373552799225 -0.0503547228872776 0.09511447697877884 0.0426178015768528 -0.5742188096046448 -0.8006466031074524 -0.23498870432376862 -0.048116736114025116 0.09063850343227386 -0.2984246499092276 -0.11274846504816911 0.31319092872792476 -2.2179773158528824 -2.2193646266991647 -0.008206000755409826 0.0 0.0 0.0 0.0 0.0 0.0 0.7844325030908358 3.5152730143478066 1.4073054531031612 -0.5247396119751183 0.050367433060304494 0.4410973308416605 -0.2984301935029837 -0.11275507530515129 0.3131843183387717 -2.217827088832791 -2.2194802147226973 -0.008179933726190749 0.0 0.0 0.0 0.0 0.0 0.0
4127.2 1.2195106036116955e-18 -1.5707963267948966 1.5707963267948966 -1.5707963267948966 -1.5707963267948966 0.0 0.0 0.0 0.0 0.0 0.0 0.0 0.0 0.0 0.0 0.0 0.0 0.0 2.7100081908582143e-27 -0.620381750820575 -0.8463465614411209 -0.2525548825603051 -1.4392506443496177e-11 0.0 3.110005232743317e-26 -7.1458666999402505 -7.145866699940252 -1.0424175499402515 -5.974879480466362e-11 0.0 -1.1746083394825746e-05 -1.5707243124591272 1.5707530975341797 -1.5707362333880823 -1.570742432271139 0.000107858024421148 0.0 0.0 -0.0 0.0 0.0 0.0 0.0426178015768528 -0.5764618515968323 -0.796071469783783 -0.2361077070236206 -0.051473718136548996 0.09287648648023605 0.0426178015768528 -0.5742188096046448 -0.8006466031074524 -0.23498870432376862 -0.04923573136329651 0.09063850343227386 -0.2984417519369062 -0.1127559894196793 0.31317056648495484 -2.218030933360813 -2.2194187202961606 -0.00821877434708934 0.0 0.0 0.0 0.0 0.0 0.0 0.36998875869487335 3.4180327226658966 1.8905305460872206 -0.522206282072337 -0.05607852882780244 0.430000710492358 -0.2984301935029837 -0.11275507530515129 0.3131843183387717 -2.217827088832791 -2.2194802147226973 -0.008179933726190749 0.0 0.0 0.0 0.0 0.0 0.0
4127.208 1.2195106036116955e-18 -1.5707963267948966 1.5707963267948966 -1.5707963267948966 -1.5707963267948966 0.0 0.0 0.0 0.0 0.0 0.0 0.0 0.0 0.0 0.0 0.0 0.0 0.0 2.7100081908582143e-27 -0.620381750820575 -0.8463465614411209 -0.2525548825603051 -1.4392506443496177e-11 0.0 3.110005232743317e-26 -7.1458666999402505 -7.145866699940252 -1.0424175499402515 -5.974879480466362e-11 0.0 0.0 -1.5707481543170374 1.5708131790161133 -1.5707481543170374 -1.5707548300372522 0.000107858024421148 0.0 0.0 -0.0 0.0 0.0 0.0 0.0403747595846653 -0.5831909775733948 -0.7991215586662292 -0.23386971652507782 -0.0503547228872776 0.1007094457745552 0.0426178015768528 -0.5742188096046448 -0.8006466031074524 -0.2383456975221634 -0.04923573136329651 0.09175749868154526 -0.29843259636207825 -0.11275842208325511 0.31316076753637456 -2.218023788790985 -2.219437556377644 -0.008259511569565814 0.0 0.0 0.0 0.0 0.0 0.0 0.13257816458887278 3.3536216893604927 1.7065373062972613 -0.5116118669375059 -0.04983896070207292 0.46637749618724533 -0.2984301935029837 -0.11275507530515129 0.3131843183387717 -2.217827088832791 -2.2194802147226973 -0.008179933726190749 0.0 0.0 0.0 0.0 0.0 0.0
4127.215999999999 1.2195106036116955e-18 -1.5707963267948966 1.5707963267948966 -1.5707963267948966 -1.5707963267948966 0.0 0.0 0.0 0.0 0.0 0.0 0.0 0.0 0.0 0.0 0.0 0.0 0.0 2.7100081908582143e-27 -0.620381750820575 -0.8463465614411209 -0.2525548825603051 -1.4392506443496177e-11 0.0 3.110005232743317e-26 -7.1458666999402505 -7.145866699940252 -1.0424175499402515 -5.974879480466362e-11 0.0 -4.7985707418263246e-05 -1.5707481543170374 1.5708012580871582 -1.5707009474383753 -1.5707786718951624 5.992112710373476e-05 0.0 0.0 -0.0 0.0 0.0 0.0 0.0471038855612278 -0.5540314316749573 -0.796071469783783 -0.24505965411663055 -0.05259270966053009 0.08728151768445969 0.0426178015768528 -0.5742188096046448 -0.8006466031074524 -0.2372266948223114 -0.04923573136329651 0.09063850343227386 -0.2984351048384786 -0.11274211882839953 0.3131603130331438 -2.2180297631833654 -2.219443069463064 -0.008325470966441768 0.0 0.0 0.0 0.0 0.0 0.0 1.555834773267902 3.973091731857233 2.0876529418853287 -0.5732422374353296 -0.01613830517089979 0.4042148482999132 -0.2984301935029837 -0.11275507530515129 0.3131843183387717 -2.217827088832791 -2.2194802147226973 -0.008179933726190749 0.0 0.0 0.0 0.0 0.0 0.0
4127.224 1.2195106036116955e-18 -1.5707963267948966 1.5707963267948966 -1.5707963267948966 -1.5707963267948966 0.0 0.0 0.0 0.0 0.0 0.0 0.0 0.0 0.0 0.0 0.0 0.0 0.0 2.7100081908582143e-27 -0.620381750820575 -0.8463465614411209 -0.2525548825603051 -1.4392506443496177e-11 0.0 3.110005232743317e-26 -7.1458666999402505 -7.145866699940252 -1.0424175499402515 -5.974879480466362e-11 0.0 -1.1746083394825746e-05 -1.5707481543170374 1.570777416229248 -1.5707362333880823 -1.5707786718951624 0.000107858024421148 0.0 0.0 -0.0 0.0 0.0 0.0 0.0448608435690403 -0.5899201035499573 -0.7853962182998657 -0.2372266948223114 -0.04587874934077263 0.08168654888868332 0.0426178015768528 -0.5742188096046448 -0.8006466031074524 -0.2361077070236206 -0.04923573136329651 0.09063850343227386 -0.29843589820219335 -0.11275298583513606 0.3131704443647938 -2.2180130465699612 -2.219400658437361 -0.008259446369545896 0.0 0.0 0.0 0.0 0.0 0.0 -0.7556197751330314 2.912775401787922 2.3849004213514196 -0.45482917851906124 -0.1960847484889216 0.37724932648536597 -0.2984301935029837 -0.11275507530515129 0.3131843183387717 -2.217827088832791 -2.2194802147226973 -0.008179933726190749 0.0 0.0 0.0 0.0 0.0 0.0
4127.232 1.2195106036116955e-18 -1.5707963267948966 1.5707963267948966 -1.5707963267948966 -1.5707963267948966 0.0 0.0 0.0 0.0 0.0 0.0 0.0 0.0 0.0 0.0 0.0 0.0 0.0 2.7100081908582143e-27 -0.620381750820575 -0.8463465614411209 -0.2525548825603051 -1.4392506443496177e-11 0.0 3.110005232743317e-26 -7.1458666999402505 -7.145866699940252 -1.0424175499402515 -5.974879480466362e-11 0.0 -3.5587941304981996e-05 -1.5707724730121058 1.5708131790161133 -1.5707243124591272 -1.570742432271139 4.793690095539205e-05 0.0 0.0 -0.0 0.0 0.0 0.0 0.0426178015768528 -0.5854340195655823 -0.788446307182312 -0.23275071382522583 -0.05371170490980148 0.09847146272659302 0.0426178015768528 -0.5742188096046448 -0.8006466031074524 -0.23498870432376862 -0.048116736114025116 0.08951950818300247 -0.29843072282988586 -0.11274881502709858 0.31316598472415574 -2.21800306345285 -2.21947055498755 -0.008245589283736554 0.0 0.0 0.0 0.0 0.0 0.0 -0.39971334985511175 3.212788816050348 2.1548699247197454 -0.5158919091531251 -0.12680873314423752 0.4554975803434428 -0.2984301935029837 -0.11275507530515129 0.3131843183387717 -2.217827088832791 -2.2194802147226973 -0.008179933726190749 0.0 0.0 0.0 0.0 0.0 0.0
4127.24 1.2195106036116955e-18 -1.5707963267948966 1.5707963267948966 -1.5707963267948966 -1.5707963267948966 0.0 0.0 0.0 0.0 0.0 0.0 0.0 0.0 0.0 0.0 0.0 0.0 0.0 2.7100081908582143e-27 -0.620381750820575 -0.8463465614411209 -0.2525548825603051 -1.4392506443496177e-11 0.0 3.110005232743317e-26 -7.1458666999402505 -7.145866699940252 -1.0424175499402515 -5.974879480466362e-11 0.0 -3.5587941304981996e-05 -1.5707600752459925 1.5707530975341797 -1.5707481543170374 -1.5707066694842737 1.1984225238848012e-05 0.0 0.0 -0.0 0.0 0.0 0.0 0.0336456336081028 -0.5742188096046448 -0.8052217364311218 -0.22939373552799225 -0.04699774086475372 0.08951950818300247 0.0426178015768528 -0.5742188096046448 -0.8006466031074524 -0.23498870432376862 -0.048116736114025116 0.09175749868154526 -0.2984396533502879 -0.11275184098898532 0.3131822384100496 -2.2179454529752443 -2.2194930234887353 -0.008126552688698647 0.0 0.0 0.0 0.0 0.0 0.0 0.8442492125744977 3.160945073491878 1.3384397384962283 -0.47989095934924153 0.06117658326827471 0.4152413350794814 -0.2984301935029837 -0.11275507530515129 0.3131843183387717 -2.217827088832791 -2.2194802147226973 -0.008179933726190749 0.0 0.0 0.0 0.0 0.0 0.0
4127.248 1.2195106036116955e-18 -1.5707963267948966 1.5707963267948966 -1.5707963267948966 -1.5707963267948966 0.0 0.0 0.0 0.0 0.0 0.0 0.0 0.0 0.0 0.0 0.0 0.0 0.0 2.7100081908582143e-27 -0.620381750820575 -0.8463465614411209 -0.2525548825603051 -1.4392506443496177e-11 0.0 3.110005232743317e-26 -7.1458666999402505 -7.145866699940252 -1.0424175499402515 -5.974879480466362e-11 0.0 -1.1746083394825746e-05 -1.5707724730121058 1.570777416229248 -1.5707009474383753 -1.5707548300372522 8.388957940042019e-05 0.0 0.0 -0.0 0.0 0.0 0.0 0.0426178015768528 -0.5921631455421448 -0.7914963960647583 -0.2361077070236206 -0.05594969168305397 0.09399548172950745 0.0426178015768528 -0.5742188096046448 -0.8006466031074524 -0.23498870432376862 -0.04923573136329651 0.09063850343227386 -0.29842906828473176 -0.11275493383784388 0.3131746776763279 -2.218004064245243 -2.2194445259849567 -0.008245375170127252 0.0 0.0 0.0 0.0 0.0 0.0 -0.6373919041586458 3.052801782692458 2.09135538573948 -0.5130796599757252 -0.15648376581737694 0.4345493587721459 -0.2984301935029837 -0.11275507530515129 0.3131843183387717 -2.217827088832791 -2.2194802147226973 -0.008179933726190749 0.0 0.0 0.0 0.0 0.0 0.0
4127.255999999999 1.2195106036116955e-18 -1.5707963267948966 1.5707963267948966 -1.5707963267948966 -1.5707963267948966 0.0 0.0 0.0 0.0 0.0 0.0 0.0 0.0 0.0 0.0 0.0 0.0 0.0 2.7100081908582143e-27 -0.620381750820575 -0.8463465614411209 -0.2525548825603051 -1.4392506443496177e-11 0.0 3.110005232743317e-26 -7.1458666999402505 -7.145866699940252 -1.0424175499402515 -5.974879480466362e-11 0.0 -3.5587941304981996e-05 -1.5707724730121058 1.5708131790161133 -1.570676628743307 -1.5707667509662073 2.3968450477696024e-05 0.0 0.0 -0.0 0.0 0.0 0.0 0.0448608435690403 -0.5899201035499573 -0.7945464849472046 -0.23275071382522583 -0.04699774086475372 0.09847146272659302 0.0426178015768528 -0.5742188096046448 -0.8006466031074524 -0.2361077070236206 -0.051473718136548996 0.09063850343227386 -0.29842679549328804 -0.11274677911933756 0.31316192999508785 -2.2179881878021965 -2.2195084953467266 -0.008325643708275121 0.0 0.0 0.0 0.0 0.0 0.0 -0.40097950755464745 3.3095565407285874 1.8841994735600485 -0.4924852628385198 -0.10369904335247304 0.4556436983123488 -0.2984301935029837 -0.11275507530515129 0.3131843183387717 -2.217827088832791 -2.2194802147226973 -0.008179933726190749 0.0 0.0 0.0 0.0 0.0 0.0
4127.264 1.2195106036116955e-18 -1.5707963267948966 1.5707963267948966 -1.5707963267948966 -1.5707963267948966 0.0 0.0 0.0 0.0 0.0 0.0 0.0 0.0 0.0 0.0 0.0 0.0 0.0 2.7100081908582143e-27 -0.620381750820575 -0.8463465614411209 -0.2525548825603051 -1.4392506443496177e-11 0.0 3.110005232743317e-26 -7.1458666999402505 -7.145866699940252 -1.0424175499402515 -5.974879480466362e-11 0.0 -3.5587941304981996e-05 -1.5707839171039026 1.5707893371582031 -1.5707243124591272 -1.5707548300372522 5.992112710373476e-05 0.0 0.0 -0.0 0.0 0.0 0.0 0.0471038855612278 -0.5831909775733948 -0.8113219141960144 -0.22939373552799225 -0.04587874934077263 0.09063850343227386 0.0426178015768528 -0.5742188096046448 -0.8006466031074524 -0.23498870432376862 -0.048116736114025116 0.09063850343227386 -0.29843085014261833 -0.1127478255791329 0.3131765284130137 -2.2179925754140797 -2.219433420125558 -0.008220061378107702 0.0 0.0 0.0 0.0 0.0 0.0 0.6044917220684207 3.6680108027407314 1.0686132174943161 -0.5163124441122325 0.06471810528303074 0.42040536460577105 -0.2984301935029837 -0.11275507530515129 0.3131843183387717 -2.217827088832791 -2.2194802147226973 -0.008179933726190749 0.0 0.0 0.0 0.0 0.0 0.0
4127.272 1.2195106036116955e-18 -1.5707963267948966 1.5707963267948966 -1.5707963267948966 -1.5707963267948966 0.0 0.0 0.0 0.0 0.0 0.0 0.0 0.0 0.0 0.0 0.0 0.0 0.0 2.7100081908582143e-27 -0.620381750820575 -0.8463465614411209 -0.2525548825603051 -1.4392506443496177e-11 0.0 3.110005232743317e-26 -7.1458666999402505 -7.145866699940252 -1.0424175499402515 -5.974879480466362e-11 0.0 -3.5587941304981996e-05 -1.5707362333880823 1.570765495300293 -1.570688549672262 -1.5707305113421839 9.58738019107841e-05 0.0 0.0 -0.0 0.0 0.0 0.0 0.0515899695456028 -0.5674896836280823 -0.8143720030784607 -0.2361077070236206 -0.051473718136548996 0.08728151768445969 0.0426178015768528 -0.5742188096046448 -0.8006466031074524 -0.23498870432376862 -0.0503547228872776 0.09063850343227386 -0.2984375632124936 -0.11274981292739455 0.3131663458588796 -2.21807427912915 -2.219435374875072 -0.008259286052511501 0.0 0.0 0.0 0.0 0.0 0.0 1.5525033455701303 4.167971912194681 1.0814955253926688 -0.5835372980600507 0.11099823212632136 0.40502525341891765 -0.2984301935029837 -0.11275507530515129 0.3131843183387717 -2.217827088832791 -2.2194802147226973 -0.008179933726190749 0.0 0.0 0.0 0.0 0.0 0.0
4127.28 1.2195106036116955e-18 -1.5707963267948966 1.5707963267948966 -1.5707963267948966 -1.5707963267948966 0.0 0.0 0.0 0.0 0.0 0.0 0.0 0.0 0.0 0.0 0.0 0.0 0.0 2.7100081908582143e-27 -0.620381750820575 -0.8463465614411209 -0.2525548825603051 -1.4392506443496177e-11 0.0 3.110005232743317e-26 -7.1458666999402505 -7.145866699940252 -1.0424175499402515 -5.974879480466362e-11 0.0 1.1984225238848012e-05 -1.5707362333880823 1.5708131790161133 -1.5707243124591272 -1.5707305113421839 4.793690095539205e-05 0.0 0.0 -0.0 0.0 0.0 0.0 0.0403747595846653 -0.5742188096046448 -0.7991215586662292 -0.22939373552799225 -0.0503547228872776 0.07832957059144974 0.0426178015768528 -0.5742188096046448 -0.8006466031074524 -0.2383456975221634 -0.04923573136329651 0.09063850343227386 -0.2984312012715408 -0.11276398032613552 0.31315515891437384 -2.2179741272404603 -2.219547356541392 -0.00827250496512682 0.0 0.0 0.0 0.0 0.0 0.0 0.606923503937253 3.1864334669704077 1.6083398801924265 -0.4978066216482525 0.018921802092090746 0.36298883011932054 -0.2984301935029837 -0.11275507530515129 0.3131843183387717 -2.217827088832791 -2.2194802147226973 -0.008179933726190749 0.0 0.0 0.0 0.0 0.0 0.0
4127.288 1.2195106036116955e-18 -1.5707963267948966 1.5707963267948966 -1.5707963267948966 -1.5707963267948966 0.0 0.0 0.0 0.0 0.0 0.0 0.0 0.0 0.0 0.0 0.0 0.0 0.0 2.7100081908582143e-27 -0.620381750820575 -0.8463465614411209 -0.2525548825603051 -1.4392506443496177e-11 0.0 3.110005232743317e-26 -7.1458666999402505 -7.145866699940252 -1.0424175499402515 -5.974879480466362e-11 0.0 1.1984225238848012e-05 -1.5707724730121058 1.5708131790161133 -1.5707009474383753 -1.5707667509662073 9.58738019107841e-05 0.0 0.0 -0.0 0.0 0.0 0.0 0.0381317175924778 -0.5742188096046448 -0.796071469783783 -0.2361077070236206 -0.048116736114025116 0.09735246747732162 0.0426178015768528 -0.5742188096046448 -0.8006466031074524 -0.2372266948223114 -0.04923573136329651 0.09063850343227386 -0.29842343521654946 -0.11276099278064584 0.3131640055436932 -2.218002791906474 -2.219469279264926 -0.008298225250632996 0.0 0.0 0.0 0.0 0.0 0.0 0.489118599400381 3.339619292842118 1.8907394481698394 -0.5001468950630792 -0.04642958954543864 0.4508252234203625 -0.2984301935029837 -0.11275507530515129 0.3131843183387717 -2.217827088832791 -2.2194802147226973 -0.008179933726190749 0.0 0.0 0.0 0.0 0.0 0.0
4127.295999999999 1.2195106036116955e-18 -1.5707963267948966 1.5707963267948966 -1.5707963267948966 -1.5707963267948966 0.0 0.0 0.0 0.0 0.0 0.0 0.0 0.0 0.0 0.0 0.0 0.0 0.0 2.7100081908582143e-27 -0.620381750820575 -0.8463465614411209 -0.2525548825603051 -1.4392506443496177e-11 0.0 3.110005232743317e-26 -7.1458666999402505 -7.145866699940252 -1.0424175499402515 -5.974879480466362e-11 0.0 -2.366701234990387e-05 -1.5707839171039026 1.570765495300293 -1.5707481543170374 -1.5707305113421839 8.388957940042019e-05 0.0 0.0 -0.0 0.0 0.0 0.0 0.0381317175924778 -0.5697327256202698 -0.8143720030784607 -0.24170267581939697 -0.04587874934077263 0.09063850343227386 0.0426178015768528 -0.5742188096046448 -0.8006466031074524 -0.23275071382522583 -0.04923573136329651 0.09063850343227386 -0.29843344056738813 -0.11275342983535569 0.3131856682492605 -2.2179942628937117 -2.219408591952218 -0.008139994847101215 0.0 0.0 0.0 0.0 0.0 0.0 1.4355219904165468 3.595229377868134 1.2013477733519349 -0.5103302967560542 0.06483724480819221 0.4204347054334036 -0.2984301935029837 -0.11275507530515129 0.3131843183387717 -2.217827088832791 -2.2194802147226973 -0.008179933726190749 0.0 0.0 0.0 0.0 0.0 0.0
4127.304 1.2195106036116955e-18 -1.5707963267948966 1.5707963267948966 -1.5707963267948966 -1.5707963267948966 0.0 0.0 0.0 0.0 0.0 0.0 0.0 0.0 0.0 0.0 0.0 0.0 0.0 2.7100081908582143e-27 -0.620381750820575 -0.8463465614411209 -0.2525548825603051 -1.4392506443496177e-11 0.0 3.110005232743317e-26 -7.1458666999402505 -7.145866699940252 -1.0424175499402515 -5.974879480466362e-11 0.0 -1.1746083394825746e-05 -1.5707839171039026 1.5708131790161133 -1.5707243124591272 -1.5707305113421839 9.58738019107841e-05 0.0 0.0 -0.0 0.0 0.0 0.0 0.0381317175924778 -0.5809479355812073 -0.8113219141960144 -0.23051273822784424 -0.05594969168305397 0.08616252988576889 0.0426178015768528 -0.5742188096046448 -0.8006466031074524 -0.23498870432376862 -0.04923573136329651 0.09063850343227386 -0.29842618859830844 -0.11275691615793351 0.31316939369253416 -2.2180299753223833 -2.219443968107677 -0.008219464191737502 0.0 0.0 0.0 0.0 0.0 0.0 0.72430358731916 3.256890637988009 1.091997008928777 -0.5293464423373757 0.06723951599351574 0.39962928149885535 -0.2984301935029837 -0.11275507530515129 0.3131843183387717 -2.217827088832791 -2.2194802147226973 -0.008179933726190749 0.0 0.0 0.0 0.0 0.0 0.0
4127.312 1.2195106036116955e-18 -1.5707963267948966 1.5707963267948966 -1.5707963267948966 -1.5707963267948966 0.0 0.0 0.0 0.0 0.0 0.0 0.0 0.0 0.0 0.0 0.0 0.0 0.0 2.7100081908582143e-27 -0.620381750820575 -0.8463465614411209 -0.2525548825603051 -1.4392506443496177e-11 0.0 3.110005232743317e-26 -7.1458666999402505 -7.145866699940252 -1.0424175499402515 -5.974879480466362e-11 0.0 -1.1746083394825746e-05 -1.5707724730121058 1.570777416229248 -1.570688549672262 -1.5707305113421839 7.190534961409867e-05 0.0 0.0 -0.0 0.0 0.0 0.0 0.0493469275534153 -0.5809479355812073 -0.7869212627410889 -0.24729764461517334 -0.051473718136548996 0.09847146272659302 0.0426178015768528 -0.5742188096046448 -0.8006466031074524 -0.2394646853208542 -0.04699774086475372 0.09175749868154526 -0.29842804542139445 -0.11275692800676371 0.31317360451471243 -2.2180091929925725 -2.2194761903125806 -0.00823228384747198 0.0 0.0 0.0 0.0 0.0 0.0 -0.22239473990543354 3.568047573008475 2.5393281580521436 -0.5348939830128844 -0.21212305003953727 0.45493363278154547 -0.2984301935029837 -0.11275507530515129 0.3131843183387717 -2.217827088832791 -2.2194802147226973 -0.008179933726190749 0.0 0.0 0.0 0.0 0.0 0.0
4127.32 1.2195106036116955e-18 -1.5707963267948966 1.5707963267948966 -1.5707963267948966 -1.5707963267948966 0.0 0.0 0.0 0.0 0.0 0.0 0.0 0.0 0.0 0.0 0.0 0.0 0.0 2.7100081908582143e-27 -0.620381750820575 -0.8463465614411209 -0.2525548825603051 -1.4392506443496177e-11 0.0 3.110005232743317e-26 -7.1458666999402505 -7.145866699940252 -1.0424175499402515 -5.974879480466362e-11 0.0 -3.5587941304981996e-05 -1.5707724730121058 1.570777416229248 -1.5707123915301722 -1.5707066694842737 5.992112710373476e-05 0.0 0.0 -0.0 0.0 0.0 0.0 0.0471038855612278 -0.5585175156593323 -0.806746780872345 -0.2383456975221634 -0.04699774086475372 0.0850435346364975 0.0426178015768528 -0.5742188096046448 -0.8006466031074524 -0.2372266948223114 -0.048116736114025116 0.09175749868154526 -0.2984326966035793 -0.11275179298013817 0.31317562480476124 -2.218022436982694 -2.2194633243858246 -0.008179465776543297 0.0 0.0 0.0 0.0 0.0 0.0 1.7320625425394793 4.007267890143481 1.4681324753904352 -0.5496539420433341 0.08243695668888734 0.3945195148987154 -0.2984301935029837 -0.11275507530515129 0.3131843183387717 -2.217827088832791 -2.2194802147226973 -0.008179933726190749 0.0 0.0 0.0 0.0 0.0 0.0
4127.3279999999995 1.2195106036116955e-18 -1.5707963267948966 1.5707963267948966 -1.5707963267948966 -1.5707963267948966 0.0 0.0 0.0 0.0 0.0 0.0 0.0 0.0 0.0 0.0 0.0 0.0 0.0 2.7100081908582143e-27 -0.620381750820575 -0.8463465614411209 -0.2525548825603051 -1.4392506443496177e-11 0.0 3.110005232743317e-26 -7.1458666999402505 -7.145866699940252 -1.0424175499402515 -5.974879480466362e-11 0.0 -3.5587941304981996e-05 -1.5707123915301722 1.570777416229248 -1.5707243124591272 -1.570742432271139 3.5952674807049334e-05 0.0 0.0 -0.0 0.0 0.0 0.0 0.0403747595846653 -0.5630035996437073 -0.8097968697547913 -0.2383456975221634 -0.05594969168305397 0.09175749868154526 0.0426178015768528 -0.5742188096046448 -0.8006466031074524 -0.2372266948223114 -0.0503547228872776 0.09063850343227386 -0.2984433686109401 -0.11274883339203802 0.3131587281253055 -2.2180017630117077 -2.219496149062442 -0.008272604603701373 0.0 0.0 0.0 0.0 0.0 0.0 1.6139105302512464 3.776593934047243 1.3326964022893253 -0.5722741008970919 0.08387371611551021 0.42562965892467575 -0.2984301935029837 -0.11275507530515129 0.3131843183387717 -2.217827088832791 -2.2194802147226973 -0.008179933726190749 0.0 0.0 0.0 0.0 0.0 0.0
4127.336 1.2195106036116955e-18 -1.5707963267948966 1.5707963267948966 -1.5707963267948966 -1.5707963267948966 0.0 0.0 0.0 0.0 0.0 0.0 0.0 0.0 0.0 0.0 0.0 0.0 0.0 2.7100081908582143e-27 -0.620381750820575 -0.8463465614411209 -0.2525548825603051 -1.4392506443496177e-11 0.0 3.110005232743317e-26 -7.1458666999402505 -7.145866699940252 -1.0424175499402515 -5.974879480466362e-11 0.0 -7.18275653284195e-05 -1.5707600752459925 1.5708012580871582 -1.5707123915301722 -1.5707667509662073 8.388957940042019e-05 0.0 0.0 -0.0 0.0 0.0 0.0 0.0448608435690403 -0.5809479355812073 -0.8036966919898987 -0.23386971652507782 -0.05259270966053009 0.09623347222805023 0.0426178015768528 -0.5742188096046448 -0.8006466031074524 -0.23498870432376862 -0.04699774086475372 0.09063850343227386 -0.29843681285488555 -0.1127359977730739 0.31316484109261306 -2.2180771579154994 -2.2193844244363428 -0.008286296852582557 0.0 0.0 0.0 0.0 0.0 0.0 0.428202216650047 3.5898519821859 1.504249090773865 -0.5413801836498431 -0.007949981885225945 0.44584437743087896 -0.2984301935029837 -0.11275507530515129 0.3131843183387717 -2.217827088832791 -2.2194802147226973 -0.008179933726190749 0.0 0.0 0.0 0.0 0.0 0.0
4127.344 1.2195106036116955e-18 -1.5707963267948966 1.5707963267948966 -1.5707963267948966 -1.5707963267948966 0.0 0.0 0.0 0.0 0.0 0.0 0.0 0.0 0.0 0.0 0.0 0.0 0.0 2.7100081908582143e-27 -0.620381750820575 -0.8463465614411209 -0.2525548825603051 -1.4392506443496177e-11 0.0 3.110005232743317e-26 -7.1458666999402505 -7.145866699940252 -1.0424175499402515 -5.974879480466362e-11 0.0 -4.7985707418263246e-05 -1.5707600752459925 1.570777416229248 -1.5707600752459925 -1.5707185904132288 0.000107858024421148 0.0 0.0 -0.0 0.0 0.0 0.0 0.0426178015768528 -0.5787048935890198 -0.8113219141960144 -0.24170267581939697 -0.051473718136548996 0.0850435346364975 0.0426178015768528 -0.5742188096046448 -0.8006466031074524 -0.2372266948223114 -0.048116736114025116 0.09063850343227386 -0.29844002274938225 -0.11274713968453151 0.31317600105341176 -2.218065614444708 -2.219373012765519 -0.008153269512588133 0.0 0.0 0.0 0.0 0.0 0.0 0.8424819751616524 3.476130882099325 1.335359193807668 -0.526648719196293 0.004612094556693678 0.394064631721394 -0.2984301935029837 -0.11275507530515129 0.3131843183387717 -2.217827088832791 -2.2194802147226973 -0.008179933726190749 0.0 0.0 0.0 0.0 0.0 0.0
4127.352 1.2195106036116955e-18 -1.5707963267948966 1.5707963267948966 -1.5707963267948966 -1.5707963267948966 0.0 0.0 0.0 0.0 0.0 0.0 0.0 0.0 0.0 0.0 0.0 0.0 0.0 2.7100081908582143e-27 -0.620381750820575 -0.8463465614411209 -0.2525548825603051 -1.4392506443496177e-11 0.0 3.110005232743317e-26 -7.1458666999402505 -7.145866699940252 -1.0424175499402515 -5.974879480466362e-11 0.0 -1.1746083394825746e-05 -1.5707362333880823 1.5707530975341797 -1.5707481543170374 -1.570742432271139 9.58738019107841e-05 0.0 0.0 -0.0 0.0 0.0 0.0 0.0403747595846653 -0.5809479355812073 -0.8128469586372375 -0.2383456975221634 -0.04364075884222984 0.09511447697877884 0.0426178015768528 -0.5742188096046448 -0.8006466031074524 -0.23498870432376862 -0.04699774086475372 0.09063850343227386 -0.2984408118011187 -0.11275600215230283 0.3131751428094188 -2.2180057770941226 -2.2194201809433447 -0.008192303567035666 0.0 0.0 0.0 0.0 0.0 0.0 0.7829313194932258 3.5140633744030243 1.1953035520400028 -0.4932520697779934 0.026968489199758326 0.4409564934884865 -0.2984301935029837 -0.11275507530515129 0.3131843183387717 -2.217827088832791 -2.2194802147226973 -0.008179933726190749 0.0 0.0 0.0 0.0 0.0 0.0
4127.36 1.2195106036116955e-18 -1.5707963267948966 1.5707963267948966 -1.5707963267948966 -1.5707963267948966 0.0 0.0 0.0 0.0 0.0 0.0 0.0 0.0 0.0 0.0 0.0 0.0 0.0 2.7100081908582143e-27 -0.620381750820575 -0.8463465614411209 -0.2525548825603051 -1.4392506443496177e-11 0.0 3.110005232743317e-26 -7.1458666999402505 -7.145866699940252 -1.0424175499402515 -5.974879480466362e-11 0.0 -2.366701234990387e-05 -1.5707481543170374 1.5707411766052246 -1.5707362333880823 -1.5707786718951624 8.388957940042019e-05 0.0 0.0 -0.0 0.0 0.0 0.0 0.0426178015768528 -0.5831909775733948 -0.8021716475486755 -0.23275071382522583 -0.05706868693232536 0.09735246747732162 0.0426178015768528 -0.5742188096046448 -0.8006466031074524 -0.23498870432376862 -0.048116736114025116 0.09063850343227386 -0.29844023950547394 -0.11274946970928748 0.313181266399987 -2.217981697607363 -2.2193960593118325 -0.00821926629155997 0.0 0.0 0.0 0.0 0.0 0.0 0.25065233786854657 3.4432558937235758 1.5471753916213933 -0.5501356741319969 -0.021236567419487113 0.45098068054850615 -0.2984301935029837 -0.11275507530515129 0.3131843183387717 -2.217827088832791 -2.2194802147226973 -0.008179933726190749 0.0 0.0 0.0 0.0 0.0 0.0
4127.3679999999995 1.2195106036116955e-18 -1.5707963267948966 1.5707963267948966 -1.5707963267948966 -1.5707963267948966 0.0 0.0 0.0 0.0 0.0 0.0 0.0 0.0 0.0 0.0 0.0 0.0 0.0 2.7100081908582143e-27 -0.620381750820575 -0.8463465614411209 -0.2525548825603051 -1.4392506443496177e-11 0.0 3.110005232743317e-26 -7.1458666999402505 -7.145866699940252 -1.0424175499402515 -5.974879480466362e-11 0.0 -1.1746083394825746e-05 -1.5707362333880823 1.5707893371582031 -1.5707123915301722 -1.5706947485553187 5.992112710373476e-05 0.0 0.0 -0.0 0.0 0.0 0.0 0.0471038855612278 -0.5854340195655823 -0.8036966919898987 -0.23386971652507782 -0.04364075884222984 0.09735246747732162 0.0426178015768528 -0.5742188096046448 -0.8006466031074524 -0.23498870432376862 -0.048116736114025116 0.09063850343227386 -0.2984348650888794 -0.11275986276213516 0.3131612391374607 -2.2180258183224657 -2.219519782940668 -0.008219705027834805 0.0 0.0 0.0 0.0 0.0 0.0 0.19030286616524655 3.613828590084476 1.503840864385478 -0.5016814444759813 -0.02747766620615218 0.45094683231950683 -0.2984301935029837 -0.11275507530515129 0.3131843183387717 -2.217827088832791 -2.2194802147226973 -0.008179933726190749 0.0 0.0 0.0 0.0 0.0 0.0
4127.376 1.2195106036116955e-18 -1.5707963267948966 1.5707963267948966 -1.5707963267948966 -1.5707963267948966 0.0 0.0 0.0 0.0 0.0 0.0 0.0 0.0 0.0 0.0 0.0 0.0 0.0 2.7100081908582143e-27 -0.620381750820575 -0.8463465614411209 -0.2525548825603051 -1.4392506443496177e-11 0.0 3.110005232743317e-26 -7.1458666999402505 -7.145866699940252 -1.0424175499402515 -5.974879480466362e-11 0.0 -2.366701234990387e-05 -1.5707362333880823 1.570777416229248 -1.5707839171039026 -1.5707548300372522 0.000107858024421148 0.0 0.0 -0.0 0.0 0.0 0.0 0.0403747595846653 -0.5831909775733948 -0.8143720030784607 -0.23275071382522583 -0.05818767845630646 0.09511447697877884 0.0426178015768528 -0.5742188096046448 -0.8006466031074524 -0.23498870432376862 -0.051473718136548996 0.08951950818300247 -0.29844309160480653 -0.11275142042405227 0.3131709408209952 -2.2180202889496856 -2.2193818731341386 -0.008193270206017315 0.0 0.0 0.0 0.0 0.0 0.0 0.7236384902990683 3.492229287394318 1.0063647067804755 -0.5590729915790089 0.0639759991890234 0.44113721032501846 -0.2984301935029837 -0.11275507530515129 0.3131843183387717 -2.217827088832791 -2.2194802147226973 -0.008179933726190749 0.0 0.0 0.0 0.0 0.0 0.0
4127.384 1.2195106036116955e-18 -1.5707963267948966 1.5707963267948966 -1.5707963267948966 -1.5707963267948966 0.0 0.0 0.0 0.0 0.0 0.0 0.0 0.0 0.0 0.0 0.0 0.0 0.0 2.7100081908582143e-27 -0.620381750820575 -0.8463465614411209 -0.2525548825603051 -1.4392506443496177e-11 0.0 3.110005232743317e-26 -7.1458666999402505 -7.145866699940252 -1.0424175499402515 -5.974879480466362e-11 0.0 -4.7985707418263246e-05 -1.5707600752459925 1.5708012580871582 -1.5707481543170374 -1.570742432271139 0.00011984225420746952 0.0 0.0 -0.0 0.0 0.0 0.0 0.0493469275534153 -0.5674896836280823 -0.8006466031074524 -0.23275071382522583 -0.04923573136329651 0.0839245393872261 0.0426178015768528 -0.5742188096046448 -0.8006466031074524 -0.23498870432376862 -0.04923573136329651 0.08951950818300247 -0.2984370700271907 -0.11274514062414413 0.3131678784708953 -2.218084776340805 -2.219365454305281 -0.008219399277285435 0.0 0.0 0.0 0.0 0.0 0.0 1.020997677037613 3.816904576620674 1.6159812407137655 -0.5444982398149943 0.03704154354755173 0.3890449136670135 -0.2984301935029837 -0.11275507530515129 0.3131843183387717 -2.217827088832791 -2.2194802147226973 -0.008179933726190749 0.0 0.0 0.0 0.0 0.0 0.0
4127.392 1.2195106036116955e-18 -1.5707963267948966 1.5707963267948966 -1.5707963267948966 -1.5707963267948966 0.0 0.0 0.0 0.0 0.0 0.0 0.0 0.0 0.0 0.0 0.0 0.0 0.0 2.7100081908582143e-27 -0.620381750820575 -0.8463465614411209 -0.2525548825603051 -1.4392506443496177e-11 0.0 3.110005232743317e-26 -7.1458666999402505 -7.145866699940252 -1.0424175499402515 -5.974879480466362e-11 0.0 -3.5587941304981996e-05 -1.5707481543170374 1.5708012580871582 -1.5707009474383753 -1.5707305113421839 9.58738019107841e-05 0.0 0.0 -0.0 0.0 0.0 0.0 0.0471038855612278 -0.5652466416358948 -0.8097968697547913 -0.23275071382522583 -0.048116736114025116 0.0850435346364975 0.0448608435690403 -0.5742188096046448 -0.8006466031074524 -0.2372266948223114 -0.048116736114025116 0.09063850343227386 -0.29843370432937144 -0.1127497850797032 0.3131602832876836 -2.2180799707741676 -2.2194410757110368 -0.00827200815058975 0.0 0.0 0.0 0.0 0.0 0.0 1.4943340444362798 3.9179380805276747 1.210858337315558 -0.5474063699476718 0.11065750469008838 0.394671842012838 -0.2984301935029837 -0.11275507530515129 0.3131843183387717 -2.217827088832791 -2.2194802147226973 -0.008179933726190749 0.0 0.0 0.0 0.0 0.0 0.0
4127.4 1.2195106036116955e-18 -1.5707963267948966 1.5707963267948966 -1.5707963267948966 -1.5707963267948966 0.0 0.0 0.0 0.0 0.0 0.0 0.0 0.0 0.0 0.0 0.0 0.0 0.0 2.7100081908582143e-27 -0.620381750820575 -0.8463465614411209 -0.2525548825603051 -1.4392506443496177e-11 0.0 3.110005232743317e-26 -7.1458666999402505 -7.145866699940252 -1.0424175499402515 -5.974879480466362e-11 0.0 -2.366701234990387e-05 -1.5707481543170374 1.5708012580871582 -1.5707481543170374 -1.5707548300372522 9.58738019107841e-05 0.0 0.0 -0.0 0.0 0.0 0.0 0.0358886756002903 -0.5764618515968323 -0.8082718253135681 -0.24170267581939697 -0.044759754091501236 0.08728151768445969 0.0381317175924778 -0.5742188096046448 -0.8006466031074524 -0.2361077070236206 -0.048116736114025116 0.08951950818300247 -0.2984362510144434 -0.11275137270009253 0.31316432738083116 -2.218030883080555 -2.2194187366731546 -0.008246365502327206 0.0 0.0 0.0 0.0 0.0 0.0 0.8435457733609502 3.2210972975507266 1.4701593941677844 -0.47449109287500774 -0.006958883193254982 0.40440060607666856 -0.2984301935029837 -0.11275507530515129 0.3131843183387717 -2.217827088832791 -2.2194802147226973 -0.008179933726190749 0.0 0.0 0.0 0.0 0.0 0.0
4127.407999999999 1.2195106036116955e-18 -1.5707963267948966 1.5707963267948966 -1.5707963267948966 -1.5707963267948966 0.0 0.0 0.0 0.0 0.0 0.0 0.0 0.0 0.0 0.0 0.0 0.0 0.0 2.7100081908582143e-27 -0.620381750820575 -0.8463465614411209 -0.2525548825603051 -1.4392506443496177e-11 0.0 3.110005232743317e-26 -7.1458666999402505 -7.145866699940252 -1.0424175499402515 -5.974879480466362e-11 0.0 0.0 -1.5707839171039026 1.570777416229248 -1.5707123915301722 -1.5707548300372522 3.5952674807049334e-05 0.0 0.0 -0.0 0.0 0.0 0.0 0.0560760572552681 -0.5719757676124573 -0.8097968697547913 -0.23498870432376862 -0.04699774086475372 0.08840051293373108 0.0493469275534153 -0.5742188096046448 -0.8006466031074524 -0.23498870432376862 -0.048116736114025116 0.08951950818300247 -0.2984268412704373 -0.11275845141514516 0.31317907079162494 -2.217926495010078 -2.219499401882618 -0.00822003806817703 0.0 0.0 0.0 0.0 0.0 0.0 1.1372839956780485 4.221325145461304 1.2597375581681423 -0.5671778613279976 0.06676537896883342 0.40998605775005864 -0.2984301935029837 -0.11275507530515129 0.3131843183387717 -2.217827088832791 -2.2194802147226973 -0.008179933726190749 0.0 0.0 0.0 0.0 0.0 0.0
4127.416 1.2195106036116955e-18 -1.5707963267948966 1.5707963267948966 -1.5707963267948966 -1.5707963267948966 0.0 0.0 0.0 0.0 0.0 0.0 0.0 0.0 0.0 0.0 0.0 0.0 0.0 2.7100081908582143e-27 -0.620381750820575 -0.8463465614411209 -0.2525548825603051 -1.4392506443496177e-11 0.0 3.110005232743317e-26 -7.1458666999402505 -7.145866699940252 -1.0424175499402515 -5.974879480466362e-11 0.0 0.0 -1.5707481543170374 1.5708131790161133 -1.5707481543170374 -1.5707305113421839 0.00011984225420746952 0.0 0.0 -0.0 0.0 0.0 0.0 0.0426178015768528 -0.5562744736671448 -0.8021716475486755 -0.2372266948223114 -0.04923573136329651 0.09623347222805023 0.0426178015768528 -0.5742188096046448 -0.8006466031074524 -0.23498870432376862 -0.04923573136329651 0.09175749868154526 -0.29843259490938656 -0.11276042488435237 0.3131607525403574 -2.2180492641198586 -2.219436473734497 -0.008232553360221365 0.0 0.0 0.0 0.0 0.0 0.0 1.67382563481034 3.9654582560034806 1.6475896424270515 -0.5567439194988889 0.06712067499495596 0.4463161927035234 -0.2984301935029837 -0.11275507530515129 0.3131843183387717 -2.217827088832791 -2.2194802147226973 -0.008179933726190749 0.0 0.0 0.0 0.0 0.0 0.0
4127.424 1.2195106036116955e-18 -1.5707963267948966 1.5707963267948966 -1.5707963267948966 -1.5707963267948966 0.0 0.0 0.0 0.0 0.0 0.0 0.0 0.0 0.0 0.0 0.0 0.0 0.0 2.7100081908582143e-27 -0.620381750820575 -0.8463465614411209 -0.2525548825603051 -1.4392506443496177e-11 0.0 3.110005232743317e-26 -7.1458666999402505 -7.145866699940252 -1.0424175499402515 -5.974879480466362e-11 0.0 0.0 -1.570796314870016 1.570777416229248 -1.5707724730121058 -1.5707905928241175 8.388957940042019e-05 0.0 0.0 -0.0 0.0 0.0 0.0 0.0381317175924778 -0.5652466416358948 -0.7838711738586426 -0.22827474772930145 -0.04923573136329651 0.09623347222805023 0.0403747595846653 -0.5742188096046448 -0.8006466031074524 -0.23498870432376862 -0.04923573136329651 0.09287648648023605 -0.29842979382283746 -0.11275555259819253 0.31318792232647363 -2.2179254370769454 -2.219392293929427 -0.008178859012655663 0.0 0.0 0.0 0.0 0.0 0.0 0.490924344413498 3.3231311461653306 2.262201297760566 -0.504177050175967 -0.04174757226395671 0.4457249576489359 -0.2984301935029837 -0.11275507530515129 0.3131843183387717 -2.217827088832791 -2.2194802147226973 -0.008179933726190749 0.0 0.0 0.0 0.0 0.0 0.0
4127.432 1.2195106036116955e-18 -1.5707963267948966 1.5707963267948966 -1.5707963267948966 -1.5707963267948966 0.0 0.0 0.0 0.0 0.0 0.0 0.0 0.0 0.0 0.0 0.0 0.0 0.0 2.7100081908582143e-27 -0.620381750820575 -0.8463465614411209 -0.2525548825603051 -1.4392506443496177e-11 0.0 3.110005232743317e-26 -7.1458666999402505 -7.145866699940252 -1.0424175499402515 -5.974879480466362e-11 0.0 -5.990663637334137e-05 -1.570808235798971 1.5707893371582031 -1.5707243124591272 -1.5707786718951624 4.793690095539205e-05 0.0 0.0 -0.0 0.0 0.0 0.0 0.0448608435690403 -0.5764618515968323 -0.7930214405059814 -0.23163172602653503 -0.04923573136329651 0.08951950818300247 0.0426178015768528 -0.5742188096046448 -0.8006466031074524 -0.23498870432376862 -0.04923573136329651 0.09175749868154526 -0.29842967166393836 -0.11273861379680646 0.31318380280608493 -2.217982315907882 -2.2193956461511646 -0.008219554880991678 0.0 0.0 0.0 0.0 0.0 0.0 0.2517852526513927 3.4182786721740164 1.928344183386394 -0.5118391174761794 -0.04820691340347098 0.41450405882354957 -0.2984301935029837 -0.11275507530515129 0.3131843183387717 -2.217827088832791 -2.2194802147226973 -0.008179933726190749 0.0 0.0 0.0 0.0 0.0 0.0
4127.44 1.2195106036116955e-18 -1.5707963267948966 1.5707963267948966 -1.5707963267948966 -1.5707963267948966 0.0 0.0 0.0 0.0 0.0 0.0 0.0 0.0 0.0 0.0 0.0 0.0 0.0 2.7100081908582143e-27 -0.620381750820575 -0.8463465614411209 -0.2525548825603051 -1.4392506443496177e-11 0.0 3.110005232743317e-26 -7.1458666999402505 -7.145866699940252 -1.0424175499402515 -5.974879480466362e-11 0.0 -3.5587941304981996e-05 -1.5707724730121058 1.5708131790161133 -1.5707009474383753 -1.570742432271139 7.190534961409867e-05 0.0 0.0 -0.0 0.0 0.0 0.0 0.0448608435690403 -0.5742188096046448 -0.7914963960647583 -0.23163172602653503 -0.05818767845630646 0.08951950818300247 0.0426178015768528 -0.5742188096046448 -0.8006466031074524 -0.23498870432376862 -0.04923573136329651 0.09063850343227386 -0.2984287977823867 -0.1127487988046586 0.3131639905236695 -2.2180413173929407 -2.2194554657757743 -0.008271516660065696 0.0 0.0 0.0 0.0 0.0 0.0 0.31130539822154507 3.4404756743733698 1.9963748160785018 -0.5553997019572152 -0.04915782917694899 0.4144119069811129 -0.2984301935029837 -0.11275507530515129 0.3131843183387717 -2.217827088832791 -2.2194802147226973 -0.008179933726190749 0.0 0.0 0.0 0.0 0.0 0.0
4127.447999999999 1.2195106036116955e-18 -1.5707963267948966 1.5707963267948966 -1.5707963267948966 -1.5707963267948966 0.0 0.0 0.0 0.0 0.0 0.0 0.0 0.0 0.0 0.0 0.0 0.0 0.0 2.7100081908582143e-27 -0.620381750820575 -0.8463465614411209 -0.2525548825603051 -1.4392506443496177e-11 0.0 3.110005232743317e-26 -7.1458666999402505 -7.145866699940252 -1.0424175499402515 -5.974879480466362e-11 0.0 1.1984225238848012e-05 -1.5707600752459925 1.5708250999450684 -1.5707481543170374 -1.5707786718951624 3.5952674807049334e-05 0.0 0.0 -0.0 0.0 0.0 0.0 0.0471038855612278 -0.5876770615577698 -0.7991215586662292 -0.2394646853208542 -0.05259270966053009 0.09287648648023605 0.0426178015768528 -0.5742188096046448 -0.8006466031074524 -0.2361077070236206 -0.05259270966053009 0.09063850343227386 -0.29842833825389925 -0.11276002572342833 0.31316078117062934 -2.2179188722721093 -2.2195186727635265 -0.008286097828071144 0.0 0.0 0.0 0.0 0.0 0.0 -0.10542595467304172 3.430843905785211 1.827315838730896 -0.5284371304064325 -0.10538951665069674 0.429661788628192 -0.2984301935029837 -0.11275507530515129 0.3131843183387717 -2.217827088832791 -2.2194802147226973 -0.008179933726190749 0.0 0.0 0.0 0.0 0.0 0.0
4127.456 1.2195106036116955e-18 -1.5707963267948966 1.5707963267948966 -1.5707963267948966 -1.5707963267948966 0.0 0.0 0.0 0.0 0.0 0.0 0.0 0.0 0.0 0.0 0.0 0.0 0.0 2.7100081908582143e-27 -0.620381750820575 -0.8463465614411209 -0.2525548825603051 -1.4392506443496177e-11 0.0 3.110005232743317e-26 -7.1458666999402505 -7.145866699940252 -1.0424175499402515 -5.974879480466362e-11 0.0 -4.7985707418263246e-05 -1.5707362333880823 1.5707893371582031 -1.5707481543170374 -1.570742432271139 2.3968450477696024e-05 0.0 0.0 -0.0 0.0 0.0 0.0 0.0381317175924778 -0.5764618515968323 -0.7991215586662292 -0.24058367311954498 -0.04028377681970596 0.09175749868154526 0.0426178015768528 -0.5742188096046448 -0.8006466031074524 -0.23498870432376862 -0.04587874934077263 0.09063850343227386 -0.2984419004135439 -0.11274514525301613 0.31316432081008516 -2.217984444895742 -2.2194779601896837 -0.008232918133240886 0.0 0.0 0.0 0.0 0.0 0.0 0.48871889850866623 3.2521003034776528 1.8517615534493093 -0.4564287222465009 -0.0636614311691507 0.42482037229590847 -0.2984301935029837 -0.11275507530515129 0.3131843183387717 -2.217827088832791 -2.2194802147226973 -0.008179933726190749 0.0 0.0 0.0 0.0 0.0 0.0
4127.464 1.2195106036116955e-18 -1.5707963267948966 1.5707963267948966 -1.5707963267948966 -1.5707963267948966 0.0 0.0 0.0 0.0 0.0 0.0 0.0 0.0 0.0 0.0 0.0 0.0 0.0 2.7100081908582143e-27 -0.620381750820575 -0.8463465614411209 -0.2525548825603051 -1.4392506443496177e-11 0.0 3.110005232743317e-26 -7.1458666999402505 -7.145866699940252 -1.0424175499402515 -5.974879480466362e-11 0.0 -4.7985707418263246e-05 -1.5707481543170374 1.570777416229248 -1.5707123915301722 -1.5706947485553187 5.992112710373476e-05 0.0 0.0 -0.0 0.0 0.0 0.0 0.0381317175924778 -0.5719757676124573 -0.7945464849472046 -0.24058367311954498 -0.054830700159072876 0.09511447697877884 0.0426178015768528 -0.5742188096046448 -0.8006466031074524 -0.23498870432376862 -0.0503547228872776 0.09063850343227386 -0.2984380151639483 -0.11274906565479072 0.3131683577109938 -2.218054254497793 -2.219467763770728 -0.008193317594381076 0.0 0.0 0.0 0.0 0.0 0.0 0.5489447698760707 3.326557328182764 2.055599439417505 -0.5303824554758624 -0.07626796717930227 0.44023621704315424 -0.2984301935029837 -0.11275507530515129 0.3131843183387717 -2.217827088832791 -2.2194802147226973 -0.008179933726190749 0.0 0.0 0.0 0.0 0.0 0.0
4127.472 1.2195106036116955e-18 -1.5707963267948966 1.5707963267948966 -1.5707963267948966 -1.5707963267948966 0.0 0.0 0.0 0.0 0.0 0.0 0.0 0.0 0.0 0.0 0.0 0.0 0.0 2.7100081908582143e-27 -0.620381750820575 -0.8463465614411209 -0.2525548825603051 -1.4392506443496177e-11 0.0 3.110005232743317e-26 -7.1458666999402505 -7.145866699940252 -1.0424175499402515 -5.974879480466362e-11 0.0 -2.366701234990387e-05 -1.5707243124591272 1.5708131790161133 -1.5707481543170374 -1.5707305113421839 7.190534961409867e-05 0.0 0.0 -0.0 0.0 0.0 0.0 0.0448608435690403 -0.5742188096046448 -0.7975965142250061 -0.2361077070236206 -0.048116736114025116 0.09623347222805023 0.0426178015768528 -0.5742188096046448 -0.8006466031074524 -0.23498870432376862 -0.04923573136329651 0.09063850343227386 -0.2984391076635218 -0.11275335293484531 0.3131536350127907 -2.21803428370995 -2.2194754542518953 -0.00825925153525501 0.0 0.0 0.0 0.0 0.0 0.0 0.5474023470457241 3.6343277043512883 1.8238160811179203 -0.5243784518275025 -0.03571019236458848 0.44567826439882363 -0.2984301935029837 -0.11275507530515129 0.3131843183387717 -2.217827088832791 -2.2194802147226973 -0.008179933726190749 0.0 0.0 0.0 0.0 0.0 0.0
4127.48 1.2195106036116955e-18 -1.5707963267948966 1.5707963267948966 -1.5707963267948966 -1.5707963267948966 0.0 0.0 0.0 0.0 0.0 0.0 0.0 0.0 0.0 0.0 0.0 0.0 0.0 2.7100081908582143e-27 -0.620381750820575 -0.8463465614411209 -0.2525548825603051 -1.4392506443496177e-11 0.0 3.110005232743317e-26 -7.1458666999402505 -7.145866699940252 -1.0424175499402515 -5.974879480466362e-11 0.0 -3.5587941304981996e-05 -1.5707724730121058 1.5707893371582031 -1.5707123915301722 -1.5707305113421839 7.190534961409867e-05 0.0 0.0 -0.0 0.0 0.0 0.0 0.0448608435690403 -0.5876770615577698 -0.7975965142250061 -0.2361077070236206 -0.051473718136548996 0.08840051293373108 0.0426178015768528 -0.5742188096046448 -0.8006466031074524 -0.23498870432376862 -0.04923573136329651 0.09063850343227386 -0.29843171201122964 -0.11274981580470204 0.313172079602734 -2.2180296928910925 -2.21944395120722 -0.008219078527507901 0.0 0.0 0.0 0.0 0.0 0.0 -0.1641020632552326 3.2426985858817723 1.8213162312320113 -0.5077321988167298 -0.09412729819953781 0.4090007653155033 -0.2984301935029837 -0.11275507530515129 0.3131843183387717 -2.217827088832791 -2.2194802147226973 -0.008179933726190749 0.0 0.0 0.0 0.0 0.0 0.0
4127.487999999999 1.2195106036116955e-18 -1.5707963267948966 1.5707963267948966 -1.5707963267948966 -1.5707963267948966 0.0 0.0 0.0 0.0 0.0 0.0 0.0 0.0 0.0 0.0 0.0 0.0 0.0 2.7100081908582143e-27 -0.620381750820575 -0.8463465614411209 -0.2525548825603051 -1.4392506443496177e-11 0.0 3.110005232743317e-26 -7.1458666999402505 -7.145866699940252 -1.0424175499402515 -5.974879480466362e-11 0.0 -4.7985707418263246e-05 -1.5707481543170374 1.5707530975341797 -1.5707243124591272 -1.5707667509662073 4.793690095539205e-05 0.0 0.0 -0.0 0.0 0.0 0.0 0.0381317175924778 -0.5787048935890198 -0.8006466031074524 -0.2394646853208542 -0.048116736114025116 0.09399548172950745 0.0426178015768528 -0.5742188096046448 -0.8006466031074524 -0.2372266948223114 -0.04923573136329651 0.09063850343227386 -0.29844101268012807 -0.11274317186663234 0.31317668162585777 -2.2179867832807583 -2.2194268841541063 -0.00823276928304641 0.0 0.0 0.0 0.0 0.0 0.0 0.4293348637928357 3.2645440033685627 1.759999663263809 -0.49385825882115686 -0.055669566705929215 0.43522730455803843 -0.2984301935029837 -0.11275507530515129 0.3131843183387717 -2.217827088832791 -2.2194802147226973 -0.008179933726190749 0.0 0.0 0.0 0.0 0.0 0.0
4127.496 1.2195106036116955e-18 -1.5707963267948966 1.5707963267948966 -1.5707963267948966 -1.5707963267948966 0.0 0.0 0.0 0.0 0.0 0.0 0.0 0.0 0.0 0.0 0.0 0.0 0.0 2.7100081908582143e-27 -0.620381750820575 -0.8463465614411209 -0.2525548825603051 -1.4392506443496177e-11 0.0 3.110005232743317e-26 -7.1458666999402505 -7.145866699940252 -1.0424175499402515 -5.974879480466362e-11 0.0 -1.1746083394825746e-05 -1.5707600752459925 1.5707893371582031 -1.5707481543170374 -1.5707548300372522 0.000107858024421148 0.0 0.0 -0.0 0.0 0.0 0.0 0.0471038855612278 -0.5854340195655823 -0.7930214405059814 -0.22715574502944946 -0.048116736114025116 0.09287648648023605 0.0426178015768528 -0.5742188096046448 -0.8006466031074524 -0.23275071382522583 -0.04923573136329651 0.09063850343227386 -0.2984339707141268 -0.11275494842962336 0.3131714459899831 -2.2180190627779592 -2.2194067265677746 -0.008219798158607086 0.0 0.0 0.0 0.0 0.0 0.0 -0.22325565155124383 3.3874253923795123 1.8306237240803063 -0.5040534102635987 -0.05840494198923411 0.4300088994783048 -0.2984301935029837 -0.11275507530515129 0.3131843183387717 -2.217827088832791 -2.2194802147226973 -0.008179933726190749 0.0 0.0 0.0 0.0 0.0 0.0
4127.504 1.2195106036116955e-18 -1.5707963267948966 1.5707963267948966 -1.5707963267948966 -1.5707963267948966 0.0 0.0 0.0 0.0 0.0 0.0 0.0 0.0 0.0 0.0 0.0 0.0 0.0 2.7100081908582143e-27 -0.620381750820575 -0.8463465614411209 -0.2525548825603051 -1.4392506443496177e-11 0.0 3.110005232743317e-26 -7.1458666999402505 -7.145866699940252 -1.0424175499402515 -5.974879480466362e-11 0.0 -4.7985707418263246e-05 -1.5707362333880823 1.5708012580871582 -1.5707123915301722 -1.5707667509662073 0.00011984225420746952 0.0 0.0 -0.0 0.0 0.0 0.0 0.0471038855612278 -0.5764618515968323 -0.8036966919898987 -0.23163172602653503 -0.051473718136548996 0.09511447697877884 0.0426178015768528 -0.5742188096046448 -0.8006466031074524 -0.23498870432376862 -0.04923573136329651 0.09063850343227386 -0.2984379691669464 -0.1127431040257284 0.3131577236575588 -2.2181023054496545 -2.2193828135540548 -0.00831260153373673 0.0 0.0 0.0 0.0 0.0 0.0 0.6649965143743065 3.7592781677531995 1.4563892374312832 -0.5501144361008669 0.026135649581480666 0.4408504803764104 -0.2984301935029837 -0.11275507530515129 0.3131843183387717 -2.217827088832791 -2.2194802147226973 -0.008179933726190749 0.0 0.0 0.0 0.0 0.0 0.0
4127.512 1.2195106036116955e-18 -1.5707963267948966 1.5707963267948966 -1.5707963267948966 -1.5707963267948966 0.0 0.0 0.0 0.0 0.0 0.0 0.0 0.0 0.0 0.0 0.0 0.0 0.0 2.7100081908582143e-27 -0.620381750820575 -0.8463465614411209 -0.2525548825603051 -1.4392506443496177e-11 0.0 3.110005232743317e-26 -7.1458666999402505 -7.145866699940252 -1.0424175499402515 -5.974879480466362e-11 0.0 -1.1746083394825746e-05 -1.5707243124591272 1.5708012580871582 -1.5707243124591272 -1.5707185904132288 3.5952674807049334e-05 0.0 0.0 -0.0 0.0 0.0 0.0 0.0471038855612278 -0.5719757676124573 -0.8021716475486755 -0.24505965411663055 -0.051473718136548996 0.09287648648023605 0.0426178015768528 -0.5742188096046448 -0.8006466031074524 -0.23498870432376862 -0.04923573136329651 0.08951950818300247 -0.29843678462317 -0.11275788943117515 0.3131551526268779 -2.217993181936224 -2.219540428297729 -0.008259402024132173 0.0 0.0 0.0 0.0 0.0 0.0 0.8430831587349753 3.790137087204439 1.8156797393636672 -0.5528028165282386 -0.05192055614044576 0.42996495764772485 -0.2984301935029837 -0.11275507530515129 0.3131843183387717 -2.217827088832791 -2.2194802147226973 -0.008179933726190749 0.0 0.0 0.0 0.0 0.0 0.0
4127.5199999999995 1.2195106036116955e-18 -1.5707963267948966 1.5707963267948966 -1.5707963267948966 -1.5707963267948966 0.0 0.0 0.0 0.0 0.0 0.0 0.0 0.0 0.0 0.0 0.0 0.0 0.0 2.7100081908582143e-27 -0.620381750820575 -0.8463465614411209 -0.2525548825603051 -1.4392506443496177e-11 0.0 3.110005232743317e-26 -7.1458666999402505 -7.145866699940252 -1.0424175499402515 -5.974879480466362e-11 0.0 -2.366701234990387e-05 -1.570796314870016 1.5708131790161133 -1.5707362333880823 -1.5707305113421839 4.793690095539205e-05 0.0 0.0 -0.0 0.0 0.0 0.0 0.0403747595846653 -0.5585175156593323 -0.7838711738586426 -0.24058367311954498 -0.051473718136548996 0.09063850343227386 0.0426178015768528 -0.5742188096046448 -0.8006466031074524 -0.2394646853208542 -0.04923573136329651 0.09063850343227386 -0.2984265157445104 -0.11275337155417131 0.313174112164786 -2.217978001699998 -2.2194719293760863 -0.008192607777871811 0.0 0.0 0.0 0.0 0.0 0.0 0.8467122359026763 3.4660581888712945 2.5298919552366006 -0.5264962043683341 -0.09199391958853179 0.419390782195348 -0.2984301935029837 -0.11275507530515129 0.3131843183387717 -2.217827088832791 -2.2194802147226973 -0.008179933726190749 0.0 0.0 0.0 0.0 0.0 0.0
4127.528 1.2195106036116955e-18 -1.5707963267948966 1.5707963267948966 -1.5707963267948966 -1.5707963267948966 0.0 0.0 0.0 0.0 0.0 0.0 0.0 0.0 0.0 0.0 0.0 0.0 0.0 2.7100081908582143e-27 -0.620381750820575 -0.8463465614411209 -0.2525548825603051 -1.4392506443496177e-11 0.0 3.110005232743317e-26 -7.1458666999402505 -7.145866699940252 -1.0424175499402515 -5.974879480466362e-11 0.0 -1.1746083394825746e-05 -1.5707724730121058 1.5707893371582031 -1.5707600752459925 -1.5707905928241175 4.793690095539205e-05 0.0 0.0 -0.0 0.0 0.0 0.0 0.0426178015768528 -0.5674896836280823 -0.7914963960647583 -0.22939373552799225 -0.05371170490980148 0.08616252988576889 0.0426178015768528 -0.5742188096046448 -0.8006466031074524 -0.23386971652507782 -0.0503547228872776 0.09063850343227386 -0.2984329557654546 -0.11275201604430966 0.31317618672356473 -2.217922625995646 -2.219443211419532 -0.008232536248790345 0.0 0.0 0.0 0.0 0.0 0.0 0.6672461056419995 3.4271837024278264 1.9480092222993317 -0.5334232192724399 -0.005242544846184105 0.39918670378095655 -0.2984301935029837 -0.11275507530515129 0.3131843183387717 -2.217827088832791 -2.2194802147226973 -0.008179933726190749 0.0 0.0 0.0 0.0 0.0 0.0
4127.536 1.2195106036116955e-18 -1.5707963267948966 1.5707963267948966 -1.5707963267948966 -1.5707963267948966 0.0 0.0 0.0 0.0 0.0 0.0 0.0 0.0 0.0 0.0 0.0 0.0 0.0 2.7100081908582143e-27 -0.620381750820575 -0.8463465614411209 -0.2525548825603051 -1.4392506443496177e-11 0.0 3.110005232743317e-26 -7.1458666999402505 -7.145866699940252 -1.0424175499402515 -5.974879480466362e-11 0.0 -4.7985707418263246e-05 -1.5707839171039026 1.5707530975341797 -1.5707123915301722 -1.570742432271139 4.793690095539205e-05 0.0 0.0 -0.0 0.0 0.0 0.0 0.0448608435690403 -0.5876770615577698 -0.8021716475486755 -0.2383456975221634 -0.051473718136548996 0.08728151768445969 0.0426178015768528 -0.5742188096046448 -0.8006466031074524 -0.23498870432376862 -0.0503547228872776 0.08951950818300247 -0.29843426214540486 -0.1127451799080885 0.31318632530782403 -2.2179872190024135 -2.2194271008951114 -0.008179386062278702 0.0 0.0 0.0 0.0 0.0 0.0 0.013236365106948578 3.292714671249634 1.6671168030859103 -0.5117414315975555 -0.07665476123624765 0.40394073439363415 -0.2984301935029837 -0.11275507530515129 0.3131843183387717 -2.217827088832791 -2.2194802147226973 -0.008179933726190749 0.0 0.0 0.0 0.0 0.0 0.0
4127.544 1.2195106036116955e-18 -1.5707963267948966 1.5707963267948966 -1.5707963267948966 -1.5707963267948966 0.0 0.0 0.0 0.0 0.0 0.0 0.0 0.0 0.0 0.0 0.0 0.0 0.0 2.7100081908582143e-27 -0.620381750820575 -0.8463465614411209 -0.2525548825603051 -1.4392506443496177e-11 0.0 3.110005232743317e-26 -7.1458666999402505 -7.145866699940252 -1.0424175499402515 -5.974879480466362e-11 0.0 0.0 -1.5707600752459925 1.5708131790161133 -1.5707123915301722 -1.5707667509662073 7.190534961409867e-05 0.0 0.0 -0.0 0.0 0.0 0.0 0.0426178015768528 -0.5742188096046448 -0.7914963960647583 -0.2383456975221634 -0.05930667370557785 0.08840051293373108 0.0426178015768528 -0.5742188096046448 -0.8006466031074524 -0.23498870432376862 -0.04923573136329651 0.08951950818300247 -0.2984277284582405 -0.11275741979231305 0.3131612812715275 -2.217989975382351 -2.2194831911483868 -0.008299370351849952 0.0 0.0 0.0 0.0 0.0 0.0 0.31151423320252397 3.32554011950963 2.1417357208220187 -0.5512020621238849 -0.09266569111574667 0.40894332772058745 -0.2984301935029837 -0.11275507530515129 0.3131843183387717 -2.217827088832791 -2.2194802147226973 -0.008179933726190749 0.0 0.0 0.0 0.0 0.0 0.0
4127.552 1.2195106036116955e-18 -1.5707963267948966 1.5707963267948966 -1.5707963267948966 -1.5707963267948966 0.0 0.0 0.0 0.0 0.0 0.0 0.0 0.0 0.0 0.0 0.0 0.0 0.0 2.7100081908582143e-27 -0.620381750820575 -0.8463465614411209 -0.2525548825603051 -1.4392506443496177e-11 0.0 3.110005232743317e-26 -7.1458666999402505 -7.145866699940252 -1.0424175499402515 -5.974879480466362e-11 0.0 0.0 -1.5707839171039026 1.5708250999450684 -1.5707481543170374 -1.5707786718951624 9.58738019107841e-05 0.0 0.0 -0.0 0.0 0.0 0.0 0.0403747595846653 -0.5585175156593323 -0.8021716475486755 -0.23498870432376862 -0.0503547228872776 0.09735246747732162 0.0426178015768528 -0.5742188096046448 -0.8006466031074524 -0.23498870432376862 -0.04699774086475372 0.08951950818300247 -0.29842584526819826 -0.11275645810176554 0.3131678985372766 -2.2179867602477277 -2.219426909466741 -0.008259468838176715 0.0 0.0 0.0 0.0 0.0 0.0 1.555550073131083 3.8416942408177617 1.5985941679130635 -0.5517356962124235 0.0717969380888766 0.45155930728875615 -0.2984301935029837 -0.11275507530515129 0.3131843183387717 -2.217827088832791 -2.2194802147226973 -0.008179933726190749 0.0 0.0 0.0 0.0 0.0 0.0
4127.5599999999995 1.2195106036116955e-18 -1.5707963267948966 1.5707963267948966 -1.5707963267948966 -1.5707963267948966 0.0 0.0 0.0 0.0 0.0 0.0 0.0 0.0 0.0 0.0 0.0 0.0 0.0 2.7100081908582143e-27 -0.620381750820575 -0.8463465614411209 -0.2525548825603051 -1.4392506443496177e-11 0.0 3.110005232743317e-26 -7.1458666999402505 -7.145866699940252 -1.0424175499402515 -5.974879480466362e-11 0.0 -4.7985707418263246e-05 -1.5707600752459925 1.5708012580871582 -1.5707362333880823 -1.5707667509662073 7.190534961409867e-05 0.0 0.0 -0.0 0.0 0.0 0.0 0.0471038855612278 -0.5921631455421448 -0.8006466031074524 -0.2204417884349823 -0.04587874934077263 0.08616252988576889 0.0426178015768528 -0.5742188096046448 -0.8006466031074524 -0.23498870432376862 -0.051473718136548996 0.09287648648023605 -0.2984360892459614 -0.11274312955842479 0.3131668760130319 -2.2180254411936127 -2.219412362425515 -0.008259731661956435 0.0 0.0 0.0 0.0 0.0 0.0 -0.28364080800153196 3.2617150169613134 1.3456013905783866 -0.48304448352660234 0.00924884947004085 0.399304935916671 -0.2984301935029837 -0.11275507530515129 0.3131843183387717 -2.217827088832791 -2.2194802147226973 -0.008179933726190749 0.0 0.0 0.0 0.0 0.0 0.0
4127.568 1.2195106036116955e-18 -1.5707963267948966 1.5707963267948966 -1.5707963267948966 -1.5707963267948966 0.0 0.0 0.0 0.0 0.0 0.0 0.0 0.0 0.0 0.0 0.0 0.0 0.0 2.7100081908582143e-27 -0.620381750820575 -0.8463465614411209 -0.2525548825603051 -1.4392506443496177e-11 0.0 3.110005232743317e-26 -7.1458666999402505 -7.145866699940252 -1.0424175499402515 -5.974879480466362e-11 0.0 -4.7985707418263246e-05 -1.5707481543170374 1.5708131790161133 -1.5707123915301722 -1.5707667509662073 4.793690095539205e-05 0.0 0.0 -0.0 0.0 0.0 0.0 0.0515899695456028 -0.5899201035499573 -0.7991215586662292 -0.23051273822784424 -0.05594969168305397 0.09623347222805023 0.0426178015768528 -0.5742188096046448 -0.8006466031074524 -0.23498870432376862 -0.051473718136548996 0.09175749868154526 -0.2984350609542458 -0.11274309489515234 0.3131577225772122 -2.2180226720754006 -2.2194626565300615 -0.008312827891663354 0.0 0.0 0.0 0.0 0.0 0.0 -0.22442400476332275 3.632285820038885 1.633653206572281 -0.560592907612816 -0.05723406044332806 0.4454940311599367 -0.2984301935029837 -0.11275507530515129 0.3131843183387717 -2.217827088832791 -2.2194802147226973 -0.008179933726190749 0.0 0.0 0.0 0.0 0.0 0.0
4127.576 1.2195106036116955e-18 -1.5707963267948966 1.5707963267948966 -1.5707963267948966 -1.5707963267948966 0.0 0.0 0.0 0.0 0.0 0.0 0.0 0.0 0.0 0.0 0.0 0.0 0.0 2.7100081908582143e-27 -0.620381750820575 -0.8463465614411209 -0.2525548825603051 -1.4392506443496177e-11 0.0 3.110005232743317e-26 -7.1458666999402505 -7.145866699940252 -1.0424175499402515 -5.974879480466362e-11 0.0 -2.366701234990387e-05 -1.5707362333880823 1.5708131790161133 -1.5707600752459925 -1.5707905928241175 4.793690095539205e-05 0.0 0.0 -0.0 0.0 0.0 0.0 0.0381317175924778 -0.5674896836280823 -0.8128469586372375 -0.2394646853208542 -0.054830700159072876 0.0850435346364975 0.0426178015768528 -0.5742188096046448 -0.8006466031074524 -0.23498870432376862 -0.0503547228872776 0.09063850343227386 -0.29843817125093897 -0.1127484175822275 0.3131582483797804 -2.2179657143620135 -2.2194600120699848 -0.008299332568942296 0.0 0.0 0.0 0.0 0.0 0.0 1.495112119756405 3.530730439072545 1.2203755398851464 -0.5467431570991798 0.07856013030700841 0.3944912703971129 -0.2984301935029837 -0.11275507530515129 0.3131843183387717 -2.217827088832791 -2.2194802147226973 -0.008179933726190749 0.0 0.0 0.0 0.0 0.0 0.0
4127.584 1.2195106036116955e-18 -1.5707963267948966 1.5707963267948966 -1.5707963267948966 -1.5707963267948966 0.0 0.0 0.0 0.0 0.0 0.0 0.0 0.0 0.0 0.0 0.0 0.0 0.0 2.7100081908582143e-27 -0.620381750820575 -0.8463465614411209 -0.2525548825603051 -1.4392506443496177e-11 0.0 3.110005232743317e-26 -7.1458666999402505 -7.145866699940252 -1.0424175499402515 -5.974879480466362e-11 0.0 2.3968450477696024e-05 -1.5707724730121058 1.5707530975341797 -1.5707481543170374 -1.5707066694842737 5.992112710373476e-05 0.0 0.0 -0.0 0.0 0.0 0.0 0.0358886756002903 -0.5787048935890198 -0.806746780872345 -0.22827474772930145 -0.06042566895484924 0.09847146272659302 0.0426178015768528 -0.5742188096046448 -0.8006466031074524 -0.23498870432376862 -0.04923573136329651 0.09063850343227386 -0.2984309384441284 -0.11276961931593825 0.3131859395259201 -2.2179262153478017 -2.219499507729787 -0.00811245690146982 0.0 0.0 0.0 0.0 0.0 0.0 0.665865109284528 3.329291935862228 1.2474331653648694 -0.5562038964300711 0.05912669959537725 0.45669371020873656 -0.2984301935029837 -0.11275507530515129 0.3131843183387717 -2.217827088832791 -2.2194802147226973 -0.008179933726190749 0.0 0.0 0.0 0.0 0.0 0.0
4127.592 1.2195106036116955e-18 -1.5707963267948966 1.5707963267948966 -1.5707963267948966 -1.5707963267948966 0.0 0.0 0.0 0.0 0.0 0.0 0.0 0.0 0.0 0.0 0.0 0.0 0.0 2.7100081908582143e-27 -0.620381750820575 -0.8463465614411209 -0.2525548825603051 -1.4392506443496177e-11 0.0 3.110005232743317e-26 -7.1458666999402505 -7.145866699940252 -1.0424175499402515 -5.974879480466362e-11 0.0 -5.990663637334137e-05 -1.5707839171039026 1.5708012580871582 -1.5707243124591272 -1.5707305113421839 9.58738019107841e-05 0.0 0.0 -0.0 0.0 0.0 0.0 0.0471038855612278 -0.5787048935890198 -0.7975965142250061 -0.23498870432376862 -0.05259270966053009 0.09735246747732162 0.0426178015768528 -0.5742188096046448 -0.8006466031074524 -0.23498870432376862 -0.0503547228872776 0.09063850343227386 -0.29843260466616256 -0.11274255727750986 0.3131729535488401 -2.2180775714989176 -2.2193847162029186 -0.008206355694256132 0.0 0.0 0.0 0.0 0.0 0.0 0.31020142479305773 3.658624439649513 1.7993560064230765 -0.5471848609849628 -0.04804209252968711 0.45079282877292903 -0.2984301935029837 -0.11275507530515129 0.3131843183387717 -2.217827088832791 -2.2194802147226973 -0.008179933726190749 0.0 0.0 0.0 0.0 0.0 0.0
4127.599999999999 1.2195106036116955e-18 -1.5707963267948966 1.5707963267948966 -1.5707963267948966 -1.5707963267948966 0.0 0.0 0.0 0.0 0.0 0.0 0.0 0.0 0.0 0.0 0.0 0.0 0.0 2.7100081908582143e-27 -0.620381750820575 -0.8463465614411209 -0.2525548825603051 -1.4392506443496177e-11 0.0 3.110005232743317e-26 -7.1458666999402505 -7.145866699940252 -1.0424175499402515 -5.974879480466362e-11 0.0 -1.1746083394825746e-05 -1.5707724730121058 1.5707893371582031 -1.5707481543170374 -1.5707905928241175 9.58738019107841e-05 0.0 0.0 -0.0 0.0 0.0 0.0 0.0515899695456028 -0.5697327256202698 -0.8128469586372375 -0.22715574502944946 -0.0503547228872776 0.08840051293373108 0.0471038855612278 -0.5742188096046448 -0.8006466031074524 -0.23498870432376862 -0.04923573136329651 0.09063850343227386 -0.298431973665079 -0.11275200774388083 0.3131751692102253 -2.2179817022484642 -2.219395848080964 -0.008245654485306866 0.0 0.0 0.0 0.0 0.0 0.0 1.3746467111565288 4.119266639018667 0.9545809651919605 -0.5742518833140365 0.1485316663862978 0.41051703070123224 -0.2984301935029837 -0.11275507530515129 0.3131843183387717 -2.217827088832791 -2.2194802147226973 -0.008179933726190749 0.0 0.0 0.0 0.0 0.0 0.0
4127.608 1.2195106036116955e-18 -1.5707963267948966 1.5707963267948966 -1.5707963267948966 -1.5707963267948966 0.0 0.0 0.0 0.0 0.0 0.0 0.0 0.0 0.0 0.0 0.0 0.0 0.0 2.7100081908582143e-27 -0.620381750820575 -0.8463465614411209 -0.2525548825603051 -1.4392506443496177e-11 0.0 3.110005232743317e-26 -7.1458666999402505 -7.145866699940252 -1.0424175499402515 -5.974879480466362e-11 0.0 -1.1746083394825746e-05 -1.5707839171039026 1.570765495300293 -1.5707362333880823 -1.5707305113421839 8.388957940042019e-05 0.0 0.0 -0.0 0.0 0.0 0.0 0.0403747595846653 -0.5809479355812073 -0.806746780872345 -0.23386971652507782 -0.05594969168305397 0.09287648648023605 0.0403747595846653 -0.5742188096046448 -0.8006466031074524 -0.23498870432376862 -0.04923573136329651 0.09175749868154526 -0.2984311143438967 -0.1127569791307298 0.31318465071291524 -2.2179869819388416 -2.2194276764893885 -0.00815322326398553 0.0 0.0 0.0 0.0 0.0 0.0 0.5468031482201048 3.3897683017493727 1.3683740526567492 -0.5404078607880556 0.013353457353512711 0.43045323334316504 -0.2984301935029837 -0.11275507530515129 0.3131843183387717 -2.217827088832791 -2.2194802147226973 -0.008179933726190749 0.0 0.0 0.0 0.0 0.0 0.0
