mkrssg/UniversalRobots/rtde_client_3.5/examples/roboter/movel_distance-y=400.csv
timestamp target_q_0 target_q_1 target_q_2 target_q_3 target_q_4 target_q_5 target_qd_0 target_qd_1 target_qd_2 target_qd_3 target_qd_4 target_qd_5 target_qdd_0 target_qdd_1 target_qdd_2 target_qdd_3 target_qdd_4 target_qdd_5 target_current_0 target_current_1 target_current_2 target_current_3 target_current_4 target_current_5 target_moment_0 target_moment_1 target_moment_2 target_moment_3 target_moment_4 target_moment_5 actual_q_0 actual_q_1 actual_q_2 actual_q_3 actual_q_4 actual_q_5 actual_qd_0 actual_qd_1 actual_qd_2 actual_qd_3 actual_qd_4 actual_qd_5 actual_current_0 actual_current_1 actual_current_2 actual_current_3 actual_current_4 actual_current_5 joint_control_output_0 joint_control_output_1 joint_control_output_2 joint_control_output_3 joint_control_output_4 joint_control_output_5 actual_TCP_pose_0 actual_TCP_pose_1 actual_TCP_pose_2 actual_TCP_pose_3 actual_TCP_pose_4 actual_TCP_pose_5 actual_TCP_speed_0 actual_TCP_speed_1 actual_TCP_speed_2 actual_TCP_speed_3 actual_TCP_speed_4 actual_TCP_speed_5 actual_TCP_force_0 actual_TCP_force_1 actual_TCP_force_2 actual_TCP_force_3 actual_TCP_force_4 actual_TCP_force_5 target_TCP_pose_0 target_TCP_pose_1 target_TCP_pose_2 target_TCP_pose_3 target_TCP_pose_4 target_TCP_pose_5 target_TCP_speed_0 target_TCP_speed_1 target_TCP_speed_2 target_TCP_speed_3 target_TCP_speed_4 target_TCP_speed_5

6674.991999999999 2.118646307606494 -1.40281505794281 1.8805336864108488 -3.2781602887468964 -1.0854527922577866 -0.6706776974867843 0.0 0.0 0.0 -0.0 0.0 -0.0 0.0 0.0 0.0 0.0 0.0 0.0 2.5935680669899855e-17 -0.6888032370184852 -0.7120206035710825 -0.14332746956171996 0.01095256235976847 0.0 2.9763785537712544e-16 -7.933979533909596 -6.011726817990887 -0.5915825825461467 0.04546827222820569 0.0 2.1186532974243164 -1.4027751127826136 1.8805913925170898 -3.2782276312457483 -1.0854681173907679 -0.6706364790545862 0.0 0.0 -0.0 0.0 0.0 0.0 -0.0583190992474556 -0.6168366074562073 -0.6588177680969238 -0.11301837861537933 0.13316026329994202 -0.025736859068274498 -0.0560760572552681 -0.6258087754249573 -0.660342812538147 -0.11525636911392212 0.13316026329994202 -0.017903901636600494 0.30000157289978285 -0.2000004327936368 0.3499767650215428 -1.6275606305626094 1.6276521689825958 -1.6275462625689476 0.0 0.0 0.0 0.0 0.0 0.0 3.1785153021582246 3.5037384018883975 2.585763539273649 0.0012743256703617346 0.34651986052364936 -0.9364378907213233 0.2999999999776341 -0.20000000000006898 0.34999999999209913 -1.6275987284298632 1.6275987284683486 -1.6275987284942297 0.0 0.0 0.0 0.0 0.0 0.0

6675.0 2.118646307606494 -1.40281505794281 1.8805336864108488 -3.2781602887468964 -1.0854527922577866 -0.6706776974867843 0.0 0.0 0.0 -0.0 0.0 -0.0 0.0 0.0 0.0 0.0 0.0 0.0 2.5935680669899855e-17 -0.6888032370184852 -0.7120206035710825 -0.14332746956171996 0.01095256235976847 0.0 2.9763785537712544e-16 -7.933979533909596 -6.011726817990887 -0.5915825825461467 0.04546827222820569 0.0 2.118617296218872 -1.4027631918536585 1.880615234375 -3.2782157103167933 -1.0854681173907679 -0.6706002394305628 0.0 0.0 -0.0 0.0 0.0 0.0 -0.0605621412396431 -0.6280518174171448 -0.6496675610542297 -0.10742340981960297 0.13092228770256042 -0.021260883659124374 -0.0560760572552681 -0.6258087754249573 -0.6588177680969238 -0.11525636911392212 0.13316026329994202 -0.017903901636600494 0.2999953957449821 -0.20001297519816438 0.3499648770302769 -1.6275085655262154 1.6277458207615718 -1.6274888176838709 0.0 0.0 0.0 0.0 0.0 0.0 4.111308717388951 2.9796459296777913 2.4197386185990775 -0.0646065797470546 0.2738615673946637 -0.9369402836954452 0.2999999999776341 -0.20000000000006898 0.34999999999209913 -1.6275987284298632 1.6275987284683486 -1.6275987284942297 0.0 0.0 0.0 0.0 0.0 0.0

6675.008 2.118646307606494 -1.40281505794281 1.8805336864108488 -3.2781602887468964 -1.0854527922577866 -0.6706776974867843 0.0 0.0 0.0 -0.0 0.0 -0.0 0.0 0.0 0.0 0.0 0.0 0.0 2.5935680669899855e-17 -0.6888032370184852 -0.7120206035710825 -0.14332746956171996 0.01095256235976847 0.0 2.9763785537712544e-16 -7.933979533909596 -6.011726817990887 -0.5915825825461467 0.04546827222820569 0.0 2.1186654567718506 -1.4027274290667933 1.880603313446045 -3.27820331255068 -1.0854318777667444 -0.6706121603595179 0.0 0.0 -0.0 0.0 0.0 0.0 -0.0493469275534153 -0.6258087754249573 -0.660342812538147 -0.11189938336610794 0.13204127550125122 -0.03021283447742462 -0.0560760572552681 -0.6258087754249573 -0.6588177680969238 -0.11525636911392212 0.13316026329994202 -0.022379877045750618 0.3000109046265653 -0.20000310277510944 0.3499558406422268 -1.6275582074830173 1.62767616490528 -1.6274097652088346 0.0 0.0 0.0 0.0 0.0 0.0 3.1647702370771573 3.0594689034419535 2.290345543327171 -0.012517102999823174 0.26438681789407625 -0.9158895223056972 0.2999999999776341 -0.20000000000006898 0.34999999999209913 -1.6275987284298632 1.6275987284683486 -1.6275987284942297 0.0 0.0 0.0 0.0 0.0 0.0

6675.016 2.118646307606494 -1.40281505794281 1.8805336864108488 -3.2781602887468964 -1.0854527922577866 -0.6706776974867843 0.0 0.0 0.0 -0.0 0.0 -0.0 0.0 0.0 0.0 0.0 0.0 0.0 2.5935680669899855e-17 -0.6888032370184852 -0.7120206035710825 -0.14332746956171996 0.01095256235976847 0.0 2.9763785537712544e-16 -7.933979533909596 -6.011726817990887 -0.5915825825461467 0.04546827222820569 0.0 2.1186654567718506 -1.4027870337115687 1.880603313446045 -3.278191391621725 -1.085480038319723 -0.6706603209124964 0.0 0.0 -0.0 0.0 0.0 0.0 -0.0538330152630806 -0.6235657334327698 -0.6588177680969238 -0.12308932095766068 0.1365172564983368 -0.015665914863348007 -0.0560760572552681 -0.6258087754249573 -0.6572927236557007 -0.11637535691261292 0.13204127550125122 -0.02014188840985298 0.3000030373813309 -0.1999969057921031 0.3499735751786566 -1.6275965202888754 1.6276650184855914 -1.627514297916353 0.0 0.0 0.0 0.0 0.0 0.0 3.2997003481257345 3.1434683251528237 2.6391165773889838 -0.0057770841747156534 0.41741417561007 -0.9103089036444522 0.2999999999776341 -0.20000000000006898 0.34999999999209913 -1.6275987284298632 1.6275987284683486 -1.6275987284942297 0.0 0.0 0.0 0.0 0.0 0.0

6675.023999999999 2.118646307606494 -1.40281505794281 1.8805336864108488 -3.2781602887468964 -1.0854527922577866 -0.6706776974867843 0.0 0.0 0.0 -0.0 0.0 -0.0 0.0 0.0 0.0 0.0 0.0 0.0 2.5935680669899855e-17 -0.6888032370184852 -0.7120206035710825 -0.14332746956171996 0.01095256235976847 0.0 2.9763785537712544e-16 -7.933979533909596 -6.011726817990887 -0.5915825825461467 0.04546827222820569 0.0 2.1186773777008057 -1.4027631918536585 1.8805913925170898 -3.278191391621725 -1.085480038319723 -0.6706483999835413 0.0 0.0 -0.0 0.0 0.0 0.0 -0.0583190992474556 -0.6258087754249573 -0.6572927236557007 -0.11189938336610794 0.1353982537984848 -0.017903901636600494 -0.0560760572552681 -0.6258087754249573 -0.6618678569793701 -0.11637535691261292 0.13092228770256042 -0.01678490824997425 0.3000081469227857 -0.1999977907909944 0.349969191475039 -1.6275920850991195 1.6276675646244059 -1.6274883459240448 0.0 0.0 0.0 0.0 0.0 0.0 3.6472800519764634 3.198210819417198 2.3708403099474866 -0.0524063681253978 0.33007313211988104 -0.9385436772456818 0.2999999999776341 -0.20000000000006898 0.34999999999209913 -1.6275987284298632 1.6275987284683486 -1.6275987284942297 0.0 0.0 0.0 0.0 0.0 0.0

6675.031999999999 2.118646307606494 -1.40281505794281 1.8805336864108488 -3.2781602887468964 -1.0854527922577866 -0.6706776974867843 0.0 0.0 0.0 -0.0 0.0 -0.0 0.0 0.0 0.0 0.0 0.0 0.0 2.5935680669899855e-17 -0.6888032370184852 -0.7120206035710825 -0.14332746956171996 0.01095256235976847 0.0 2.9763785537712544e-16 -7.933979533909596 -6.011726817990887 -0.5915825825461467 0.04546827222820569 0.0 2.1186654567718506 -1.4027631918536585 1.880603313446045 -3.27817947069277 -1.0854561964618128 -0.6706002394305628 0.0 0.0 -0.0 0.0 0.0 0.0 -0.0583190992474556 -0.6235657334327698 -0.6679680347442627 -0.1197323426604271 0.1353982537984848 -0.03021283447742462 -0.0560760572552681 -0.6258087754249573 -0.660342812538147 -0.11525636911392212 0.13204127550125122 -0.017903901636600494 0.3000068646997086 -0.19999987096706873 0.34996491499346327 -1.6275405033330808 1.6276996816825864 -1.627430342665723 0.0 0.0 0.0 0.0 0.0 0.0 3.1815732052411025 3.557846483500337 2.315188091980497 0.015120021372491004 0.3376683103767005 -0.9532990221709541 0.2999999999776341 -0.20000000000006898 0.34999999999209913 -1.6275987284298632 1.6275987284683486 -1.6275987284942297 0.0 0.0 0.0 0.0 0.0 0.0

6675.04 2.118646307606494 -1.40281505794281 1.8805336864108488 -3.2781602887468964 -1.0854527922577866 -0.6706776974867843 0.0 0.0 0.0 -0.0 0.0 -0.0 0.0 0.0 0.0 0.0 0.0 0.0 2.5935680669899855e-17 -0.6888032370184852 -0.7120206035710825 -0.14332746956171996 0.01095256235976847 0.0 2.9763785537712544e-16 -7.933979533909596 -6.011726817990887 -0.5915825825461467 0.04546827222820569 0.0 2.1186294555664062 -1.4027751127826136 1.880627155303955 -3.27820331255068 -1.0854442755328577 -0.6706364790545862 0.0 0.0 -0.0 0.0 0.0 0.0 -0.0493469275534153 -0.6190796494483948 -0.6588177680969238 -0.11637535691261292 0.13316026329994202 -0.012308932840824127 -0.0560760572552681 -0.6258087754249573 -0.660342812538147 -0.11301837861537933 0.134279265999794 -0.017903901636600494 0.2999977177230606 -0.2000058358157 0.3499644533369308 -1.6275591421373767 1.627696804387256 -1.6274739145344523 0.0 0.0 0.0 0.0 0.0 0.0 2.827620533498793 3.1434364993277586 2.604901159944023 -0.020171145175623652 0.4016242350609923 -0.8736160056992893 0.2999999999776341 -0.20000000000006898 0.34999999999209913 -1.6275987284298632 1.6275987284683486 -1.6275987284942297 0.0 0.0 0.0 0.0 0.0 0.0

6675.048 2.118646307606494 -1.40281505794281 1.8805336864108488 -3.2781602887468964 -1.0854527922577866 -0.6706776974867843 0.0 0.0 0.0 -0.0 0.0 -0.0 0.0 0.0 0.0 0.0 0.0 0.0 2.5935680669899855e-17 -0.6888032370184852 -0.7120206035710825 -0.14332746956171996 0.01095256235976847 0.0 2.9763785537712544e-16 -7.933979533909596 -6.011726817990887 -0.5915825825461467 0.04546827222820569 0.0 2.1186294555664062 -1.4027388731585901 1.880603313446045 -3.2781675497638147 -1.0854442755328577 -0.6706245581256312 0.0 0.0 -0.0 0.0 0.0 0.0 -0.0538330152630806 -0.6258087754249573 -0.652717649936676 -0.10966140031814575 0.1376362442970276 -0.019022895023226738 -0.0560760572552681 -0.6258087754249573 -0.660342812538147 -0.11525636911392212 0.13316026329994202 -0.017903901636600494 0.3000030248577281 -0.20001453946086115 0.34995594981278333 -1.6275532589262522 1.6277387162488515 -1.6274102168020443 0.0 0.0 0.0 0.0 0.0 0.0 3.6817925114648045 2.993029302372143 2.445126133093817 -0.057580691273331645 0.3118024343750038 -0.9416588762908585 0.2999999999776341 -0.20000000000006898 0.34999999999209913 -1.6275987284298632 1.6275987284683486 -1.6275987284942297 0.0 0.0 0.0 0.0 0.0 0.0

6675.056 2.118646307606494 -1.40281505794281 1.8805336864108488 -3.2781602887468964 -1.0854527922577866 -0.6706776974867843 0.0 0.0 0.0 -0.0 0.0 -0.0 0.0 0.0 0.0 0.0 0.0 0.0 2.5935680669899855e-17 -0.6888032370184852 -0.7120206035710825 -0.14332746956171996 0.01095256235976847 0.0 2.9763785537712544e-16 -7.933979533909596 -6.011726817990887 -0.5915825825461467 0.04546827222820569 0.0 2.1186413764953613 -1.40271503130068 1.8805789947509766 -3.2782157103167933 -1.0854681173907679 -0.6706121603595179 0.0 0.0 -0.0 0.0 0.0 0.0 -0.0515899695456028 -0.6258087754249573 -0.6572927236557007 -0.1197323426604271 0.13316026329994202 -0.017903901636600494 -0.0560760572552681 -0.6258087754249573 -0.660342812538147 -0.11525636911392212 0.13316026329994202 -0.017903901636600494 0.30000599596707245 -0.20001519620713787 0.34995950447181096 -1.6275364262346508 1.6277220103992234 -1.6274685165891443 0.0 0.0 0.0 0.0 0.0 0.0 3.334337656877948 2.971006503092704 2.548276687523762 -0.015062281207256247 0.368438657838386 -0.8944282998338488 0.2999999999776341 -0.20000000000006898 0.34999999999209913 -1.6275987284298632 1.6275987284683486 -1.6275987284942297 0.0 0.0 0.0 0.0 0.0 0.0

6675.063999999999 2.118646307606494 -1.40281505794281 1.8805336864108488 -3.2781602887468964 -1.0854527922577866 -0.6706776974867843 0.0 0.0 0.0 -0.0 0.0 -0.0 0.0 0.0 0.0 0.0 0.0 0.0 2.5935680669899855e-17 -0.6888032370184852 -0.7120206035710825 -0.14332746956171996 0.01095256235976847 0.0 2.9763785537712544e-16 -7.933979533909596 -6.011726817990887 -0.5915825825461467 0.04546827222820569 0.0 2.1186892986297607 -1.4027512709247034 1.880615234375 -3.27817947069277 -1.0854681173907679 -0.6706245581256312 0.0 0.0 -0.0 0.0 0.0 0.0 -0.0493469275534153 -0.6213226914405823 -0.660342812538147 -0.11637535691261292 0.134279265999794 -0.024617865681648254 -0.0560760572552681 -0.6258087754249573 -0.660342812538147 -0.11525636911392212 0.13316026329994202 -0.017903901636600494 0.3000120697875277 -0.19999513396466206 0.3499574522758987 -1.627581596778834 1.6276905236440664 -1.6274077627095647 0.0 0.0 0.0 0.0 0.0 0.0 2.95737172537825 3.1720385732936633 2.505875708362096 0.002348028561484423 0.34163576753034536 -0.9081614341415108 0.2999999999776341 -0.20000000000006898 0.34999999999209913 -1.6275987284298632 1.6275987284683486 -1.6275987284942297 0.0 0.0 0.0 0.0 0.0 0.0

6675.072 2.118646307606494 -1.40281505794281 1.8805336864108488 -3.2781602887468964 -1.0854527922577866 -0.6706776974867843 0.0 0.0 0.0 -0.0 0.0 -0.0 0.0 0.0 0.0 0.0 0.0 0.0 2.5935680669899855e-17 -0.6888032370184852 -0.7120206035710825 -0.14332746956171996 0.01095256235976847 0.0 2.9763785537712544e-16 -7.933979533909596 -6.011726817990887 -0.5915825825461467 0.04546827222820569 0.0 2.1186892986297607 -1.4027989546405237 1.8806509971618652 -3.27820331255068 -1.085503880177633 -0.6706364790545862 0.0 0.0 -0.0 0.0 0.0 0.0 -0.0560760572552681 -0.6280518174171448 -0.6649179458618164 -0.10406643152236938 0.1365172564983368 -0.03021283447742462 -0.0560760572552681 -0.6258087754249573 -0.6588177680969238 -0.11525636911392212 0.13316026329994202 -0.017903901636600494 0.3000041097711087 -0.19998710784231113 0.34996467777283513 -1.627584426798701 1.6276951899050596 -1.6274741841110747 0.0 0.0 0.0 0.0 0.0 0.0 3.4282083321121766 3.362230370761324 1.9308644552600618 -0.059357520337139306 0.21720499642138172 -0.972748109432161 0.2999999999776341 -0.20000000000006898 0.34999999999209913 -1.6275987284298632 1.6275987284683486 -1.6275987284942297 0.0 0.0 0.0 0.0 0.0 0.0

6675.08 2.118646307606494 -1.40281505794281 1.8805336864108488 -3.2781602887468964 -1.0854527922577866 -0.6706776974867843 0.0 0.0 0.0 -0.0 0.0 -0.0 0.0 0.0 0.0 0.0 0.0 0.0 2.5935680669899855e-17 -0.6888032370184852 -0.7120206035710825 -0.14332746956171996 0.01095256235976847 0.0 2.9763785537712544e-16 -7.933979533909596 -6.011726817990887 -0.5915825825461467 0.04546827222820569 0.0 2.1186532974243164 -1.4027751127826136 1.8805789947509766 -3.27817947069277 -1.085503880177633 -0.6705883185016077 0.0 0.0 -0.0 0.0 0.0 0.0 -0.0493469275534153 -0.6235657334327698 -0.6588177680969238 -0.11525636911392212 0.1353982537984848 -0.014546919614076614 -0.0560760572552681 -0.6258087754249573 -0.6572927236557007 -0.11413737386465073 0.13316026329994202 -0.017903901636600494 0.3000017029866995 -0.20000565543618815 0.34997518433619784 -1.6275093764502424 1.6277427438380216 -1.627497512096693 0.0 0.0 0.0 0.0 0.0 0.0 3.0822274788519266 3.0449587091810155 2.4640040255456555 -0.03506473797598296 0.36645292573779753 -0.8950073473111878 0.2999999999776341 -0.20000000000006898 0.34999999999209913 -1.6275987284298632 1.6275987284683486 -1.6275987284942297 0.0 0.0 0.0 0.0 0.0 0.0

6675.088 2.118646307606494 -1.40281505794281 1.8805336864108488 -3.2781602887468964 -1.0854527922577866 -0.6706776974867843 0.0 0.0 0.0 -0.0 0.0 -0.0 0.0 0.0 0.0 0.0 0.0 0.0 2.5935680669899855e-17 -0.6888032370184852 -0.7120206035710825 -0.14332746956171996 0.01095256235976847 0.0 2.9763785537712544e-16 -7.933979533909596 -6.011726817990887 -0.5915825825461467 0.04546827222820569 0.0 2.1186654567718506 -1.4027870337115687 1.880603313446045 -3.27820331255068 -1.085480038319723 -0.6705883185016077 0.0 0.0 -0.0 0.0 0.0 0.0 -0.0515899695456028 -0.6302948594093323 -0.6649179458618164 -0.10742340981960297 0.13875523209571838 -0.02014188840985298 -0.0560760572552681 -0.6258087754249573 -0.660342812538147 -0.11525636911392212 0.13316026329994202 -0.017903901636600494 0.3000026927932283 -0.19999633290601018 0.3499747348845595 -1.6275177159255094 1.6276963531983086 -1.6274936094438994 0.0 0.0 0.0 0.0 0.0 0.0 3.3193024242556923 3.1503009930551045 1.9488136090969765 -0.0776818584248252 0.2668870097309764 -0.9451374278705054 0.2999999999776341 -0.20000000000006898 0.34999999999209913 -1.6275987284298632 1.6275987284683486 -1.6275987284942297 0.0 0.0 0.0 0.0 0.0 0.0

6675.096 2.118646307606494 -1.40281505794281 1.8805336864108488 -3.2781602887468964 -1.0854527922577866 -0.6706776974867843 0.0 0.0 0.0 -0.0 0.0 -0.0 0.0 0.0 0.0 0.0 0.0 0.0 2.5935680669899855e-17 -0.6888032370184852 -0.7120206035710825 -0.14332746956171996 0.01095256235976847 0.0 2.9763785537712544e-16 -7.933979533909596 -6.011726817990887 -0.5915825825461467 0.04546827222820569 0.0 2.1186654567718506 -1.4027751127826136 1.8806629180908203 -3.27820331255068 -1.0854442755328577 -0.6706364790545862 0.0 0.0 -0.0 0.0 0.0 0.0 -0.0583190992474556 -0.6258087754249573 -0.6633929014205933 -0.11078038811683655 0.12980328500270844 -0.011189938522875309 -0.0560760572552681 -0.6258087754249573 -0.6572927236557007 -0.11525636911392212 0.13316026329994202 -0.017903901636600494 0.30000409709217457 -0.19999376124465812 0.3499542096552705 -1.627584275169517 1.6276844517592828 -1.6274134142775833 0.0 0.0 0.0 0.0 0.0 0.0 3.2774748131430655 3.291020208315331 2.1811020859735026 -0.06793879330287739 0.33963419202474493 -0.8924004844254411 0.2999999999776341 -0.20000000000006898 0.34999999999209913 -1.6275987284298632 1.6275987284683486 -1.6275987284942297 0.0 0.0 0.0 0.0 0.0 0.0

6675.103999999999 2.118646307606494 -1.40281505794281 1.8805336864108488 -3.2781602887468964 -1.0854527922577866 -0.6706776974867843 0.0 0.0 0.0 -0.0 0.0 -0.0 0.0 0.0 0.0 0.0 0.0 0.0 2.5935680669899855e-17 -0.6888032370184852 -0.7120206035710825 -0.14332746956171996 0.01095256235976847 0.0 2.9763785537712544e-16 -7.933979533909596 -6.011726817990887 -0.5915825825461467 0.04546827222820569 0.0 2.118605375289917 -1.4027388731585901 1.8805789947509766 -3.27817947069277 -1.0854681173907679 -0.6706364790545862 0.0 0.0 -0.0 0.0 0.0 0.0 -0.0560760572552681 -0.6190796494483948 -0.660342812538147 -0.09847146272659302 0.1365172564983368 -0.021260883659124374 -0.0560760572552681 -0.6258087754249573 -0.6618678569793701 -0.11525636911392212 0.13316026329994202 -0.017903901636600494 0.29999739092303535 -0.20002370147783308 0.34996377744833007 -1.6275442261677826 1.6277562469079783 -1.6274830092778605 0.0 0.0 0.0 0.0 0.0 0.0 3.14027778064855 3.4934946025246743 2.159776911848216 -0.07580960161443767 0.2652552152603679 -0.9546369621014685 0.2999999999776341 -0.20000000000006898 0.34999999999209913 -1.6275987284298632 1.6275987284683486 -1.6275987284942297 0.0 0.0 0.0 0.0 0.0 0.0

6675.112 2.118646307606494 -1.40281505794281 1.8805336864108488 -3.2781602887468964 -1.0854527922577866 -0.6706776974867843 0.0 0.0 0.0 -0.0 0.0 -0.0 0.0 0.0 0.0 0.0 0.0 0.0 2.5935680669899855e-17 -0.6888032370184852 -0.7120206035710825 -0.14332746956171996 0.01095256235976847 0.0 2.9763785537712544e-16 -7.933979533909596 -6.011726817990887 -0.5915825825461467 0.04546827222820569 0.0 2.1186532974243164 -1.4027388731585901 1.8806390762329102 -3.27820331255068 -1.0854561964618128 -0.6706483999835413 0.0 0.0 -0.0 0.0 0.0 0.0 -0.0538330152630806 -0.6213226914405823 -0.6649179458618164 -0.10966140031814575 0.1353982537984848 -0.024617865681648254 -0.0560760572552681 -0.6258087754249573 -0.660342812538147 -0.11525636911392212 0.13316026329994202 -0.017903901636600494 0.300005423427842 -0.20000521618652525 0.34994903639581015 -1.627590411045485 1.6277123002345595 -1.6274160393824824 0.0 0.0 0.0 0.0 0.0 0.0 2.9728548135393753 3.447167623088915 2.2301319006694493 -0.028236989654810838 0.3049602548239964 -0.9360844505849516 0.2999999999776341 -0.20000000000006898 0.34999999999209913 -1.6275987284298632 1.6275987284683486 -1.6275987284942297 0.0 0.0 0.0 0.0 0.0 0.0

6675.12 2.118646307606494 -1.40281505794281 1.8805336864108488 -3.2781602887468964 -1.0854527922577866 -0.6706776974867843 0.0 0.0 0.0 -0.0 0.0 -0.0 0.0 0.0 0.0 0.0 0.0 0.0 2.5935680669899855e-17 -0.6888032370184852 -0.7120206035710825 -0.14332746956171996 0.01095256235976847 0.0 2.9763785537712544e-16 -7.933979533909596 -6.011726817990887 -0.5915825825461467 0.04546827222820569 0.0 2.118617296218872 -1.4027751127826136 1.880627155303955 -3.2782276312457483 -1.0854681173907679 -0.6706121603595179 0.0 0.0 -0.0 0.0 0.0 0.0 -0.0605621412396431 -0.6213226914405823 -0.660342812538147 -0.1197323426604271 0.13987423479557037 -0.0055949692614376545 -0.0560760572552681 -0.6258087754249573 -0.660342812538147 -0.11525636911392212 0.13316026329994202 -0.017903901636600494 0.29999355185195536 -0.20000995925626391 0.3499665213035485 -1.6275196230031916 1.627730450942061 -1.627508945189002 0.0 0.0 0.0 0.0 0.0 0.0 3.4062329066424377 3.4318371007442123 2.57833539940956 -0.04514242050925107 0.4609071488840226 -0.9315546414232017 0.2999999999776341 -0.20000000000006898 0.34999999999209913 -1.6275987284298632 1.6275987284683486 -1.6275987284942297 0.0 0.0 0.0 0.0 0.0 0.0

6675.128 2.118646307606494 -1.40281505794281 1.8805336864108488 -3.2781602887468964 -1.0854527922577866 -0.6706776974867843 0.0 0.0 0.0 -0.0 0.0 -0.0 0.0 0.0 0.0 0.0 0.0 0.0 2.5935680669899855e-17 -0.6888032370184852 -0.7120206035710825 -0.14332746956171996 0.01095256235976847 0.0 2.9763785537712544e-16 -7.933979533909596 -6.011726817990887 -0.5915825825461467 0.04546827222820569 0.0 2.118701219558716 -1.4027870337115687 1.8806509971618652 -3.2782157103167933 -1.085503880177633 -0.6706245581256312 0.0 0.0 -0.0 0.0 0.0 0.0 -0.0560760572552681 -0.6325379014015198 -0.652717649936676 -0.10966140031814575 0.134279265999794 -0.006713963113725185 -0.0560760572552681 -0.6258087754249573 -0.660342812538147 -0.11525636911392212 0.13316026329994202 -0.017903901636600494 0.3000073613350307 -0.19998495400064414 0.3499619848134565 -1.6275782160528665 1.6276886540154374 -1.6274631367860866 0.0 0.0 0.0 0.0 0.0 0.0 3.9721477038068063 2.782189783294586 2.2720411440129076 -0.10674157237662023 0.324531117344977 -0.9075149022355279 0.2999999999776341 -0.20000000000006898 0.34999999999209913 -1.6275987284298632 1.6275987284683486 -1.6275987284942297 0.0 0.0 0.0 0.0 0.0 0.0

6675.1359999999995 2.118646307606494 -1.40281505794281 1.8805336864108488 -3.2781602887468964 -1.0854527922577866 -0.6706776974867843 0.0 0.0 0.0 -0.0 0.0 -0.0 0.0 0.0 0.0 0.0 0.0 0.0 2.5935680669899855e-17 -0.6888032370184852 -0.7120206035710825 -0.14332746956171996 0.01095256235976847 0.0 2.9763785537712544e-16 -7.933979533909596 -6.011726817990887 -0.5915825825461467 0.04546827222820569 0.0 2.1186773777008057 -1.4027631918536585 1.8806509971618652 -3.2782395521747034 -1.085491959248678 -0.6706245581256312 0.0 0.0 -0.0 0.0 0.0 0.0 -0.0538330152630806 -0.6302948594093323 -0.660342812538147 -0.12532731890678406 0.1376362442970276 -0.01678490824997425 -0.0560760572552681 -0.6258087754249573 -0.660342812538147 -0.11525636911392212 0.13316026329994202 -0.017903901636600494 0.30000487128691633 -0.19999417526720803 0.3499566549664465 -1.6275665114359665 1.6277015804881818 -1.6274688030668374 0.0 0.0 0.0 0.0 0.0 0.0 3.5764186449881676 2.992231848173082 2.4749516420327455 -0.016123260496403797 0.39425868605631675 -0.9202760263067352 0.2999999999776341 -0.20000000000006898 0.34999999999209913 -1.6275987284298632 1.6275987284683486 -1.6275987284942297 0.0 0.0 0.0 0.0 0.0 0.0

6675.143999999999 2.118646307606494 -1.40281505794281 1.8805336864108488 -3.2781602887468964 -1.0854527922577866 -0.6706776974867843 0.0 0.0 0.0 -0.0 0.0 -0.0 0.0 0.0 0.0 0.0 0.0 0.0 2.5935680669899855e-17 -0.6888032370184852 -0.7120206035710825 -0.14332746956171996 0.01095256235976847 0.0 2.9763785537712544e-16 -7.933979533909596 -6.011726817990887 -0.5915825825461467 0.04546827222820569 0.0 2.1186773777008057 -1.4027512709247034 1.8806390762329102 -3.2781675497638147 -1.085503880177633 -0.6706121603595179 0.0 0.0 -0.0 0.0 0.0 0.0 -0.0538330152630806 -0.6213226914405823 -0.6572927236557007 -0.10630441457033157 0.134279265999794 -0.01678490824997425 -0.0560760572552681 -0.6258087754249573 -0.6588177680969238 -0.11525636911392212 0.13316026329994202 -0.017903901636600494 0.3000079363747522 -0.20000090021535094 0.3499490165068248 -1.6275619505187156 1.6277738531709354 -1.6273821488421105 0.0 0.0 0.0 0.0 0.0 0.0 3.2210400161045105 3.221388867756518 2.3615235208186762 -0.05926193024169541 0.31593420336288647 -0.9179821278470578 0.2999999999776341 -0.20000000000006898 0.34999999999209913 -1.6275987284298632 1.6275987284683486 -1.6275987284942297 0.0 0.0 0.0 0.0 0.0 0.0

6675.152 2.118646307606494 -1.40281505794281 1.8805336864108488 -3.2781602887468964 -1.0854527922577866 -0.6706776974867843 0.0 0.0 0.0 -0.0 0.0 -0.0 0.0 0.0 0.0 0.0 0.0 0.0 2.5935680669899855e-17 -0.6888032370184852 -0.7120206035710825 -0.14332746956171996 0.01095256235976847 0.0 2.9763785537712544e-16 -7.933979533909596 -6.011726817990887 -0.5915825825461467 0.04546827222820569 0.0 2.1186294555664062 -1.4027631918536585 1.880603313446045 -3.2782276312457483 -1.0854681173907679 -0.6706364790545862 0.0 0.0 -0.0 0.0 0.0 0.0 -0.0583190992474556 -0.6213226914405823 -0.6664429903030396 -0.10854240506887436 0.12644630670547485 -0.004475975409150124 -0.0560760572552681 -0.6258087754249573 -0.660342812538147 -0.11525636911392212 0.13316026329994202 -0.019022895023226738 0.29999775674702506 -0.20000917918654756 0.349969451305345 -1.6275507378993768 1.6276951287982528 -1.627529175112178 0.0 0.0 0.0 0.0 0.0 0.0 2.8541373478447913 3.4582183779407303 2.163748344578647 -0.07626232398816755 0.36929208146283976 -0.8579178470042227 0.2999999999776341 -0.20000000000006898 0.34999999999209913 -1.6275987284298632 1.6275987284683486 -1.6275987284942297 0.0 0.0 0.0 0.0 0.0 0.0

6675.16 2.118646307606494 -1.40281505794281 1.8805336864108488 -3.2781602887468964 -1.0854527922577866 -0.6706776974867843 0.0 0.0 0.0 -0.0 0.0 -0.0 0.0 0.0 0.0 0.0 0.0 0.0 2.5935680669899855e-17 -0.6888032370184852 -0.7120206035710825 -0.14332746956171996 0.01095256235976847 0.0 2.9763785537712544e-16 -7.933979533909596 -6.011726817990887 -0.5915825825461467 0.04546827222820569 0.0 2.1186654567718506 -1.4027274290667933 1.880615234375 -3.2782395521747034 -1.0854318777667444 -0.6705763975726526 0.0 0.0 -0.0 0.0 0.0 0.0 -0.0538330152630806 -0.6325379014015198 -0.6618678569793701 -0.1197323426604271 0.13875523209571838 -0.019022895023226738 -0.0560760572552681 -0.6258087754249573 -0.660342812538147 -0.11525636911392212 0.13316026329994202 -0.017903901636600494 0.300009583504209 -0.20000093657145857 0.3499559516323966 -1.6275164142489373 1.6276781764752597 -1.6274215705547552 0.0 0.0 0.0 0.0 0.0 0.0 3.6448861444202216 3.0078066262555856 2.2500463373062414 -0.0405459707061981 0.3402252819399017 -0.9386804543048203 0.2999999999776341 -0.20000000000006898 0.34999999999209913 -1.6275987284298632 1.6275987284683486 -1.6275987284942297 0.0 0.0 0.0 0.0 0.0 0.0

6675.168 2.118646307606494 -1.40281505794281 1.8805336864108488 -3.2781602887468964 -1.0854527922577866 -0.6706776974867843 0.0 0.0 0.0 -0.0 0.0 -0.0 0.0 0.0 0.0 0.0 0.0 0.0 2.5935680669899855e-17 -0.6888032370184852 -0.7120206035710825 -0.14332746956171996 0.01095256235976847 0.0 2.9763785537712544e-16 -7.933979533909596 -6.011726817990887 -0.5915825825461467 0.04546827222820569 0.0 2.1186294555664062 -1.4027751127826136 1.8806509971618652 -3.27820331255068 -1.0854681173907679 -0.6706603209124964 0.0 0.0 -0.0 0.0 0.0 0.0 -0.0538330152630806 -0.6258087754249573 -0.660342812538147 -0.12197033315896988 0.14099322259426117 -0.019022895023226738 -0.0560760572552681 -0.6258087754249573 -0.660342812538147 -0.11525636911392212 0.13316026329994202 -0.019022895023226738 0.2999961395079039 -0.20000663076360248 0.3499573263421705 -1.6275848379601003 1.6277259488958669 -1.6274685741159 0.0 0.0 0.0 0.0 0.0 0.0 3.426042811093751 3.174335604449191 2.5144569248622206 -0.013497520291037677 0.3924625674111002 -0.9448487048563525 0.2999999999776341 -0.20000000000006898 0.34999999999209913 -1.6275987284298632 1.6275987284683486 -1.6275987284942297 0.0 0.0 0.0 0.0 0.0 0.0

6675.1759999999995 2.118646307606494 -1.40281505794281 1.8805336864108488 -3.2781602887468964 -1.0854527922577866 -0.6706776974867843 0.0 0.0 0.0 -0.0 0.0 -0.0 0.0 0.0 0.0 0.0 0.0 0.0 2.5935680669899855e-17 -0.6888032370184852 -0.7120206035710825 -0.14332746956171996 0.01095256235976847 0.0 2.9763785537712544e-16 -7.933979533909596 -6.011726817990887 -0.5915825825461467 0.04546827222820569 0.0 2.1186773777008057 -1.402811352406637 1.8806390762329102 -3.27820331255068 -1.0854681173907679 -0.6706603209124964 0.0 0.0 -0.0 0.0 0.0 0.0 -0.0605621412396431 -0.6213226914405823 -0.6588177680969238 -0.11078038811683655 0.1376362442970276 -0.022379877045750618 -0.0560760572552681 -0.6258087754249573 -0.660342812538147 -0.11637535691261292 0.13316026329994202 -0.02014188840985298 0.3000022708143827 -0.19998654311073077 0.3499725941127266 -1.6276046915404596 1.6276394565710612 -1.6275032225393544 0.0 0.0 0.0 0.0 0.0 0.0 3.527688814922726 3.468247789558931 2.419125036615718 -0.03580452039170301 0.33322594843622094 -0.9667176392001312 0.2999999999776341 -0.20000000000006898 0.34999999999209913 -1.6275987284298632 1.6275987284683486 -1.6275987284942297 0.0 0.0 0.0 0.0 0.0 0.0

6675.183999999999 2.118646307606494 -1.40281505794281 1.8805336864108488 -3.2781602887468964 -1.0854527922577866 -0.6706776974867843 0.0 0.0 0.0 -0.0 0.0 -0.0 0.0 0.0 0.0 0.0 0.0 0.0 2.5935680669899855e-17 -0.6888032370184852 -0.7120206035710825 -0.14332746956171996 0.01095256235976847 0.0 2.9763785537712544e-16 -7.933979533909596 -6.011726817990887 -0.5915825825461467 0.04546827222820569 0.0 2.1186773777008057 -1.4027631918536585 1.880627155303955 -3.278191391621725 -1.0854561964618128 -0.6706121603595179 0.0 0.0 -0.0 0.0 0.0 0.0 -0.0538330152630806 -0.6213226914405823 -0.6572927236557007 -0.11749435216188431 0.13316026329994202 -0.03245082125067711 -0.0560760572552681 -0.6258087754249573 -0.660342812538147 -0.11525636911392212 0.13316026329994202 -0.017903901636600494 0.30000835706622325 -0.1999948723853445 0.34995924554759555 -1.6275615855815608 1.627688980393142 -1.627415995565019 0.0 0.0 0.0 0.0 0.0 0.0 3.3020424506380346 3.2212735152501524 2.61325817074539 0.024727794390495956 0.3202959145538433 -0.9341295320177723 0.2999999999776341 -0.20000000000006898 0.34999999999209913 -1.6275987284298632 1.6275987284683486 -1.6275987284942297 0.0 0.0 0.0 0.0 0.0 0.0

6675.192 2.118646307606494 -1.40281505794281 1.8805336864108488 -3.2781602887468964 -1.0854527922577866 -0.6706776974867843 0.0 0.0 0.0 -0.0 0.0 -0.0 0.0 0.0 0.0 0.0 0.0 0.0 2.5935680669899855e-17 -0.6888032370184852 -0.7120206035710825 -0.14332746956171996 0.01095256235976847 0.0 2.9763785537712544e-16 -7.933979533909596 -6.011726817990887 -0.5915825825461467 0.04546827222820569 0.0 2.1186654567718506 -1.4027989546405237 1.880627155303955 -3.2782276312457483 -1.0854681173907679 -0.6706603209124964 0.0 0.0 -0.0 0.0 0.0 0.0 -0.0515899695456028 -0.6302948594093323 -0.6572927236557007 -0.11301837861537933 0.12868429720401764 -0.017903901636600494 -0.0560760572552681 -0.6258087754249573 -0.6572927236557007 -0.11525636911392212 0.13316026329994202 -0.021260883659124374 0.3000007322998257 -0.19999147442625798 0.34997431947004465 -1.627594629642709 1.6276346643467667 -1.6275376383110358 0.0 0.0 0.0 0.0 0.0 0.0 3.4756575941786956 2.8284759504296098 2.2827398077563825 -0.05023656366742774 0.2962444668483024 -0.879837077469551 0.2999999999776341 -0.20000000000006898 0.34999999999209913 -1.6275987284298632 1.6275987284683486 -1.6275987284942297 0.0 0.0 0.0 0.0 0.0 0.0

6675.2 2.118646307606494 -1.40281505794281 1.8805336864108488 -3.2781602887468964 -1.0854527922577866 -0.6706776974867843 0.0 0.0 0.0 -0.0 0.0 -0.0 0.0 0.0 0.0 0.0 0.0 0.0 2.5935680669899855e-17 -0.6888032370184852 -0.7120206035710825 -0.14332746956171996 0.01095256235976847 0.0 2.9763785537712544e-16 -7.933979533909596 -6.011726817990887 -0.5915825825461467 0.04546827222820569 0.0 2.1186773777008057 -1.4027631918536585 1.8806509971618652 -3.2781675497638147 -1.0854681173907679 -0.6706245581256312 0.0 0.0 -0.0 0.0 0.0 0.0 -0.0605621412396431 -0.6347809433937073 -0.6633929014205933 -0.1376362442970276 0.1376362442970276 -0.025736859068274498 -0.0560760572552681 -0.6258087754249573 -0.660342812538147 -0.11525636911392212 0.13092228770256042 -0.017903901636600494 0.30000798337169104 -0.1999959906855289 0.3499499479428241 -1.6275800569017422 1.6277295402128888 -1.6273705895379433 0.0 0.0 0.0 0.0 0.0 0.0 4.005889641238744 3.0983697681472293 2.5523866857119497 0.03598895333794445 0.41835626081502375 -0.9514426685767816 0.2999999999776341 -0.20000000000006898 0.34999999999209913 -1.6275987284298632 1.6275987284683486 -1.6275987284942297 0.0 0.0 0.0 0.0 0.0 0.0

6675.208 2.118646469308996 -1.4028152386560686 1.8805339102024012 -3.278160359619897 -1.085452944277308 -0.6706776363047124 8.085126937630853e-05 -9.035661695096102e-05 0.00011189575119350073 -3.54364875130868e-05 -7.600977839918575e-05 3.059104040121834e-05 0.010106408672038566 -0.011294577118870127 0.01398696889918759 -0.004429560939135851 -0.00950122229989822 0.0038238800501522925 0.002800204430632723 -0.6918569389717452 -0.7097426200555638 -0.14412683181690103 0.009272061793459043 0.0007656660097045329 0.009958071172646478 -7.94405402169378 -6.008054644400936 -0.592285848532292 0.04491388467145744 0.00027305180274122474 2.1186413764953613 -1.4027870337115687 1.880615234375 -3.27820331255068 -1.085503880177633 -0.6706483999835413 0.0 0.0 -0.0 0.0 0.0 0.0 -0.0583190992474556 -0.6325379014015198 -0.660342812538147 -0.1197323426604271 0.13204127550125122 -0.014546919614076614 -0.0560760572552681 -0.6258087754249573 -0.6618678569793701 -0.11525636911392212 0.134279265999794 -0.017903901636600494 0.2999965721625365 -0.2000047767688032 0.34997102247903317 -1.627567108332199 1.6277223689575722 -1.627531928679325 0.0 0.0 0.0 0.0 0.0 0.0 3.6853193045471824 3.2520170289924724 2.2895953429289304 -0.042957359687770216 0.36477590672936455 -0.92625153586434 0.2999999999776366 -0.19999992000007236 0.3499999999920993 -1.6275987284298616 1.6275987284683495 -1.627598728494231 2.23658420722305e-15 4e-05 7.900670829076705e-16 2.1846010045859402e-16 2.95021500172519e-15 1.4451362098932698e-15

6675.215999999999 2.1186477629316673 -1.4028166843603787 1.8805357005312158 -3.27816092660205 -1.0854541604360337 -0.6706771468474848 0.00036383204026815857 -0.00040660389830665666 0.0005035290777831925 -0.00015946326721568197 -0.0003420452804672809 0.00013766000895497934 0.035372596361481254 -0.039530910169461954 0.04895416582371147 -0.015503347462824396 -0.03325443775851189 0.013383621069220124 0.011734040327842185 -0.7016700903136981 -0.7022027823255347 -0.14675412478227148 0.0035243502038001745 0.003379401138604333 0.0348533092630865 -7.969228200948641 -5.9988735413546035 -0.5940439755183524 0.043527811229621814 0.0009556842296898014 2.11871337890625 -1.4027751127826136 1.8805913925170898 -3.27817947069277 -1.0854318777667444 -0.6706364790545862 0.0 0.0 -0.0 0.0 0.0 0.0 -0.0560760572552681 -0.6347809433937073 -0.671018123626709 -0.09287648648023605 0.14211222529411316 -0.02349887043237686 -0.0538330152630806 -0.6302948594093323 -0.6755932569503784 -0.10518541932106018 0.134279265999794 -0.024617865681648254 0.3000165478461125 -0.19998222271470326 0.34997253256435146 -1.6276058937508975 1.627585300433996 -1.6274413720800136 0.0 0.0 0.0 0.0 0.0 0.0 3.147892889736648 4.431265201281667 1.3246679952909728 -0.12838829575515956 0.20004767104191815 -1.086460971659164 0.2999999999776321 -0.19999928000006686 0.3499999999920992 -1.6275987284298632 1.6275987284683482 -1.6275987284942302 8.191090127168117e-15 0.00018000000000253975 3.430580312201449e-15 6.330766202379309e-16 1.307584198759114e-14 6.802979304901991e-15

6675.223999999999 2.118652128943044 -1.402821563589379 1.8805417428436462 -3.278162840142493 -1.085458265005272 -0.6706754949207525 0.0009702307268339322 -0.0010842691601660524 0.0013427279839226785 -0.00042522703990050974 -0.0009121322470647232 0.0003670963015794797 0.07579983582072171 -0.08470815773242446 0.10489986326743575 -0.03322047158560347 -0.0712608708246803 0.02867953657806254 0.029704925099928375 -0.7215136144620022 -0.6866270759840122 -0.15215229797430188 -0.008608352376950717 0.008890184083614666 0.07468632062177556 -8.009475390926701 -5.984182268053584 -0.5968568335678522 0.041309758406174985 0.002047919668429712 2.1186654567718506 -1.4027870337115687 1.880615234375 -3.278191391621725 -1.085503880177633 -0.6706002394305628 0.0 0.0 -0.0 0.0 0.0 0.0 -0.0493469275534153 -0.6482391953468323 -0.6740682125091553 -0.11525636911392212 0.12197033315896988 -0.014546919614076614 -0.0426178015768528 -0.6459961533546448 -0.6694930791854858 -0.10742340981960297 0.12420831620693207 -0.024617865681648254 0.3000017328247814 -0.19999812558163768 0.3499698627548986 -1.6275306627048145 1.6277321671462848 -1.6274824898212978 0.0 0.0 0.0 0.0 0.0 0.0 2.4383952796326502 5.2503513419758345 1.3644842835728868 -0.05092992345440514 0.34631234129794525 -1.0456264569312586 0.29999999997763754 -0.1999971200000698 0.34999999999209924 -1.6275987284298619 1.6275987284683489 -1.6275987284942308 2.889287368001274e-14 0.0004799999999978906 9.425331565600244e-15 2.621874841758607e-15 3.560257515694403e-14 1.7474033560416455e-14

6675.232 2.118662478221906 -1.40283312902719 1.880556065070378 -3.2781673757921608 -1.0854679945612817 -0.670671579189646 0.002021373041543499 -0.002258855060801159 0.002797269850597841 -0.0008858484851271558 -0.0019003323018360612 0.0007647985018627586 0.13139278933869586 -0.1468232375793883 0.18181773333439533 -0.057577680653330764 -0.12352500684641723 0.04971277503540987 0.05962593112418321 -0.754666050970559 -0.6602235927117682 -0.161263118731276 -0.029438836464391587 0.01834603458469564 0.12945955534292528 -8.06475434609866 -5.9639796817853465 -0.6007240838841389 0.038259092029036 0.0035498401269535127 2.118617296218872 -1.4027989546405237 1.8806509971618652 -3.278191391621725 -1.0854561964618128 -0.6706002394305628 0.0 0.0 -0.0 0.0 0.0 0.0 -0.006729126907885075 -0.6931000351905823 -0.6283169388771057 -0.10966140031814575 0.11637535691261292 -0.025736859068274498 -0.011215210892260075 -0.6953430771827698 -0.6328920722007751 -0.11525636911392212 0.11301837861537933 -0.017903901636600494 0.2999921161077357 -0.20000599252183116 0.3499641137192907 -1.6275136701592177 1.6277513050169927 -1.6274537848448334 0.0 0.0 0.0 0.0 0.0 0.0 3.5709131056881995 4.334413832503177 1.2580458429967871 -0.09958012668846031 0.12798196896088498 -1.1607015010237829 0.2999999999776452 -0.19999200000006542 0.34999999999209963 -1.6275987284298632 1.627598728468348 -1.6275987284942306 5.18212121980676e-14 0.0010000000000010415 1.968304909334348e-14 4.87824718466178e-15 7.375435568447266e-14 3.6711100555489324e-14

6675.24 2.11868269252878 -1.402855717196699 1.8805840369864988 -3.278176233874859 -1.0854869984388813 -0.6706639310626299 0.003638679001783467 -0.004065801912255739 0.005034804072030178 -0.0015943824989876566 -0.0034207977944949387 0.001376688422670829 0.20216324502999602 -0.2258683564318225 0.27969177767904213 -0.08856675173256259 -0.1900581865823597 0.07648624010100878 0.10442870912907737 -0.8044206087096839 -0.6201679038591575 -0.1750258465524617 -0.0612711112521579 0.03279333689501862 0.19917949572496949 -8.13500761390385 -5.938265766184439 -0.6056449821840391 0.034374577606708104 0.005461652946892734 2.1186654567718506 -1.4028227964984339 1.880627155303955 -3.27817947069277 -1.0854318777667444 -0.6706002394305628 0.0 0.0 -0.0 0.0 0.0 0.0 0.0583190992474556 -0.7917938828468323 -0.5993412137031555 -0.14994516968727112 0.09063850343227386 0.0033569815568625927 0.0515899695456028 -0.8007660508155823 -0.5962911248207092 -0.14323121309280396 0.08280554413795471 -0.004475975409150124 0.3000012396088441 -0.19998725253119295 0.34997788508311817 -1.6275387189478843 1.6276481800395641 -1.6274614407456953 0.0 0.0 0.0 0.0 0.0 0.0 4.570231931712588 2.56706576175679 0.2971124215097634 -0.17625435216952617 0.0919332404217454 -1.090817322405018 0.2999999999776356 -0.1999820000000777 0.3499999999920997 -1.627598728429864 1.6275987284683489 -1.6275987284942286 8.46599248455798e-14 0.0017999999999946724 3.5053926133794936e-14 9.429292529821039e-15 1.3305946833634278e-13 6.573062465100685e-14

6675.248 2.118717625568618 -1.402894747757002 1.8806323687693807 -3.27819153874608 -1.0855198397538022 -0.6706507144297529 0.005943761473806506 -0.006640422527693753 0.00822271835595171 -0.002603749490792931 -0.005587866605735801 0.002248735376160481 0.2881353090028798 -0.3218275769297518 0.3984892854901914 -0.12617087397565926 -0.2708836014051078 0.10900586918620653 0.16707582969959256 -0.8740940484559813 -0.5635843950687517 -0.19437519687071342 -0.10639586660565006 0.05327608151208373 0.2838597388381853 -8.2201592636501 -5.907043082809013 -0.6116181051344501 0.029654020974923378 0.007783782100979449 2.1186413764953613 -1.4028709570514124 1.880615234375 -3.2781551519977015 -1.0854681173907679 -0.6706245581256312 0.0 -0.009740778245031834 -0.0 0.0 0.0 0.0 0.1704712063074112 -0.6729126572608948 -0.5017385482788086 -0.15665914118289948 0.02014188840985298 0.0033569815568625927 0.1682281643152237 -0.6684265732765198 -0.49716341495513916 -0.16449210047721863 0.017903901636600494 0.014546919614076614 0.29999088030214366 -0.19999041432689846 0.34999423315209244 -1.627541408373153 1.627672346911215 -1.6275458925135504 -0.0010017810918848435 0.0016494649829091252 0.003185884712357119 -0.008315322970819257 -0.0050732654316111535 1.1940279325226283e-05 -4.936674581994447 5.594040666419445 5.986218542613343 0.46388133002482457 0.8021506490613152 -0.7345620002708451 0.29999999997763926 -0.1999647200000701 0.34999999999209974 -1.627598728429866 1.6275987284683482 -1.6275987284942275 1.635157659369988e-13 0.0029400000000152507 5.768224208760752e-14 1.5709612493886537e-14 2.1648831686581752e-13 1.0633321075810732e-13

6675.255999999999 2.1187731050170067 -1.4029567221637649 1.8807091082495757 -3.2782158373803263 -1.0855719973520168 -0.6706297251636162 0.009058577945731767 -0.010117801864234733 0.012527932903215667 -0.003966629661517356 -0.008516208163300907 0.0034269935445163497 0.38935205899065767 -0.4346724170676225 0.5381518184079948 -0.1703600213405531 -0.36604269469563816 0.14728227104448355 0.2505768564344423 -0.9642308982798294 -0.5286717694375822 -0.2202384551156439 -0.16708539465132105 0.08083508785271072 0.3835249764593961 -8.320111986946127 -5.870318647437939 -0.6186410000353115 0.024093808802121787 0.010516985128473436 2.1186773777008057 -1.4029067198382776 1.8806991577148438 -3.27820331255068 -1.0855401198016565 -0.6705883185016077 0.009951700456440449 -0.003662379225715995 0.015148061327636242 0.0 0.0 0.0 0.3095398247241974 -0.8590851426124573 -0.35075947642326355 -0.20589487254619598 -0.04364075884222984 0.041402772068977356 0.3050537407398224 -0.868057370185852 -0.3583846688270569 -0.19694292545318604 -0.05259270966053009 0.044759754091501236 0.2999879707916536 -0.199973221890341 0.34998567653279794 -1.6275128714923126 1.627729325509909 -1.6275461920762304 0.0012658685028615446 0.004144944737209332 -0.003141220464187792 0.009794846453411167 0.005998330232111012 0.009904085316193276 1.857727970582721 -1.8865102661750646 7.199993373258968 0.28130654045526565 0.47144842283951305 -0.5642437200265126 0.2999999999776326 -0.1999372800000758 0.34999999999210024 -1.6275987284298683 1.6275987284683493 -1.6275987284942264 2.4417114090846134e-13 0.004480000000002218 8.871178235909113e-14 2.420365433615057e-14 3.3055461941857285e-13 1.619814274844613e-13

6675.264 2.1188559359761077 -1.4030492213841228 1.880823636223595 -3.27825209696322 -1.0856498691345786 -0.6705983902683741 0.013105647316400338 -0.014632653648540467 0.018116606668723743 -0.005735312226953497 -0.012321032012065618 0.004957655337982831 0.5058836713335714 -0.5643564730382167 0.6985842206885094 -0.22108532067951764 -0.47560298109558896 0.19133272418331015 0.2844081525912664 -0.9761419195091172 -0.5214604682878242 -0.25353160627779703 -0.1990495151564628 0.11650726828112859 0.49821587960467495 -8.434743568356353 -5.8281062331475395 -0.6267097581303597 0.01768834807454355 0.013662495835757628 2.11873722076416 -1.4030383268939417 1.8808550834655762 -3.2781551519977015 -1.0856359640704554 -0.6706121603595179 0.008973787538707256 -0.017736652866005898 0.02082858420908451 0.0 -0.017904432490468025 0.0 0.2467346489429474 -0.6684265732765198 -0.5139389038085938 -0.268558531999588 -0.10294743627309799 0.09063850343227386 0.2422485649585724 -0.6706696152687073 -0.5215640664100647 -0.2573685944080353 -0.1018284410238266 0.09287648648023605 0.2999800701378524 -0.1999363577176347 0.3499781713955538 -1.6275691788894555 1.6278058530044386 -1.627488936334228 -0.0012824624438461773 0.005202067372262569 -0.0003894570939021983 -0.000577390477779914 0.006696335790204946 -0.007948158312356794 -10.955581930114848 10.637011652760574 8.435718558988572 0.9386444365231402 1.7480883576821815 -0.5157262668468611 0.2999999999776498 -0.19989632000007526 0.34999999999210074 -1.6275987284298747 1.627598728468348 -1.6275987284942237 3.7356655941201545e-13 0.0064800000000153 1.2824422042459845e-13 3.4940674892248655e-14 4.773304105424345e-13 2.3455878424897246e-13

6675.272 2.118973906421329 -1.403180902294804 1.8809866590709912 -3.2783037011006066 -1.0857607772977547 -0.6705537665388919 0.01820834364213376 -0.02031912604398957 0.02515373988118355 -0.00796149161673237 -0.017118370433891743 0.00688712364704446 0.6378370407166779 -0.7108090494311378 0.879641651557476 -0.27827242372235905 -0.5996673027282655 0.24118353863270361 0.29768062976857923 -0.989823917581237 -0.5130254641630778 -0.2951543516967777 -0.20160065020234497 0.16132499052333985 0.6279948991196906 -8.563902721403311 -5.780429103253469 -0.6358185121531348 0.010429403125303334 0.017222192943145465 2.118844985961914 -1.4031580130206507 1.8810343742370605 -3.2782514731036585 -1.0857442061053675 -0.670504395161764 0.02220437303185463 -0.025425732135772705 0.034035198390483856 0.0 -0.01605886220932007 0.00695085059851408 0.3499145805835724 -0.9241334199905396 -0.40413591265678406 -0.3189132511615753 -0.07385359704494476 0.11637535691261292 0.3566437065601349 -0.9375916719436646 -0.40413591265678406 -0.3177942633628845 -0.07721057534217834 0.11301837861537933 0.29997772063053496 -0.19988021734680733 0.3499739732736637 -1.6274938600259765 1.627836954685194 -1.6274816038606204 0.0003467305120225893 0.011070273791228921 -0.0016354672934698008 0.010239267692168529 0.005819421031227747 0.004906639198149182 1.284351328503977 -1.1323800126075823 5.168406539100052 0.31027459779935535 0.48424778157974535 -0.5891234394964717 0.29999999997764043 -0.19983800000006646 0.3499999999921012 -1.6275987284298805 1.62759872846835 -1.6275987284942182 4.783877051677922e-13 0.009000000000015676 1.7887570018415748e-13 5.0488015884594646e-14 6.642976021407177e-13 3.258108123503872e-13

6675.28 2.119135795296185 -1.403361492327928 1.8812101977914204 -3.278374444193493 -1.0859129761210893 -0.6704925385688432 0.02449127905324582 -0.027310548206368825 0.03380265695566947 -0.010696002794084294 -0.02302544687792264 0.009262105935558445 0.7853669263890072 -0.8739277702974071 1.0811146343107396 -0.34181389716899063 -0.738384555503862 0.2968727860642481 0.31273152425295725 -1.0053196958816577 -0.503303925724729 -0.33373945737148697 -0.20454746171870536 0.21631559110992954 0.7729530028908421 -8.70740427956276 -5.727323178609116 -0.6459588591146903 0.002305327770365295 0.021198795034489765 2.118976593017578 -1.4033492247210901 1.881202220916748 -3.2782753149615687 -1.0858400503741663 -0.6704681555377405 0.019289808347821236 -0.022434469312429428 0.022074943408370018 -0.008748484775424004 -0.013709953986108303 0.009299758821725845 0.2803802788257599 -0.7850647568702698 -0.40718600153923035 -0.39948081970214844 -0.1544211506843567 0.1197323426604271 0.2803802788257599 -0.7850647568702698 -0.4117611050605774 -0.4050757884979248 -0.15554013848304749 0.1197323426604271 0.2999756607148471 -0.19980785274539223 0.3499895394547128 -1.6275086892540929 1.6277824010399327 -1.6275041401241297 0.00019300740115036816 0.009845525206579296 0.0016918436466790818 -0.0024842355504435722 -0.0052108247456303025 0.003589468984343424 -3.6940425266516606 5.23935586692786 9.739159683342946 1.103265407428908 1.2755788520037319 -0.4173160998127861 0.29999999997765125 -0.19975800000006605 0.3499999999921011 -1.6275987284298914 1.6275987284683509 -1.6275987284942108 6.84041929175393e-13 0.01209999999999305 2.422059015566781e-13 6.737167035936339e-14 8.915112906361471e-13 4.3621969778766603e-13

6675.288 2.119351384011772 -1.4036017818626458 1.8815075724502672 -3.278468523465383 -1.0861156630313946 -0.6704110159227277 0.032080788438793355 -0.03573910926026396 0.04422435387528446 -0.013988488010810452 -0.030161142342536765 0.012129733173458798 0.948688673193442 -1.053570131736892 1.3027121149518737 -0.41156065209076964 -0.8919619330767657 0.35845340473754417 0.3296215770340936 -1.0226685425184816 -0.492234930156708 -0.33674219154877977 -0.2079147816583882 0.23437984898356 0.9332173786440326 -8.865023724771115 -5.668840645258935 -0.6571192098020642 -0.0066998109508799 0.025596082272093815 2.119216203689575 -1.4035528341876429 1.8814897537231445 -3.2783830801593226 -1.0860794226275843 -0.6704080740558069 0.02954830601811409 -0.035703402012586594 0.039212387055158615 -0.021763352677226067 -0.03513775020837784 0.015435682609677315 0.2938385307788849 -0.8501129746437073 -0.4559873044490814 -0.3569590449333191 -0.0839245393872261 0.1857529729604721 0.2871094048023224 -0.8590851426124573 -0.45751234889030457 -0.3334601819515228 -0.07721057534217834 0.1857529729604721 0.2999824958214015 -0.19970259798069756 0.3499812416456548 -1.6275419490342653 1.627792655107713 -1.6275050715449828 -0.0008244812716682024 0.01492619817487605 0.0021187235361030546 -0.009004878134839292 -0.0068070514332861124 -0.008150259902768438 -2.9971368550285975 6.191666417703902 5.854429377410908 0.5753694515620464 1.0548372447021857 -0.798434013059226 0.29999999997767146 -0.1996515200000656 0.3499999999920999 -1.6275987284299074 1.6275987284683544 -1.627598728494199 8.748652056868487e-13 0.015839999999991163 3.2136979775982123e-13 9.11045793588138e-14 1.1664738109551875e-12 5.694653559301557e-13

6675.295999999999 2.1196314722101084 -1.4039136137914028 1.8818933808936213 -3.2785905280679493 -1.0863789937697765 -0.6703051292625588 0.04110552908039165 -0.04573546075272305 0.05657669401269991 -0.017886987559245785 -0.03864657242240027 0.015537706691542013 1.1280925801997872 -1.249543936557386 1.5440425171769312 -0.48731244355441666 -1.0606787599829384 0.4259966897604019 0.3484167099907098 -1.0419056048218924 -0.4797600730360715 -0.3400438243932252 -0.21172948281573445 0.23591769426066192 1.1089601466060255 -9.03649102425882 -5.605054011151831 -0.6692840670907032 -0.016607222647069184 0.03041914562572102 2.119420289993286 -1.4038761297809046 1.8818249702453613 -3.2785032431231897 -1.0862715880023401 -0.670180622731344 0.036623790860176086 -0.03834952041506767 0.052203286439180374 -0.012942963279783726 -0.02792324498295784 0.02087652124464512 0.3386993706226349 -0.8456268906593323 -0.34465929865837097 -0.3267461955547333 -0.17232505977153778 0.10966140031814575 0.3431854546070099 -0.8456268906593323 -0.34770938754081726 -0.3368171453475952 -0.17344404757022858 0.10518541932106018 0.299970463604595 -0.19958219649078054 0.3500001907357739 -1.6273705103088263 1.6278231563039116 -1.6275202743350523 0.0005783261356803188 0.018032076976627728 -0.001508383515935554 0.013146233317828233 -0.0013583534208961054 0.004006397350792457 -1.9716684212005384 3.2549507135873337 8.41225616900167 0.8238917289885253 0.5079512372439158 -0.45784586691377444 0.29999999997767784 -0.19951328000006055 0.34999999999209624 -1.6275987284299323 1.6275987284683617 -1.6275987284941786 1.075855982411932e-12 0.020279999999989088 4.2041904116717664e-13 1.2135502106387858e-13 1.4901105281697475e-12 7.246499877579411e-13

6675.304 2.11998789875868 -1.4043098696158927 1.8823834704647953 -3.2787454246326373 -1.0867141025931222 -0.6701704251949083 0.05169720920121452 -0.057428232996992436 0.07101343623983795 -0.022437447427466284 -0.0486057885066331 0.01953447614800093 1.323960015102858 -1.4615965305336733 1.8045927783922557 -0.5688074835275623 -1.2449020105291035 0.49959618205736456 0.3691892389628346 -1.0630611683189681 -0.46582419067654046 -0.3436439169678378 -0.21602094935138244 0.23762516135108086 1.300408141472059 -9.221483734626835 -5.536060622666297 -0.68243323601668 -0.02744450409392129 0.03567466457217023 2.119755506515503 -1.4042475859271448 1.8822317123413086 -3.2786710898028772 -1.08657151857485 -0.6701925436602991 0.04389102756977081 -0.05127330869436264 0.05807555466890335 -0.02034921385347843 -0.0421365350484848 0.010186591185629368 0.3992615044116974 -0.8837586641311646 -0.2851827144622803 -0.40059980750083923 -0.1678490787744522 0.2025378942489624 0.3723450005054474 -0.8837586641311646 -0.2882327735424042 -0.42857465147972107 -0.168968066573143 0.2036568820476532 0.29997189460946894 -0.19941691321410493 0.35001766213578017 -1.6275102174369378 1.6276749403521953 -1.6276704361893337 -0.00027765580457973153 0.021982358370304784 0.0015728463325173844 -0.010621846383973937 7.92397251343953e-05 0.0011108833165863826 -1.3641079530049753 -0.011540185537605713 10.796610877768584 0.8381442458249002 1.2179211255798599 -0.11145280142390422 0.2999999999777106 -0.19933752000004512 0.3499999999920891 -1.6275987284299664 1.627598728468374 -1.627598728494152 1.3667974764693676e-12 0.02547999999997046 5.470046613333302e-13 1.627145666875619e-13 1.865522495968295e-12 8.997514342465925e-13

6675.312 2.1204335690590033 -1.4048044513479194 1.8829949013246354 -3.2789385385806695 -1.087133128553047 -0.6700020595779934 0.06399146046833058 -0.07094345481623444 0.08768307897417446 -0.027683137228686507 -0.060166617668363544 0.024169451945744713 1.536781408389508 -1.689402727405251 2.0837053417920632 -0.6557112251525279 -1.4451036452163053 0.579371974717973 0.3920192544323671 -1.0861598290079881 -0.45037620839279946 -0.3475405179237233 -0.22082161472601505 0.2395101287801888 1.5078538451538437 -9.419619312577176 -5.461987655827762 -0.696540969518746 -0.039246879965043086 0.0413712145986863 2.1201865673065186 -1.404677693043844 1.8827109336853027 -3.278875176106588 -1.0869916121112269 -0.6699045340167444 0.057025738060474396 -0.06137840822339058 0.07693872600793839 -0.0312788300216198 -0.055630773305892944 0.02852245606482029 0.4261780083179474 -0.9196473360061646 -0.33703410625457764 -0.39500483870506287 -0.12197033315896988 0.12756529450416565 0.4329071640968323 -0.9106751680374146 -0.3400841951370239 -0.3524830639362335 -0.10742340981960297 0.1186133474111557 0.299978372696198 -0.19921693540170626 0.35003553289091144 -1.6273624764493428 1.627700467291996 -1.6277143917689127 -5.179508920438797e-05 0.027895846961262585 0.00036149458622459715 0.00038172142472500334 -0.005827942876104191 -0.003945715575982778 -2.5206003958663272 2.0481309755491144 8.424074739696017 0.8986779640727719 0.8436987343891164 -0.5517704086231904 0.29999999997772864 -0.19911800000002638 0.3499999999920754 -1.6275987284300204 1.6275987284683928 -1.6275987284941085 1.613310079371181e-12 0.03149999999991051 7.089869348901271e-13 2.1680090008132074e-13 2.2948060899785822e-12 1.098590379382719e-12

6675.32 2.120982489877173 -1.4054122584023307 1.8837458998461496 -3.279175530453 -1.0876492490163852 -0.6697947890010729 0.07812887088921056 -0.08640386499581904 0.10672750354257729 -0.0336639723899056 -0.07346165716570771 0.02949325563295006 1.7671763026099965 -1.9325512724480738 2.3805530710503535 -0.7476043951523867 -1.6618799371680208 0.6654754609006683 0.4169961877548421 -1.1112195448971922 -0.4333701301953733 -0.3517298887821027 -0.22616757523346917 0.241581261008987 1.7316675771077343 -9.630446549526061 -5.382997601213134 -0.7115750550203143 -0.05205858626329726 0.04751960623653402 2.120666027069092 -1.4052766005145472 1.88344144821167 -3.2791393438922327 -1.0874112288104456 -0.6697729269610804 0.06985364854335785 -0.0784631222486496 0.09668873250484467 -0.02996056340634823 -0.07005978375673294 0.019462382420897484 0.4216919243335724 -0.9331055879592896 -0.4514122009277344 -0.4375265836715698 -0.2898194193840027 0.19134794175624847 0.4104767143726349 -0.944320797920227 -0.45751234889030457 -0.4229796826839447 -0.29541438817977905 0.19694292545318604 0.29996941624812656 -0.1989620373641564 0.35004235361874436 -1.6274122414652512 1.627603237643181 -1.627783878378286 -0.00032569369457663547 0.03427481834721154 -3.299688766545458e-05 -0.0063632181695595326 0.004557153348975452 -0.0020661828155455354 -9.885090802643921 4.795081320335246 6.038406231508788 1.0761115585011658 1.120804211274403 0.4679598794928872 0.2999999999777911 -0.19884799999999797 0.3499999999920519 -1.6275987284300977 1.6275987284684226 -1.627598728494043 1.9661433986773777e-12 0.03839999999982959 9.232482909468147e-13 2.960329752193418e-13 2.7796990588547566e-12 1.310299069427561e-12

6675.3279999999995 2.1216498130420898 -1.4061491585702024 1.8846558004198264 -3.279462366476423 -1.088276721724772 -0.669542960119359 0.09425619632826822 -0.10392810218135887 0.12828039989011322 -0.04041573537985255 -0.08862944123093207 0.03555801205965944 2.015915679882208 -2.190529648192479 2.6941120434419914 -0.843970373743369 -1.8959730081530446 0.7580945533386722 0.4442205847966061 -1.1382505491839698 -0.4147661878421637 -0.356206205817337 -0.23209928919373604 0.24384815048250327 1.9723110780809836 -9.853436019535847 -5.2992942665024625 -0.727495848548053 -0.06593441233540533 0.05413325777025456 2.1212892532348633 -1.405970875416891 1.884387493133545 -3.279391590748922 -1.0880711714373987 -0.6695206801043909 0.08515510708093643 -0.09334273636341095 0.11905129253864288 -0.04012318700551987 -0.07533284276723862 0.035593148320913315 0.3723450005054474 -0.9196473360061646 -0.43311169743537903 -0.4050757884979248 -0.2517736256122589 0.14435020089149475 0.3611297905445099 -0.9465638399124146 -0.43006160855293274 -0.41402772068977356 -0.2551305890083313 0.14099322259426117 0.2999639584899588 -0.1986573973729828 0.3500143403121656 -1.627399267907671 1.6277677349233068 -1.6276847954219855 0.00010318972653401289 0.04229640668102629 -0.0006704188648473277 0.0038289540006254184 -0.002905840265470087 0.003439438769196333 -7.654420696830053 8.696561435714262 6.22867516505423 1.0826733458108297 1.0467381281590338 -0.16322242804183848 0.2999999999778444 -0.1985203199999463 0.34999999999201314 -1.6275987284302103 1.6275987284684712 -1.6275987284939488 2.191966160129221e-12 0.04623999999969815 1.2108393233083512e-12 4.1020516281973455e-13 3.3166947649692496e-12 1.527042795631975e-12

6675.335999999999 2.1224518895108555 -1.4070319520471095 1.885744973868403 -3.279805282543802 -1.0890309368401345 -0.6692404964963483 0.1125277711453502 -0.1236297578858538 0.15246545714505225 -0.04796919176871147 -0.10581580006424975 0.042417687373154565 2.283946852135248 -2.4627069630618665 3.023132156867378 -0.9441820486073647 -2.1482948541647096 0.857459414186891 0.47380611388545557 -1.1672541026177523 -0.39453217017609726 -0.36096123943434777 -0.23866237421905204 0.24632147631236137 2.230352661214586 -10.08796939147793 -5.211129328206417 -0.7442552648710825 -0.08094142166577903 0.061228604388843325 2.122091770172119 -1.406844441090719 1.8854894638061523 -3.279679600392477 -1.0886829535113733 -0.6692569891559046 0.1042339950799942 -0.1122106984257698 0.13748303055763245 -0.04554005712270737 -0.09108011424541473 0.03496997058391571 0.3274841606616974 -0.881515622138977 -0.3827853500843048 -0.48452433943748474 -0.33010318875312805 0.21260882914066315 0.3588867485523224 -0.903946042060852 -0.3782102167606354 -0.46997740864753723 -0.32786521315574646 0.21596580743789673 0.2999726384286364 -0.19825812035552046 0.35000411534608455 -1.627471769016721 1.6276532009914229 -1.6275406373881083 0.0006166190542804812 0.05103102246845026 0.0005178298277092834 -0.004511376206478524 -0.0012611069527335825 0.007848496374581205 -7.809512415914094 10.627803620364512 10.461540996175817 1.445526731785534 2.0886571090366135 0.242977864748808 0.2999999999779501 -0.19812727999988597 0.3499999999919516 -1.6275987284303712 1.6275987284685494 -1.6275987284938078 2.505755434559368e-12 0.05507999999944797 1.6065577799485875e-12 5.771587465494121e-13 3.897185007296694e-12 1.7395922145813612e-12

6675.344 2.123406335474528 -1.408078327359478 1.8870347405277434 -3.280210740757205 -1.089928480591798 -0.6688808825715791 0.13310714123776685 -0.14561627463567348 0.17939430090298952 -0.05634909818790118 -0.12517543368641088 0.05012847729781186 2.5724212615520803 -2.7483145937274593 3.3661054697421595 -1.0474883023987138 -2.4199542027701413 0.9638487405821622 0.5058818404329665 -1.1982210570685405 -0.3726449568588879 -0.36598401247302503 -0.24590851766720281 0.24901318140584472 2.5064841425377895 -10.333327413923124 -5.118809471043474 -0.7617957344231279 -0.09716087613055756 0.06882554701875046 2.123014211654663 -1.4078143278705042 1.8867230415344238 -3.280111614857809 -1.089522663746969 -0.6689327398883265 0.12241166830062866 -0.13278521597385406 0.16696423292160034 -0.05426457151770592 -0.130604088306427 0.0451325923204422 0.4015045464038849 -0.971237301826477 -0.5520648956298828 -0.45319250226020813 -0.18239599466323853 0.22491776943206787 0.4059906303882599 -0.9959107637405396 -0.553589940071106 -0.4565494954586029 -0.17680102586746216 0.2204417884349823 0.29997747727114227 -0.19781079710027036 0.3499986208318727 -1.6274988817797242 1.6276025092348472 -1.6275520837231852 -0.0006378902801377481 0.05869053763615048 -0.0008836064501300839 -0.0030070088616327983 0.005177600646488739 -0.014300631552642608 -12.48718656868118 14.319813491542101 2.923944112588312 0.9489255081348034 1.7631129409215114 -0.482495464429362 0.2999999999780905 -0.19766071999978044 0.34999999999185766 -1.627598728430601 1.6275987284686653 -1.627598728493606 2.6294939518869413e-12 0.06497999999913068 2.1599318138415903e-12 8.216083995332517e-13 4.507187625782481e-12 1.9188145708025784e-12

6675.352 2.1245321123758094 -1.409306807876205 1.888547265902037 -3.2806853776648133 -1.0909872123340723 -0.6684571443346181 0.15616894620730626 -0.16998766785925326 0.20916415815533498 -0.06557310084530986 -0.14687372669189971 0.058749250597096986 2.8827256211924266 -3.046424152947473 3.7212321565431825 -1.1530003321760847 -2.712286625686105 1.0775966624106403 0.5405948076997076 -1.2311301946579185 -0.3490922846745959 -0.3712604395156803 -0.2538965188007239 0.2519366702291739 2.8015398142413863 -10.588676319548183 -5.02270416542057 -0.7800491403296224 -0.11469039418455491 0.0769479448727566 2.124079942703247 -1.4090588728534144 1.8882436752319336 -3.280543629323141 -1.0906861464129847 -0.6685374418841761 0.14442428946495056 -0.15880537033081055 0.19397667050361633 -0.057979680597782135 -0.13491840660572052 0.05095692723989487 0.3745880424976349 -1.038528561592102 -0.5230891108512878 -0.48564332723617554 -0.10630441457033157 0.27639147639274597 0.3723450005054474 -1.0138550996780396 -0.5108888149261475 -0.48004835844039917 -0.10406643152236938 0.2752724885940552 0.29996078224252504 -0.19728632792192782 0.34999614705769133 -1.6274869726553114 1.6277861691201192 -1.6276051283788948 -2.0644305322152825e-05 0.07051335708529621 0.00012550007683253782 -0.0012841228546219485 0.0021934907889279193 0.0018540838253014369 -7.08010342435956 15.271381941448194 2.7772180109629456 0.6973146666067686 2.158700623100543 -1.0479941035763414 0.299999999978283 -0.19711199999963042 0.3499999999917175 -1.6275987284309246 1.627598728468835 -1.627598728493315 2.621372558019737e-12 0.07599999999855724 2.939447436137411e-12 1.184176996911479e-12 5.131401071878415e-12 2.0370174815730275e-12

6675.36 2.1258496229384103 -1.410736687406568 1.8903054366449126 -3.2812359433186553 -1.0922263570457211 -0.6679618262451372 0.17323912521512858 -0.18746194839924749 0.23033831391445453 -0.07204811925745465 -0.16294174665593497 0.0650876696488747 2.13377237597779 -2.184285067499278 2.646769469889943 -0.8093773015180987 -2.0085024955044073 0.7923023814722149 0.4825650579615912 -1.1708195085031519 -0.3736316785832247 -0.3588332788008867 -0.24687929095223957 0.24772181700845086 2.058952950819315 -9.805087601106749 -5.303312475185167 -0.7262738292833314 -0.07391879897483748 0.05657593615378645 2.1254217624664307 -1.410459343587057 1.8899683952331543 -3.2810471693622034 -1.0918858687030237 -0.6680815855609339 0.16869954764842987 -0.18219856917858124 0.2244165986776352 -0.0704193115234375 -0.16394419968128204 0.06445116549730301 0.4104767143726349 -0.971237301826477 -0.5078387260437012 -0.5091422200202942 -0.2394646853208542 0.2573685944080353 0.4149627983570099 -1.007125973701477 -0.5169889330863953 -0.4755723774433136 -0.2361077070236206 0.2551305890083313 0.2999728551770595 -0.1966446833637453 0.34999213509474714 -1.6275549148585977 1.6277286094794132 -1.6275411973075276 -0.00015405393771064088 0.08139767139025367 -0.00017668258433819564 0.00011520989722134944 0.0011255051257671278 -0.005286074519481335 -11.726706222319091 10.58932178078602 4.8925459237330005 1.1105899886066604 2.040988881389734 0.057048194637463134 0.29999999997855015 -0.19647199999943238 0.34999999999151427 -1.6275987284313727 1.6275987284690856 -1.6275987284929063 2.2596229992642884e-12 0.08399999999780718 3.852705355594607e-12 1.633382377242516e-12 5.466972728535827e-12 1.942250942461041e-12

6675.3679999999995 2.127304451230284 -1.4123058571990432 1.8922320030348423 -3.281837809033049 -1.0935947740317902 -0.6674156171140115 0.19050163395550299 -0.20480802472632917 0.2512590083992469 -0.07839618991843128 -0.17919493373757897 0.07147277997419103 2.1578135925468014 -2.1682595408852103 2.6150868105990486 -0.7935088326220789 -2.0316483852055 0.7981387906645411 0.49060220185982467 -1.1759492769863658 -0.36568136361381903 -0.3591246444850028 -0.25016359992651743 0.24853868929814193 2.0735409440810804 -9.775764601911812 -5.308996315234893 -0.725036452432986 -0.07572258593134268 0.05699269662498288 2.1269195079803467 -1.4120152632342737 1.8918604850769043 -3.281647507344381 -1.0932653586017054 -0.6675174872027796 0.18254372477531433 -0.1969439685344696 0.24335168302059174 -0.08170844614505768 -0.17616811394691467 0.06807039678096771 0.3476715385913849 -0.939834713935852 -0.46666261553764343 -0.42857465147972107 -0.17344404757022858 0.26296356320381165 0.3476715385913849 -0.9600220918655396 -0.46056243777275085 -0.41402772068977356 -0.16225410997867584 0.2719154953956604 0.29998342818416657 -0.19593206313819575 0.34999750518328737 -1.6275555079462667 1.6276898384924343 -1.6275405907314835 -0.00047025272287790136 0.08837930427681041 8.181590569644517e-05 -0.0051236512505269715 -0.0010121267527608325 -0.00404706324695964 -8.155634562118005 13.5790967364734 4.9026916054828975 0.7757096890270001 1.935573580153564 -0.6364606079930504 0.2999999999788521 -0.1957679999992256 0.3499999999912948 -1.627598728431864 1.6275987284693667 -1.6275987284924502 1.5503514404287329e-12 0.09199999999681699 5.089866878513549e-12 2.25668626241903e-12 5.680947384604021e-12 1.680492086496765e-12

6675.375999999999 2.1288982144980038 -1.4140132381790327 1.8943248398022536 -3.2824899132149836 -1.0950940204226498 -0.6668181248914333 0.20797618543163088 -0.22201248128277012 0.27190183351797903 -0.08460583740469337 -0.19565229616043495 0.07790921966191162 2.1843189345159866 -2.1505570695551195 2.580353139841514 -0.7762059357827605 -2.057170302856997 0.8045549609650738 0.49886716575716167 -1.1807919570098138 -0.3578831835360805 -0.3593773619593394 -0.2535417142191513 0.24937355798202013 2.089640821056952 -9.743696819437751 -5.315261833698815 -0.7236867119234114 -0.07770969654559055 0.05745085609763303 2.128488540649414 -1.4137862364398401 1.893956184387207 -3.2823551336871546 -1.0947287718402308 -0.6669538656817835 0.19905318319797516 -0.21412454545497894 0.2612321376800537 -0.08782040327787399 -0.18851186335086823 0.0739906057715416 0.2960815727710724 -0.8568421006202698 -0.4544622600078583 -0.3703869581222534 -0.26632052659988403 0.23386971652507782 0.3005676567554474 -0.8658143281936646 -0.4559873044490814 -0.34912607073783875 -0.25960657000541687 0.23163172602653503 0.2999722230548189 -0.19515549196407952 0.35002326576363474 -1.6275653685086198 1.627574870607796 -1.6276907695983174 -0.0003979708743625582 0.09626675371794421 0.0009069092154890228 -0.007031230661039881 -0.0033388147941084993 -0.0009691528125093437 -10.768255904128841 17.10127627976809 5.99118336659519 0.9500804584014776 1.8097162351087734 -0.4191753543636656 0.2999999999791474 -0.19499999999900186 0.34999999999105963 -1.6275987284323974 1.627598728469685 -1.6275987284919446 6.84566921329529e-13 0.0999999999957831 6.4149742523596895e-12 2.935600377964708e-12 5.849435936029724e-12 1.3529451132554896e-12

6675.384 2.130632689196402 -1.4158576425677705 1.8965816260793789 -3.28319110314624 -1.096725806895103 -0.6661689202211036 0.22568287425758382 -0.23906155105404173 0.2922422958405275 -0.09066575864701164 -0.21233321778932887 0.08440167791306369 2.2133361032441177 -2.13113372140895 2.542557790318561 -0.757490155289784 -2.0851152036117404 0.811557281394008 0.5073708779758113 -1.1853400142794543 -0.35024946108606825 -0.35959064430954935 -0.25701843068548313 0.250227117007929 2.1072817281456433 -9.70887188524965 -5.322116454286832 -0.7222261314413617 -0.07988361149814467 0.05795087079250193 2.130201578140259 -1.4156058470355433 1.8961596488952637 -3.2830756346331995 -1.0962165037738245 -0.6662700811969202 0.21809372305870056 -0.23015464842319489 0.2774348258972168 -0.09158345311880112 -0.20473851263523102 0.08273909240961075 0.2467346489429474 -0.9017030000686646 -0.3126334547996521 -0.35024508833885193 -0.23498870432376862 0.21148984134197235 0.2601929008960724 -0.903946042060852 -0.31415846943855286 -0.36367300152778625 -0.21708481013774872 0.2014188915491104 0.29997801614045927 -0.19432507772863322 0.35003421693960807 -1.6275290247178524 1.6274315160800978 -1.6276699279490288 0.00017124009010975486 0.10427173847718263 0.0015479436362858606 -0.005748073182031612 -0.004953627607406589 0.00012184846764694018 -0.27909326161274395 14.528981582402626 8.13693348582102 0.7387562646684195 1.5423218421758829 -0.950526175013856 0.2999999999794632 -0.1941679999987921 0.3499999999908088 -1.627598728432971 1.6275987284700388 -1.6275987284913902 -1.2984776504038866e-13 0.10799999999466445 7.824497146508875e-12 3.667967805301344e-12 5.962475274661405e-12 9.578183379896008e-13

6675.392 2.13250981417453 -1.4178377709109249 1.898999844668778 -3.2839401364303664 -1.098492000808874 -0.665467536015492 0.24364220990185081 -0.25594107524860904 0.31225580422528804 -0.09656484005809583 -0.22925749094855125 0.09095489898033063 2.244916955533374 -2.109940524320914 2.501688548095064 -0.7373851763855244 -2.1155341449027967 0.8191526334083675 0.5161247194268102 -1.1895855435843157 -0.3427927740351565 -0.3597637510062813 -0.2605987658384271 0.25110008213950086 2.1264953543516447 -9.671275635880018 -5.329568342361582 -0.7206563852464195 -0.08224811451724738 0.0584932320937913 2.1320583820343018 -1.4175565878497522 1.8984594345092773 -3.283807102833883 -1.097992245350973 -0.6655619780169886 0.23239809274673462 -0.24969372153282166 0.30300915241241455 -0.09831858426332474 -0.22168420255184174 0.08930644392967224 0.3386993706226349 -0.8478699326515198 -0.3385591506958008 -0.39612382650375366 -0.18239599466323853 0.1857529729604721 0.3364563286304474 -0.8411408066749573 -0.33398401737213135 -0.38045790791511536 -0.17680102586746216 0.1667300909757614 0.2999806053843202 -0.19344578441595012 0.3500568909066485 -1.6274980755738278 1.6274146571837433 -1.627766723590556 -0.0009519512909098308 0.11186203596641713 0.0009032459724931933 -0.003973588673530401 -0.0038709010157633944 -0.0035675461167613033 -6.996546264520601 15.242921475274601 9.790886339516533 1.1558056695379568 2.0125618324156838 -0.936191214698055 0.29999999997980803 -0.19327199999855985 0.349999999990542 -1.6275987284335858 1.627598728470432 -1.6275987284907845 -1.0290119724748676e-12 0.11599999999361572 9.318964073703946e-12 4.452069972177199e-12 6.021896001328405e-12 4.962299085639783e-13

6675.4 2.134531694126856 -1.4199522087751957 1.9015767812085032 -3.28473568257898 -1.1003946296050362 -0.6647134670001575 0.261875149737951 -0.27263646059167673 0.33191765635139486 -0.10229217524742555 -0.24644534907446194 0.09757368595586326 2.279117479512524 -2.0869231678834614 2.4577315157633532 -0.7159168986662148 -2.148482265738837 0.8273483719415785 0.525140538781769 -1.1935202355224739 -0.33552595902841303 -0.359895991719401 -0.2642879654945351 0.25199319130657855 2.1473159130337636 -9.6308919545578 -5.337626431266297 -0.7189793034643887 -0.08480729097910768 0.05907846519523229 2.134071111679077 -1.4196870962726038 1.9010462760925293 -3.2845991293536585 -1.0998395125018519 -0.6648667494403284 0.2506524622440338 -0.26361459493637085 0.32774460315704346 -0.10083527117967606 -0.24229706823825836 0.0908404290676117 0.4575806260108948 -0.9465638399124146 -0.3492344319820404 -0.4084327518939972 -0.22939373552799225 0.2204417884349823 0.4575806260108948 -0.9465638399124146 -0.34770938754081726 -0.40171879529953003 -0.21820379793643951 0.21037083864212036 0.299980004920284 -0.19248175488619196 0.35005967573567986 -1.6275632585448665 1.6273321852878186 -1.6277749412584932 -0.0008093685521342487 0.11919613372646944 -0.001798730598351741 0.0005260572481520518 0.005372457006417057 -0.005294579787522205 -8.759471487632569 9.451883125620467 7.14833180209776 0.9457112904589101 1.553604713539769 -0.28004210452455097 0.29999999998015164 -0.1923119999983372 0.3499999999902595 -1.6275987284342415 1.6275987284708675 -1.627598728490124 -2.0552584370827582e-12 0.12399999999245442 1.0899452356107976e-11 5.288348426703282e-12 6.02267078575339e-12 -3.721754011204968e-14

6675.407999999999 2.13670060330776 -1.422199423093213 1.9043095232251026 -3.285576324742355 -1.1024358844646658 -0.6639061692284542 0.28040313179591664 -0.28913263408005135 0.35120302413974774 -0.10783708338867314 -0.2639174990998431 0.10426290438469892 2.315997757245704 -2.0620216860468275 2.41067097354411 -0.693113517655948 -2.1840187531726416 0.8361523036044572 0.5344306671932709 -1.1971353412153167 -0.3284621154970944 -0.3599867303848631 -0.2680915146093807 0.2529072049100255 2.1697801151564775 -9.58770260346098 -5.346300448410529 -0.7171968779604402 -0.08756552559114848 0.05970712754348348 2.1362035274505615 -1.4219372908221644 1.9037647247314453 -3.2854512373553675 -1.1018670240985315 -0.6640990416156214 0.2682357132434845 -0.28177309036254883 0.3395370841026306 -0.10924819856882095 -0.255863219499588 0.10119479894638062 0.5069275498390198 -0.9420777559280396 -0.33093392848968506 -0.36255401372909546 -0.34912607073783875 0.2696775197982788 0.4822540879249573 -0.9600220918655396 -0.33093392848968506 -0.36479198932647705 -0.3424121141433716 0.26520153880119324 0.29997393626072727 -0.1914671478667575 0.35006611842817054 -1.6275825667126629 1.627313948604726 -1.6278390443911108 -0.00087894068676358 0.12733278796703773 0.001215615726938921 -0.005850365774280908 -0.0038661944348672194 -0.003604078506659298 -12.422737393470063 7.2104372071001155 6.658909982803188 0.8237160398645044 1.2722513140471448 0.5694862916633496 0.29999999998052757 -0.19128799999812082 0.34999999998996095 -1.6275987284349394 1.6275987284713453 -1.6275987284894085 -3.057514649793358e-12 0.13199999999134124 1.2564895620924498e-11 6.176089824836469e-12 5.959985512792509e-12 -6.450265414701577e-13

6675.415999999999 2.139018989506368 -1.4245777581358023 1.9071949590654766 -3.286460561589763 -1.1046181242250537 -0.6630450595681241 0.2992481070751564 -0.3054139950436537 0.3700869380444325 -0.11318912830061581 -0.28169515343497403 0.1110274856759847 2.355621909904973 -2.0351701204502914 2.3604892380855933 -0.6690056139928343 -2.2222067918913693 0.8455726614107223 0.5440079322693319 -1.200421634907532 -0.32161460965536565 -0.3600353895036144 -0.272015147234838 0.2538429060671267 2.193927131061415 -9.54168704605269 -5.355600941165 -0.7153112687017358 -0.09052749888053878 0.060379807033355444 2.138491630554199 -1.4242952505694788 1.9066624641418457 -3.2863391081439417 -1.1040380636798304 -0.6632474104510706 0.2899223864078522 -0.29734301567077637 0.3617798089981079 -0.11361045390367508 -0.2767157554626465 0.10761834681034088 0.3790741264820099 -1.0228272676467896 -0.38126030564308167 -0.3771009147167206 -0.2204417884349823 0.2707965075969696 0.3947754204273224 -0.993667721748352 -0.3782102167606354 -0.3692679703235626 -0.21820379793643951 0.26296356320381165 0.299971133843491 -0.1903901790884293 0.3500566304122288 -1.627582155834779 1.627350923237336 -1.6278173054579748 -0.000418596457799546 0.135929751183733 -0.00010299747244490194 -0.0024229622548353723 -0.0001267898473546358 -0.003578119554543156 -3.247763904459395 11.389840072771472 3.3681922709037644 0.39772129998556166 1.3114602257421981 -0.6760727264747577 0.299999999980909 -0.19019999999790907 0.3499999999896464 -1.6275987284356785 1.6275987284718714 -1.627598728488634 -4.2036780527239754e-12 0.13999999999025936 1.4316637090724353e-11 7.118699957308662e-12 5.833198080649766e-12 -1.331257542760587e-12

6675.424 2.1414894782776575 -1.4270854310894903 1.9102297766985303 -3.2873868093455276 -1.106943879549668 -0.6621295151614799 0.3184325712657204 -0.32146436437381287 0.38854427021388643 -0.11833813830506004 -0.2998000613963392 0.11787243028728638 2.3980580238204956 -2.006296166269898 2.307166521181743 -0.643626250555529 -2.2631134951706446 0.8556180764127101 0.5538856712132192 -1.2033693745190526 -0.3149970785003412 -0.36004145468520626 -0.2760648565615728 0.2548011008017468 2.2197985401892266 -9.492822260907971 -5.365539301930172 -0.7133248106572089 -0.09369818234359174 0.061097119982402394 2.1409833431243896 -1.4268806616412562 1.9097404479980469 -3.2872751394854944 -1.1062811056720179 -0.6623476187335413 0.3096531927585602 -0.314408540725708 0.38359108567237854 -0.11883557587862015 -0.295051634311676 0.1161031723022461 0.3386993706226349 -1.0273133516311646 -0.4163362383842468 -0.4073137640953064 -0.28086745738983154 0.2517736256122589 0.3521576225757599 -1.0273133516311646 -0.41786128282546997 -0.4061947762966156 -0.27862948179244995 0.24617864191532135 0.29996989133965996 -0.18921100893354376 0.35007130279812676 -1.627615081638324 1.627201025955378 -1.6278258593277062 -0.0005041764605170729 0.14437143513974723 -0.0007340600318326248 0.0008220345621804708 0.00039651151496323855 -0.0037470678907215497 -3.452954219939068 13.206275095145049 2.882141112100787 0.5848436765584243 1.35938040627233 -0.5393394517950617 0.2999999999813031 -0.18904799999769786 0.349999999989316 -1.6275987284364573 1.627598728472445 -1.6275987284877984 -5.359318808670709e-12 0.14799999998920046 1.615459938320092e-11 8.113636092198576e-12 5.635319074988147e-12 -2.098956784475723e-12

6675.432 2.144114877424277 -1.4297205272161193 1.91341046237768 -3.288353403987241 -1.109415857346682 -0.6611588728611464 0.33797959567216335 -0.3372669308024157 0.40654971654481187 -0.1232742269185977 -0.31825453988255215 0.12480281064707592 2.4433780508053697 -1.9753208035753547 2.2506807913656792 -0.617011076692207 -2.3068098107766195 0.8662975449736932 0.5640777426726666 -1.2059682602697335 -0.308623433708977 -0.36000447941981245 -0.28024690492980403 0.25578261815356124 2.2474382641990136 -9.441082548916118 -5.376127791633712 -0.7112400211668309 -0.09708283181291084 0.061859708793936506 2.1436667442321777 -1.4295371214496058 1.9129018783569336 -3.2882235685931605 -1.1087048689471644 -0.6613639036761683 0.3299401104450226 -0.32953742146492004 0.40180709958076477 -0.12386895716190338 -0.30727553367614746 0.12233497202396393 0.2803802788257599 -0.8568421006202698 -0.4117611050605774 -0.3726249635219574 -0.3558400571346283 0.3066043257713318 0.2938385307788849 -0.886001706123352 -0.40718600153923035 -0.36702999472618103 -0.36479198932647705 0.31108027696609497 0.2999823810801296 -0.18797218785815262 0.35008253434966535 -1.6276363432391983 1.6270798622296454 -1.6277932925305247 -2.248965869589622e-05 0.15292652331085968 -0.0009252945984222699 0.0020571525200011624 -0.0005554288116570762 0.003083282426457437 -10.3318679874422 19.252339714646855 6.5962769969495625 0.8770913352332161 2.1889265987011886 -0.18291521060649182 0.29999999998169263 -0.18783199999750763 0.34999999998896963 -1.627598728437277 1.6275987284730713 -1.6275987284869 -6.560350973085735e-12 0.1559999999881446 1.8078465902691924e-11 9.159358276174256e-12 5.364655093986976e-12 -2.9516358161871953e-12

6675.44 2.146898181721828 -1.432480994570521 1.916733299155439 -3.2893586036130342 -1.112036945429165 -0.6601324286435704 0.35791285711135257 -0.35280419412298125 0.4240777776569316 -0.12798781443259194 -0.3370815030737702 0.1318237737829921 2.4916576798986525 -1.9421579150706927 2.1910076390149675 -0.5891984392492802 -2.3533703989022587 0.8776203919895215 0.5745985370995703 -1.2082073913809113 -0.30250786537675056 -0.3599240900682234 -0.28456783374121614 0.256788310208267 2.276892481981452 -9.386439334331191 -5.387379561389766 -0.7090596077396397 -0.10068697882108137 0.06266823933079575 2.1464338302612305 -1.4323023001300257 1.9162073135375977 -3.2892311255084437 -1.1112478415118616 -0.6602843443499964 0.3472549021244049 -0.34539496898651123 0.41978344321250916 -0.12542690336704254 -0.3417181968688965 0.12914201617240906 0.2781372368335724 -0.921890377998352 -0.32025864720344543 -0.3211512267589569 -0.20701386034488678 0.29765236377716064 0.2960815727710724 -0.9375916719436646 -0.3217836916446686 -0.3177942633628845 -0.19918090105056763 0.29653337597846985 0.2999833072342435 -0.18669129673753798 0.3500902306138486 -1.6275772386036043 1.627027815207684 -1.6277644863674583 -0.001112023875954857 0.15898309614474657 -0.001439148582107377 0.0017695648226605982 0.005634331287298956 -0.01422758604427876 -0.9735051348324437 17.442648760800477 6.104069709828493 0.3370748005447645 1.8003814750462852 -1.236182196928154 0.2999999999821126 -0.18655199999732267 0.3499999999886073 -1.627598728438137 1.6275987284737534 -1.627598728485934 -7.721030363275072e-12 0.16399999998719333 2.0088651516686158e-11 1.0256762900486861e-11 5.015532006234129e-12 -3.892729725802485e-12

6675.447999999999 2.1498425778782826 -1.4353646382514746 1.9201943652416738 -3.29040059098519 -1.1148102174080448 -0.6590494370028166 0.3782566664991333 -0.36805790527771043 0.4411027388447605 -0.13246965042567835 -0.3563044908756047 0.13894054361510827 2.5429761734725926 -1.906713894341147 2.1281201484786085 -0.560229499135801 -2.402873475229307 0.8895962290145221 0.5854629851266181 -1.2100752210692869 -0.2966648454511731 -0.359799991047183 -0.2890344731312792 0.2578190520261956 2.30820952193704 -9.328860962367758 -5.399308671405504 -0.706786476195223 -0.10451641947491204 0.06352339792523998 2.149273157119751 -1.4351628462420862 1.919692039489746 -3.2902634779559534 -1.114103142415182 -0.6592286268817347 0.3652983605861664 -0.3608498275279999 0.4369208812713623 -0.1317785382270813 -0.36151614785194397 0.13621270656585693 0.4059906303882599 -0.912918210029602 -0.3065332770347595 -0.3524830639362335 -0.2204417884349823 0.2383456975221634 0.3880462944507599 -0.912918210029602 -0.30805832147598267 -0.34465011954307556 -0.2193228006362915 0.2361077070236206 0.29996330634605844 -0.18538785984782563 0.35007423482826955 -1.6275460790660268 1.6272523551684863 -1.6278016239193709 -0.0016020611808648644 0.16638336906835005 -0.001222274092819802 -3.4711301437547504e-05 0.004756320822529335 -0.017048049068105087 -6.024661586316502 14.292968235858211 7.36573685990203 0.7409337196449698 1.6805357733442783 -0.8611907888241306 0.2999999999825132 -0.1852079999971661 0.34999999998822917 -1.627598728439036 1.627598728474495 -1.6275987284848994 -9.015214327778937e-12 0.17199999998626858 2.218452148941151e-11 1.1405528282351814e-11 4.583336273987666e-12 -4.928734381889031e-12

6675.456 2.152951449715814 -1.4383691141606105 1.923789532197584 -3.291477476257707 -1.11773893780658 -0.6579091103274868 0.39903599580558413 -0.383009003253931 0.4575986490728417 -0.13671083724344524 -0.3759476957929851 0.14615842287495284 2.597416163306353 -1.8688872470275717 2.0619887785101527 -0.5301483522208612 -2.4554006146725524 0.9022349074805716 0.5966865636417089 -1.2115595099587118 -0.2911091307622742 -0.3596319701832241 -0.2936539512918031 0.2588757414681103 2.3414397290575084 -9.26831249485747 -5.411930106703087 -0.7044237390517103 -0.10857720050940659 0.06442588803846518 2.1523995399475098 -1.4380953947650355 1.923356533050537 -3.2913554350482386 -1.1170900503741663 -0.6580770651446741 0.38644811511039734 -0.37607458233833313 0.455472469329834 -0.13448697328567505 -0.37594515085220337 0.14127004146575928 0.4306641221046448 -0.9510499238967896 -0.29738304018974304 -0.38157689571380615 -0.19246694445610046 0.23051273822784424 0.4530945420265198 -0.9420777559280396 -0.2760324478149414 -0.3849338889122009 -0.1678490787744522 0.22939373552799225 0.2999706474268642 -0.18398727335700557 0.3500323420278744 -1.6275582498412657 1.6273934668458798 -1.6276647872884615 -0.001314910432004272 0.17490845746279762 -0.0018012815472544994 0.0018614400867291564 0.006214063692162539 -0.011124780205287782 -4.171243217387818 13.059340844710603 7.1836638130207735 0.7374000185014276 1.6836882675477645 -1.0137475906079179 0.29999999998295473 -0.18379999999702618 0.34999999998783565 -1.6275987284399724 1.627598728475298 -1.627598728483793 -1.0195238845672936e-11 0.17999999998548596 2.436598525946477e-11 1.2603351535697173e-11 4.061471855175674e-12 -6.061858402528009e-12

6675.464 2.1562283835604164 -1.4414919222436877 1.9275144629581675 -3.292587299895637 -1.1208265673822453 -0.6567106182639568 0.42027650298176716 -0.3976375487770689 0.47353929911456966 -0.14070285446405806 -0.3960359878442717 0.1534827945992687 2.655063397022879 -1.8285681903922393 1.9925812552159943 -0.4990021525766025 -2.511036506410824 0.9155464655394817 0.6082852988640246 -1.2126472782248507 -0.28585576545152197 -0.3594199041934127 -0.2984337032404606 0.2599592988868375 2.376635300384961 -9.204755507383448 -5.425259788529936 -0.7019747240107431 -0.11287560186545219 0.06537642646477777 2.155658006668091 -1.4411714712726038 1.9270930290222168 -3.2924469153033655 -1.120077912007467 -0.6569011847125452 0.4100714325904846 -0.3879821002483368 0.4687749743461609 -0.13937653601169586 -0.390470027923584 0.1498986929655075 0.4015045464038849 -0.980209469795227 -0.3614347577095032 -0.3715059459209442 -0.2674395442008972 0.3077233135700226 0.4239349663257599 -1.0317994356155396 -0.35685962438583374 -0.374862939119339 -0.26632052659988403 0.3066043257713318 0.29997798462787156 -0.18252195451971392 0.35001365168133675 -1.6276012783010347 1.6273537474953284 -1.6275414088633369 -0.00027030856304771216 0.1835127424658368 -0.0017502638944353202 0.0032865623682569343 0.0037043274592708573 -0.0038639346836655737 -5.403258257886732 14.18150577157042 4.324733279644759 0.4562815179260632 1.6790586982587161 -0.607272197296036 0.29999999998336935 -0.18232799999690935 0.3499999999874267 -1.6275987284409472 1.6275987284761686 -1.627598728482607 -1.1562042078826798e-11 0.18799999998478623 2.663055851167083e-11 1.3847296898537864e-11 3.447376742795119e-12 -7.296171994483278e-12

6675.472 2.159677173821438 -1.4447303991885958 1.9313646096766657 -3.293728035794099 -1.1240767686387168 -0.6554530870695059 0.442004554425991 -0.41192265480878026 0.4888981989348736 -0.14443758434962062 -0.41659493708989925 0.16091912315360252 2.7160064305279814 -1.7856382539639184 1.9198624775379896 -0.46684123569532 -2.569868655703446 0.9295410692917276 0.6202757660780909 -1.2133247566479175 -0.28092008271321806 -0.3591637642392279 -0.30338147890038014 0.26107066669245965 2.413850086647572 -9.138147889525506 -5.439314581317528 -0.6994429823491998 -0.1174181154456017 0.06637573913491439 2.1591200828552246 -1.4442957083331507 1.930924415588379 -3.293563191090719 -1.1233046690570276 -0.6556895414935511 0.4317580759525299 -0.40502846240997314 0.48047155141830444 -0.1432114988565445 -0.41256895661354065 0.1564660519361496 0.3409424126148224 -0.9914246797561646 -0.40413591265678406 -0.3759819269180298 -0.3233892321586609 0.28198644518852234 0.3499145805835724 -0.9869385957717896 -0.40413591265678406 -0.3715059459209442 -0.3088423013687134 0.27862948179244995 0.29999629347031664 -0.18100086301018592 0.3499808280467805 -1.6276847524739662 1.627378302093843 -1.6274005439876802 -0.0005228511198712525 0.19173365120938102 0.00018503631172225483 -0.0031820378781168813 0.0009772828451541785 -0.005081065760549345 -4.353349630952955 16.702172140080506 2.8500222801839965 0.511031540325449 1.5236126479520382 -0.6284391641793642 0.2999999999837986 -0.18079199999683443 0.3499999999870034 -1.6275987284419582 1.6275987284771092 -1.6275987284813438 -1.2776430577901231e-11 0.19599999998420206 2.897878552915917e-11 1.514064744347239e-11 2.732257616770012e-12 -8.643656472675067e-12

6675.48 2.163289691556482 -1.4480705774197613 1.9353220441029504 -3.294893727746156 -1.1274819696550686 -0.6541400034810065 0.4551305696352191 -0.4175020787594093 0.4937901176543082 -0.14501509355692302 -0.4290561466079296 0.16516633500391126 1.6407519011535088 -0.697427993828631 0.6114898399293273 -0.07218865091280016 -1.5576511897537961 0.5309014812885926 0.5355485821254459 -1.1275933851055648 -0.3199382388639127 -0.34317385912445997 -0.2913826260566522 0.25468913548614946 1.3807640820594265 -8.121558132407282 -5.7865325549726645 -0.6332166193142096 -0.057865880419433816 0.03791008207437453 2.1627137660980225 -1.4476826826678675 1.9349126815795898 -3.294727150593893 -1.1266034285174769 -0.654358212147848 0.4531954526901245 -0.4196971654891968 0.49688994884490967 -0.14781343936920166 -0.4285798668861389 0.16332101821899414 0.3566437065601349 -1.0003968477249146 -0.3797352612018585 -0.41402772068977356 -0.33234116435050964 0.3849338889122009 0.3656158745288849 -0.9959107637405396 -0.38736045360565186 -0.4073137640953064 -0.34017413854599 0.40059980750083923 0.29999284579403246 -0.17939552099226666 0.3499880818130912 -1.627669019634127 1.6272883926798412 -1.6273626027518122 -0.0005789714238275534 0.20008161407021577 0.00011288221214410908 -0.0029768858766652537 -0.0001518334773758151 -0.000905931213906441 -2.3562039525124656 8.918248271804012 3.349697202512487 0.2405778566118475 1.694175185664169 0.049256088653608046 0.2999999999358984 -0.17919733333899496 0.34999999997400477 -1.6275987284116815 1.627598728463203 -1.6275987285060525 -1.4269630098027997e-11 0.19999999998382728 3.132634003226127e-11 1.6455924445909868e-11 1.616331858124171e-12 -1.0244788622716357e-11

6675.487999999999 2.1669471222581738 -1.4513989418449071 1.9392517046839834 -3.29604432835839 -1.1309302280876237 -0.6528148668020748 0.45925294847640197 -0.41460146409950566 0.4886453626645932 -0.1426443416162673 -0.4330330671093715 0.16612587847613786 0.5152973551478603 0.3625768324879569 -0.6430943737143757 0.29634399258196553 -0.49711506268023536 0.11994293402832479 0.44432816760796023 -1.0395742295708865 -0.3618636704601409 -0.3273709671529397 -0.2769777740442528 0.24770953162854337 0.31481981503111167 -7.122836444172626 -6.121818292546679 -0.568926824666821 0.0050497396773529655 0.008564765090160588 2.166486978530884 -1.451033894215719 1.938948631286621 -3.295926872883932 -1.1299751440631312 -0.6530264059649866 0.45862191915512085 -0.4205024838447571 0.4971296489238739 -0.14491325616836548 -0.4460288882255554 0.16593357920646667 0.5360870957374573 -0.984695553779602 -0.35380956530570984 -0.3233892321586609 -0.4408835768699646 0.3603160083293915 0.4800110459327698 -0.9779664278030396 -0.3751601278781891 -0.3200322389602661 -0.4599064588546753 0.3603160083293915 0.30001117205986205 -0.1777454964959191 0.34997072727846695 -1.6277458124843796 1.627114701038723 -1.6272215843469435 -0.0014853424455760844 0.2002991246835172 -0.0004676296471528754 -0.0023097904354296445 0.00395236272277948 -0.012841099249512591 -9.438913012170032 -3.495328315740115 1.6388945734907867 0.11467838808572924 0.3342188993988924 1.5456969790847341 0.2999999999373742 -0.1775974222277356 0.34999999997470926 -1.6275987284120093 1.6275987284630136 -1.627598728506058 2.2567674290573396e-10 0.19998666669463003 9.647643740453749e-11 -2.9188971538743856e-11 2.247609964898395e-11 2.6971281084182605e-11

6675.496 2.1706378764371714 -1.4547041447430438 1.9431403938938345 -3.2971760973792352 -1.134410632459181 -0.6514819609173106 0.4634405536288502 -0.4116923822914884 0.4835244992469969 -0.14030054072364273 -0.43707294355675885 0.1671010518550902 0.5234506440560324 0.36363522600215553 -0.6401079271995332 0.29297511157807055 -0.5049845559234184 0.1218966723690422 0.4465665351203732 -1.0348579748000297 -0.3637664814809199 -0.32721588983217287 -0.2779537263507812 0.2478578150184441 0.32109775024551596 -7.083678765751248 -6.119288375906492 -0.5692117128950078 0.004166541407550485 0.008704275683856197 2.1703083515167236 -1.454421345387594 1.9428167343139648 -3.2970665136920374 -1.133646313344137 -0.6517313162433069 0.46099957823753357 -0.41584303975105286 0.48910021781921387 -0.1383698731660843 -0.4513019621372223 0.1690255105495453 0.3386993706226349 -0.917404294013977 -0.3385591506958008 -0.3368171453475952 -0.22715574502944946 0.24841663241386414 0.3521576225757599 -0.917404294013977 -0.3385591506958008 -0.34800708293914795 -0.22379876673221588 0.23275071382522583 0.3000181217265597 -0.1761063598999786 0.3500013708546579 -1.6278100096417496 1.6270707654087144 -1.627405559998613 -0.001490729532139305 0.19907607166780172 -0.0006211026277626097 0.0017278088317212166 0.004936294864510704 -0.016472053278507374 0.6126619405255197 6.243569606567534 4.044416339899929 0.26835823026827305 0.865381582328916 -0.5931476906990865 0.2999999999391213 -0.1759975259312441 0.34999999997547926 -1.627598728412424 1.6275987284627518 -1.6275987285060864 2.1874497344022783e-10 0.19998711113833328 9.311182486332212e-11 -2.8928957970450475e-11 2.2761207015573135e-11 2.713495247792211e-11

6675.504 2.174362267795404 -1.4579859247116307 1.9469880757016946 -3.298289184631191 -1.1379234902419082 -0.6501412363557142 0.46766209446920365 -0.40874552415574583 0.47839335580404285 -0.13797389683216493 -0.4411462794068064 0.16808049565118477 0.5276926050441777 0.36835726696782256 -0.6413929303692584 0.2908304864347247 -0.509166981255943 0.12243047451182196 0.44849840042343897 -1.0298644435249356 -0.36581373417000024 -0.3270106136191064 -0.27888420808765074 0.24798214680717748 0.32369227111629745 -7.041519586797209 -6.117956878313866 -0.5692817919110852 0.003501878697320706 0.008742392893465671 2.1740095615386963 -1.4576762358294886 1.9465885162353516 -3.2982190291034144 -1.1370895544635218 -0.6503513495074671 0.4657740890979767 -0.41473087668418884 0.48171791434288025 -0.1419411599636078 -0.44744303822517395 0.16895361244678497 0.3095398247241974 -1.002639889717102 -0.2653571665287018 -0.38157689571380615 -0.3267461955547333 0.2920573949813843 0.3207550346851349 -0.9914246797561646 -0.2623070776462555 -0.38157689571380615 -0.31555625796318054 0.2909384071826935 0.3000215614176474 -0.17451369425326954 0.3500194641925488 -1.6277482884030698 1.6269804821099294 -1.6274664983668505 -0.0013793154448095539 0.20028710060521365 0.0012682107819520544 -0.005840880099356035 -0.0023914067509565374 -0.00806448411869765 7.866915957120046 1.782215751487431 4.763934603888536 0.14222519934406633 0.7694965261228757 -0.11960361027300764 0.2999999999408113 -0.17439762558536892 0.3499999999762203 -1.6275987284128421 1.6275987284624915 -1.6275987285061078 2.1045656813522363e-10 0.19998762965587571 8.942014339932475e-11 -2.8537686469032146e-11 2.315442542560886e-11 2.733246813016628e-11

6675.512 2.1781205656580225 -1.4612439756122058 1.9507946652910064 -3.2993837276142486 -1.141469067072089 -0.6487926597056308 0.4719171719187835 -0.40576003963980045 0.4732514433980871 -0.1356645154046748 -0.4452526977265982 0.16906407389104733 0.5318846811974837 0.37318556449317253 -0.6427390507444675 0.2886726784362657 -0.5133022899739755 0.1229472799828199 0.4504409934491222 -1.0248737264561136 -0.367871376048576 -0.3268076152876116 -0.27982160597836603 0.2481067234777375 0.3262455492150215 -6.999589380782894 -6.11669029474813 -0.569353636085809 0.00283806511231555 0.00877929642173322 2.1777117252349854 -1.460991684590475 1.9503250122070312 -3.2993348280536097 -1.140616242085592 -0.649020020161764 0.4678066372871399 -0.4093044400215149 0.4780028164386749 -0.14047908782958984 -0.4501754343509674 0.173939049243927 0.3544006645679474 -0.8523560166358948 -0.36448484659194946 -0.3591970205307007 -0.29429537057876587 0.2517736256122589 0.3544006645679474 -0.8433838486671448 -0.355334609746933 -0.3603160083293915 -0.2875814139842987 0.24841663241386414 0.30000817297528687 -0.1729213078470965 0.35005999030515017 -1.6277077676244918 1.6269022701526268 -1.6276690083151797 -0.0014877091519488784 0.1994032200644206 0.00018386182199645103 0.00028692872978769695 -0.0029806059933913335 -0.010187370714203755 -4.604048918791192 7.095398723983267 5.481981961964873 0.6023095390676197 1.17450114198148 -0.09678569164804394 0.29999999994243054 -0.1727977212263375 0.3499999999769335 -1.6275987284132618 1.6275987284622337 -1.6275987285061244 2.024539941199316e-10 0.1999881279264998 8.587290814877704e-11 -2.8142318485887934e-11 2.3544543715386425e-11 2.751901615247578e-11

6675.5199999999995 2.181913037515126 -1.464477985854276 1.9545600755188937 -3.3004598651167076 -1.1450476268466625 -0.6474361981284762 0.4762055818343588 -0.4027352850580486 0.4680985150533728 -0.13337256784406032 -0.44939200440263416 0.17005172702236623 0.5360512394469094 0.37809432271897897 -0.6441160430892892 0.28649344507681096 -0.5174133345044948 0.12345664141486315 0.4523963194071933 -1.0198878761030545 -0.36993848478678976 -0.32660726816397767 -0.2807662289351551 0.24823170354156515 0.32878133411168164 -6.9579149558181275 -6.115480045998984 -0.5694287374457994 0.002173752439886697 0.008815668393511132 2.1814727783203125 -1.464283291493551 1.9542531967163086 -3.300439182912008 -1.144275967274801 -0.647592846547262 0.47434520721435547 -0.4065624475479126 0.4789375960826874 -0.13741113245487213 -0.4568866193294525 0.17410682141780853 0.4373932480812073 -0.917404294013977 -0.36753493547439575 -0.4252176582813263 -0.3099612891674042 0.2752724885940552 0.4239349663257599 -0.894973874092102 -0.3492344319820404 -0.41626572608947754 -0.31443727016448975 0.27974846959114075 0.2999884898857946 -0.17131982719616964 0.35003335191361296 -1.6276188612201545 1.6271167803412179 -1.6275986518771095 -0.001379301177009119 0.2001212667205075 -0.0015838895163493827 0.004476544653607648 0.0018614390225705408 -0.010152891448366223 -5.022165780921256 2.356915301196941 5.133805729921868 0.654370498131451 1.2157843222251186 0.34639407476175993 0.2999999999439864 -0.17119781301491793 0.3499999999776198 -1.627598728413685 1.6275987284619775 -1.6275987285061335 1.9480512398200942e-10 0.19998860613134278 8.246491799737527e-11 -2.774392626986137e-11 2.3932124572280822e-11 2.7698826014137343e-11

