mkrssg/UniversalRobots/rtde_client_3.5/examples/movej_0-30q1_t=10_simulation.csv
timestamp target_q_0 target_q_1 target_q_2 target_q_3 target_q_4 target_q_5 target_qd_0 target_qd_1 target_qd_2 target_qd_3 target_qd_4 target_qd_5 target_qdd_0 target_qdd_1 target_qdd_2 target_qdd_3 target_qdd_4 target_qdd_5 target_current_0 target_current_1 target_current_2 target_current_3 target_current_4 target_current_5 target_moment_0 target_moment_1 target_moment_2 target_moment_3 target_moment_4 target_moment_5 actual_q_0 actual_q_1 actual_q_2 actual_q_3 actual_q_4 actual_q_5 actual_qd_0 actual_qd_1 actual_qd_2 actual_qd_3 actual_qd_4 actual_qd_5 actual_current_0 actual_current_1 actual_current_2 actual_current_3 actual_current_4 actual_current_5 joint_control_output_0 joint_control_output_1 joint_control_output_2 joint_control_output_3 joint_control_output_4 joint_control_output_5 actual_TCP_pose_0 actual_TCP_pose_1 actual_TCP_pose_2 actual_TCP_pose_3 actual_TCP_pose_4 actual_TCP_pose_5 actual_TCP_speed_0 actual_TCP_speed_1 actual_TCP_speed_2 actual_TCP_speed_3 actual_TCP_speed_4 actual_TCP_speed_5 actual_TCP_force_0 actual_TCP_force_1 actual_TCP_force_2 actual_TCP_force_3 actual_TCP_force_4 actual_TCP_force_5 target_TCP_pose_0 target_TCP_pose_1 target_TCP_pose_2 target_TCP_pose_3 target_TCP_pose_4 target_TCP_pose_5 target_TCP_speed_0 target_TCP_speed_1 target_TCP_speed_2 target_TCP_speed_3 target_TCP_speed_4 target_TCP_speed_5
9980.0 0.31617064017203583 -1.56409359189949 1.6281104076940855 -1.634786622958046 -1.570744019260017 0.31617063947797275 0.0 0.0 0.0 0.0 0.0 0.0 0.0 0.0 0.0 0.0 0.0 0.0 -1.0808021033083383e-18 -0.5491560746677142 -0.7660227240968048 -0.22935309661868256 3.352621323503287e-06 0.0 -1.4190931616438482e-17 -7.210419260387088 -7.133356811334266 -1.0424098241319122 1.523766391532244e-05 0.0 0.3161706328392029 -1.5640934149371546 1.628110408782959 -1.6347864309894007 -1.5707438627826136 0.3161706328392029 0.0 0.0 0.0 0.0 0.0 0.0 -1.0808021499751818e-18 -0.5491560697555542 -0.7660227417945862 -0.22935310006141663 3.352621433805325e-06 0.0 -1.0808021499751818e-18 -0.5491560697555542 -0.7660227417945862 -0.22935310006141663 3.352621433805325e-06 0.0 -0.25000000734868855 -0.2000000135749509 0.2999999302396414 2.2213997840713846 2.221399782048772 4.0768586060112275e-07 0.0 0.0 0.0 0.0 0.0 0.0 7.884023224240099e-07 6.306943271088288e-07 -6.402812084818602e-07 -6.378272306199992e-08 1.0163779780213731e-07 -6.888775341489736e-12 -0.2500000000000008 -0.20000000000000054 0.30000000000000243 2.2214000002904304 2.2213999998359277 4.3711993450817594e-10 0.0 0.0 0.0 0.0 0.0 0.0
9980.008 0.31617064017203583 -1.56409359189949 1.6281104076940855 -1.634786622958046 -1.570744019260017 0.31617063947797275 0.0 0.0 0.0 0.0 0.0 0.0 0.0 0.0 0.0 0.0 0.0 0.0 -1.0808021033083383e-18 -0.5491560746677142 -0.7660227240968048 -0.22935309661868256 3.352621323503287e-06 0.0 -1.4190931616438482e-17 -7.210419260387088 -7.133356811334266 -1.0424098241319122 1.523766391532244e-05 0.0 0.3161706328392029 -1.5640934149371546 1.628110408782959 -1.6347864309894007 -1.5707438627826136 0.3161706328392029 0.0 0.0 0.0 0.0 0.0 0.0 -1.0808021499751818e-18 -0.5491560697555542 -0.7660227417945862 -0.22935310006141663 3.352621433805325e-06 0.0 -1.0808021499751818e-18 -0.5491560697555542 -0.7660227417945862 -0.22935310006141663 3.352621433805325e-06 0.0 -0.25000000734868855 -0.2000000135749509 0.2999999302396414 2.2213997840713846 2.221399782048772 4.0768586060112275e-07 0.0 0.0 0.0 0.0 0.0 0.0 7.884023224240099e-07 6.306943271088288e-07 -6.402812084818602e-07 -6.378272306199992e-08 1.0163779780213731e-07 -6.888775341489736e-12 -0.2500000000000008 -0.20000000000000054 0.30000000000000243 2.2214000002904304 2.2213999998359277 4.3711993450817594e-10 0.0 0.0 0.0 0.0 0.0 0.0
9980.016 0.31617064017203583 -1.56409359189949 1.6281104076940855 -1.634786622958046 -1.570744019260017 0.31617063947797275 0.0 0.0 0.0 0.0 0.0 0.0 0.0 0.0 0.0 0.0 0.0 0.0 -1.0808021033083383e-18 -0.5491560746677142 -0.7660227240968048 -0.22935309661868256 3.352621323503287e-06 0.0 -1.4190931616438482e-17 -7.210419260387088 -7.133356811334266 -1.0424098241319122 1.523766391532244e-05 0.0 0.3161706328392029 -1.5640934149371546 1.628110408782959 -1.6347864309894007 -1.5707438627826136 0.3161706328392029 0.0 0.0 0.0 0.0 0.0 0.0 -1.0808021499751818e-18 -0.5491560697555542 -0.7660227417945862 -0.22935310006141663 3.352621433805325e-06 0.0 -1.0808021499751818e-18 -0.5491560697555542 -0.7660227417945862 -0.22935310006141663 3.352621433805325e-06 0.0 -0.25000000734868855 -0.2000000135749509 0.2999999302396414 2.2213997840713846 2.221399782048772 4.0768586060112275e-07 0.0 0.0 0.0 0.0 0.0 0.0 7.884023224240099e-07 6.306943271088288e-07 -6.402812084818602e-07 -6.378272306199992e-08 1.0163779780213731e-07 -6.888775341489736e-12 -0.2500000000000008 -0.20000000000000054 0.30000000000000243 2.2214000002904304 2.2213999998359277 4.3711993450817594e-10 0.0 0.0 0.0 0.0 0.0 0.0
9980.024 0.31617064017203583 -1.56409359189949 1.6281104076940855 -1.634786622958046 -1.570744019260017 0.31617063947797275 0.0 0.0 0.0 0.0 0.0 0.0 0.0 0.0 0.0 0.0 0.0 0.0 -1.0808021033083383e-18 -0.5491560746677142 -0.7660227240968048 -0.22935309661868256 3.352621323503287e-06 0.0 -1.4190931616438482e-17 -7.210419260387088 -7.133356811334266 -1.0424098241319122 1.523766391532244e-05 0.0 0.3161706328392029 -1.5640934149371546 1.628110408782959 -1.6347864309894007 -1.5707438627826136 0.3161706328392029 0.0 0.0 0.0 0.0 0.0 0.0 -1.0808021499751818e-18 -0.5491560697555542 -0.7660227417945862 -0.22935310006141663 3.352621433805325e-06 0.0 -1.0808021499751818e-18 -0.5491560697555542 -0.7660227417945862 -0.22935310006141663 3.352621433805325e-06 0.0 -0.25000000734868855 -0.2000000135749509 0.2999999302396414 2.2213997840713846 2.221399782048772 4.0768586060112275e-07 0.0 0.0 0.0 0.0 0.0 0.0 7.884023224240099e-07 6.306943271088288e-07 -6.402812084818602e-07 -6.378272306199992e-08 1.0163779780213731e-07 -6.888775341489736e-12 -0.2500000000000008 -0.20000000000000054 0.30000000000000243 2.2214000002904304 2.2213999998359277 4.3711993450817594e-10 0.0 0.0 0.0 0.0 0.0 0.0
9980.032 0.31617064017203583 -1.56409359189949 1.6281104076940855 -1.634786622958046 -1.570744019260017 0.31617063947797275 0.0 0.0 0.0 0.0 0.0 0.0 0.0 0.0 0.0 0.0 0.0 0.0 -1.0808021033083383e-18 -0.5491560746677142 -0.7660227240968048 -0.22935309661868256 3.352621323503287e-06 0.0 -1.4190931616438482e-17 -7.210419260387088 -7.133356811334266 -1.0424098241319122 1.523766391532244e-05 0.0 0.3161706328392029 -1.5640934149371546 1.628110408782959 -1.6347864309894007 -1.5707438627826136 0.3161706328392029 0.0 0.0 0.0 0.0 0.0 0.0 -1.0808021499751818e-18 -0.5491560697555542 -0.7660227417945862 -0.22935310006141663 3.352621433805325e-06 0.0 -1.0808021499751818e-18 -0.5491560697555542 -0.7660227417945862 -0.22935310006141663 3.352621433805325e-06 0.0 -0.25000000734868855 -0.2000000135749509 0.2999999302396414 2.2213997840713846 2.221399782048772 4.0768586060112275e-07 0.0 0.0 0.0 0.0 0.0 0.0 7.884023224240099e-07 6.306943271088288e-07 -6.402812084818602e-07 -6.378272306199992e-08 1.0163779780213731e-07 -6.888775341489736e-12 -0.2500000000000008 -0.20000000000000054 0.30000000000000243 2.2214000002904304 2.2213999998359277 4.3711993450817594e-10 0.0 0.0 0.0 0.0 0.0 0.0
9980.039999999999 0.31617064017203583 -1.56409359189949 1.6281104076940855 -1.634786622958046 -1.570744019260017 0.31617063947797275 0.0 0.0 0.0 0.0 0.0 0.0 0.0 0.0 0.0 0.0 0.0 0.0 -1.0808021033083383e-18 -0.5491560746677142 -0.7660227240968048 -0.22935309661868256 3.352621323503287e-06 0.0 -1.4190931616438482e-17 -7.210419260387088 -7.133356811334266 -1.0424098241319122 1.523766391532244e-05 0.0 0.3161706328392029 -1.5640934149371546 1.628110408782959 -1.6347864309894007 -1.5707438627826136 0.3161706328392029 0.0 0.0 0.0 0.0 0.0 0.0 -1.0808021499751818e-18 -0.5491560697555542 -0.7660227417945862 -0.22935310006141663 3.352621433805325e-06 0.0 -1.0808021499751818e-18 -0.5491560697555542 -0.7660227417945862 -0.22935310006141663 3.352621433805325e-06 0.0 -0.25000000734868855 -0.2000000135749509 0.2999999302396414 2.2213997840713846 2.221399782048772 4.0768586060112275e-07 0.0 0.0 0.0 0.0 0.0 0.0 7.884023224240099e-07 6.306943271088288e-07 -6.402812084818602e-07 -6.378272306199992e-08 1.0163779780213731e-07 -6.888775341489736e-12 -0.2500000000000008 -0.20000000000000054 0.30000000000000243 2.2214000002904304 2.2213999998359277 4.3711993450817594e-10 0.0 0.0 0.0 0.0 0.0 0.0
9980.047999999999 0.31617064017203583 -1.56409359189949 1.6281104076940855 -1.634786622958046 -1.570744019260017 0.31617063947797275 0.0 0.0 0.0 0.0 0.0 0.0 0.0 0.0 0.0 0.0 0.0 0.0 -1.0808021033083383e-18 -0.5491560746677142 -0.7660227240968048 -0.22935309661868256 3.352621323503287e-06 0.0 -1.4190931616438482e-17 -7.210419260387088 -7.133356811334266 -1.0424098241319122 1.523766391532244e-05 0.0 0.3161706328392029 -1.5640934149371546 1.628110408782959 -1.6347864309894007 -1.5707438627826136 0.3161706328392029 0.0 0.0 0.0 0.0 0.0 0.0 -1.0808021499751818e-18 -0.5491560697555542 -0.7660227417945862 -0.22935310006141663 3.352621433805325e-06 0.0 -1.0808021499751818e-18 -0.5491560697555542 -0.7660227417945862 -0.22935310006141663 3.352621433805325e-06 0.0 -0.25000000734868855 -0.2000000135749509 0.2999999302396414 2.2213997840713846 2.221399782048772 4.0768586060112275e-07 0.0 0.0 0.0 0.0 0.0 0.0 7.884023224240099e-07 6.306943271088288e-07 -6.402812084818602e-07 -6.378272306199992e-08 1.0163779780213731e-07 -6.888775341489736e-12 -0.2500000000000008 -0.20000000000000054 0.30000000000000243 2.2214000002904304 2.2213999998359277 4.3711993450817594e-10 0.0 0.0 0.0 0.0 0.0 0.0
9980.055999999999 0.31617064017203583 -1.56409359189949 1.6281104076940855 -1.634786622958046 -1.570744019260017 0.31617063947797275 0.0 0.0 0.0 0.0 0.0 0.0 0.0 0.0 0.0 0.0 0.0 0.0 -1.0808021033083383e-18 -0.5491560746677142 -0.7660227240968048 -0.22935309661868256 3.352621323503287e-06 0.0 -1.4190931616438482e-17 -7.210419260387088 -7.133356811334266 -1.0424098241319122 1.523766391532244e-05 0.0 0.3161706328392029 -1.5640934149371546 1.628110408782959 -1.6347864309894007 -1.5707438627826136 0.3161706328392029 0.0 0.0 0.0 0.0 0.0 0.0 -1.0808021499751818e-18 -0.5491560697555542 -0.7660227417945862 -0.22935310006141663 3.352621433805325e-06 0.0 -1.0808021499751818e-18 -0.5491560697555542 -0.7660227417945862 -0.22935310006141663 3.352621433805325e-06 0.0 -0.25000000734868855 -0.2000000135749509 0.2999999302396414 2.2213997840713846 2.221399782048772 4.0768586060112275e-07 0.0 0.0 0.0 0.0 0.0 0.0 7.884023224240099e-07 6.306943271088288e-07 -6.402812084818602e-07 -6.378272306199992e-08 1.0163779780213731e-07 -6.888775341489736e-12 -0.2500000000000008 -0.20000000000000054 0.30000000000000243 2.2214000002904304 2.2213999998359277 4.3711993450817594e-10 0.0 0.0 0.0 0.0 0.0 0.0
9980.064 0.31617064017203583 -1.56409359189949 1.6281104076940855 -1.634786622958046 -1.570744019260017 0.31617063947797275 0.0 0.0 0.0 0.0 0.0 0.0 0.0 0.0 0.0 0.0 0.0 0.0 -1.0808021033083383e-18 -0.5491560746677142 -0.7660227240968048 -0.22935309661868256 3.352621323503287e-06 0.0 -1.4190931616438482e-17 -7.210419260387088 -7.133356811334266 -1.0424098241319122 1.523766391532244e-05 0.0 0.3161706328392029 -1.5640934149371546 1.628110408782959 -1.6347864309894007 -1.5707438627826136 0.3161706328392029 0.0 0.0 0.0 0.0 0.0 0.0 -1.0808021499751818e-18 -0.5491560697555542 -0.7660227417945862 -0.22935310006141663 3.352621433805325e-06 0.0 -1.0808021499751818e-18 -0.5491560697555542 -0.7660227417945862 -0.22935310006141663 3.352621433805325e-06 0.0 -0.25000000734868855 -0.2000000135749509 0.2999999302396414 2.2213997840713846 2.221399782048772 4.0768586060112275e-07 0.0 0.0 0.0 0.0 0.0 0.0 7.884023224240099e-07 6.306943271088288e-07 -6.402812084818602e-07 -6.378272306199992e-08 1.0163779780213731e-07 -6.888775341489736e-12 -0.2500000000000008 -0.20000000000000054 0.30000000000000243 2.2214000002904304 2.2213999998359277 4.3711993450817594e-10 0.0 0.0 0.0 0.0 0.0 0.0
9980.072 0.31617064017203583 -1.56409359189949 1.6281104076940855 -1.634786622958046 -1.570744019260017 0.31617063947797275 0.0 0.0 0.0 0.0 0.0 0.0 0.0 0.0 0.0 0.0 0.0 0.0 -1.0808021033083383e-18 -0.5491560746677142 -0.7660227240968048 -0.22935309661868256 3.352621323503287e-06 0.0 -1.4190931616438482e-17 -7.210419260387088 -7.133356811334266 -1.0424098241319122 1.523766391532244e-05 0.0 0.3161706328392029 -1.5640934149371546 1.628110408782959 -1.6347864309894007 -1.5707438627826136 0.3161706328392029 0.0 0.0 0.0 0.0 0.0 0.0 -1.0808021499751818e-18 -0.5491560697555542 -0.7660227417945862 -0.22935310006141663 3.352621433805325e-06 0.0 -1.0808021499751818e-18 -0.5491560697555542 -0.7660227417945862 -0.22935310006141663 3.352621433805325e-06 0.0 -0.25000000734868855 -0.2000000135749509 0.2999999302396414 2.2213997840713846 2.221399782048772 4.0768586060112275e-07 0.0 0.0 0.0 0.0 0.0 0.0 7.884023224240099e-07 6.306943271088288e-07 -6.402812084818602e-07 -6.378272306199992e-08 1.0163779780213731e-07 -6.888775341489736e-12 -0.2500000000000008 -0.20000000000000054 0.30000000000000243 2.2214000002904304 2.2213999998359277 4.3711993450817594e-10 0.0 0.0 0.0 0.0 0.0 0.0
9980.08 0.31617064017203583 -1.56409359189949 1.6281104076940855 -1.634786622958046 -1.570744019260017 0.31617063947797275 0.0 0.0 0.0 0.0 0.0 0.0 0.0 0.0 0.0 0.0 0.0 0.0 -1.0808021033083383e-18 -0.5491560746677142 -0.7660227240968048 -0.22935309661868256 3.352621323503287e-06 0.0 -1.4190931616438482e-17 -7.210419260387088 -7.133356811334266 -1.0424098241319122 1.523766391532244e-05 0.0 0.3161706328392029 -1.5640934149371546 1.628110408782959 -1.6347864309894007 -1.5707438627826136 0.3161706328392029 0.0 0.0 0.0 0.0 0.0 0.0 -1.0808021499751818e-18 -0.5491560697555542 -0.7660227417945862 -0.22935310006141663 3.352621433805325e-06 0.0 -1.0808021499751818e-18 -0.5491560697555542 -0.7660227417945862 -0.22935310006141663 3.352621433805325e-06 0.0 -0.25000000734868855 -0.2000000135749509 0.2999999302396414 2.2213997840713846 2.221399782048772 4.0768586060112275e-07 0.0 0.0 0.0 0.0 0.0 0.0 7.884023224240099e-07 6.306943271088288e-07 -6.402812084818602e-07 -6.378272306199992e-08 1.0163779780213731e-07 -6.888775341489736e-12 -0.2500000000000008 -0.20000000000000054 0.30000000000000243 2.2214000002904304 2.2213999998359277 4.3711993450817594e-10 0.0 0.0 0.0 0.0 0.0 0.0
9980.088 0.31617064017203583 -1.56409359189949 1.6281104076940855 -1.634786622958046 -1.570744019260017 0.31617063947797275 0.0 0.0 0.0 0.0 0.0 0.0 0.0 0.0 0.0 0.0 0.0 0.0 -1.0808021033083383e-18 -0.5491560746677142 -0.7660227240968048 -0.22935309661868256 3.352621323503287e-06 0.0 -1.4190931616438482e-17 -7.210419260387088 -7.133356811334266 -1.0424098241319122 1.523766391532244e-05 0.0 0.3161706328392029 -1.5640934149371546 1.628110408782959 -1.6347864309894007 -1.5707438627826136 0.3161706328392029 0.0 0.0 0.0 0.0 0.0 0.0 -1.0808021499751818e-18 -0.5491560697555542 -0.7660227417945862 -0.22935310006141663 3.352621433805325e-06 0.0 -1.0808021499751818e-18 -0.5491560697555542 -0.7660227417945862 -0.22935310006141663 3.352621433805325e-06 0.0 -0.25000000734868855 -0.2000000135749509 0.2999999302396414 2.2213997840713846 2.221399782048772 4.0768586060112275e-07 0.0 0.0 0.0 0.0 0.0 0.0 7.884023224240099e-07 6.306943271088288e-07 -6.402812084818602e-07 -6.378272306199992e-08 1.0163779780213731e-07 -6.888775341489736e-12 -0.2500000000000008 -0.20000000000000054 0.30000000000000243 2.2214000002904304 2.2213999998359277 4.3711993450817594e-10 0.0 0.0 0.0 0.0 0.0 0.0
9980.096 0.31617064017203583 -1.56409359189949 1.6281104076940855 -1.634786622958046 -1.570744019260017 0.31617063947797275 0.0 0.0 0.0 0.0 0.0 0.0 0.0 0.0 0.0 0.0 0.0 0.0 -1.0808021033083383e-18 -0.5491560746677142 -0.7660227240968048 -0.22935309661868256 3.352621323503287e-06 0.0 -1.4190931616438482e-17 -7.210419260387088 -7.133356811334266 -1.0424098241319122 1.523766391532244e-05 0.0 0.3161706328392029 -1.5640934149371546 1.628110408782959 -1.6347864309894007 -1.5707438627826136 0.3161706328392029 0.0 0.0 0.0 0.0 0.0 0.0 -1.0808021499751818e-18 -0.5491560697555542 -0.7660227417945862 -0.22935310006141663 3.352621433805325e-06 0.0 -1.0808021499751818e-18 -0.5491560697555542 -0.7660227417945862 -0.22935310006141663 3.352621433805325e-06 0.0 -0.25000000734868855 -0.2000000135749509 0.2999999302396414 2.2213997840713846 2.221399782048772 4.0768586060112275e-07 0.0 0.0 0.0 0.0 0.0 0.0 7.884023224240099e-07 6.306943271088288e-07 -6.402812084818602e-07 -6.378272306199992e-08 1.0163779780213731e-07 -6.888775341489736e-12 -0.2500000000000008 -0.20000000000000054 0.30000000000000243 2.2214000002904304 2.2213999998359277 4.3711993450817594e-10 0.0 0.0 0.0 0.0 0.0 0.0
9980.104 0.31617064017203583 -1.56409359189949 1.6281104076940855 -1.634786622958046 -1.570744019260017 0.31617063947797275 0.0 0.0 0.0 0.0 0.0 0.0 0.0 0.0 0.0 0.0 0.0 0.0 -1.0808021033083383e-18 -0.5491560746677142 -0.7660227240968048 -0.22935309661868256 3.352621323503287e-06 0.0 -1.4190931616438482e-17 -7.210419260387088 -7.133356811334266 -1.0424098241319122 1.523766391532244e-05 0.0 0.3161706328392029 -1.5640934149371546 1.628110408782959 -1.6347864309894007 -1.5707438627826136 0.3161706328392029 0.0 0.0 0.0 0.0 0.0 0.0 -1.0808021499751818e-18 -0.5491560697555542 -0.7660227417945862 -0.22935310006141663 3.352621433805325e-06 0.0 -1.0808021499751818e-18 -0.5491560697555542 -0.7660227417945862 -0.22935310006141663 3.352621433805325e-06 0.0 -0.25000000734868855 -0.2000000135749509 0.2999999302396414 2.2213997840713846 2.221399782048772 4.0768586060112275e-07 0.0 0.0 0.0 0.0 0.0 0.0 7.884023224240099e-07 6.306943271088288e-07 -6.402812084818602e-07 -6.378272306199992e-08 1.0163779780213731e-07 -6.888775341489736e-12 -0.2500000000000008 -0.20000000000000054 0.30000000000000243 2.2214000002904304 2.2213999998359277 4.3711993450817594e-10 0.0 0.0 0.0 0.0 0.0 0.0
9980.112 0.31617064017203583 -1.56409359189949 1.6281104076940855 -1.634786622958046 -1.570744019260017 0.31617063947797275 0.0 0.0 0.0 0.0 0.0 0.0 0.0 0.0 0.0 0.0 0.0 0.0 -1.0808021033083383e-18 -0.5491560746677142 -0.7660227240968048 -0.22935309661868256 3.352621323503287e-06 0.0 -1.4190931616438482e-17 -7.210419260387088 -7.133356811334266 -1.0424098241319122 1.523766391532244e-05 0.0 0.3161706328392029 -1.5640934149371546 1.628110408782959 -1.6347864309894007 -1.5707438627826136 0.3161706328392029 0.0 0.0 0.0 0.0 0.0 0.0 -1.0808021499751818e-18 -0.5491560697555542 -0.7660227417945862 -0.22935310006141663 3.352621433805325e-06 0.0 -1.0808021499751818e-18 -0.5491560697555542 -0.7660227417945862 -0.22935310006141663 3.352621433805325e-06 0.0 -0.25000000734868855 -0.2000000135749509 0.2999999302396414 2.2213997840713846 2.221399782048772 4.0768586060112275e-07 0.0 0.0 0.0 0.0 0.0 0.0 7.884023224240099e-07 6.306943271088288e-07 -6.402812084818602e-07 -6.378272306199992e-08 1.0163779780213731e-07 -6.888775341489736e-12 -0.2500000000000008 -0.20000000000000054 0.30000000000000243 2.2214000002904304 2.2213999998359277 4.3711993450817594e-10 0.0 0.0 0.0 0.0 0.0 0.0
9980.119999999999 0.31617064017203583 -1.56409359189949 1.6281104076940855 -1.634786622958046 -1.570744019260017 0.31617063947797275 0.0 0.0 0.0 0.0 0.0 0.0 0.0 0.0 0.0 0.0 0.0 0.0 -1.0808021033083383e-18 -0.5491560746677142 -0.7660227240968048 -0.22935309661868256 3.352621323503287e-06 0.0 -1.4190931616438482e-17 -7.210419260387088 -7.133356811334266 -1.0424098241319122 1.523766391532244e-05 0.0 0.3161706328392029 -1.5640934149371546 1.628110408782959 -1.6347864309894007 -1.5707438627826136 0.3161706328392029 0.0 0.0 0.0 0.0 0.0 0.0 -1.0808021499751818e-18 -0.5491560697555542 -0.7660227417945862 -0.22935310006141663 3.352621433805325e-06 0.0 -1.0808021499751818e-18 -0.5491560697555542 -0.7660227417945862 -0.22935310006141663 3.352621433805325e-06 0.0 -0.25000000734868855 -0.2000000135749509 0.2999999302396414 2.2213997840713846 2.221399782048772 4.0768586060112275e-07 0.0 0.0 0.0 0.0 0.0 0.0 7.884023224240099e-07 6.306943271088288e-07 -6.402812084818602e-07 -6.378272306199992e-08 1.0163779780213731e-07 -6.888775341489736e-12 -0.2500000000000008 -0.20000000000000054 0.30000000000000243 2.2214000002904304 2.2213999998359277 4.3711993450817594e-10 0.0 0.0 0.0 0.0 0.0 0.0
9980.127999999999 0.31617064017203583 -1.56409359189949 1.6281104076940855 -1.634786622958046 -1.570744019260017 0.31617063947797275 0.0 0.0 0.0 0.0 0.0 0.0 0.0 0.0 0.0 0.0 0.0 0.0 -1.0808021033083383e-18 -0.5491560746677142 -0.7660227240968048 -0.22935309661868256 3.352621323503287e-06 0.0 -1.4190931616438482e-17 -7.210419260387088 -7.133356811334266 -1.0424098241319122 1.523766391532244e-05 0.0 0.3161706328392029 -1.5640934149371546 1.628110408782959 -1.6347864309894007 -1.5707438627826136 0.3161706328392029 0.0 0.0 0.0 0.0 0.0 0.0 -1.0808021499751818e-18 -0.5491560697555542 -0.7660227417945862 -0.22935310006141663 3.352621433805325e-06 0.0 -1.0808021499751818e-18 -0.5491560697555542 -0.7660227417945862 -0.22935310006141663 3.352621433805325e-06 0.0 -0.25000000734868855 -0.2000000135749509 0.2999999302396414 2.2213997840713846 2.221399782048772 4.0768586060112275e-07 0.0 0.0 0.0 0.0 0.0 0.0 7.884023224240099e-07 6.306943271088288e-07 -6.402812084818602e-07 -6.378272306199992e-08 1.0163779780213731e-07 -6.888775341489736e-12 -0.2500000000000008 -0.20000000000000054 0.30000000000000243 2.2214000002904304 2.2213999998359277 4.3711993450817594e-10 0.0 0.0 0.0 0.0 0.0 0.0
9980.136 0.31617064017203583 -1.56409359189949 1.6281104076940855 -1.634786622958046 -1.570744019260017 0.31617063947797275 0.0 0.0 0.0 0.0 0.0 0.0 0.0 0.0 0.0 0.0 0.0 0.0 -1.0808021033083383e-18 -0.5491560746677142 -0.7660227240968048 -0.22935309661868256 3.352621323503287e-06 0.0 -1.4190931616438482e-17 -7.210419260387088 -7.133356811334266 -1.0424098241319122 1.523766391532244e-05 0.0 0.3161706328392029 -1.5640934149371546 1.628110408782959 -1.6347864309894007 -1.5707438627826136 0.3161706328392029 0.0 0.0 0.0 0.0 0.0 0.0 -1.0808021499751818e-18 -0.5491560697555542 -0.7660227417945862 -0.22935310006141663 3.352621433805325e-06 0.0 -1.0808021499751818e-18 -0.5491560697555542 -0.7660227417945862 -0.22935310006141663 3.352621433805325e-06 0.0 -0.25000000734868855 -0.2000000135749509 0.2999999302396414 2.2213997840713846 2.221399782048772 4.0768586060112275e-07 0.0 0.0 0.0 0.0 0.0 0.0 7.884023224240099e-07 6.306943271088288e-07 -6.402812084818602e-07 -6.378272306199992e-08 1.0163779780213731e-07 -6.888775341489736e-12 -0.2500000000000008 -0.20000000000000054 0.30000000000000243 2.2214000002904304 2.2213999998359277 4.3711993450817594e-10 0.0 0.0 0.0 0.0 0.0 0.0
9980.144 0.31617064017203583 -1.56409359189949 1.6281104076940855 -1.634786622958046 -1.570744019260017 0.31617063947797275 0.0 0.0 0.0 0.0 0.0 0.0 0.0 0.0 0.0 0.0 0.0 0.0 -1.0808021033083383e-18 -0.5491560746677142 -0.7660227240968048 -0.22935309661868256 3.352621323503287e-06 0.0 -1.4190931616438482e-17 -7.210419260387088 -7.133356811334266 -1.0424098241319122 1.523766391532244e-05 0.0 0.3161706328392029 -1.5640934149371546 1.628110408782959 -1.6347864309894007 -1.5707438627826136 0.3161706328392029 0.0 0.0 0.0 0.0 0.0 0.0 -1.0808021499751818e-18 -0.5491560697555542 -0.7660227417945862 -0.22935310006141663 3.352621433805325e-06 0.0 -1.0808021499751818e-18 -0.5491560697555542 -0.7660227417945862 -0.22935310006141663 3.352621433805325e-06 0.0 -0.25000000734868855 -0.2000000135749509 0.2999999302396414 2.2213997840713846 2.221399782048772 4.0768586060112275e-07 0.0 0.0 0.0 0.0 0.0 0.0 7.884023224240099e-07 6.306943271088288e-07 -6.402812084818602e-07 -6.378272306199992e-08 1.0163779780213731e-07 -6.888775341489736e-12 -0.2500000000000008 -0.20000000000000054 0.30000000000000243 2.2214000002904304 2.2213999998359277 4.3711993450817594e-10 0.0 0.0 0.0 0.0 0.0 0.0
9980.152 0.31617064017203583 -1.56409359189949 1.6281104076940855 -1.634786622958046 -1.570744019260017 0.31617063947797275 0.0 0.0 0.0 0.0 0.0 0.0 0.0 0.0 0.0 0.0 0.0 0.0 -1.0808021033083383e-18 -0.5491560746677142 -0.7660227240968048 -0.22935309661868256 3.352621323503287e-06 0.0 -1.4190931616438482e-17 -7.210419260387088 -7.133356811334266 -1.0424098241319122 1.523766391532244e-05 0.0 0.3161706328392029 -1.5640934149371546 1.628110408782959 -1.6347864309894007 -1.5707438627826136 0.3161706328392029 0.0 0.0 0.0 0.0 0.0 0.0 -1.0808021499751818e-18 -0.5491560697555542 -0.7660227417945862 -0.22935310006141663 3.352621433805325e-06 0.0 -1.0808021499751818e-18 -0.5491560697555542 -0.7660227417945862 -0.22935310006141663 3.352621433805325e-06 0.0 -0.25000000734868855 -0.2000000135749509 0.2999999302396414 2.2213997840713846 2.221399782048772 4.0768586060112275e-07 0.0 0.0 0.0 0.0 0.0 0.0 7.884023224240099e-07 6.306943271088288e-07 -6.402812084818602e-07 -6.378272306199992e-08 1.0163779780213731e-07 -6.888775341489736e-12 -0.2500000000000008 -0.20000000000000054 0.30000000000000243 2.2214000002904304 2.2213999998359277 4.3711993450817594e-10 0.0 0.0 0.0 0.0 0.0 0.0
9980.16 0.31617064017203583 -1.56409359189949 1.6281104076940855 -1.634786622958046 -1.570744019260017 0.31617063947797275 0.0 0.0 0.0 0.0 0.0 0.0 0.0 0.0 0.0 0.0 0.0 0.0 -1.0808021033083383e-18 -0.5491560746677142 -0.7660227240968048 -0.22935309661868256 3.352621323503287e-06 0.0 -1.4190931616438482e-17 -7.210419260387088 -7.133356811334266 -1.0424098241319122 1.523766391532244e-05 0.0 0.3161706328392029 -1.5640934149371546 1.628110408782959 -1.6347864309894007 -1.5707438627826136 0.3161706328392029 0.0 0.0 0.0 0.0 0.0 0.0 -1.0808021499751818e-18 -0.5491560697555542 -0.7660227417945862 -0.22935310006141663 3.352621433805325e-06 0.0 -1.0808021499751818e-18 -0.5491560697555542 -0.7660227417945862 -0.22935310006141663 3.352621433805325e-06 0.0 -0.25000000734868855 -0.2000000135749509 0.2999999302396414 2.2213997840713846 2.221399782048772 4.0768586060112275e-07 0.0 0.0 0.0 0.0 0.0 0.0 7.884023224240099e-07 6.306943271088288e-07 -6.402812084818602e-07 -6.378272306199992e-08 1.0163779780213731e-07 -6.888775341489736e-12 -0.2500000000000008 -0.20000000000000054 0.30000000000000243 2.2214000002904304 2.2213999998359277 4.3711993450817594e-10 0.0 0.0 0.0 0.0 0.0 0.0
9980.168 0.31617064017203583 -1.56409359189949 1.6281104076940855 -1.634786622958046 -1.570744019260017 0.31617063947797275 0.0 0.0 0.0 0.0 0.0 0.0 0.0 0.0 0.0 0.0 0.0 0.0 -1.0808021033083383e-18 -0.5491560746677142 -0.7660227240968048 -0.22935309661868256 3.352621323503287e-06 0.0 -1.4190931616438482e-17 -7.210419260387088 -7.133356811334266 -1.0424098241319122 1.523766391532244e-05 0.0 0.3161706328392029 -1.5640934149371546 1.628110408782959 -1.6347864309894007 -1.5707438627826136 0.3161706328392029 0.0 0.0 0.0 0.0 0.0 0.0 -1.0808021499751818e-18 -0.5491560697555542 -0.7660227417945862 -0.22935310006141663 3.352621433805325e-06 0.0 -1.0808021499751818e-18 -0.5491560697555542 -0.7660227417945862 -0.22935310006141663 3.352621433805325e-06 0.0 -0.25000000734868855 -0.2000000135749509 0.2999999302396414 2.2213997840713846 2.221399782048772 4.0768586060112275e-07 0.0 0.0 0.0 0.0 0.0 0.0 7.884023224240099e-07 6.306943271088288e-07 -6.402812084818602e-07 -6.378272306199992e-08 1.0163779780213731e-07 -6.888775341489736e-12 -0.2500000000000008 -0.20000000000000054 0.30000000000000243 2.2214000002904304 2.2213999998359277 4.3711993450817594e-10 0.0 0.0 0.0 0.0 0.0 0.0
9980.176 0.31617064017203583 -1.56409359189949 1.6281104076940855 -1.634786622958046 -1.570744019260017 0.31617063947797275 0.0 0.0 0.0 0.0 0.0 0.0 0.0 0.0 0.0 0.0 0.0 0.0 -1.0808021033083383e-18 -0.5491560746677142 -0.7660227240968048 -0.22935309661868256 3.352621323503287e-06 0.0 -1.4190931616438482e-17 -7.210419260387088 -7.133356811334266 -1.0424098241319122 1.523766391532244e-05 0.0 0.3161706328392029 -1.5640934149371546 1.628110408782959 -1.6347864309894007 -1.5707438627826136 0.3161706328392029 0.0 0.0 0.0 0.0 0.0 0.0 -1.0808021499751818e-18 -0.5491560697555542 -0.7660227417945862 -0.22935310006141663 3.352621433805325e-06 0.0 -1.0808021499751818e-18 -0.5491560697555542 -0.7660227417945862 -0.22935310006141663 3.352621433805325e-06 0.0 -0.25000000734868855 -0.2000000135749509 0.2999999302396414 2.2213997840713846 2.221399782048772 4.0768586060112275e-07 0.0 0.0 0.0 0.0 0.0 0.0 7.884023224240099e-07 6.306943271088288e-07 -6.402812084818602e-07 -6.378272306199992e-08 1.0163779780213731e-07 -6.888775341489736e-12 -0.2500000000000008 -0.20000000000000054 0.30000000000000243 2.2214000002904304 2.2213999998359277 4.3711993450817594e-10 0.0 0.0 0.0 0.0 0.0 0.0
9980.184 0.31617064017203583 -1.56409359189949 1.6281104076940855 -1.634786622958046 -1.570744019260017 0.31617063947797275 0.0 0.0 0.0 0.0 0.0 0.0 0.0 0.0 0.0 0.0 0.0 0.0 -1.0808021033083383e-18 -0.5491560746677142 -0.7660227240968048 -0.22935309661868256 3.352621323503287e-06 0.0 -1.4190931616438482e-17 -7.210419260387088 -7.133356811334266 -1.0424098241319122 1.523766391532244e-05 0.0 0.3161706328392029 -1.5640934149371546 1.628110408782959 -1.6347864309894007 -1.5707438627826136 0.3161706328392029 0.0 0.0 0.0 0.0 0.0 0.0 -1.0808021499751818e-18 -0.5491560697555542 -0.7660227417945862 -0.22935310006141663 3.352621433805325e-06 0.0 -1.0808021499751818e-18 -0.5491560697555542 -0.7660227417945862 -0.22935310006141663 3.352621433805325e-06 0.0 -0.25000000734868855 -0.2000000135749509 0.2999999302396414 2.2213997840713846 2.221399782048772 4.0768586060112275e-07 0.0 0.0 0.0 0.0 0.0 0.0 7.884023224240099e-07 6.306943271088288e-07 -6.402812084818602e-07 -6.378272306199992e-08 1.0163779780213731e-07 -6.888775341489736e-12 -0.2500000000000008 -0.20000000000000054 0.30000000000000243 2.2214000002904304 2.2213999998359277 4.3711993450817594e-10 0.0 0.0 0.0 0.0 0.0 0.0
9980.192 0.31617064017203583 -1.56409359189949 1.6281104076940855 -1.634786622958046 -1.570744019260017 0.31617063947797275 0.0 0.0 0.0 0.0 0.0 0.0 0.0 0.0 0.0 0.0 0.0 0.0 -1.0808021033083383e-18 -0.5491560746677142 -0.7660227240968048 -0.22935309661868256 3.352621323503287e-06 0.0 -1.4190931616438482e-17 -7.210419260387088 -7.133356811334266 -1.0424098241319122 1.523766391532244e-05 0.0 0.3161706328392029 -1.5640934149371546 1.628110408782959 -1.6347864309894007 -1.5707438627826136 0.3161706328392029 0.0 0.0 0.0 0.0 0.0 0.0 -1.0808021499751818e-18 -0.5491560697555542 -0.7660227417945862 -0.22935310006141663 3.352621433805325e-06 0.0 -1.0808021499751818e-18 -0.5491560697555542 -0.7660227417945862 -0.22935310006141663 3.352621433805325e-06 0.0 -0.25000000734868855 -0.2000000135749509 0.2999999302396414 2.2213997840713846 2.221399782048772 4.0768586060112275e-07 0.0 0.0 0.0 0.0 0.0 0.0 7.884023224240099e-07 6.306943271088288e-07 -6.402812084818602e-07 -6.378272306199992e-08 1.0163779780213731e-07 -6.888775341489736e-12 -0.2500000000000008 -0.20000000000000054 0.30000000000000243 2.2214000002904304 2.2213999998359277 4.3711993450817594e-10 0.0 0.0 0.0 0.0 0.0 0.0
9980.199999999999 0.31617064017203583 -1.56409359189949 1.6281104076940855 -1.634786622958046 -1.570744019260017 0.31617063947797275 0.0 0.0 0.0 0.0 0.0 0.0 0.0 0.0 0.0 0.0 0.0 0.0 -1.0808021033083383e-18 -0.5491560746677142 -0.7660227240968048 -0.22935309661868256 3.352621323503287e-06 0.0 -1.4190931616438482e-17 -7.210419260387088 -7.133356811334266 -1.0424098241319122 1.523766391532244e-05 0.0 0.3161706328392029 -1.5640934149371546 1.628110408782959 -1.6347864309894007 -1.5707438627826136 0.3161706328392029 0.0 0.0 0.0 0.0 0.0 0.0 -1.0808021499751818e-18 -0.5491560697555542 -0.7660227417945862 -0.22935310006141663 3.352621433805325e-06 0.0 -1.0808021499751818e-18 -0.5491560697555542 -0.7660227417945862 -0.22935310006141663 3.352621433805325e-06 0.0 -0.25000000734868855 -0.2000000135749509 0.2999999302396414 2.2213997840713846 2.221399782048772 4.0768586060112275e-07 0.0 0.0 0.0 0.0 0.0 0.0 7.884023224240099e-07 6.306943271088288e-07 -6.402812084818602e-07 -6.378272306199992e-08 1.0163779780213731e-07 -6.888775341489736e-12 -0.2500000000000008 -0.20000000000000054 0.30000000000000243 2.2214000002904304 2.2213999998359277 4.3711993450817594e-10 0.0 0.0 0.0 0.0 0.0 0.0
9980.207999999999 0.31617064017203583 -1.56409359189949 1.6281104076940855 -1.634786622958046 -1.570744019260017 0.31617063947797275 0.0 0.0 0.0 0.0 0.0 0.0 0.0 0.0 0.0 0.0 0.0 0.0 -1.0808021033083383e-18 -0.5491560746677142 -0.7660227240968048 -0.22935309661868256 3.352621323503287e-06 0.0 -1.4190931616438482e-17 -7.210419260387088 -7.133356811334266 -1.0424098241319122 1.523766391532244e-05 0.0 0.3161706328392029 -1.5640934149371546 1.628110408782959 -1.6347864309894007 -1.5707438627826136 0.3161706328392029 0.0 0.0 0.0 0.0 0.0 0.0 -1.0808021499751818e-18 -0.5491560697555542 -0.7660227417945862 -0.22935310006141663 3.352621433805325e-06 0.0 -1.0808021499751818e-18 -0.5491560697555542 -0.7660227417945862 -0.22935310006141663 3.352621433805325e-06 0.0 -0.25000000734868855 -0.2000000135749509 0.2999999302396414 2.2213997840713846 2.221399782048772 4.0768586060112275e-07 0.0 0.0 0.0 0.0 0.0 0.0 7.884023224240099e-07 6.306943271088288e-07 -6.402812084818602e-07 -6.378272306199992e-08 1.0163779780213731e-07 -6.888775341489736e-12 -0.2500000000000008 -0.20000000000000054 0.30000000000000243 2.2214000002904304 2.2213999998359277 4.3711993450817594e-10 0.0 0.0 0.0 0.0 0.0 0.0
9980.216 0.31617064017203583 -1.56409359189949 1.6281104076940855 -1.634786622958046 -1.570744019260017 0.31617063947797275 0.0 0.0 0.0 0.0 0.0 0.0 0.0 0.0 0.0 0.0 0.0 0.0 -1.0808021033083383e-18 -0.5491560746677142 -0.7660227240968048 -0.22935309661868256 3.352621323503287e-06 0.0 -1.4190931616438482e-17 -7.210419260387088 -7.133356811334266 -1.0424098241319122 1.523766391532244e-05 0.0 0.3161706328392029 -1.5640934149371546 1.628110408782959 -1.6347864309894007 -1.5707438627826136 0.3161706328392029 0.0 0.0 0.0 0.0 0.0 0.0 -1.0808021499751818e-18 -0.5491560697555542 -0.7660227417945862 -0.22935310006141663 3.352621433805325e-06 0.0 -1.0808021499751818e-18 -0.5491560697555542 -0.7660227417945862 -0.22935310006141663 3.352621433805325e-06 0.0 -0.25000000734868855 -0.2000000135749509 0.2999999302396414 2.2213997840713846 2.221399782048772 4.0768586060112275e-07 0.0 0.0 0.0 0.0 0.0 0.0 7.884023224240099e-07 6.306943271088288e-07 -6.402812084818602e-07 -6.378272306199992e-08 1.0163779780213731e-07 -6.888775341489736e-12 -0.2500000000000008 -0.20000000000000054 0.30000000000000243 2.2214000002904304 2.2213999998359277 4.3711993450817594e-10 0.0 0.0 0.0 0.0 0.0 0.0
9980.224 0.31617064017203583 -1.56409359189949 1.6281104076940855 -1.634786622958046 -1.570744019260017 0.31617063947797275 0.0 0.0 0.0 0.0 0.0 0.0 0.0 0.0 0.0 0.0 0.0 0.0 -1.0808021033083383e-18 -0.5491560746677142 -0.7660227240968048 -0.22935309661868256 3.352621323503287e-06 0.0 -1.4190931616438482e-17 -7.210419260387088 -7.133356811334266 -1.0424098241319122 1.523766391532244e-05 0.0 0.3161706328392029 -1.5640934149371546 1.628110408782959 -1.6347864309894007 -1.5707438627826136 0.3161706328392029 0.0 0.0 0.0 0.0 0.0 0.0 -1.0808021499751818e-18 -0.5491560697555542 -0.7660227417945862 -0.22935310006141663 3.352621433805325e-06 0.0 -1.0808021499751818e-18 -0.5491560697555542 -0.7660227417945862 -0.22935310006141663 3.352621433805325e-06 0.0 -0.25000000734868855 -0.2000000135749509 0.2999999302396414 2.2213997840713846 2.221399782048772 4.0768586060112275e-07 0.0 0.0 0.0 0.0 0.0 0.0 7.884023224240099e-07 6.306943271088288e-07 -6.402812084818602e-07 -6.378272306199992e-08 1.0163779780213731e-07 -6.888775341489736e-12 -0.2500000000000008 -0.20000000000000054 0.30000000000000243 2.2214000002904304 2.2213999998359277 4.3711993450817594e-10 0.0 0.0 0.0 0.0 0.0 0.0
9980.232 0.31617064017203583 -1.56409359189949 1.6281104076940855 -1.634786622958046 -1.570744019260017 0.31617063947797275 0.0 0.0 0.0 0.0 0.0 0.0 0.0 0.0 0.0 0.0 0.0 0.0 -1.0808021033083383e-18 -0.5491560746677142 -0.7660227240968048 -0.22935309661868256 3.352621323503287e-06 0.0 -1.4190931616438482e-17 -7.210419260387088 -7.133356811334266 -1.0424098241319122 1.523766391532244e-05 0.0 0.3161706328392029 -1.5640934149371546 1.628110408782959 -1.6347864309894007 -1.5707438627826136 0.3161706328392029 0.0 0.0 0.0 0.0 0.0 0.0 -1.0808021499751818e-18 -0.5491560697555542 -0.7660227417945862 -0.22935310006141663 3.352621433805325e-06 0.0 -1.0808021499751818e-18 -0.5491560697555542 -0.7660227417945862 -0.22935310006141663 3.352621433805325e-06 0.0 -0.25000000734868855 -0.2000000135749509 0.2999999302396414 2.2213997840713846 2.221399782048772 4.0768586060112275e-07 0.0 0.0 0.0 0.0 0.0 0.0 7.884023224240099e-07 6.306943271088288e-07 -6.402812084818602e-07 -6.378272306199992e-08 1.0163779780213731e-07 -6.888775341489736e-12 -0.2500000000000008 -0.20000000000000054 0.30000000000000243 2.2214000002904304 2.2213999998359277 4.3711993450817594e-10 0.0 0.0 0.0 0.0 0.0 0.0
9980.24 0.31617064017203583 -1.56409359189949 1.6281104076940855 -1.634786622958046 -1.570744019260017 0.31617063947797275 0.0 0.0 0.0 0.0 0.0 0.0 0.0 0.0 0.0 0.0 0.0 0.0 -1.0808021033083383e-18 -0.5491560746677142 -0.7660227240968048 -0.22935309661868256 3.352621323503287e-06 0.0 -1.4190931616438482e-17 -7.210419260387088 -7.133356811334266 -1.0424098241319122 1.523766391532244e-05 0.0 0.3161706328392029 -1.5640934149371546 1.628110408782959 -1.6347864309894007 -1.5707438627826136 0.3161706328392029 0.0 0.0 0.0 0.0 0.0 0.0 -1.0808021499751818e-18 -0.5491560697555542 -0.7660227417945862 -0.22935310006141663 3.352621433805325e-06 0.0 -1.0808021499751818e-18 -0.5491560697555542 -0.7660227417945862 -0.22935310006141663 3.352621433805325e-06 0.0 -0.25000000734868855 -0.2000000135749509 0.2999999302396414 2.2213997840713846 2.221399782048772 4.0768586060112275e-07 0.0 0.0 0.0 0.0 0.0 0.0 7.884023224240099e-07 6.306943271088288e-07 -6.402812084818602e-07 -6.378272306199992e-08 1.0163779780213731e-07 -6.888775341489736e-12 -0.2500000000000008 -0.20000000000000054 0.30000000000000243 2.2214000002904304 2.2213999998359277 4.3711993450817594e-10 0.0 0.0 0.0 0.0 0.0 0.0
9980.248 0.31617064017203583 -1.56409359189949 1.6281104076940855 -1.634786622958046 -1.570744019260017 0.31617063947797275 0.0 0.0 0.0 0.0 0.0 0.0 0.0 0.0 0.0 0.0 0.0 0.0 -1.0808021033083383e-18 -0.5491560746677142 -0.7660227240968048 -0.22935309661868256 3.352621323503287e-06 0.0 -1.4190931616438482e-17 -7.210419260387088 -7.133356811334266 -1.0424098241319122 1.523766391532244e-05 0.0 0.3161706328392029 -1.5640934149371546 1.628110408782959 -1.6347864309894007 -1.5707438627826136 0.3161706328392029 0.0 0.0 0.0 0.0 0.0 0.0 -1.0808021499751818e-18 -0.5491560697555542 -0.7660227417945862 -0.22935310006141663 3.352621433805325e-06 0.0 -1.0808021499751818e-18 -0.5491560697555542 -0.7660227417945862 -0.22935310006141663 3.352621433805325e-06 0.0 -0.25000000734868855 -0.2000000135749509 0.2999999302396414 2.2213997840713846 2.221399782048772 4.0768586060112275e-07 0.0 0.0 0.0 0.0 0.0 0.0 7.884023224240099e-07 6.306943271088288e-07 -6.402812084818602e-07 -6.378272306199992e-08 1.0163779780213731e-07 -6.888775341489736e-12 -0.2500000000000008 -0.20000000000000054 0.30000000000000243 2.2214000002904304 2.2213999998359277 4.3711993450817594e-10 0.0 0.0 0.0 0.0 0.0 0.0
9980.256 0.31617064017203583 -1.56409359189949 1.6281104076940855 -1.634786622958046 -1.570744019260017 0.31617063947797275 0.0 0.0 0.0 0.0 0.0 0.0 0.0 0.0 0.0 0.0 0.0 0.0 -1.0808021033083383e-18 -0.5491560746677142 -0.7660227240968048 -0.22935309661868256 3.352621323503287e-06 0.0 -1.4190931616438482e-17 -7.210419260387088 -7.133356811334266 -1.0424098241319122 1.523766391532244e-05 0.0 0.3161706328392029 -1.5640934149371546 1.628110408782959 -1.6347864309894007 -1.5707438627826136 0.3161706328392029 0.0 0.0 0.0 0.0 0.0 0.0 -1.0808021499751818e-18 -0.5491560697555542 -0.7660227417945862 -0.22935310006141663 3.352621433805325e-06 0.0 -1.0808021499751818e-18 -0.5491560697555542 -0.7660227417945862 -0.22935310006141663 3.352621433805325e-06 0.0 -0.25000000734868855 -0.2000000135749509 0.2999999302396414 2.2213997840713846 2.221399782048772 4.0768586060112275e-07 0.0 0.0 0.0 0.0 0.0 0.0 7.884023224240099e-07 6.306943271088288e-07 -6.402812084818602e-07 -6.378272306199992e-08 1.0163779780213731e-07 -6.888775341489736e-12 -0.2500000000000008 -0.20000000000000054 0.30000000000000243 2.2214000002904304 2.2213999998359277 4.3711993450817594e-10 0.0 0.0 0.0 0.0 0.0 0.0
9980.264 0.31617064017203583 -1.56409359189949 1.6281104076940855 -1.634786622958046 -1.570744019260017 0.31617063947797275 0.0 0.0 0.0 0.0 0.0 0.0 0.0 0.0 0.0 0.0 0.0 0.0 -1.0808021033083383e-18 -0.5491560746677142 -0.7660227240968048 -0.22935309661868256 3.352621323503287e-06 0.0 -1.4190931616438482e-17 -7.210419260387088 -7.133356811334266 -1.0424098241319122 1.523766391532244e-05 0.0 0.3161706328392029 -1.5640934149371546 1.628110408782959 -1.6347864309894007 -1.5707438627826136 0.3161706328392029 0.0 0.0 0.0 0.0 0.0 0.0 -1.0808021499751818e-18 -0.5491560697555542 -0.7660227417945862 -0.22935310006141663 3.352621433805325e-06 0.0 -1.0808021499751818e-18 -0.5491560697555542 -0.7660227417945862 -0.22935310006141663 3.352621433805325e-06 0.0 -0.25000000734868855 -0.2000000135749509 0.2999999302396414 2.2213997840713846 2.221399782048772 4.0768586060112275e-07 0.0 0.0 0.0 0.0 0.0 0.0 7.884023224240099e-07 6.306943271088288e-07 -6.402812084818602e-07 -6.378272306199992e-08 1.0163779780213731e-07 -6.888775341489736e-12 -0.2500000000000008 -0.20000000000000054 0.30000000000000243 2.2214000002904304 2.2213999998359277 4.3711993450817594e-10 0.0 0.0 0.0 0.0 0.0 0.0
9980.271999999999 0.31617064017203583 -1.56409359189949 1.6281104076940855 -1.634786622958046 -1.570744019260017 0.31617063947797275 0.0 0.0 0.0 0.0 0.0 0.0 0.0 0.0 0.0 0.0 0.0 0.0 -1.0808021033083383e-18 -0.5491560746677142 -0.7660227240968048 -0.22935309661868256 3.352621323503287e-06 0.0 -1.4190931616438482e-17 -7.210419260387088 -7.133356811334266 -1.0424098241319122 1.523766391532244e-05 0.0 0.3161706328392029 -1.5640934149371546 1.628110408782959 -1.6347864309894007 -1.5707438627826136 0.3161706328392029 0.0 0.0 0.0 0.0 0.0 0.0 -1.0808021499751818e-18 -0.5491560697555542 -0.7660227417945862 -0.22935310006141663 3.352621433805325e-06 0.0 -1.0808021499751818e-18 -0.5491560697555542 -0.7660227417945862 -0.22935310006141663 3.352621433805325e-06 0.0 -0.25000000734868855 -0.2000000135749509 0.2999999302396414 2.2213997840713846 2.221399782048772 4.0768586060112275e-07 0.0 0.0 0.0 0.0 0.0 0.0 7.884023224240099e-07 6.306943271088288e-07 -6.402812084818602e-07 -6.378272306199992e-08 1.0163779780213731e-07 -6.888775341489736e-12 -0.2500000000000008 -0.20000000000000054 0.30000000000000243 2.2214000002904304 2.2213999998359277 4.3711993450817594e-10 0.0 0.0 0.0 0.0 0.0 0.0
9980.279999999999 0.31617064017203583 -1.56409359189949 1.6281104076940855 -1.634786622958046 -1.570744019260017 0.31617063947797275 0.0 0.0 0.0 0.0 0.0 0.0 0.0 0.0 0.0 0.0 0.0 0.0 -1.0808021033083383e-18 -0.5491560746677142 -0.7660227240968048 -0.22935309661868256 3.352621323503287e-06 0.0 -1.4190931616438482e-17 -7.210419260387088 -7.133356811334266 -1.0424098241319122 1.523766391532244e-05 0.0 0.3161706328392029 -1.5640934149371546 1.628110408782959 -1.6347864309894007 -1.5707438627826136 0.3161706328392029 0.0 0.0 0.0 0.0 0.0 0.0 -1.0808021499751818e-18 -0.5491560697555542 -0.7660227417945862 -0.22935310006141663 3.352621433805325e-06 0.0 -1.0808021499751818e-18 -0.5491560697555542 -0.7660227417945862 -0.22935310006141663 3.352621433805325e-06 0.0 -0.25000000734868855 -0.2000000135749509 0.2999999302396414 2.2213997840713846 2.221399782048772 4.0768586060112275e-07 0.0 0.0 0.0 0.0 0.0 0.0 7.884023224240099e-07 6.306943271088288e-07 -6.402812084818602e-07 -6.378272306199992e-08 1.0163779780213731e-07 -6.888775341489736e-12 -0.2500000000000008 -0.20000000000000054 0.30000000000000243 2.2214000002904304 2.2213999998359277 4.3711993450817594e-10 0.0 0.0 0.0 0.0 0.0 0.0
9980.287999999999 0.31617064017203583 -1.56409359189949 1.6281104076940855 -1.634786622958046 -1.570744019260017 0.31617063947797275 0.0 0.0 0.0 0.0 0.0 0.0 0.0 0.0 0.0 0.0 0.0 0.0 -1.0808021033083383e-18 -0.5491560746677142 -0.7660227240968048 -0.22935309661868256 3.352621323503287e-06 0.0 -1.4190931616438482e-17 -7.210419260387088 -7.133356811334266 -1.0424098241319122 1.523766391532244e-05 0.0 0.3161706328392029 -1.5640934149371546 1.628110408782959 -1.6347864309894007 -1.5707438627826136 0.3161706328392029 0.0 0.0 0.0 0.0 0.0 0.0 -1.0808021499751818e-18 -0.5491560697555542 -0.7660227417945862 -0.22935310006141663 3.352621433805325e-06 0.0 -1.0808021499751818e-18 -0.5491560697555542 -0.7660227417945862 -0.22935310006141663 3.352621433805325e-06 0.0 -0.25000000734868855 -0.2000000135749509 0.2999999302396414 2.2213997840713846 2.221399782048772 4.0768586060112275e-07 0.0 0.0 0.0 0.0 0.0 0.0 7.884023224240099e-07 6.306943271088288e-07 -6.402812084818602e-07 -6.378272306199992e-08 1.0163779780213731e-07 -6.888775341489736e-12 -0.2500000000000008 -0.20000000000000054 0.30000000000000243 2.2214000002904304 2.2213999998359277 4.3711993450817594e-10 0.0 0.0 0.0 0.0 0.0 0.0
9980.296 0.31617064017203583 -1.56409359189949 1.6281104076940855 -1.634786622958046 -1.570744019260017 0.31617063947797275 0.0 0.0 0.0 0.0 0.0 0.0 0.0 0.0 0.0 0.0 0.0 0.0 -1.0808021033083383e-18 -0.5491560746677142 -0.7660227240968048 -0.22935309661868256 3.352621323503287e-06 0.0 -1.4190931616438482e-17 -7.210419260387088 -7.133356811334266 -1.0424098241319122 1.523766391532244e-05 0.0 0.3161706328392029 -1.5640934149371546 1.628110408782959 -1.6347864309894007 -1.5707438627826136 0.3161706328392029 0.0 0.0 0.0 0.0 0.0 0.0 -1.0808021499751818e-18 -0.5491560697555542 -0.7660227417945862 -0.22935310006141663 3.352621433805325e-06 0.0 -1.0808021499751818e-18 -0.5491560697555542 -0.7660227417945862 -0.22935310006141663 3.352621433805325e-06 0.0 -0.25000000734868855 -0.2000000135749509 0.2999999302396414 2.2213997840713846 2.221399782048772 4.0768586060112275e-07 0.0 0.0 0.0 0.0 0.0 0.0 7.884023224240099e-07 6.306943271088288e-07 -6.402812084818602e-07 -6.378272306199992e-08 1.0163779780213731e-07 -6.888775341489736e-12 -0.2500000000000008 -0.20000000000000054 0.30000000000000243 2.2214000002904304 2.2213999998359277 4.3711993450817594e-10 0.0 0.0 0.0 0.0 0.0 0.0
9980.304 0.31617064017203583 -1.56409359189949 1.6281104076940855 -1.634786622958046 -1.570744019260017 0.31617063947797275 0.0 0.0 0.0 0.0 0.0 0.0 0.0 0.0 0.0 0.0 0.0 0.0 -1.0808021033083383e-18 -0.5491560746677142 -0.7660227240968048 -0.22935309661868256 3.352621323503287e-06 0.0 -1.4190931616438482e-17 -7.210419260387088 -7.133356811334266 -1.0424098241319122 1.523766391532244e-05 0.0 0.3161706328392029 -1.5640934149371546 1.628110408782959 -1.6347864309894007 -1.5707438627826136 0.3161706328392029 0.0 0.0 0.0 0.0 0.0 0.0 -1.0808021499751818e-18 -0.5491560697555542 -0.7660227417945862 -0.22935310006141663 3.352621433805325e-06 0.0 -1.0808021499751818e-18 -0.5491560697555542 -0.7660227417945862 -0.22935310006141663 3.352621433805325e-06 0.0 -0.25000000734868855 -0.2000000135749509 0.2999999302396414 2.2213997840713846 2.221399782048772 4.0768586060112275e-07 0.0 0.0 0.0 0.0 0.0 0.0 7.884023224240099e-07 6.306943271088288e-07 -6.402812084818602e-07 -6.378272306199992e-08 1.0163779780213731e-07 -6.888775341489736e-12 -0.2500000000000008 -0.20000000000000054 0.30000000000000243 2.2214000002904304 2.2213999998359277 4.3711993450817594e-10 0.0 0.0 0.0 0.0 0.0 0.0
9980.312 0.31617064017203583 -1.56409359189949 1.6281104076940855 -1.634786622958046 -1.570744019260017 0.31617063947797275 0.0 0.0 0.0 0.0 0.0 0.0 0.0 0.0 0.0 0.0 0.0 0.0 -1.0808021033083383e-18 -0.5491560746677142 -0.7660227240968048 -0.22935309661868256 3.352621323503287e-06 0.0 -1.4190931616438482e-17 -7.210419260387088 -7.133356811334266 -1.0424098241319122 1.523766391532244e-05 0.0 0.3161706328392029 -1.5640934149371546 1.628110408782959 -1.6347864309894007 -1.5707438627826136 0.3161706328392029 0.0 0.0 0.0 0.0 0.0 0.0 -1.0808021499751818e-18 -0.5491560697555542 -0.7660227417945862 -0.22935310006141663 3.352621433805325e-06 0.0 -1.0808021499751818e-18 -0.5491560697555542 -0.7660227417945862 -0.22935310006141663 3.352621433805325e-06 0.0 -0.25000000734868855 -0.2000000135749509 0.2999999302396414 2.2213997840713846 2.221399782048772 4.0768586060112275e-07 0.0 0.0 0.0 0.0 0.0 0.0 7.884023224240099e-07 6.306943271088288e-07 -6.402812084818602e-07 -6.378272306199992e-08 1.0163779780213731e-07 -6.888775341489736e-12 -0.2500000000000008 -0.20000000000000054 0.30000000000000243 2.2214000002904304 2.2213999998359277 4.3711993450817594e-10 0.0 0.0 0.0 0.0 0.0 0.0
9980.32 0.31617064017203583 -1.56409359189949 1.6281104076940855 -1.634786622958046 -1.570744019260017 0.31617063947797275 0.0 0.0 0.0 0.0 0.0 0.0 0.0 0.0 0.0 0.0 0.0 0.0 -1.0808021033083383e-18 -0.5491560746677142 -0.7660227240968048 -0.22935309661868256 3.352621323503287e-06 0.0 -1.4190931616438482e-17 -7.210419260387088 -7.133356811334266 -1.0424098241319122 1.523766391532244e-05 0.0 0.3161706328392029 -1.5640934149371546 1.628110408782959 -1.6347864309894007 -1.5707438627826136 0.3161706328392029 0.0 0.0 0.0 0.0 0.0 0.0 -1.0808021499751818e-18 -0.5491560697555542 -0.7660227417945862 -0.22935310006141663 3.352621433805325e-06 0.0 -1.0808021499751818e-18 -0.5491560697555542 -0.7660227417945862 -0.22935310006141663 3.352621433805325e-06 0.0 -0.25000000734868855 -0.2000000135749509 0.2999999302396414 2.2213997840713846 2.221399782048772 4.0768586060112275e-07 0.0 0.0 0.0 0.0 0.0 0.0 7.884023224240099e-07 6.306943271088288e-07 -6.402812084818602e-07 -6.378272306199992e-08 1.0163779780213731e-07 -6.888775341489736e-12 -0.2500000000000008 -0.20000000000000054 0.30000000000000243 2.2214000002904304 2.2213999998359277 4.3711993450817594e-10 0.0 0.0 0.0 0.0 0.0 0.0
9980.328 0.31617064017203583 -1.56409359189949 1.6281104076940855 -1.634786622958046 -1.570744019260017 0.31617063947797275 0.0 0.0 0.0 0.0 0.0 0.0 0.0 0.0 0.0 0.0 0.0 0.0 -1.0808021033083383e-18 -0.5491560746677142 -0.7660227240968048 -0.22935309661868256 3.352621323503287e-06 0.0 -1.4190931616438482e-17 -7.210419260387088 -7.133356811334266 -1.0424098241319122 1.523766391532244e-05 0.0 0.3161706328392029 -1.5640934149371546 1.628110408782959 -1.6347864309894007 -1.5707438627826136 0.3161706328392029 0.0 0.0 0.0 0.0 0.0 0.0 -1.0808021499751818e-18 -0.5491560697555542 -0.7660227417945862 -0.22935310006141663 3.352621433805325e-06 0.0 -1.0808021499751818e-18 -0.5491560697555542 -0.7660227417945862 -0.22935310006141663 3.352621433805325e-06 0.0 -0.25000000734868855 -0.2000000135749509 0.2999999302396414 2.2213997840713846 2.221399782048772 4.0768586060112275e-07 0.0 0.0 0.0 0.0 0.0 0.0 7.884023224240099e-07 6.306943271088288e-07 -6.402812084818602e-07 -6.378272306199992e-08 1.0163779780213731e-07 -6.888775341489736e-12 -0.2500000000000008 -0.20000000000000054 0.30000000000000243 2.2214000002904304 2.2213999998359277 4.3711993450817594e-10 0.0 0.0 0.0 0.0 0.0 0.0
9980.336 0.31617064017203583 -1.56409359189949 1.6281104076940855 -1.634786622958046 -1.570744019260017 0.31617063947797275 0.0 0.0 0.0 0.0 0.0 0.0 0.0 0.0 0.0 0.0 0.0 0.0 -1.0808021033083383e-18 -0.5491560746677142 -0.7660227240968048 -0.22935309661868256 3.352621323503287e-06 0.0 -1.4190931616438482e-17 -7.210419260387088 -7.133356811334266 -1.0424098241319122 1.523766391532244e-05 0.0 0.3161706328392029 -1.5640934149371546 1.628110408782959 -1.6347864309894007 -1.5707438627826136 0.3161706328392029 0.0 0.0 0.0 0.0 0.0 0.0 -1.0808021499751818e-18 -0.5491560697555542 -0.7660227417945862 -0.22935310006141663 3.352621433805325e-06 0.0 -1.0808021499751818e-18 -0.5491560697555542 -0.7660227417945862 -0.22935310006141663 3.352621433805325e-06 0.0 -0.25000000734868855 -0.2000000135749509 0.2999999302396414 2.2213997840713846 2.221399782048772 4.0768586060112275e-07 0.0 0.0 0.0 0.0 0.0 0.0 7.884023224240099e-07 6.306943271088288e-07 -6.402812084818602e-07 -6.378272306199992e-08 1.0163779780213731e-07 -6.888775341489736e-12 -0.2500000000000008 -0.20000000000000054 0.30000000000000243 2.2214000002904304 2.2213999998359277 4.3711993450817594e-10 0.0 0.0 0.0 0.0 0.0 0.0
9980.344 0.31617064017203583 -1.56409359189949 1.6281104076940855 -1.634786622958046 -1.570744019260017 0.31617063947797275 0.0 0.0 0.0 0.0 0.0 0.0 0.0 0.0 0.0 0.0 0.0 0.0 -1.0808021033083383e-18 -0.5491560746677142 -0.7660227240968048 -0.22935309661868256 3.352621323503287e-06 0.0 -1.4190931616438482e-17 -7.210419260387088 -7.133356811334266 -1.0424098241319122 1.523766391532244e-05 0.0 0.3161706328392029 -1.5640934149371546 1.628110408782959 -1.6347864309894007 -1.5707438627826136 0.3161706328392029 0.0 0.0 0.0 0.0 0.0 0.0 -1.0808021499751818e-18 -0.5491560697555542 -0.7660227417945862 -0.22935310006141663 3.352621433805325e-06 0.0 -1.0808021499751818e-18 -0.5491560697555542 -0.7660227417945862 -0.22935310006141663 3.352621433805325e-06 0.0 -0.25000000734868855 -0.2000000135749509 0.2999999302396414 2.2213997840713846 2.221399782048772 4.0768586060112275e-07 0.0 0.0 0.0 0.0 0.0 0.0 7.884023224240099e-07 6.306943271088288e-07 -6.402812084818602e-07 -6.378272306199992e-08 1.0163779780213731e-07 -6.888775341489736e-12 -0.2500000000000008 -0.20000000000000054 0.30000000000000243 2.2214000002904304 2.2213999998359277 4.3711993450817594e-10 0.0 0.0 0.0 0.0 0.0 0.0
9980.351999999999 0.31617064017203583 -1.56409359189949 1.6281104076940855 -1.634786622958046 -1.570744019260017 0.31617063947797275 0.0 0.0 0.0 0.0 0.0 0.0 0.0 0.0 0.0 0.0 0.0 0.0 -1.0808021033083383e-18 -0.5491560746677142 -0.7660227240968048 -0.22935309661868256 3.352621323503287e-06 0.0 -1.4190931616438482e-17 -7.210419260387088 -7.133356811334266 -1.0424098241319122 1.523766391532244e-05 0.0 0.3161706328392029 -1.5640934149371546 1.628110408782959 -1.6347864309894007 -1.5707438627826136 0.3161706328392029 0.0 0.0 0.0 0.0 0.0 0.0 -1.0808021499751818e-18 -0.5491560697555542 -0.7660227417945862 -0.22935310006141663 3.352621433805325e-06 0.0 -1.0808021499751818e-18 -0.5491560697555542 -0.7660227417945862 -0.22935310006141663 3.352621433805325e-06 0.0 -0.25000000734868855 -0.2000000135749509 0.2999999302396414 2.2213997840713846 2.221399782048772 4.0768586060112275e-07 0.0 0.0 0.0 0.0 0.0 0.0 7.884023224240099e-07 6.306943271088288e-07 -6.402812084818602e-07 -6.378272306199992e-08 1.0163779780213731e-07 -6.888775341489736e-12 -0.2500000000000008 -0.20000000000000054 0.30000000000000243 2.2214000002904304 2.2213999998359277 4.3711993450817594e-10 0.0 0.0 0.0 0.0 0.0 0.0
9980.359999999999 0.31617064017203583 -1.56409359189949 1.6281104076940855 -1.634786622958046 -1.570744019260017 0.31617063947797275 0.0 0.0 0.0 0.0 0.0 0.0 0.0 0.0 0.0 0.0 0.0 0.0 -1.0808021033083383e-18 -0.5491560746677142 -0.7660227240968048 -0.22935309661868256 3.352621323503287e-06 0.0 -1.4190931616438482e-17 -7.210419260387088 -7.133356811334266 -1.0424098241319122 1.523766391532244e-05 0.0 0.3161706328392029 -1.5640934149371546 1.628110408782959 -1.6347864309894007 -1.5707438627826136 0.3161706328392029 0.0 0.0 0.0 0.0 0.0 0.0 -1.0808021499751818e-18 -0.5491560697555542 -0.7660227417945862 -0.22935310006141663 3.352621433805325e-06 0.0 -1.0808021499751818e-18 -0.5491560697555542 -0.7660227417945862 -0.22935310006141663 3.352621433805325e-06 0.0 -0.25000000734868855 -0.2000000135749509 0.2999999302396414 2.2213997840713846 2.221399782048772 4.0768586060112275e-07 0.0 0.0 0.0 0.0 0.0 0.0 7.884023224240099e-07 6.306943271088288e-07 -6.402812084818602e-07 -6.378272306199992e-08 1.0163779780213731e-07 -6.888775341489736e-12 -0.2500000000000008 -0.20000000000000054 0.30000000000000243 2.2214000002904304 2.2213999998359277 4.3711993450817594e-10 0.0 0.0 0.0 0.0 0.0 0.0
9980.368 0.31617064017203583 -1.56409359189949 1.6281104076940855 -1.634786622958046 -1.570744019260017 0.31617063947797275 0.0 0.0 0.0 0.0 0.0 0.0 0.0 0.0 0.0 0.0 0.0 0.0 -1.0808021033083383e-18 -0.5491560746677142 -0.7660227240968048 -0.22935309661868256 3.352621323503287e-06 0.0 -1.4190931616438482e-17 -7.210419260387088 -7.133356811334266 -1.0424098241319122 1.523766391532244e-05 0.0 0.3161706328392029 -1.5640934149371546 1.628110408782959 -1.6347864309894007 -1.5707438627826136 0.3161706328392029 0.0 0.0 0.0 0.0 0.0 0.0 -1.0808021499751818e-18 -0.5491560697555542 -0.7660227417945862 -0.22935310006141663 3.352621433805325e-06 0.0 -1.0808021499751818e-18 -0.5491560697555542 -0.7660227417945862 -0.22935310006141663 3.352621433805325e-06 0.0 -0.25000000734868855 -0.2000000135749509 0.2999999302396414 2.2213997840713846 2.221399782048772 4.0768586060112275e-07 0.0 0.0 0.0 0.0 0.0 0.0 7.884023224240099e-07 6.306943271088288e-07 -6.402812084818602e-07 -6.378272306199992e-08 1.0163779780213731e-07 -6.888775341489736e-12 -0.2500000000000008 -0.20000000000000054 0.30000000000000243 2.2214000002904304 2.2213999998359277 4.3711993450817594e-10 0.0 0.0 0.0 0.0 0.0 0.0
9980.376 0.31617064017203583 -1.56409359189949 1.6281104076940855 -1.634786622958046 -1.570744019260017 0.31617063947797275 0.0 0.0 0.0 0.0 0.0 0.0 0.0 0.0 0.0 0.0 0.0 0.0 -1.0808021033083383e-18 -0.5491560746677142 -0.7660227240968048 -0.22935309661868256 3.352621323503287e-06 0.0 -1.4190931616438482e-17 -7.210419260387088 -7.133356811334266 -1.0424098241319122 1.523766391532244e-05 0.0 0.3161706328392029 -1.5640934149371546 1.628110408782959 -1.6347864309894007 -1.5707438627826136 0.3161706328392029 0.0 0.0 0.0 0.0 0.0 0.0 -1.0808021499751818e-18 -0.5491560697555542 -0.7660227417945862 -0.22935310006141663 3.352621433805325e-06 0.0 -1.0808021499751818e-18 -0.5491560697555542 -0.7660227417945862 -0.22935310006141663 3.352621433805325e-06 0.0 -0.25000000734868855 -0.2000000135749509 0.2999999302396414 2.2213997840713846 2.221399782048772 4.0768586060112275e-07 0.0 0.0 0.0 0.0 0.0 0.0 7.884023224240099e-07 6.306943271088288e-07 -6.402812084818602e-07 -6.378272306199992e-08 1.0163779780213731e-07 -6.888775341489736e-12 -0.2500000000000008 -0.20000000000000054 0.30000000000000243 2.2214000002904304 2.2213999998359277 4.3711993450817594e-10 0.0 0.0 0.0 0.0 0.0 0.0
9980.384 0.31617064017203583 -1.56409359189949 1.6281104076940855 -1.634786622958046 -1.570744019260017 0.31617063947797275 0.0 0.0 0.0 0.0 0.0 0.0 0.0 0.0 0.0 0.0 0.0 0.0 -1.0808021033083383e-18 -0.5491560746677142 -0.7660227240968048 -0.22935309661868256 3.352621323503287e-06 0.0 -1.4190931616438482e-17 -7.210419260387088 -7.133356811334266 -1.0424098241319122 1.523766391532244e-05 0.0 0.3161706328392029 -1.5640934149371546 1.628110408782959 -1.6347864309894007 -1.5707438627826136 0.3161706328392029 0.0 0.0 0.0 0.0 0.0 0.0 -1.0808021499751818e-18 -0.5491560697555542 -0.7660227417945862 -0.22935310006141663 3.352621433805325e-06 0.0 -1.0808021499751818e-18 -0.5491560697555542 -0.7660227417945862 -0.22935310006141663 3.352621433805325e-06 0.0 -0.25000000734868855 -0.2000000135749509 0.2999999302396414 2.2213997840713846 2.221399782048772 4.0768586060112275e-07 0.0 0.0 0.0 0.0 0.0 0.0 7.884023224240099e-07 6.306943271088288e-07 -6.402812084818602e-07 -6.378272306199992e-08 1.0163779780213731e-07 -6.888775341489736e-12 -0.2500000000000008 -0.20000000000000054 0.30000000000000243 2.2214000002904304 2.2213999998359277 4.3711993450817594e-10 0.0 0.0 0.0 0.0 0.0 0.0
9980.392 0.31617064017203583 -1.56409359189949 1.6281104076940855 -1.634786622958046 -1.570744019260017 0.31617063947797275 0.0 0.0 0.0 0.0 0.0 0.0 0.0 0.0 0.0 0.0 0.0 0.0 -1.0808021033083383e-18 -0.5491560746677142 -0.7660227240968048 -0.22935309661868256 3.352621323503287e-06 0.0 -1.4190931616438482e-17 -7.210419260387088 -7.133356811334266 -1.0424098241319122 1.523766391532244e-05 0.0 0.3161706328392029 -1.5640934149371546 1.628110408782959 -1.6347864309894007 -1.5707438627826136 0.3161706328392029 0.0 0.0 0.0 0.0 0.0 0.0 -1.0808021499751818e-18 -0.5491560697555542 -0.7660227417945862 -0.22935310006141663 3.352621433805325e-06 0.0 -1.0808021499751818e-18 -0.5491560697555542 -0.7660227417945862 -0.22935310006141663 3.352621433805325e-06 0.0 -0.25000000734868855 -0.2000000135749509 0.2999999302396414 2.2213997840713846 2.221399782048772 4.0768586060112275e-07 0.0 0.0 0.0 0.0 0.0 0.0 7.884023224240099e-07 6.306943271088288e-07 -6.402812084818602e-07 -6.378272306199992e-08 1.0163779780213731e-07 -6.888775341489736e-12 -0.2500000000000008 -0.20000000000000054 0.30000000000000243 2.2214000002904304 2.2213999998359277 4.3711993450817594e-10 0.0 0.0 0.0 0.0 0.0 0.0
9980.4 0.31617064017203583 -1.56409359189949 1.6281104076940855 -1.634786622958046 -1.570744019260017 0.31617063947797275 0.0 0.0 0.0 0.0 0.0 0.0 0.0 0.0 0.0 0.0 0.0 0.0 -1.0808021033083383e-18 -0.5491560746677142 -0.7660227240968048 -0.22935309661868256 3.352621323503287e-06 0.0 -1.4190931616438482e-17 -7.210419260387088 -7.133356811334266 -1.0424098241319122 1.523766391532244e-05 0.0 0.3161706328392029 -1.5640934149371546 1.628110408782959 -1.6347864309894007 -1.5707438627826136 0.3161706328392029 0.0 0.0 0.0 0.0 0.0 0.0 -1.0808021499751818e-18 -0.5491560697555542 -0.7660227417945862 -0.22935310006141663 3.352621433805325e-06 0.0 -1.0808021499751818e-18 -0.5491560697555542 -0.7660227417945862 -0.22935310006141663 3.352621433805325e-06 0.0 -0.25000000734868855 -0.2000000135749509 0.2999999302396414 2.2213997840713846 2.221399782048772 4.0768586060112275e-07 0.0 0.0 0.0 0.0 0.0 0.0 7.884023224240099e-07 6.306943271088288e-07 -6.402812084818602e-07 -6.378272306199992e-08 1.0163779780213731e-07 -6.888775341489736e-12 -0.2500000000000008 -0.20000000000000054 0.30000000000000243 2.2214000002904304 2.2213999998359277 4.3711993450817594e-10 0.0 0.0 0.0 0.0 0.0 0.0
9980.408 0.31617064017203583 -1.56409359189949 1.6281104076940855 -1.634786622958046 -1.570744019260017 0.31617063947797275 0.0 0.0 0.0 0.0 0.0 0.0 0.0 0.0 0.0 0.0 0.0 0.0 -1.0808021033083383e-18 -0.5491560746677142 -0.7660227240968048 -0.22935309661868256 3.352621323503287e-06 0.0 -1.4190931616438482e-17 -7.210419260387088 -7.133356811334266 -1.0424098241319122 1.523766391532244e-05 0.0 0.3161706328392029 -1.5640934149371546 1.628110408782959 -1.6347864309894007 -1.5707438627826136 0.3161706328392029 0.0 0.0 0.0 0.0 0.0 0.0 -1.0808021499751818e-18 -0.5491560697555542 -0.7660227417945862 -0.22935310006141663 3.352621433805325e-06 0.0 -1.0808021499751818e-18 -0.5491560697555542 -0.7660227417945862 -0.22935310006141663 3.352621433805325e-06 0.0 -0.25000000734868855 -0.2000000135749509 0.2999999302396414 2.2213997840713846 2.221399782048772 4.0768586060112275e-07 0.0 0.0 0.0 0.0 0.0 0.0 7.884023224240099e-07 6.306943271088288e-07 -6.402812084818602e-07 -6.378272306199992e-08 1.0163779780213731e-07 -6.888775341489736e-12 -0.2500000000000008 -0.20000000000000054 0.30000000000000243 2.2214000002904304 2.2213999998359277 4.3711993450817594e-10 0.0 0.0 0.0 0.0 0.0 0.0
9980.416 0.31617064017203583 -1.56409359189949 1.6281104076940855 -1.634786622958046 -1.570744019260017 0.31617063947797275 0.0 0.0 0.0 0.0 0.0 0.0 0.0 0.0 0.0 0.0 0.0 0.0 -1.0808021033083383e-18 -0.5491560746677142 -0.7660227240968048 -0.22935309661868256 3.352621323503287e-06 0.0 -1.4190931616438482e-17 -7.210419260387088 -7.133356811334266 -1.0424098241319122 1.523766391532244e-05 0.0 0.3161706328392029 -1.5640934149371546 1.628110408782959 -1.6347864309894007 -1.5707438627826136 0.3161706328392029 0.0 0.0 0.0 0.0 0.0 0.0 -1.0808021499751818e-18 -0.5491560697555542 -0.7660227417945862 -0.22935310006141663 3.352621433805325e-06 0.0 -1.0808021499751818e-18 -0.5491560697555542 -0.7660227417945862 -0.22935310006141663 3.352621433805325e-06 0.0 -0.25000000734868855 -0.2000000135749509 0.2999999302396414 2.2213997840713846 2.221399782048772 4.0768586060112275e-07 0.0 0.0 0.0 0.0 0.0 0.0 7.884023224240099e-07 6.306943271088288e-07 -6.402812084818602e-07 -6.378272306199992e-08 1.0163779780213731e-07 -6.888775341489736e-12 -0.2500000000000008 -0.20000000000000054 0.30000000000000243 2.2214000002904304 2.2213999998359277 4.3711993450817594e-10 0.0 0.0 0.0 0.0 0.0 0.0
9980.423999999999 0.31617064017203583 -1.56409359189949 1.6281104076940855 -1.634786622958046 -1.570744019260017 0.31617063947797275 0.0 0.0 0.0 0.0 0.0 0.0 0.0 0.0 0.0 0.0 0.0 0.0 -1.0808021033083383e-18 -0.5491560746677142 -0.7660227240968048 -0.22935309661868256 3.352621323503287e-06 0.0 -1.4190931616438482e-17 -7.210419260387088 -7.133356811334266 -1.0424098241319122 1.523766391532244e-05 0.0 0.3161706328392029 -1.5640934149371546 1.628110408782959 -1.6347864309894007 -1.5707438627826136 0.3161706328392029 0.0 0.0 0.0 0.0 0.0 0.0 -1.0808021499751818e-18 -0.5491560697555542 -0.7660227417945862 -0.22935310006141663 3.352621433805325e-06 0.0 -1.0808021499751818e-18 -0.5491560697555542 -0.7660227417945862 -0.22935310006141663 3.352621433805325e-06 0.0 -0.25000000734868855 -0.2000000135749509 0.2999999302396414 2.2213997840713846 2.221399782048772 4.0768586060112275e-07 0.0 0.0 0.0 0.0 0.0 0.0 7.884023224240099e-07 6.306943271088288e-07 -6.402812084818602e-07 -6.378272306199992e-08 1.0163779780213731e-07 -6.888775341489736e-12 -0.2500000000000008 -0.20000000000000054 0.30000000000000243 2.2214000002904304 2.2213999998359277 4.3711993450817594e-10 0.0 0.0 0.0 0.0 0.0 0.0
9980.431999999999 0.31617064017203583 -1.56409359189949 1.6281104076940855 -1.634786622958046 -1.570744019260017 0.31617063947797275 0.0 0.0 0.0 0.0 0.0 0.0 0.0 0.0 0.0 0.0 0.0 0.0 -1.0808021033083383e-18 -0.5491560746677142 -0.7660227240968048 -0.22935309661868256 3.352621323503287e-06 0.0 -1.4190931616438482e-17 -7.210419260387088 -7.133356811334266 -1.0424098241319122 1.523766391532244e-05 0.0 0.3161706328392029 -1.5640934149371546 1.628110408782959 -1.6347864309894007 -1.5707438627826136 0.3161706328392029 0.0 0.0 0.0 0.0 0.0 0.0 -1.0808021499751818e-18 -0.5491560697555542 -0.7660227417945862 -0.22935310006141663 3.352621433805325e-06 0.0 -1.0808021499751818e-18 -0.5491560697555542 -0.7660227417945862 -0.22935310006141663 3.352621433805325e-06 0.0 -0.25000000734868855 -0.2000000135749509 0.2999999302396414 2.2213997840713846 2.221399782048772 4.0768586060112275e-07 0.0 0.0 0.0 0.0 0.0 0.0 7.884023224240099e-07 6.306943271088288e-07 -6.402812084818602e-07 -6.378272306199992e-08 1.0163779780213731e-07 -6.888775341489736e-12 -0.2500000000000008 -0.20000000000000054 0.30000000000000243 2.2214000002904304 2.2213999998359277 4.3711993450817594e-10 0.0 0.0 0.0 0.0 0.0 0.0
9980.439999999999 0.31617064017203583 -1.56409359189949 1.6281104076940855 -1.634786622958046 -1.570744019260017 0.31617063947797275 0.0 0.0 0.0 0.0 0.0 0.0 0.0 0.0 0.0 0.0 0.0 0.0 -1.0808021033083383e-18 -0.5491560746677142 -0.7660227240968048 -0.22935309661868256 3.352621323503287e-06 0.0 -1.4190931616438482e-17 -7.210419260387088 -7.133356811334266 -1.0424098241319122 1.523766391532244e-05 0.0 0.3161706328392029 -1.5640934149371546 1.628110408782959 -1.6347864309894007 -1.5707438627826136 0.3161706328392029 0.0 0.0 0.0 0.0 0.0 0.0 -1.0808021499751818e-18 -0.5491560697555542 -0.7660227417945862 -0.22935310006141663 3.352621433805325e-06 0.0 -1.0808021499751818e-18 -0.5491560697555542 -0.7660227417945862 -0.22935310006141663 3.352621433805325e-06 0.0 -0.25000000734868855 -0.2000000135749509 0.2999999302396414 2.2213997840713846 2.221399782048772 4.0768586060112275e-07 0.0 0.0 0.0 0.0 0.0 0.0 7.884023224240099e-07 6.306943271088288e-07 -6.402812084818602e-07 -6.378272306199992e-08 1.0163779780213731e-07 -6.888775341489736e-12 -0.2500000000000008 -0.20000000000000054 0.30000000000000243 2.2214000002904304 2.2213999998359277 4.3711993450817594e-10 0.0 0.0 0.0 0.0 0.0 0.0
9980.448 0.31617064017203583 -1.56409359189949 1.6281104076940855 -1.634786622958046 -1.570744019260017 0.31617063947797275 0.0 0.0 0.0 0.0 0.0 0.0 0.0 0.0 0.0 0.0 0.0 0.0 -1.0808021033083383e-18 -0.5491560746677142 -0.7660227240968048 -0.22935309661868256 3.352621323503287e-06 0.0 -1.4190931616438482e-17 -7.210419260387088 -7.133356811334266 -1.0424098241319122 1.523766391532244e-05 0.0 0.3161706328392029 -1.5640934149371546 1.628110408782959 -1.6347864309894007 -1.5707438627826136 0.3161706328392029 0.0 0.0 0.0 0.0 0.0 0.0 -1.0808021499751818e-18 -0.5491560697555542 -0.7660227417945862 -0.22935310006141663 3.352621433805325e-06 0.0 -1.0808021499751818e-18 -0.5491560697555542 -0.7660227417945862 -0.22935310006141663 3.352621433805325e-06 0.0 -0.25000000734868855 -0.2000000135749509 0.2999999302396414 2.2213997840713846 2.221399782048772 4.0768586060112275e-07 0.0 0.0 0.0 0.0 0.0 0.0 7.884023224240099e-07 6.306943271088288e-07 -6.402812084818602e-07 -6.378272306199992e-08 1.0163779780213731e-07 -6.888775341489736e-12 -0.2500000000000008 -0.20000000000000054 0.30000000000000243 2.2214000002904304 2.2213999998359277 4.3711993450817594e-10 0.0 0.0 0.0 0.0 0.0 0.0
9980.456 0.31617064017203583 -1.56409359189949 1.6281104076940855 -1.634786622958046 -1.570744019260017 0.31617063947797275 0.0 0.0 0.0 0.0 0.0 0.0 0.0 0.0 0.0 0.0 0.0 0.0 -1.0808021033083383e-18 -0.5491560746677142 -0.7660227240968048 -0.22935309661868256 3.352621323503287e-06 0.0 -1.4190931616438482e-17 -7.210419260387088 -7.133356811334266 -1.0424098241319122 1.523766391532244e-05 0.0 0.3161706328392029 -1.5640934149371546 1.628110408782959 -1.6347864309894007 -1.5707438627826136 0.3161706328392029 0.0 0.0 0.0 0.0 0.0 0.0 -1.0808021499751818e-18 -0.5491560697555542 -0.7660227417945862 -0.22935310006141663 3.352621433805325e-06 0.0 -1.0808021499751818e-18 -0.5491560697555542 -0.7660227417945862 -0.22935310006141663 3.352621433805325e-06 0.0 -0.25000000734868855 -0.2000000135749509 0.2999999302396414 2.2213997840713846 2.221399782048772 4.0768586060112275e-07 0.0 0.0 0.0 0.0 0.0 0.0 7.884023224240099e-07 6.306943271088288e-07 -6.402812084818602e-07 -6.378272306199992e-08 1.0163779780213731e-07 -6.888775341489736e-12 -0.2500000000000008 -0.20000000000000054 0.30000000000000243 2.2214000002904304 2.2213999998359277 4.3711993450817594e-10 0.0 0.0 0.0 0.0 0.0 0.0
9980.464 0.31617064017203583 -1.56409359189949 1.6281104076940855 -1.634786622958046 -1.570744019260017 0.31617063947797275 0.0 0.0 0.0 0.0 0.0 0.0 0.0 0.0 0.0 0.0 0.0 0.0 -1.0808021033083383e-18 -0.5491560746677142 -0.7660227240968048 -0.22935309661868256 3.352621323503287e-06 0.0 -1.4190931616438482e-17 -7.210419260387088 -7.133356811334266 -1.0424098241319122 1.523766391532244e-05 0.0 0.3161706328392029 -1.5640934149371546 1.628110408782959 -1.6347864309894007 -1.5707438627826136 0.3161706328392029 0.0 0.0 0.0 0.0 0.0 0.0 -1.0808021499751818e-18 -0.5491560697555542 -0.7660227417945862 -0.22935310006141663 3.352621433805325e-06 0.0 -1.0808021499751818e-18 -0.5491560697555542 -0.7660227417945862 -0.22935310006141663 3.352621433805325e-06 0.0 -0.25000000734868855 -0.2000000135749509 0.2999999302396414 2.2213997840713846 2.221399782048772 4.0768586060112275e-07 0.0 0.0 0.0 0.0 0.0 0.0 7.884023224240099e-07 6.306943271088288e-07 -6.402812084818602e-07 -6.378272306199992e-08 1.0163779780213731e-07 -6.888775341489736e-12 -0.2500000000000008 -0.20000000000000054 0.30000000000000243 2.2214000002904304 2.2213999998359277 4.3711993450817594e-10 0.0 0.0 0.0 0.0 0.0 0.0
9980.472 0.31617064017203583 -1.56409359189949 1.6281104076940855 -1.634786622958046 -1.570744019260017 0.31617063947797275 0.0 0.0 0.0 0.0 0.0 0.0 0.0 0.0 0.0 0.0 0.0 0.0 -1.0808021033083383e-18 -0.5491560746677142 -0.7660227240968048 -0.22935309661868256 3.352621323503287e-06 0.0 -1.4190931616438482e-17 -7.210419260387088 -7.133356811334266 -1.0424098241319122 1.523766391532244e-05 0.0 0.3161706328392029 -1.5640934149371546 1.628110408782959 -1.6347864309894007 -1.5707438627826136 0.3161706328392029 0.0 0.0 0.0 0.0 0.0 0.0 -1.0808021499751818e-18 -0.5491560697555542 -0.7660227417945862 -0.22935310006141663 3.352621433805325e-06 0.0 -1.0808021499751818e-18 -0.5491560697555542 -0.7660227417945862 -0.22935310006141663 3.352621433805325e-06 0.0 -0.25000000734868855 -0.2000000135749509 0.2999999302396414 2.2213997840713846 2.221399782048772 4.0768586060112275e-07 0.0 0.0 0.0 0.0 0.0 0.0 7.884023224240099e-07 6.306943271088288e-07 -6.402812084818602e-07 -6.378272306199992e-08 1.0163779780213731e-07 -6.888775341489736e-12 -0.2500000000000008 -0.20000000000000054 0.30000000000000243 2.2214000002904304 2.2213999998359277 4.3711993450817594e-10 0.0 0.0 0.0 0.0 0.0 0.0
9980.48 0.31617064017203583 -1.56409359189949 1.6281104076940855 -1.634786622958046 -1.570744019260017 0.31617063947797275 0.0 0.0 0.0 0.0 0.0 0.0 0.0 0.0 0.0 0.0 0.0 0.0 -1.0808021033083383e-18 -0.5491560746677142 -0.7660227240968048 -0.22935309661868256 3.352621323503287e-06 0.0 -1.4190931616438482e-17 -7.210419260387088 -7.133356811334266 -1.0424098241319122 1.523766391532244e-05 0.0 0.3161706328392029 -1.5640934149371546 1.628110408782959 -1.6347864309894007 -1.5707438627826136 0.3161706328392029 0.0 0.0 0.0 0.0 0.0 0.0 -1.0808021499751818e-18 -0.5491560697555542 -0.7660227417945862 -0.22935310006141663 3.352621433805325e-06 0.0 -1.0808021499751818e-18 -0.5491560697555542 -0.7660227417945862 -0.22935310006141663 3.352621433805325e-06 0.0 -0.25000000734868855 -0.2000000135749509 0.2999999302396414 2.2213997840713846 2.221399782048772 4.0768586060112275e-07 0.0 0.0 0.0 0.0 0.0 0.0 7.884023224240099e-07 6.306943271088288e-07 -6.402812084818602e-07 -6.378272306199992e-08 1.0163779780213731e-07 -6.888775341489736e-12 -0.2500000000000008 -0.20000000000000054 0.30000000000000243 2.2214000002904304 2.2213999998359277 4.3711993450817594e-10 0.0 0.0 0.0 0.0 0.0 0.0
9980.488 0.31617064017203583 -1.56409359189949 1.6281104076940855 -1.634786622958046 -1.570744019260017 0.31617063947797275 0.0 0.0 0.0 0.0 0.0 0.0 0.0 0.0 0.0 0.0 0.0 0.0 -1.0808021033083383e-18 -0.5491560746677142 -0.7660227240968048 -0.22935309661868256 3.352621323503287e-06 0.0 -1.4190931616438482e-17 -7.210419260387088 -7.133356811334266 -1.0424098241319122 1.523766391532244e-05 0.0 0.3161706328392029 -1.5640934149371546 1.628110408782959 -1.6347864309894007 -1.5707438627826136 0.3161706328392029 0.0 0.0 0.0 0.0 0.0 0.0 -1.0808021499751818e-18 -0.5491560697555542 -0.7660227417945862 -0.22935310006141663 3.352621433805325e-06 0.0 -1.0808021499751818e-18 -0.5491560697555542 -0.7660227417945862 -0.22935310006141663 3.352621433805325e-06 0.0 -0.25000000734868855 -0.2000000135749509 0.2999999302396414 2.2213997840713846 2.221399782048772 4.0768586060112275e-07 0.0 0.0 0.0 0.0 0.0 0.0 7.884023224240099e-07 6.306943271088288e-07 -6.402812084818602e-07 -6.378272306199992e-08 1.0163779780213731e-07 -6.888775341489736e-12 -0.2500000000000008 -0.20000000000000054 0.30000000000000243 2.2214000002904304 2.2213999998359277 4.3711993450817594e-10 0.0 0.0 0.0 0.0 0.0 0.0
9980.496 0.31617064017203583 -1.56409359189949 1.6281104076940855 -1.634786622958046 -1.570744019260017 0.31617063947797275 0.0 0.0 0.0 0.0 0.0 0.0 0.0 0.0 0.0 0.0 0.0 0.0 -1.0808021033083383e-18 -0.5491560746677142 -0.7660227240968048 -0.22935309661868256 3.352621323503287e-06 0.0 -1.4190931616438482e-17 -7.210419260387088 -7.133356811334266 -1.0424098241319122 1.523766391532244e-05 0.0 0.3161706328392029 -1.5640934149371546 1.628110408782959 -1.6347864309894007 -1.5707438627826136 0.3161706328392029 0.0 0.0 0.0 0.0 0.0 0.0 -1.0808021499751818e-18 -0.5491560697555542 -0.7660227417945862 -0.22935310006141663 3.352621433805325e-06 0.0 -1.0808021499751818e-18 -0.5491560697555542 -0.7660227417945862 -0.22935310006141663 3.352621433805325e-06 0.0 -0.25000000734868855 -0.2000000135749509 0.2999999302396414 2.2213997840713846 2.221399782048772 4.0768586060112275e-07 0.0 0.0 0.0 0.0 0.0 0.0 7.884023224240099e-07 6.306943271088288e-07 -6.402812084818602e-07 -6.378272306199992e-08 1.0163779780213731e-07 -6.888775341489736e-12 -0.2500000000000008 -0.20000000000000054 0.30000000000000243 2.2214000002904304 2.2213999998359277 4.3711993450817594e-10 0.0 0.0 0.0 0.0 0.0 0.0
9980.503999999999 0.31617064017203583 -1.56409359189949 1.6281104076940855 -1.634786622958046 -1.570744019260017 0.31617063947797275 0.0 0.0 0.0 0.0 0.0 0.0 0.0 0.0 0.0 0.0 0.0 0.0 -1.0808021033083383e-18 -0.5491560746677142 -0.7660227240968048 -0.22935309661868256 3.352621323503287e-06 0.0 -1.4190931616438482e-17 -7.210419260387088 -7.133356811334266 -1.0424098241319122 1.523766391532244e-05 0.0 0.3161706328392029 -1.5640934149371546 1.628110408782959 -1.6347864309894007 -1.5707438627826136 0.3161706328392029 0.0 0.0 0.0 0.0 0.0 0.0 -1.0808021499751818e-18 -0.5491560697555542 -0.7660227417945862 -0.22935310006141663 3.352621433805325e-06 0.0 -1.0808021499751818e-18 -0.5491560697555542 -0.7660227417945862 -0.22935310006141663 3.352621433805325e-06 0.0 -0.25000000734868855 -0.2000000135749509 0.2999999302396414 2.2213997840713846 2.221399782048772 4.0768586060112275e-07 0.0 0.0 0.0 0.0 0.0 0.0 7.884023224240099e-07 6.306943271088288e-07 -6.402812084818602e-07 -6.378272306199992e-08 1.0163779780213731e-07 -6.888775341489736e-12 -0.2500000000000008 -0.20000000000000054 0.30000000000000243 2.2214000002904304 2.2213999998359277 4.3711993450817594e-10 0.0 0.0 0.0 0.0 0.0 0.0
9980.511999999999 0.31617064017203583 -1.56409359189949 1.6281104076940855 -1.634786622958046 -1.570744019260017 0.31617063947797275 0.0 0.0 0.0 0.0 0.0 0.0 0.0 0.0 0.0 0.0 0.0 0.0 -1.0808021033083383e-18 -0.5491560746677142 -0.7660227240968048 -0.22935309661868256 3.352621323503287e-06 0.0 -1.4190931616438482e-17 -7.210419260387088 -7.133356811334266 -1.0424098241319122 1.523766391532244e-05 0.0 0.3161706328392029 -1.5640934149371546 1.628110408782959 -1.6347864309894007 -1.5707438627826136 0.3161706328392029 0.0 0.0 0.0 0.0 0.0 0.0 -1.0808021499751818e-18 -0.5491560697555542 -0.7660227417945862 -0.22935310006141663 3.352621433805325e-06 0.0 -1.0808021499751818e-18 -0.5491560697555542 -0.7660227417945862 -0.22935310006141663 3.352621433805325e-06 0.0 -0.25000000734868855 -0.2000000135749509 0.2999999302396414 2.2213997840713846 2.221399782048772 4.0768586060112275e-07 0.0 0.0 0.0 0.0 0.0 0.0 7.884023224240099e-07 6.306943271088288e-07 -6.402812084818602e-07 -6.378272306199992e-08 1.0163779780213731e-07 -6.888775341489736e-12 -0.2500000000000008 -0.20000000000000054 0.30000000000000243 2.2214000002904304 2.2213999998359277 4.3711993450817594e-10 0.0 0.0 0.0 0.0 0.0 0.0
9980.52 0.31617064017203583 -1.56409359189949 1.6281104076940855 -1.634786622958046 -1.570744019260017 0.31617063947797275 0.0 0.0 0.0 0.0 0.0 0.0 0.0 0.0 0.0 0.0 0.0 0.0 -1.0808021033083383e-18 -0.5491560746677142 -0.7660227240968048 -0.22935309661868256 3.352621323503287e-06 0.0 -1.4190931616438482e-17 -7.210419260387088 -7.133356811334266 -1.0424098241319122 1.523766391532244e-05 0.0 0.3161706328392029 -1.5640934149371546 1.628110408782959 -1.6347864309894007 -1.5707438627826136 0.3161706328392029 0.0 0.0 0.0 0.0 0.0 0.0 -1.0808021499751818e-18 -0.5491560697555542 -0.7660227417945862 -0.22935310006141663 3.352621433805325e-06 0.0 -1.0808021499751818e-18 -0.5491560697555542 -0.7660227417945862 -0.22935310006141663 3.352621433805325e-06 0.0 -0.25000000734868855 -0.2000000135749509 0.2999999302396414 2.2213997840713846 2.221399782048772 4.0768586060112275e-07 0.0 0.0 0.0 0.0 0.0 0.0 7.884023224240099e-07 6.306943271088288e-07 -6.402812084818602e-07 -6.378272306199992e-08 1.0163779780213731e-07 -6.888775341489736e-12 -0.2500000000000008 -0.20000000000000054 0.30000000000000243 2.2214000002904304 2.2213999998359277 4.3711993450817594e-10 0.0 0.0 0.0 0.0 0.0 0.0
9980.528 0.31617064017203583 -1.56409359189949 1.6281104076940855 -1.634786622958046 -1.570744019260017 0.31617063947797275 0.0 0.0 0.0 0.0 0.0 0.0 0.0 0.0 0.0 0.0 0.0 0.0 -1.0808021033083383e-18 -0.5491560746677142 -0.7660227240968048 -0.22935309661868256 3.352621323503287e-06 0.0 -1.4190931616438482e-17 -7.210419260387088 -7.133356811334266 -1.0424098241319122 1.523766391532244e-05 0.0 0.3161706328392029 -1.5640934149371546 1.628110408782959 -1.6347864309894007 -1.5707438627826136 0.3161706328392029 0.0 0.0 0.0 0.0 0.0 0.0 -1.0808021499751818e-18 -0.5491560697555542 -0.7660227417945862 -0.22935310006141663 3.352621433805325e-06 0.0 -1.0808021499751818e-18 -0.5491560697555542 -0.7660227417945862 -0.22935310006141663 3.352621433805325e-06 0.0 -0.25000000734868855 -0.2000000135749509 0.2999999302396414 2.2213997840713846 2.221399782048772 4.0768586060112275e-07 0.0 0.0 0.0 0.0 0.0 0.0 7.884023224240099e-07 6.306943271088288e-07 -6.402812084818602e-07 -6.378272306199992e-08 1.0163779780213731e-07 -6.888775341489736e-12 -0.2500000000000008 -0.20000000000000054 0.30000000000000243 2.2214000002904304 2.2213999998359277 4.3711993450817594e-10 0.0 0.0 0.0 0.0 0.0 0.0
9980.536 0.31617064017203583 -1.56409359189949 1.6281104076940855 -1.634786622958046 -1.570744019260017 0.31617063947797275 0.0 0.0 0.0 0.0 0.0 0.0 0.0 0.0 0.0 0.0 0.0 0.0 -1.0808021033083383e-18 -0.5491560746677142 -0.7660227240968048 -0.22935309661868256 3.352621323503287e-06 0.0 -1.4190931616438482e-17 -7.210419260387088 -7.133356811334266 -1.0424098241319122 1.523766391532244e-05 0.0 0.3161706328392029 -1.5640934149371546 1.628110408782959 -1.6347864309894007 -1.5707438627826136 0.3161706328392029 0.0 0.0 0.0 0.0 0.0 0.0 -1.0808021499751818e-18 -0.5491560697555542 -0.7660227417945862 -0.22935310006141663 3.352621433805325e-06 0.0 -1.0808021499751818e-18 -0.5491560697555542 -0.7660227417945862 -0.22935310006141663 3.352621433805325e-06 0.0 -0.25000000734868855 -0.2000000135749509 0.2999999302396414 2.2213997840713846 2.221399782048772 4.0768586060112275e-07 0.0 0.0 0.0 0.0 0.0 0.0 7.884023224240099e-07 6.306943271088288e-07 -6.402812084818602e-07 -6.378272306199992e-08 1.0163779780213731e-07 -6.888775341489736e-12 -0.2500000000000008 -0.20000000000000054 0.30000000000000243 2.2214000002904304 2.2213999998359277 4.3711993450817594e-10 0.0 0.0 0.0 0.0 0.0 0.0
9980.544 0.31617064017203583 -1.56409359189949 1.6281104076940855 -1.634786622958046 -1.570744019260017 0.31617063947797275 0.0 0.0 0.0 0.0 0.0 0.0 0.0 0.0 0.0 0.0 0.0 0.0 -1.0808021033083383e-18 -0.5491560746677142 -0.7660227240968048 -0.22935309661868256 3.352621323503287e-06 0.0 -1.4190931616438482e-17 -7.210419260387088 -7.133356811334266 -1.0424098241319122 1.523766391532244e-05 0.0 0.3161706328392029 -1.5640934149371546 1.628110408782959 -1.6347864309894007 -1.5707438627826136 0.3161706328392029 0.0 0.0 0.0 0.0 0.0 0.0 -1.0808021499751818e-18 -0.5491560697555542 -0.7660227417945862 -0.22935310006141663 3.352621433805325e-06 0.0 -1.0808021499751818e-18 -0.5491560697555542 -0.7660227417945862 -0.22935310006141663 3.352621433805325e-06 0.0 -0.25000000734868855 -0.2000000135749509 0.2999999302396414 2.2213997840713846 2.221399782048772 4.0768586060112275e-07 0.0 0.0 0.0 0.0 0.0 0.0 7.884023224240099e-07 6.306943271088288e-07 -6.402812084818602e-07 -6.378272306199992e-08 1.0163779780213731e-07 -6.888775341489736e-12 -0.2500000000000008 -0.20000000000000054 0.30000000000000243 2.2214000002904304 2.2213999998359277 4.3711993450817594e-10 0.0 0.0 0.0 0.0 0.0 0.0
9980.552 0.31617064017203583 -1.56409359189949 1.6281104076940855 -1.634786622958046 -1.570744019260017 0.31617063947797275 0.0 0.0 0.0 0.0 0.0 0.0 0.0 0.0 0.0 0.0 0.0 0.0 -1.0808021033083383e-18 -0.5491560746677142 -0.7660227240968048 -0.22935309661868256 3.352621323503287e-06 0.0 -1.4190931616438482e-17 -7.210419260387088 -7.133356811334266 -1.0424098241319122 1.523766391532244e-05 0.0 0.3161706328392029 -1.5640934149371546 1.628110408782959 -1.6347864309894007 -1.5707438627826136 0.3161706328392029 0.0 0.0 0.0 0.0 0.0 0.0 -1.0808021499751818e-18 -0.5491560697555542 -0.7660227417945862 -0.22935310006141663 3.352621433805325e-06 0.0 -1.0808021499751818e-18 -0.5491560697555542 -0.7660227417945862 -0.22935310006141663 3.352621433805325e-06 0.0 -0.25000000734868855 -0.2000000135749509 0.2999999302396414 2.2213997840713846 2.221399782048772 4.0768586060112275e-07 0.0 0.0 0.0 0.0 0.0 0.0 7.884023224240099e-07 6.306943271088288e-07 -6.402812084818602e-07 -6.378272306199992e-08 1.0163779780213731e-07 -6.888775341489736e-12 -0.2500000000000008 -0.20000000000000054 0.30000000000000243 2.2214000002904304 2.2213999998359277 4.3711993450817594e-10 0.0 0.0 0.0 0.0 0.0 0.0
9980.56 0.31617064017203583 -1.56409359189949 1.6281104076940855 -1.634786622958046 -1.570744019260017 0.31617063947797275 0.0 0.0 0.0 0.0 0.0 0.0 0.0 0.0 0.0 0.0 0.0 0.0 -1.0808021033083383e-18 -0.5491560746677142 -0.7660227240968048 -0.22935309661868256 3.352621323503287e-06 0.0 -1.4190931616438482e-17 -7.210419260387088 -7.133356811334266 -1.0424098241319122 1.523766391532244e-05 0.0 0.3161706328392029 -1.5640934149371546 1.628110408782959 -1.6347864309894007 -1.5707438627826136 0.3161706328392029 0.0 0.0 0.0 0.0 0.0 0.0 -1.0808021499751818e-18 -0.5491560697555542 -0.7660227417945862 -0.22935310006141663 3.352621433805325e-06 0.0 -1.0808021499751818e-18 -0.5491560697555542 -0.7660227417945862 -0.22935310006141663 3.352621433805325e-06 0.0 -0.25000000734868855 -0.2000000135749509 0.2999999302396414 2.2213997840713846 2.221399782048772 4.0768586060112275e-07 0.0 0.0 0.0 0.0 0.0 0.0 7.884023224240099e-07 6.306943271088288e-07 -6.402812084818602e-07 -6.378272306199992e-08 1.0163779780213731e-07 -6.888775341489736e-12 -0.2500000000000008 -0.20000000000000054 0.30000000000000243 2.2214000002904304 2.2213999998359277 4.3711993450817594e-10 0.0 0.0 0.0 0.0 0.0 0.0
9980.568 0.31617064017203583 -1.56409359189949 1.6281104076940855 -1.634786622958046 -1.570744019260017 0.31617063947797275 0.0 0.0 0.0 0.0 0.0 0.0 0.0 0.0 0.0 0.0 0.0 0.0 -1.0808021033083383e-18 -0.5491560746677142 -0.7660227240968048 -0.22935309661868256 3.352621323503287e-06 0.0 -1.4190931616438482e-17 -7.210419260387088 -7.133356811334266 -1.0424098241319122 1.523766391532244e-05 0.0 0.3161706328392029 -1.5640934149371546 1.628110408782959 -1.6347864309894007 -1.5707438627826136 0.3161706328392029 0.0 0.0 0.0 0.0 0.0 0.0 -1.0808021499751818e-18 -0.5491560697555542 -0.7660227417945862 -0.22935310006141663 3.352621433805325e-06 0.0 -1.0808021499751818e-18 -0.5491560697555542 -0.7660227417945862 -0.22935310006141663 3.352621433805325e-06 0.0 -0.25000000734868855 -0.2000000135749509 0.2999999302396414 2.2213997840713846 2.221399782048772 4.0768586060112275e-07 0.0 0.0 0.0 0.0 0.0 0.0 7.884023224240099e-07 6.306943271088288e-07 -6.402812084818602e-07 -6.378272306199992e-08 1.0163779780213731e-07 -6.888775341489736e-12 -0.2500000000000008 -0.20000000000000054 0.30000000000000243 2.2214000002904304 2.2213999998359277 4.3711993450817594e-10 0.0 0.0 0.0 0.0 0.0 0.0
9980.576 0.31617064017203583 -1.56409359189949 1.6281104076940855 -1.634786622958046 -1.570744019260017 0.31617063947797275 0.0 0.0 0.0 0.0 0.0 0.0 0.0 0.0 0.0 0.0 0.0 0.0 -1.0808021033083383e-18 -0.5491560746677142 -0.7660227240968048 -0.22935309661868256 3.352621323503287e-06 0.0 -1.4190931616438482e-17 -7.210419260387088 -7.133356811334266 -1.0424098241319122 1.523766391532244e-05 0.0 0.3161706328392029 -1.5640934149371546 1.628110408782959 -1.6347864309894007 -1.5707438627826136 0.3161706328392029 0.0 0.0 0.0 0.0 0.0 0.0 -1.0808021499751818e-18 -0.5491560697555542 -0.7660227417945862 -0.22935310006141663 3.352621433805325e-06 0.0 -1.0808021499751818e-18 -0.5491560697555542 -0.7660227417945862 -0.22935310006141663 3.352621433805325e-06 0.0 -0.25000000734868855 -0.2000000135749509 0.2999999302396414 2.2213997840713846 2.221399782048772 4.0768586060112275e-07 0.0 0.0 0.0 0.0 0.0 0.0 7.884023224240099e-07 6.306943271088288e-07 -6.402812084818602e-07 -6.378272306199992e-08 1.0163779780213731e-07 -6.888775341489736e-12 -0.2500000000000008 -0.20000000000000054 0.30000000000000243 2.2214000002904304 2.2213999998359277 4.3711993450817594e-10 0.0 0.0 0.0 0.0 0.0 0.0
9980.583999999999 0.31617064017203583 -1.56409359189949 1.6281104076940855 -1.634786622958046 -1.570744019260017 0.31617063947797275 0.0 0.0 0.0 0.0 0.0 0.0 0.0 0.0 0.0 0.0 0.0 0.0 -1.0808021033083383e-18 -0.5491560746677142 -0.7660227240968048 -0.22935309661868256 3.352621323503287e-06 0.0 -1.4190931616438482e-17 -7.210419260387088 -7.133356811334266 -1.0424098241319122 1.523766391532244e-05 0.0 0.3161706328392029 -1.5640934149371546 1.628110408782959 -1.6347864309894007 -1.5707438627826136 0.3161706328392029 0.0 0.0 0.0 0.0 0.0 0.0 -1.0808021499751818e-18 -0.5491560697555542 -0.7660227417945862 -0.22935310006141663 3.352621433805325e-06 0.0 -1.0808021499751818e-18 -0.5491560697555542 -0.7660227417945862 -0.22935310006141663 3.352621433805325e-06 0.0 -0.25000000734868855 -0.2000000135749509 0.2999999302396414 2.2213997840713846 2.221399782048772 4.0768586060112275e-07 0.0 0.0 0.0 0.0 0.0 0.0 7.884023224240099e-07 6.306943271088288e-07 -6.402812084818602e-07 -6.378272306199992e-08 1.0163779780213731e-07 -6.888775341489736e-12 -0.2500000000000008 -0.20000000000000054 0.30000000000000243 2.2214000002904304 2.2213999998359277 4.3711993450817594e-10 0.0 0.0 0.0 0.0 0.0 0.0
9980.591999999999 0.31617064017203583 -1.56409359189949 1.6281104076940855 -1.634786622958046 -1.570744019260017 0.31617063947797275 0.0 0.0 0.0 0.0 0.0 0.0 0.0 0.0 0.0 0.0 0.0 0.0 -1.0808021033083383e-18 -0.5491560746677142 -0.7660227240968048 -0.22935309661868256 3.352621323503287e-06 0.0 -1.4190931616438482e-17 -7.210419260387088 -7.133356811334266 -1.0424098241319122 1.523766391532244e-05 0.0 0.3161706328392029 -1.5640934149371546 1.628110408782959 -1.6347864309894007 -1.5707438627826136 0.3161706328392029 0.0 0.0 0.0 0.0 0.0 0.0 -1.0808021499751818e-18 -0.5491560697555542 -0.7660227417945862 -0.22935310006141663 3.352621433805325e-06 0.0 -1.0808021499751818e-18 -0.5491560697555542 -0.7660227417945862 -0.22935310006141663 3.352621433805325e-06 0.0 -0.25000000734868855 -0.2000000135749509 0.2999999302396414 2.2213997840713846 2.221399782048772 4.0768586060112275e-07 0.0 0.0 0.0 0.0 0.0 0.0 7.884023224240099e-07 6.306943271088288e-07 -6.402812084818602e-07 -6.378272306199992e-08 1.0163779780213731e-07 -6.888775341489736e-12 -0.2500000000000008 -0.20000000000000054 0.30000000000000243 2.2214000002904304 2.2213999998359277 4.3711993450817594e-10 0.0 0.0 0.0 0.0 0.0 0.0
9980.6 0.31617064017203583 -1.56409359189949 1.6281104076940855 -1.634786622958046 -1.570744019260017 0.31617063947797275 0.0 0.0 0.0 0.0 0.0 0.0 0.0 0.0 0.0 0.0 0.0 0.0 -1.0808021033083383e-18 -0.5491560746677142 -0.7660227240968048 -0.22935309661868256 3.352621323503287e-06 0.0 -1.4190931616438482e-17 -7.210419260387088 -7.133356811334266 -1.0424098241319122 1.523766391532244e-05 0.0 0.3161706328392029 -1.5640934149371546 1.628110408782959 -1.6347864309894007 -1.5707438627826136 0.3161706328392029 0.0 0.0 0.0 0.0 0.0 0.0 -1.0808021499751818e-18 -0.5491560697555542 -0.7660227417945862 -0.22935310006141663 3.352621433805325e-06 0.0 -1.0808021499751818e-18 -0.5491560697555542 -0.7660227417945862 -0.22935310006141663 3.352621433805325e-06 0.0 -0.25000000734868855 -0.2000000135749509 0.2999999302396414 2.2213997840713846 2.221399782048772 4.0768586060112275e-07 0.0 0.0 0.0 0.0 0.0 0.0 7.884023224240099e-07 6.306943271088288e-07 -6.402812084818602e-07 -6.378272306199992e-08 1.0163779780213731e-07 -6.888775341489736e-12 -0.2500000000000008 -0.20000000000000054 0.30000000000000243 2.2214000002904304 2.2213999998359277 4.3711993450817594e-10 0.0 0.0 0.0 0.0 0.0 0.0
9980.608 0.31617064017203583 -1.56409359189949 1.6281104076940855 -1.634786622958046 -1.570744019260017 0.31617063947797275 0.0 0.0 0.0 0.0 0.0 0.0 0.0 0.0 0.0 0.0 0.0 0.0 -1.0808021033083383e-18 -0.5491560746677142 -0.7660227240968048 -0.22935309661868256 3.352621323503287e-06 0.0 -1.4190931616438482e-17 -7.210419260387088 -7.133356811334266 -1.0424098241319122 1.523766391532244e-05 0.0 0.3161706328392029 -1.5640934149371546 1.628110408782959 -1.6347864309894007 -1.5707438627826136 0.3161706328392029 0.0 0.0 0.0 0.0 0.0 0.0 -1.0808021499751818e-18 -0.5491560697555542 -0.7660227417945862 -0.22935310006141663 3.352621433805325e-06 0.0 -1.0808021499751818e-18 -0.5491560697555542 -0.7660227417945862 -0.22935310006141663 3.352621433805325e-06 0.0 -0.25000000734868855 -0.2000000135749509 0.2999999302396414 2.2213997840713846 2.221399782048772 4.0768586060112275e-07 0.0 0.0 0.0 0.0 0.0 0.0 7.884023224240099e-07 6.306943271088288e-07 -6.402812084818602e-07 -6.378272306199992e-08 1.0163779780213731e-07 -6.888775341489736e-12 -0.2500000000000008 -0.20000000000000054 0.30000000000000243 2.2214000002904304 2.2213999998359277 4.3711993450817594e-10 0.0 0.0 0.0 0.0 0.0 0.0
9980.616 0.31617064017203583 -1.56409359189949 1.6281104076940855 -1.634786622958046 -1.570744019260017 0.31617063947797275 0.0 0.0 0.0 0.0 0.0 0.0 0.0 0.0 0.0 0.0 0.0 0.0 -1.0808021033083383e-18 -0.5491560746677142 -0.7660227240968048 -0.22935309661868256 3.352621323503287e-06 0.0 -1.4190931616438482e-17 -7.210419260387088 -7.133356811334266 -1.0424098241319122 1.523766391532244e-05 0.0 0.3161706328392029 -1.5640934149371546 1.628110408782959 -1.6347864309894007 -1.5707438627826136 0.3161706328392029 0.0 0.0 0.0 0.0 0.0 0.0 -1.0808021499751818e-18 -0.5491560697555542 -0.7660227417945862 -0.22935310006141663 3.352621433805325e-06 0.0 -1.0808021499751818e-18 -0.5491560697555542 -0.7660227417945862 -0.22935310006141663 3.352621433805325e-06 0.0 -0.25000000734868855 -0.2000000135749509 0.2999999302396414 2.2213997840713846 2.221399782048772 4.0768586060112275e-07 0.0 0.0 0.0 0.0 0.0 0.0 7.884023224240099e-07 6.306943271088288e-07 -6.402812084818602e-07 -6.378272306199992e-08 1.0163779780213731e-07 -6.888775341489736e-12 -0.2500000000000008 -0.20000000000000054 0.30000000000000243 2.2214000002904304 2.2213999998359277 4.3711993450817594e-10 0.0 0.0 0.0 0.0 0.0 0.0
9980.624 0.31617064017203583 -1.56409359189949 1.6281104076940855 -1.634786622958046 -1.570744019260017 0.31617063947797275 0.0 0.0 0.0 0.0 0.0 0.0 0.0 0.0 0.0 0.0 0.0 0.0 -1.0808021033083383e-18 -0.5491560746677142 -0.7660227240968048 -0.22935309661868256 3.352621323503287e-06 0.0 -1.4190931616438482e-17 -7.210419260387088 -7.133356811334266 -1.0424098241319122 1.523766391532244e-05 0.0 0.3161706328392029 -1.5640934149371546 1.628110408782959 -1.6347864309894007 -1.5707438627826136 0.3161706328392029 0.0 0.0 0.0 0.0 0.0 0.0 -1.0808021499751818e-18 -0.5491560697555542 -0.7660227417945862 -0.22935310006141663 3.352621433805325e-06 0.0 -1.0808021499751818e-18 -0.5491560697555542 -0.7660227417945862 -0.22935310006141663 3.352621433805325e-06 0.0 -0.25000000734868855 -0.2000000135749509 0.2999999302396414 2.2213997840713846 2.221399782048772 4.0768586060112275e-07 0.0 0.0 0.0 0.0 0.0 0.0 7.884023224240099e-07 6.306943271088288e-07 -6.402812084818602e-07 -6.378272306199992e-08 1.0163779780213731e-07 -6.888775341489736e-12 -0.2500000000000008 -0.20000000000000054 0.30000000000000243 2.2214000002904304 2.2213999998359277 4.3711993450817594e-10 0.0 0.0 0.0 0.0 0.0 0.0
9980.632 0.31617064017203583 -1.56409359189949 1.6281104076940855 -1.634786622958046 -1.570744019260017 0.31617063947797275 0.0 0.0 0.0 0.0 0.0 0.0 0.0 0.0 0.0 0.0 0.0 0.0 -1.0808021033083383e-18 -0.5491560746677142 -0.7660227240968048 -0.22935309661868256 3.352621323503287e-06 0.0 -1.4190931616438482e-17 -7.210419260387088 -7.133356811334266 -1.0424098241319122 1.523766391532244e-05 0.0 0.3161706328392029 -1.5640934149371546 1.628110408782959 -1.6347864309894007 -1.5707438627826136 0.3161706328392029 0.0 0.0 0.0 0.0 0.0 0.0 -1.0808021499751818e-18 -0.5491560697555542 -0.7660227417945862 -0.22935310006141663 3.352621433805325e-06 0.0 -1.0808021499751818e-18 -0.5491560697555542 -0.7660227417945862 -0.22935310006141663 3.352621433805325e-06 0.0 -0.25000000734868855 -0.2000000135749509 0.2999999302396414 2.2213997840713846 2.221399782048772 4.0768586060112275e-07 0.0 0.0 0.0 0.0 0.0 0.0 7.884023224240099e-07 6.306943271088288e-07 -6.402812084818602e-07 -6.378272306199992e-08 1.0163779780213731e-07 -6.888775341489736e-12 -0.2500000000000008 -0.20000000000000054 0.30000000000000243 2.2214000002904304 2.2213999998359277 4.3711993450817594e-10 0.0 0.0 0.0 0.0 0.0 0.0
9980.64 0.31617064017203583 -1.56409359189949 1.6281104076940855 -1.634786622958046 -1.570744019260017 0.31617063947797275 0.0 0.0 0.0 0.0 0.0 0.0 0.0 0.0 0.0 0.0 0.0 0.0 -1.0808021033083383e-18 -0.5491560746677142 -0.7660227240968048 -0.22935309661868256 3.352621323503287e-06 0.0 -1.4190931616438482e-17 -7.210419260387088 -7.133356811334266 -1.0424098241319122 1.523766391532244e-05 0.0 0.3161706328392029 -1.5640934149371546 1.628110408782959 -1.6347864309894007 -1.5707438627826136 0.3161706328392029 0.0 0.0 0.0 0.0 0.0 0.0 -1.0808021499751818e-18 -0.5491560697555542 -0.7660227417945862 -0.22935310006141663 3.352621433805325e-06 0.0 -1.0808021499751818e-18 -0.5491560697555542 -0.7660227417945862 -0.22935310006141663 3.352621433805325e-06 0.0 -0.25000000734868855 -0.2000000135749509 0.2999999302396414 2.2213997840713846 2.221399782048772 4.0768586060112275e-07 0.0 0.0 0.0 0.0 0.0 0.0 7.884023224240099e-07 6.306943271088288e-07 -6.402812084818602e-07 -6.378272306199992e-08 1.0163779780213731e-07 -6.888775341489736e-12 -0.2500000000000008 -0.20000000000000054 0.30000000000000243 2.2214000002904304 2.2213999998359277 4.3711993450817594e-10 0.0 0.0 0.0 0.0 0.0 0.0
9980.648 0.31617064017203583 -1.56409359189949 1.6281104076940855 -1.634786622958046 -1.570744019260017 0.31617063947797275 0.0 0.0 0.0 0.0 0.0 0.0 0.0 0.0 0.0 0.0 0.0 0.0 -1.0808021033083383e-18 -0.5491560746677142 -0.7660227240968048 -0.22935309661868256 3.352621323503287e-06 0.0 -1.4190931616438482e-17 -7.210419260387088 -7.133356811334266 -1.0424098241319122 1.523766391532244e-05 0.0 0.3161706328392029 -1.5640934149371546 1.628110408782959 -1.6347864309894007 -1.5707438627826136 0.3161706328392029 0.0 0.0 0.0 0.0 0.0 0.0 -1.0808021499751818e-18 -0.5491560697555542 -0.7660227417945862 -0.22935310006141663 3.352621433805325e-06 0.0 -1.0808021499751818e-18 -0.5491560697555542 -0.7660227417945862 -0.22935310006141663 3.352621433805325e-06 0.0 -0.25000000734868855 -0.2000000135749509 0.2999999302396414 2.2213997840713846 2.221399782048772 4.0768586060112275e-07 0.0 0.0 0.0 0.0 0.0 0.0 7.884023224240099e-07 6.306943271088288e-07 -6.402812084818602e-07 -6.378272306199992e-08 1.0163779780213731e-07 -6.888775341489736e-12 -0.2500000000000008 -0.20000000000000054 0.30000000000000243 2.2214000002904304 2.2213999998359277 4.3711993450817594e-10 0.0 0.0 0.0 0.0 0.0 0.0
9980.655999999999 0.31617064017203583 -1.56409359189949 1.6281104076940855 -1.634786622958046 -1.570744019260017 0.31617063947797275 0.0 0.0 0.0 0.0 0.0 0.0 0.0 0.0 0.0 0.0 0.0 0.0 -1.0808021033083383e-18 -0.5491560746677142 -0.7660227240968048 -0.22935309661868256 3.352621323503287e-06 0.0 -1.4190931616438482e-17 -7.210419260387088 -7.133356811334266 -1.0424098241319122 1.523766391532244e-05 0.0 0.3161706328392029 -1.5640934149371546 1.628110408782959 -1.6347864309894007 -1.5707438627826136 0.3161706328392029 0.0 0.0 0.0 0.0 0.0 0.0 -1.0808021499751818e-18 -0.5491560697555542 -0.7660227417945862 -0.22935310006141663 3.352621433805325e-06 0.0 -1.0808021499751818e-18 -0.5491560697555542 -0.7660227417945862 -0.22935310006141663 3.352621433805325e-06 0.0 -0.25000000734868855 -0.2000000135749509 0.2999999302396414 2.2213997840713846 2.221399782048772 4.0768586060112275e-07 0.0 0.0 0.0 0.0 0.0 0.0 7.884023224240099e-07 6.306943271088288e-07 -6.402812084818602e-07 -6.378272306199992e-08 1.0163779780213731e-07 -6.888775341489736e-12 -0.2500000000000008 -0.20000000000000054 0.30000000000000243 2.2214000002904304 2.2213999998359277 4.3711993450817594e-10 0.0 0.0 0.0 0.0 0.0 0.0
