mkrssg/UniversalRobots/rtde_client_3.5/examples/movej/movej_3AchsenGleichzeitig.csv
timestamp target_q_0 target_q_1 target_q_2 target_q_3 target_q_4 target_q_5 target_qd_0 target_qd_1 target_qd_2 target_qd_3 target_qd_4 target_qd_5 target_qdd_0 target_qdd_1 target_qdd_2 target_qdd_3 target_qdd_4 target_qdd_5 target_current_0 target_current_1 target_current_2 target_current_3 target_current_4 target_current_5 target_moment_0 target_moment_1 target_moment_2 target_moment_3 target_moment_4 target_moment_5 actual_q_0 actual_q_1 actual_q_2 actual_q_3 actual_q_4 actual_q_5 actual_qd_0 actual_qd_1 actual_qd_2 actual_qd_3 actual_qd_4 actual_qd_5 actual_current_0 actual_current_1 actual_current_2 actual_current_3 actual_current_4 actual_current_5 joint_control_output_0 joint_control_output_1 joint_control_output_2 joint_control_output_3 joint_control_output_4 joint_control_output_5 actual_TCP_pose_0 actual_TCP_pose_1 actual_TCP_pose_2 actual_TCP_pose_3 actual_TCP_pose_4 actual_TCP_pose_5 actual_TCP_speed_0 actual_TCP_speed_1 actual_TCP_speed_2 actual_TCP_speed_3 actual_TCP_speed_4 actual_TCP_speed_5 actual_TCP_force_0 actual_TCP_force_1 actual_TCP_force_2 actual_TCP_force_3 actual_TCP_force_4 actual_TCP_force_5 target_TCP_pose_0 target_TCP_pose_1 target_TCP_pose_2 target_TCP_pose_3 target_TCP_pose_4 target_TCP_pose_5 target_TCP_speed_0 target_TCP_speed_1 target_TCP_speed_2 target_TCP_speed_3 target_TCP_speed_4 target_TCP_speed_5
1230.7839999999999 0.0 -1.5707963267948966 1.570796326794897 -1.5707963267948966 -1.5707963267948974 5.347285114698508e-16 0.0 0.0 0.0 0.0 0.0 0.0 0.0 0.0 0.0 0.0 0.0 0.0 1.9987199928536514e-26 -0.5442396572688689 -0.7673661111166267 -0.22935479646650192 -1.3146106389479766e-11 0.0 2.6243193506168444e-25 -7.14586669994025 -7.145866699940251 -1.0424175499402513 -5.974905354018553e-11 0.0 0.0 -1.570796314870016 1.5707963705062866 -1.570796314870016 -1.570796314870016 5.347285114698508e-16 0.0 0.0 0.0 0.0 0.0 0.0 1.998719927374967e-26 -0.5442396402359009 -0.7673661112785339 -0.22935479879379272 -1.3146106599137841e-11 0.0 1.998719927374967e-26 -0.5442396402359009 -0.7673661112785339 -0.22935479879379272 -1.3146106599137841e-11 0.0 -0.2985999973554403 -0.11235000099231761 0.3136499823461779 2.221441219594292 2.2214412191386645 6.515886891884209e-08 0.0 0.0 0.0 0.0 0.0 0.0 9.240738067961096e-07 3.4768818278582924e-07 4.2531464706885504e-08 -2.847566213320247e-08 6.147405312801053e-08 -2.650151148498864e-15 -0.29859999998320197 -0.11235000001566982 0.31364999997695664 2.221441469306996 2.2214414688513697 4.556264692367111e-10 0.0 0.0 0.0 0.0 0.0 0.0
1230.792 0.0 -1.5707963267948966 1.570796326794897 -1.5707963267948966 -1.5707963267948974 5.347285114698508e-16 0.0 0.0 0.0 0.0 0.0 0.0 0.0 0.0 0.0 0.0 0.0 0.0 1.9987199928536514e-26 -0.5442396572688689 -0.7673661111166267 -0.22935479646650192 -1.3146106389479766e-11 0.0 2.6243193506168444e-25 -7.14586669994025 -7.145866699940251 -1.0424175499402513 -5.974905354018553e-11 0.0 0.0 -1.570796314870016 1.5707963705062866 -1.570796314870016 -1.570796314870016 5.347285114698508e-16 0.0 0.0 0.0 0.0 0.0 0.0 1.998719927374967e-26 -0.5442396402359009 -0.7673661112785339 -0.22935479879379272 -1.3146106599137841e-11 0.0 1.998719927374967e-26 -0.5442396402359009 -0.7673661112785339 -0.22935479879379272 -1.3146106599137841e-11 0.0 -0.2985999973554403 -0.11235000099231761 0.3136499823461779 2.221441219594292 2.2214412191386645 6.515886891884209e-08 0.0 0.0 0.0 0.0 0.0 0.0 9.240738067961096e-07 3.4768818278582924e-07 4.2531464706885504e-08 -2.847566213320247e-08 6.147405312801053e-08 -2.650151148498864e-15 -0.29859999998320197 -0.11235000001566982 0.31364999997695664 2.221441469306996 2.2214414688513697 4.556264692367111e-10 0.0 0.0 0.0 0.0 0.0 0.0
1230.8 0.0 -1.5707963267948966 1.570796326794897 -1.5707963267948966 -1.5707963267948974 5.347285114698508e-16 0.0 0.0 0.0 0.0 0.0 0.0 0.0 0.0 0.0 0.0 0.0 0.0 1.9987199928536514e-26 -0.5442396572688689 -0.7673661111166267 -0.22935479646650192 -1.3146106389479766e-11 0.0 2.6243193506168444e-25 -7.14586669994025 -7.145866699940251 -1.0424175499402513 -5.974905354018553e-11 0.0 0.0 -1.570796314870016 1.5707963705062866 -1.570796314870016 -1.570796314870016 5.347285114698508e-16 0.0 0.0 0.0 0.0 0.0 0.0 1.998719927374967e-26 -0.5442396402359009 -0.7673661112785339 -0.22935479879379272 -1.3146106599137841e-11 0.0 1.998719927374967e-26 -0.5442396402359009 -0.7673661112785339 -0.22935479879379272 -1.3146106599137841e-11 0.0 -0.2985999973554403 -0.11235000099231761 0.3136499823461779 2.221441219594292 2.2214412191386645 6.515886891884209e-08 0.0 0.0 0.0 0.0 0.0 0.0 9.240738067961096e-07 3.4768818278582924e-07 4.2531464706885504e-08 -2.847566213320247e-08 6.147405312801053e-08 -2.650151148498864e-15 -0.29859999998320197 -0.11235000001566982 0.31364999997695664 2.221441469306996 2.2214414688513697 4.556264692367111e-10 0.0 0.0 0.0 0.0 0.0 0.0
1230.808 0.0 -1.5707963267948966 1.570796326794897 -1.5707963267948966 -1.5707963267948974 5.347285114698508e-16 0.0 0.0 0.0 0.0 0.0 0.0 0.0 0.0 0.0 0.0 0.0 0.0 1.9987199928536514e-26 -0.5442396572688689 -0.7673661111166267 -0.22935479646650192 -1.3146106389479766e-11 0.0 2.6243193506168444e-25 -7.14586669994025 -7.145866699940251 -1.0424175499402513 -5.974905354018553e-11 0.0 0.0 -1.570796314870016 1.5707963705062866 -1.570796314870016 -1.570796314870016 5.347285114698508e-16 0.0 0.0 0.0 0.0 0.0 0.0 1.998719927374967e-26 -0.5442396402359009 -0.7673661112785339 -0.22935479879379272 -1.3146106599137841e-11 0.0 1.998719927374967e-26 -0.5442396402359009 -0.7673661112785339 -0.22935479879379272 -1.3146106599137841e-11 0.0 -0.2985999973554403 -0.11235000099231761 0.3136499823461779 2.221441219594292 2.2214412191386645 6.515886891884209e-08 0.0 0.0 0.0 0.0 0.0 0.0 9.240738067961096e-07 3.4768818278582924e-07 4.2531464706885504e-08 -2.847566213320247e-08 6.147405312801053e-08 -2.650151148498864e-15 -0.29859999998320197 -0.11235000001566982 0.31364999997695664 2.221441469306996 2.2214414688513697 4.556264692367111e-10 0.0 0.0 0.0 0.0 0.0 0.0
1230.816 0.0 -1.5707963267948966 1.570796326794897 -1.5707963267948966 -1.5707963267948974 5.347285114698508e-16 0.0 0.0 0.0 0.0 0.0 0.0 0.0 0.0 0.0 0.0 0.0 0.0 1.9987199928536514e-26 -0.5442396572688689 -0.7673661111166267 -0.22935479646650192 -1.3146106389479766e-11 0.0 2.6243193506168444e-25 -7.14586669994025 -7.145866699940251 -1.0424175499402513 -5.974905354018553e-11 0.0 0.0 -1.570796314870016 1.5707963705062866 -1.570796314870016 -1.570796314870016 5.347285114698508e-16 0.0 0.0 0.0 0.0 0.0 0.0 1.998719927374967e-26 -0.5442396402359009 -0.7673661112785339 -0.22935479879379272 -1.3146106599137841e-11 0.0 1.998719927374967e-26 -0.5442396402359009 -0.7673661112785339 -0.22935479879379272 -1.3146106599137841e-11 0.0 -0.2985999973554403 -0.11235000099231761 0.3136499823461779 2.221441219594292 2.2214412191386645 6.515886891884209e-08 0.0 0.0 0.0 0.0 0.0 0.0 9.240738067961096e-07 3.4768818278582924e-07 4.2531464706885504e-08 -2.847566213320247e-08 6.147405312801053e-08 -2.650151148498864e-15 -0.29859999998320197 -0.11235000001566982 0.31364999997695664 2.221441469306996 2.2214414688513697 4.556264692367111e-10 0.0 0.0 0.0 0.0 0.0 0.0
1230.8239999999998 0.0 -1.5707963267948966 1.570796326794897 -1.5707963267948966 -1.5707963267948974 5.347285114698508e-16 0.0 0.0 0.0 0.0 0.0 0.0 0.0 0.0 0.0 0.0 0.0 0.0 1.9987199928536514e-26 -0.5442396572688689 -0.7673661111166267 -0.22935479646650192 -1.3146106389479766e-11 0.0 2.6243193506168444e-25 -7.14586669994025 -7.145866699940251 -1.0424175499402513 -5.974905354018553e-11 0.0 0.0 -1.570796314870016 1.5707963705062866 -1.570796314870016 -1.570796314870016 5.347285114698508e-16 0.0 0.0 0.0 0.0 0.0 0.0 1.998719927374967e-26 -0.5442396402359009 -0.7673661112785339 -0.22935479879379272 -1.3146106599137841e-11 0.0 1.998719927374967e-26 -0.5442396402359009 -0.7673661112785339 -0.22935479879379272 -1.3146106599137841e-11 0.0 -0.2985999973554403 -0.11235000099231761 0.3136499823461779 2.221441219594292 2.2214412191386645 6.515886891884209e-08 0.0 0.0 0.0 0.0 0.0 0.0 9.240738067961096e-07 3.4768818278582924e-07 4.2531464706885504e-08 -2.847566213320247e-08 6.147405312801053e-08 -2.650151148498864e-15 -0.29859999998320197 -0.11235000001566982 0.31364999997695664 2.221441469306996 2.2214414688513697 4.556264692367111e-10 0.0 0.0 0.0 0.0 0.0 0.0
1230.8319999999999 0.0 -1.5707963267948966 1.570796326794897 -1.5707963267948966 -1.5707963267948974 5.347285114698508e-16 0.0 0.0 0.0 0.0 0.0 0.0 0.0 0.0 0.0 0.0 0.0 0.0 1.9987199928536514e-26 -0.5442396572688689 -0.7673661111166267 -0.22935479646650192 -1.3146106389479766e-11 0.0 2.6243193506168444e-25 -7.14586669994025 -7.145866699940251 -1.0424175499402513 -5.974905354018553e-11 0.0 0.0 -1.570796314870016 1.5707963705062866 -1.570796314870016 -1.570796314870016 5.347285114698508e-16 0.0 0.0 0.0 0.0 0.0 0.0 1.998719927374967e-26 -0.5442396402359009 -0.7673661112785339 -0.22935479879379272 -1.3146106599137841e-11 0.0 1.998719927374967e-26 -0.5442396402359009 -0.7673661112785339 -0.22935479879379272 -1.3146106599137841e-11 0.0 -0.2985999973554403 -0.11235000099231761 0.3136499823461779 2.221441219594292 2.2214412191386645 6.515886891884209e-08 0.0 0.0 0.0 0.0 0.0 0.0 9.240738067961096e-07 3.4768818278582924e-07 4.2531464706885504e-08 -2.847566213320247e-08 6.147405312801053e-08 -2.650151148498864e-15 -0.29859999998320197 -0.11235000001566982 0.31364999997695664 2.221441469306996 2.2214414688513697 4.556264692367111e-10 0.0 0.0 0.0 0.0 0.0 0.0
1230.84 0.0 -1.5707963267948966 1.570796326794897 -1.5707963267948966 -1.5707963267948974 5.347285114698508e-16 0.0 0.0 0.0 0.0 0.0 0.0 0.0 0.0 0.0 0.0 0.0 0.0 1.9987199928536514e-26 -0.5442396572688689 -0.7673661111166267 -0.22935479646650192 -1.3146106389479766e-11 0.0 2.6243193506168444e-25 -7.14586669994025 -7.145866699940251 -1.0424175499402513 -5.974905354018553e-11 0.0 0.0 -1.570796314870016 1.5707963705062866 -1.570796314870016 -1.570796314870016 5.347285114698508e-16 0.0 0.0 0.0 0.0 0.0 0.0 1.998719927374967e-26 -0.5442396402359009 -0.7673661112785339 -0.22935479879379272 -1.3146106599137841e-11 0.0 1.998719927374967e-26 -0.5442396402359009 -0.7673661112785339 -0.22935479879379272 -1.3146106599137841e-11 0.0 -0.2985999973554403 -0.11235000099231761 0.3136499823461779 2.221441219594292 2.2214412191386645 6.515886891884209e-08 0.0 0.0 0.0 0.0 0.0 0.0 9.240738067961096e-07 3.4768818278582924e-07 4.2531464706885504e-08 -2.847566213320247e-08 6.147405312801053e-08 -2.650151148498864e-15 -0.29859999998320197 -0.11235000001566982 0.31364999997695664 2.221441469306996 2.2214414688513697 4.556264692367111e-10 0.0 0.0 0.0 0.0 0.0 0.0
1230.848 0.0 -1.5707963267948966 1.570796326794897 -1.5707963267948966 -1.5707963267948974 5.347285114698508e-16 0.0 0.0 0.0 0.0 0.0 0.0 0.0 0.0 0.0 0.0 0.0 0.0 1.9987199928536514e-26 -0.5442396572688689 -0.7673661111166267 -0.22935479646650192 -1.3146106389479766e-11 0.0 2.6243193506168444e-25 -7.14586669994025 -7.145866699940251 -1.0424175499402513 -5.974905354018553e-11 0.0 0.0 -1.570796314870016 1.5707963705062866 -1.570796314870016 -1.570796314870016 5.347285114698508e-16 0.0 0.0 0.0 0.0 0.0 0.0 1.998719927374967e-26 -0.5442396402359009 -0.7673661112785339 -0.22935479879379272 -1.3146106599137841e-11 0.0 1.998719927374967e-26 -0.5442396402359009 -0.7673661112785339 -0.22935479879379272 -1.3146106599137841e-11 0.0 -0.2985999973554403 -0.11235000099231761 0.3136499823461779 2.221441219594292 2.2214412191386645 6.515886891884209e-08 0.0 0.0 0.0 0.0 0.0 0.0 9.240738067961096e-07 3.4768818278582924e-07 4.2531464706885504e-08 -2.847566213320247e-08 6.147405312801053e-08 -2.650151148498864e-15 -0.29859999998320197 -0.11235000001566982 0.31364999997695664 2.221441469306996 2.2214414688513697 4.556264692367111e-10 0.0 0.0 0.0 0.0 0.0 0.0
1230.856 0.0 -1.5707963267948966 1.570796326794897 -1.5707963267948966 -1.5707963267948974 5.347285114698508e-16 0.0 0.0 0.0 0.0 0.0 0.0 0.0 0.0 0.0 0.0 0.0 0.0 1.9987199928536514e-26 -0.5442396572688689 -0.7673661111166267 -0.22935479646650192 -1.3146106389479766e-11 0.0 2.6243193506168444e-25 -7.14586669994025 -7.145866699940251 -1.0424175499402513 -5.974905354018553e-11 0.0 0.0 -1.570796314870016 1.5707963705062866 -1.570796314870016 -1.570796314870016 5.347285114698508e-16 0.0 0.0 0.0 0.0 0.0 0.0 1.998719927374967e-26 -0.5442396402359009 -0.7673661112785339 -0.22935479879379272 -1.3146106599137841e-11 0.0 1.998719927374967e-26 -0.5442396402359009 -0.7673661112785339 -0.22935479879379272 -1.3146106599137841e-11 0.0 -0.2985999973554403 -0.11235000099231761 0.3136499823461779 2.221441219594292 2.2214412191386645 6.515886891884209e-08 0.0 0.0 0.0 0.0 0.0 0.0 9.240738067961096e-07 3.4768818278582924e-07 4.2531464706885504e-08 -2.847566213320247e-08 6.147405312801053e-08 -2.650151148498864e-15 -0.29859999998320197 -0.11235000001566982 0.31364999997695664 2.221441469306996 2.2214414688513697 4.556264692367111e-10 0.0 0.0 0.0 0.0 0.0 0.0
1230.864 0.0 -1.5707963267948966 1.570796326794897 -1.5707963267948966 -1.5707963267948974 5.347285114698508e-16 0.0 0.0 0.0 0.0 0.0 0.0 0.0 0.0 0.0 0.0 0.0 0.0 1.9987199928536514e-26 -0.5442396572688689 -0.7673661111166267 -0.22935479646650192 -1.3146106389479766e-11 0.0 2.6243193506168444e-25 -7.14586669994025 -7.145866699940251 -1.0424175499402513 -5.974905354018553e-11 0.0 0.0 -1.570796314870016 1.5707963705062866 -1.570796314870016 -1.570796314870016 5.347285114698508e-16 0.0 0.0 0.0 0.0 0.0 0.0 1.998719927374967e-26 -0.5442396402359009 -0.7673661112785339 -0.22935479879379272 -1.3146106599137841e-11 0.0 1.998719927374967e-26 -0.5442396402359009 -0.7673661112785339 -0.22935479879379272 -1.3146106599137841e-11 0.0 -0.2985999973554403 -0.11235000099231761 0.3136499823461779 2.221441219594292 2.2214412191386645 6.515886891884209e-08 0.0 0.0 0.0 0.0 0.0 0.0 9.240738067961096e-07 3.4768818278582924e-07 4.2531464706885504e-08 -2.847566213320247e-08 6.147405312801053e-08 -2.650151148498864e-15 -0.29859999998320197 -0.11235000001566982 0.31364999997695664 2.221441469306996 2.2214414688513697 4.556264692367111e-10 0.0 0.0 0.0 0.0 0.0 0.0
1230.8719999999998 0.0 -1.5707963267948966 1.570796326794897 -1.5707963267948966 -1.5707963267948974 5.347285114698508e-16 0.0 0.0 0.0 0.0 0.0 0.0 0.0 0.0 0.0 0.0 0.0 0.0 1.9987199928536514e-26 -0.5442396572688689 -0.7673661111166267 -0.22935479646650192 -1.3146106389479766e-11 0.0 2.6243193506168444e-25 -7.14586669994025 -7.145866699940251 -1.0424175499402513 -5.974905354018553e-11 0.0 0.0 -1.570796314870016 1.5707963705062866 -1.570796314870016 -1.570796314870016 5.347285114698508e-16 0.0 0.0 0.0 0.0 0.0 0.0 1.998719927374967e-26 -0.5442396402359009 -0.7673661112785339 -0.22935479879379272 -1.3146106599137841e-11 0.0 1.998719927374967e-26 -0.5442396402359009 -0.7673661112785339 -0.22935479879379272 -1.3146106599137841e-11 0.0 -0.2985999973554403 -0.11235000099231761 0.3136499823461779 2.221441219594292 2.2214412191386645 6.515886891884209e-08 0.0 0.0 0.0 0.0 0.0 0.0 9.240738067961096e-07 3.4768818278582924e-07 4.2531464706885504e-08 -2.847566213320247e-08 6.147405312801053e-08 -2.650151148498864e-15 -0.29859999998320197 -0.11235000001566982 0.31364999997695664 2.221441469306996 2.2214414688513697 4.556264692367111e-10 0.0 0.0 0.0 0.0 0.0 0.0
1230.8799999999999 0.0 -1.5707963267948966 1.570796326794897 -1.5707963267948966 -1.5707963267948974 5.347285114698508e-16 0.0 0.0 0.0 0.0 0.0 0.0 0.0 0.0 0.0 0.0 0.0 0.0 1.9987199928536514e-26 -0.5442396572688689 -0.7673661111166267 -0.22935479646650192 -1.3146106389479766e-11 0.0 2.6243193506168444e-25 -7.14586669994025 -7.145866699940251 -1.0424175499402513 -5.974905354018553e-11 0.0 0.0 -1.570796314870016 1.5707963705062866 -1.570796314870016 -1.570796314870016 5.347285114698508e-16 0.0 0.0 0.0 0.0 0.0 0.0 1.998719927374967e-26 -0.5442396402359009 -0.7673661112785339 -0.22935479879379272 -1.3146106599137841e-11 0.0 1.998719927374967e-26 -0.5442396402359009 -0.7673661112785339 -0.22935479879379272 -1.3146106599137841e-11 0.0 -0.2985999973554403 -0.11235000099231761 0.3136499823461779 2.221441219594292 2.2214412191386645 6.515886891884209e-08 0.0 0.0 0.0 0.0 0.0 0.0 9.240738067961096e-07 3.4768818278582924e-07 4.2531464706885504e-08 -2.847566213320247e-08 6.147405312801053e-08 -2.650151148498864e-15 -0.29859999998320197 -0.11235000001566982 0.31364999997695664 2.221441469306996 2.2214414688513697 4.556264692367111e-10 0.0 0.0 0.0 0.0 0.0 0.0
1230.888 0.0 -1.5707963267948966 1.570796326794897 -1.5707963267948966 -1.5707963267948974 5.347285114698508e-16 0.0 0.0 0.0 0.0 0.0 0.0 0.0 0.0 0.0 0.0 0.0 0.0 1.9987199928536514e-26 -0.5442396572688689 -0.7673661111166267 -0.22935479646650192 -1.3146106389479766e-11 0.0 2.6243193506168444e-25 -7.14586669994025 -7.145866699940251 -1.0424175499402513 -5.974905354018553e-11 0.0 0.0 -1.570796314870016 1.5707963705062866 -1.570796314870016 -1.570796314870016 5.347285114698508e-16 0.0 0.0 0.0 0.0 0.0 0.0 1.998719927374967e-26 -0.5442396402359009 -0.7673661112785339 -0.22935479879379272 -1.3146106599137841e-11 0.0 1.998719927374967e-26 -0.5442396402359009 -0.7673661112785339 -0.22935479879379272 -1.3146106599137841e-11 0.0 -0.2985999973554403 -0.11235000099231761 0.3136499823461779 2.221441219594292 2.2214412191386645 6.515886891884209e-08 0.0 0.0 0.0 0.0 0.0 0.0 9.240738067961096e-07 3.4768818278582924e-07 4.2531464706885504e-08 -2.847566213320247e-08 6.147405312801053e-08 -2.650151148498864e-15 -0.29859999998320197 -0.11235000001566982 0.31364999997695664 2.221441469306996 2.2214414688513697 4.556264692367111e-10 0.0 0.0 0.0 0.0 0.0 0.0
1230.896 0.0 -1.5707963267948966 1.570796326794897 -1.5707963267948966 -1.5707963267948974 5.347285114698508e-16 0.0 0.0 0.0 0.0 0.0 0.0 0.0 0.0 0.0 0.0 0.0 0.0 1.9987199928536514e-26 -0.5442396572688689 -0.7673661111166267 -0.22935479646650192 -1.3146106389479766e-11 0.0 2.6243193506168444e-25 -7.14586669994025 -7.145866699940251 -1.0424175499402513 -5.974905354018553e-11 0.0 0.0 -1.570796314870016 1.5707963705062866 -1.570796314870016 -1.570796314870016 5.347285114698508e-16 0.0 0.0 0.0 0.0 0.0 0.0 1.998719927374967e-26 -0.5442396402359009 -0.7673661112785339 -0.22935479879379272 -1.3146106599137841e-11 0.0 1.998719927374967e-26 -0.5442396402359009 -0.7673661112785339 -0.22935479879379272 -1.3146106599137841e-11 0.0 -0.2985999973554403 -0.11235000099231761 0.3136499823461779 2.221441219594292 2.2214412191386645 6.515886891884209e-08 0.0 0.0 0.0 0.0 0.0 0.0 9.240738067961096e-07 3.4768818278582924e-07 4.2531464706885504e-08 -2.847566213320247e-08 6.147405312801053e-08 -2.650151148498864e-15 -0.29859999998320197 -0.11235000001566982 0.31364999997695664 2.221441469306996 2.2214414688513697 4.556264692367111e-10 0.0 0.0 0.0 0.0 0.0 0.0
1230.904 0.0 -1.5707963267948966 1.570796326794897 -1.5707963267948966 -1.5707963267948974 5.347285114698508e-16 0.0 0.0 0.0 0.0 0.0 0.0 0.0 0.0 0.0 0.0 0.0 0.0 1.9987199928536514e-26 -0.5442396572688689 -0.7673661111166267 -0.22935479646650192 -1.3146106389479766e-11 0.0 2.6243193506168444e-25 -7.14586669994025 -7.145866699940251 -1.0424175499402513 -5.974905354018553e-11 0.0 0.0 -1.570796314870016 1.5707963705062866 -1.570796314870016 -1.570796314870016 5.347285114698508e-16 0.0 0.0 0.0 0.0 0.0 0.0 1.998719927374967e-26 -0.5442396402359009 -0.7673661112785339 -0.22935479879379272 -1.3146106599137841e-11 0.0 1.998719927374967e-26 -0.5442396402359009 -0.7673661112785339 -0.22935479879379272 -1.3146106599137841e-11 0.0 -0.2985999973554403 -0.11235000099231761 0.3136499823461779 2.221441219594292 2.2214412191386645 6.515886891884209e-08 0.0 0.0 0.0 0.0 0.0 0.0 9.240738067961096e-07 3.4768818278582924e-07 4.2531464706885504e-08 -2.847566213320247e-08 6.147405312801053e-08 -2.650151148498864e-15 -0.29859999998320197 -0.11235000001566982 0.31364999997695664 2.221441469306996 2.2214414688513697 4.556264692367111e-10 0.0 0.0 0.0 0.0 0.0 0.0
1230.912 0.0 -1.5707963267948966 1.570796326794897 -1.5707963267948966 -1.5707963267948974 5.347285114698508e-16 0.0 0.0 0.0 0.0 0.0 0.0 0.0 0.0 0.0 0.0 0.0 0.0 1.9987199928536514e-26 -0.5442396572688689 -0.7673661111166267 -0.22935479646650192 -1.3146106389479766e-11 0.0 2.6243193506168444e-25 -7.14586669994025 -7.145866699940251 -1.0424175499402513 -5.974905354018553e-11 0.0 0.0 -1.570796314870016 1.5707963705062866 -1.570796314870016 -1.570796314870016 5.347285114698508e-16 0.0 0.0 0.0 0.0 0.0 0.0 1.998719927374967e-26 -0.5442396402359009 -0.7673661112785339 -0.22935479879379272 -1.3146106599137841e-11 0.0 1.998719927374967e-26 -0.5442396402359009 -0.7673661112785339 -0.22935479879379272 -1.3146106599137841e-11 0.0 -0.2985999973554403 -0.11235000099231761 0.3136499823461779 2.221441219594292 2.2214412191386645 6.515886891884209e-08 0.0 0.0 0.0 0.0 0.0 0.0 9.240738067961096e-07 3.4768818278582924e-07 4.2531464706885504e-08 -2.847566213320247e-08 6.147405312801053e-08 -2.650151148498864e-15 -0.29859999998320197 -0.11235000001566982 0.31364999997695664 2.221441469306996 2.2214414688513697 4.556264692367111e-10 0.0 0.0 0.0 0.0 0.0 0.0
1230.9199999999998 0.0 -1.5707963267948966 1.570796326794897 -1.5707963267948966 -1.5707963267948974 5.347285114698508e-16 0.0 0.0 0.0 0.0 0.0 0.0 0.0 0.0 0.0 0.0 0.0 0.0 1.9987199928536514e-26 -0.5442396572688689 -0.7673661111166267 -0.22935479646650192 -1.3146106389479766e-11 0.0 2.6243193506168444e-25 -7.14586669994025 -7.145866699940251 -1.0424175499402513 -5.974905354018553e-11 0.0 0.0 -1.570796314870016 1.5707963705062866 -1.570796314870016 -1.570796314870016 5.347285114698508e-16 0.0 0.0 0.0 0.0 0.0 0.0 1.998719927374967e-26 -0.5442396402359009 -0.7673661112785339 -0.22935479879379272 -1.3146106599137841e-11 0.0 1.998719927374967e-26 -0.5442396402359009 -0.7673661112785339 -0.22935479879379272 -1.3146106599137841e-11 0.0 -0.2985999973554403 -0.11235000099231761 0.3136499823461779 2.221441219594292 2.2214412191386645 6.515886891884209e-08 0.0 0.0 0.0 0.0 0.0 0.0 9.240738067961096e-07 3.4768818278582924e-07 4.2531464706885504e-08 -2.847566213320247e-08 6.147405312801053e-08 -2.650151148498864e-15 -0.29859999998320197 -0.11235000001566982 0.31364999997695664 2.221441469306996 2.2214414688513697 4.556264692367111e-10 0.0 0.0 0.0 0.0 0.0 0.0
1230.9279999999999 0.0 -1.5707963267948966 1.570796326794897 -1.5707963267948966 -1.5707963267948974 5.347285114698508e-16 0.0 0.0 0.0 0.0 0.0 0.0 0.0 0.0 0.0 0.0 0.0 0.0 1.9987199928536514e-26 -0.5442396572688689 -0.7673661111166267 -0.22935479646650192 -1.3146106389479766e-11 0.0 2.6243193506168444e-25 -7.14586669994025 -7.145866699940251 -1.0424175499402513 -5.974905354018553e-11 0.0 0.0 -1.570796314870016 1.5707963705062866 -1.570796314870016 -1.570796314870016 5.347285114698508e-16 0.0 0.0 0.0 0.0 0.0 0.0 1.998719927374967e-26 -0.5442396402359009 -0.7673661112785339 -0.22935479879379272 -1.3146106599137841e-11 0.0 1.998719927374967e-26 -0.5442396402359009 -0.7673661112785339 -0.22935479879379272 -1.3146106599137841e-11 0.0 -0.2985999973554403 -0.11235000099231761 0.3136499823461779 2.221441219594292 2.2214412191386645 6.515886891884209e-08 0.0 0.0 0.0 0.0 0.0 0.0 9.240738067961096e-07 3.4768818278582924e-07 4.2531464706885504e-08 -2.847566213320247e-08 6.147405312801053e-08 -2.650151148498864e-15 -0.29859999998320197 -0.11235000001566982 0.31364999997695664 2.221441469306996 2.2214414688513697 4.556264692367111e-10 0.0 0.0 0.0 0.0 0.0 0.0
1230.936 0.0 -1.5707963267948966 1.570796326794897 -1.5707963267948966 -1.5707963267948974 5.347285114698508e-16 0.0 0.0 0.0 0.0 0.0 0.0 0.0 0.0 0.0 0.0 0.0 0.0 1.9987199928536514e-26 -0.5442396572688689 -0.7673661111166267 -0.22935479646650192 -1.3146106389479766e-11 0.0 2.6243193506168444e-25 -7.14586669994025 -7.145866699940251 -1.0424175499402513 -5.974905354018553e-11 0.0 0.0 -1.570796314870016 1.5707963705062866 -1.570796314870016 -1.570796314870016 5.347285114698508e-16 0.0 0.0 0.0 0.0 0.0 0.0 1.998719927374967e-26 -0.5442396402359009 -0.7673661112785339 -0.22935479879379272 -1.3146106599137841e-11 0.0 1.998719927374967e-26 -0.5442396402359009 -0.7673661112785339 -0.22935479879379272 -1.3146106599137841e-11 0.0 -0.2985999973554403 -0.11235000099231761 0.3136499823461779 2.221441219594292 2.2214412191386645 6.515886891884209e-08 0.0 0.0 0.0 0.0 0.0 0.0 9.240738067961096e-07 3.4768818278582924e-07 4.2531464706885504e-08 -2.847566213320247e-08 6.147405312801053e-08 -2.650151148498864e-15 -0.29859999998320197 -0.11235000001566982 0.31364999997695664 2.221441469306996 2.2214414688513697 4.556264692367111e-10 0.0 0.0 0.0 0.0 0.0 0.0
1230.944 0.0 -1.5707963267948966 1.570796326794897 -1.5707963267948966 -1.5707963267948974 5.347285114698508e-16 0.0 0.0 0.0 0.0 0.0 0.0 0.0 0.0 0.0 0.0 0.0 0.0 1.9987199928536514e-26 -0.5442396572688689 -0.7673661111166267 -0.22935479646650192 -1.3146106389479766e-11 0.0 2.6243193506168444e-25 -7.14586669994025 -7.145866699940251 -1.0424175499402513 -5.974905354018553e-11 0.0 0.0 -1.570796314870016 1.5707963705062866 -1.570796314870016 -1.570796314870016 5.347285114698508e-16 0.0 0.0 0.0 0.0 0.0 0.0 1.998719927374967e-26 -0.5442396402359009 -0.7673661112785339 -0.22935479879379272 -1.3146106599137841e-11 0.0 1.998719927374967e-26 -0.5442396402359009 -0.7673661112785339 -0.22935479879379272 -1.3146106599137841e-11 0.0 -0.2985999973554403 -0.11235000099231761 0.3136499823461779 2.221441219594292 2.2214412191386645 6.515886891884209e-08 0.0 0.0 0.0 0.0 0.0 0.0 9.240738067961096e-07 3.4768818278582924e-07 4.2531464706885504e-08 -2.847566213320247e-08 6.147405312801053e-08 -2.650151148498864e-15 -0.29859999998320197 -0.11235000001566982 0.31364999997695664 2.221441469306996 2.2214414688513697 4.556264692367111e-10 0.0 0.0 0.0 0.0 0.0 0.0
1230.952 0.0 -1.5707963267948966 1.570796326794897 -1.5707963267948966 -1.5707963267948974 5.347285114698508e-16 0.0 0.0 0.0 0.0 0.0 0.0 0.0 0.0 0.0 0.0 0.0 0.0 1.9987199928536514e-26 -0.5442396572688689 -0.7673661111166267 -0.22935479646650192 -1.3146106389479766e-11 0.0 2.6243193506168444e-25 -7.14586669994025 -7.145866699940251 -1.0424175499402513 -5.974905354018553e-11 0.0 0.0 -1.570796314870016 1.5707963705062866 -1.570796314870016 -1.570796314870016 5.347285114698508e-16 0.0 0.0 0.0 0.0 0.0 0.0 1.998719927374967e-26 -0.5442396402359009 -0.7673661112785339 -0.22935479879379272 -1.3146106599137841e-11 0.0 1.998719927374967e-26 -0.5442396402359009 -0.7673661112785339 -0.22935479879379272 -1.3146106599137841e-11 0.0 -0.2985999973554403 -0.11235000099231761 0.3136499823461779 2.221441219594292 2.2214412191386645 6.515886891884209e-08 0.0 0.0 0.0 0.0 0.0 0.0 9.240738067961096e-07 3.4768818278582924e-07 4.2531464706885504e-08 -2.847566213320247e-08 6.147405312801053e-08 -2.650151148498864e-15 -0.29859999998320197 -0.11235000001566982 0.31364999997695664 2.221441469306996 2.2214414688513697 4.556264692367111e-10 0.0 0.0 0.0 0.0 0.0 0.0
1230.96 0.0 -1.5707963267948966 1.570796326794897 -1.5707963267948966 -1.5707963267948974 5.347285114698508e-16 0.0 0.0 0.0 0.0 0.0 0.0 0.0 0.0 0.0 0.0 0.0 0.0 1.9987199928536514e-26 -0.5442396572688689 -0.7673661111166267 -0.22935479646650192 -1.3146106389479766e-11 0.0 2.6243193506168444e-25 -7.14586669994025 -7.145866699940251 -1.0424175499402513 -5.974905354018553e-11 0.0 0.0 -1.570796314870016 1.5707963705062866 -1.570796314870016 -1.570796314870016 5.347285114698508e-16 0.0 0.0 0.0 0.0 0.0 0.0 1.998719927374967e-26 -0.5442396402359009 -0.7673661112785339 -0.22935479879379272 -1.3146106599137841e-11 0.0 1.998719927374967e-26 -0.5442396402359009 -0.7673661112785339 -0.22935479879379272 -1.3146106599137841e-11 0.0 -0.2985999973554403 -0.11235000099231761 0.3136499823461779 2.221441219594292 2.2214412191386645 6.515886891884209e-08 0.0 0.0 0.0 0.0 0.0 0.0 9.240738067961096e-07 3.4768818278582924e-07 4.2531464706885504e-08 -2.847566213320247e-08 6.147405312801053e-08 -2.650151148498864e-15 -0.29859999998320197 -0.11235000001566982 0.31364999997695664 2.221441469306996 2.2214414688513697 4.556264692367111e-10 0.0 0.0 0.0 0.0 0.0 0.0
1230.9679999999998 0.0 -1.5707963267948966 1.570796326794897 -1.5707963267948966 -1.5707963267948974 5.347285114698508e-16 0.0 0.0 0.0 0.0 0.0 0.0 0.0 0.0 0.0 0.0 0.0 0.0 1.9987199928536514e-26 -0.5442396572688689 -0.7673661111166267 -0.22935479646650192 -1.3146106389479766e-11 0.0 2.6243193506168444e-25 -7.14586669994025 -7.145866699940251 -1.0424175499402513 -5.974905354018553e-11 0.0 0.0 -1.570796314870016 1.5707963705062866 -1.570796314870016 -1.570796314870016 5.347285114698508e-16 0.0 0.0 0.0 0.0 0.0 0.0 1.998719927374967e-26 -0.5442396402359009 -0.7673661112785339 -0.22935479879379272 -1.3146106599137841e-11 0.0 1.998719927374967e-26 -0.5442396402359009 -0.7673661112785339 -0.22935479879379272 -1.3146106599137841e-11 0.0 -0.2985999973554403 -0.11235000099231761 0.3136499823461779 2.221441219594292 2.2214412191386645 6.515886891884209e-08 0.0 0.0 0.0 0.0 0.0 0.0 9.240738067961096e-07 3.4768818278582924e-07 4.2531464706885504e-08 -2.847566213320247e-08 6.147405312801053e-08 -2.650151148498864e-15 -0.29859999998320197 -0.11235000001566982 0.31364999997695664 2.221441469306996 2.2214414688513697 4.556264692367111e-10 0.0 0.0 0.0 0.0 0.0 0.0
1230.9759999999999 0.0 -1.5707963267948966 1.570796326794897 -1.5707963267948966 -1.5707963267948974 5.347285114698508e-16 0.0 0.0 0.0 0.0 0.0 0.0 0.0 0.0 0.0 0.0 0.0 0.0 1.9987199928536514e-26 -0.5442396572688689 -0.7673661111166267 -0.22935479646650192 -1.3146106389479766e-11 0.0 2.6243193506168444e-25 -7.14586669994025 -7.145866699940251 -1.0424175499402513 -5.974905354018553e-11 0.0 0.0 -1.570796314870016 1.5707963705062866 -1.570796314870016 -1.570796314870016 5.347285114698508e-16 0.0 0.0 0.0 0.0 0.0 0.0 1.998719927374967e-26 -0.5442396402359009 -0.7673661112785339 -0.22935479879379272 -1.3146106599137841e-11 0.0 1.998719927374967e-26 -0.5442396402359009 -0.7673661112785339 -0.22935479879379272 -1.3146106599137841e-11 0.0 -0.2985999973554403 -0.11235000099231761 0.3136499823461779 2.221441219594292 2.2214412191386645 6.515886891884209e-08 0.0 0.0 0.0 0.0 0.0 0.0 9.240738067961096e-07 3.4768818278582924e-07 4.2531464706885504e-08 -2.847566213320247e-08 6.147405312801053e-08 -2.650151148498864e-15 -0.29859999998320197 -0.11235000001566982 0.31364999997695664 2.221441469306996 2.2214414688513697 4.556264692367111e-10 0.0 0.0 0.0 0.0 0.0 0.0
1230.984 0.0 -1.5707963267948966 1.570796326794897 -1.5707963267948966 -1.5707963267948974 5.347285114698508e-16 0.0 0.0 0.0 0.0 0.0 0.0 0.0 0.0 0.0 0.0 0.0 0.0 1.9987199928536514e-26 -0.5442396572688689 -0.7673661111166267 -0.22935479646650192 -1.3146106389479766e-11 0.0 2.6243193506168444e-25 -7.14586669994025 -7.145866699940251 -1.0424175499402513 -5.974905354018553e-11 0.0 0.0 -1.570796314870016 1.5707963705062866 -1.570796314870016 -1.570796314870016 5.347285114698508e-16 0.0 0.0 0.0 0.0 0.0 0.0 1.998719927374967e-26 -0.5442396402359009 -0.7673661112785339 -0.22935479879379272 -1.3146106599137841e-11 0.0 1.998719927374967e-26 -0.5442396402359009 -0.7673661112785339 -0.22935479879379272 -1.3146106599137841e-11 0.0 -0.2985999973554403 -0.11235000099231761 0.3136499823461779 2.221441219594292 2.2214412191386645 6.515886891884209e-08 0.0 0.0 0.0 0.0 0.0 0.0 9.240738067961096e-07 3.4768818278582924e-07 4.2531464706885504e-08 -2.847566213320247e-08 6.147405312801053e-08 -2.650151148498864e-15 -0.29859999998320197 -0.11235000001566982 0.31364999997695664 2.221441469306996 2.2214414688513697 4.556264692367111e-10 0.0 0.0 0.0 0.0 0.0 0.0
1230.992 0.0 -1.5707963267948966 1.570796326794897 -1.5707963267948966 -1.5707963267948974 5.347285114698508e-16 0.0 0.0 0.0 0.0 0.0 0.0 0.0 0.0 0.0 0.0 0.0 0.0 1.9987199928536514e-26 -0.5442396572688689 -0.7673661111166267 -0.22935479646650192 -1.3146106389479766e-11 0.0 2.6243193506168444e-25 -7.14586669994025 -7.145866699940251 -1.0424175499402513 -5.974905354018553e-11 0.0 0.0 -1.570796314870016 1.5707963705062866 -1.570796314870016 -1.570796314870016 5.347285114698508e-16 0.0 0.0 0.0 0.0 0.0 0.0 1.998719927374967e-26 -0.5442396402359009 -0.7673661112785339 -0.22935479879379272 -1.3146106599137841e-11 0.0 1.998719927374967e-26 -0.5442396402359009 -0.7673661112785339 -0.22935479879379272 -1.3146106599137841e-11 0.0 -0.2985999973554403 -0.11235000099231761 0.3136499823461779 2.221441219594292 2.2214412191386645 6.515886891884209e-08 0.0 0.0 0.0 0.0 0.0 0.0 9.240738067961096e-07 3.4768818278582924e-07 4.2531464706885504e-08 -2.847566213320247e-08 6.147405312801053e-08 -2.650151148498864e-15 -0.29859999998320197 -0.11235000001566982 0.31364999997695664 2.221441469306996 2.2214414688513697 4.556264692367111e-10 0.0 0.0 0.0 0.0 0.0 0.0
1231.0 0.0 -1.5707963267948966 1.570796326794897 -1.5707963267948966 -1.5707963267948974 5.347285114698508e-16 0.0 0.0 0.0 0.0 0.0 0.0 0.0 0.0 0.0 0.0 0.0 0.0 1.9987199928536514e-26 -0.5442396572688689 -0.7673661111166267 -0.22935479646650192 -1.3146106389479766e-11 0.0 2.6243193506168444e-25 -7.14586669994025 -7.145866699940251 -1.0424175499402513 -5.974905354018553e-11 0.0 0.0 -1.570796314870016 1.5707963705062866 -1.570796314870016 -1.570796314870016 5.347285114698508e-16 0.0 0.0 0.0 0.0 0.0 0.0 1.998719927374967e-26 -0.5442396402359009 -0.7673661112785339 -0.22935479879379272 -1.3146106599137841e-11 0.0 1.998719927374967e-26 -0.5442396402359009 -0.7673661112785339 -0.22935479879379272 -1.3146106599137841e-11 0.0 -0.2985999973554403 -0.11235000099231761 0.3136499823461779 2.221441219594292 2.2214412191386645 6.515886891884209e-08 0.0 0.0 0.0 0.0 0.0 0.0 9.240738067961096e-07 3.4768818278582924e-07 4.2531464706885504e-08 -2.847566213320247e-08 6.147405312801053e-08 -2.650151148498864e-15 -0.29859999998320197 -0.11235000001566982 0.31364999997695664 2.221441469306996 2.2214414688513697 4.556264692367111e-10 0.0 0.0 0.0 0.0 0.0 0.0
1231.008 0.0 -1.5707963267948966 1.570796326794897 -1.5707963267948966 -1.5707963267948974 5.347285114698508e-16 0.0 0.0 0.0 0.0 0.0 0.0 0.0 0.0 0.0 0.0 0.0 0.0 1.9987199928536514e-26 -0.5442396572688689 -0.7673661111166267 -0.22935479646650192 -1.3146106389479766e-11 0.0 2.6243193506168444e-25 -7.14586669994025 -7.145866699940251 -1.0424175499402513 -5.974905354018553e-11 0.0 0.0 -1.570796314870016 1.5707963705062866 -1.570796314870016 -1.570796314870016 5.347285114698508e-16 0.0 0.0 0.0 0.0 0.0 0.0 1.998719927374967e-26 -0.5442396402359009 -0.7673661112785339 -0.22935479879379272 -1.3146106599137841e-11 0.0 1.998719927374967e-26 -0.5442396402359009 -0.7673661112785339 -0.22935479879379272 -1.3146106599137841e-11 0.0 -0.2985999973554403 -0.11235000099231761 0.3136499823461779 2.221441219594292 2.2214412191386645 6.515886891884209e-08 0.0 0.0 0.0 0.0 0.0 0.0 9.240738067961096e-07 3.4768818278582924e-07 4.2531464706885504e-08 -2.847566213320247e-08 6.147405312801053e-08 -2.650151148498864e-15 -0.29859999998320197 -0.11235000001566982 0.31364999997695664 2.221441469306996 2.2214414688513697 4.556264692367111e-10 0.0 0.0 0.0 0.0 0.0 0.0
1231.0159999999998 0.0 -1.5707963267948966 1.570796326794897 -1.5707963267948966 -1.5707963267948974 5.347285114698508e-16 0.0 0.0 0.0 0.0 0.0 0.0 0.0 0.0 0.0 0.0 0.0 0.0 1.9987199928536514e-26 -0.5442396572688689 -0.7673661111166267 -0.22935479646650192 -1.3146106389479766e-11 0.0 2.6243193506168444e-25 -7.14586669994025 -7.145866699940251 -1.0424175499402513 -5.974905354018553e-11 0.0 0.0 -1.570796314870016 1.5707963705062866 -1.570796314870016 -1.570796314870016 5.347285114698508e-16 0.0 0.0 0.0 0.0 0.0 0.0 1.998719927374967e-26 -0.5442396402359009 -0.7673661112785339 -0.22935479879379272 -1.3146106599137841e-11 0.0 1.998719927374967e-26 -0.5442396402359009 -0.7673661112785339 -0.22935479879379272 -1.3146106599137841e-11 0.0 -0.2985999973554403 -0.11235000099231761 0.3136499823461779 2.221441219594292 2.2214412191386645 6.515886891884209e-08 0.0 0.0 0.0 0.0 0.0 0.0 9.240738067961096e-07 3.4768818278582924e-07 4.2531464706885504e-08 -2.847566213320247e-08 6.147405312801053e-08 -2.650151148498864e-15 -0.29859999998320197 -0.11235000001566982 0.31364999997695664 2.221441469306996 2.2214414688513697 4.556264692367111e-10 0.0 0.0 0.0 0.0 0.0 0.0
1231.024 0.0 -1.5707963267948966 1.570796326794897 -1.5707963267948966 -1.5707963267948974 5.347285114698508e-16 0.0 0.0 0.0 0.0 0.0 0.0 0.0 0.0 0.0 0.0 0.0 0.0 1.9987199928536514e-26 -0.5442396572688689 -0.7673661111166267 -0.22935479646650192 -1.3146106389479766e-11 0.0 2.6243193506168444e-25 -7.14586669994025 -7.145866699940251 -1.0424175499402513 -5.974905354018553e-11 0.0 0.0 -1.570796314870016 1.5707963705062866 -1.570796314870016 -1.570796314870016 5.347285114698508e-16 0.0 0.0 0.0 0.0 0.0 0.0 1.998719927374967e-26 -0.5442396402359009 -0.7673661112785339 -0.22935479879379272 -1.3146106599137841e-11 0.0 1.998719927374967e-26 -0.5442396402359009 -0.7673661112785339 -0.22935479879379272 -1.3146106599137841e-11 0.0 -0.2985999973554403 -0.11235000099231761 0.3136499823461779 2.221441219594292 2.2214412191386645 6.515886891884209e-08 0.0 0.0 0.0 0.0 0.0 0.0 9.240738067961096e-07 3.4768818278582924e-07 4.2531464706885504e-08 -2.847566213320247e-08 6.147405312801053e-08 -2.650151148498864e-15 -0.29859999998320197 -0.11235000001566982 0.31364999997695664 2.221441469306996 2.2214414688513697 4.556264692367111e-10 0.0 0.0 0.0 0.0 0.0 0.0
1231.032 0.0 -1.5707963267948966 1.570796326794897 -1.5707963267948966 -1.5707963267948974 5.347285114698508e-16 0.0 0.0 0.0 0.0 0.0 0.0 0.0 0.0 0.0 0.0 0.0 0.0 1.9987199928536514e-26 -0.5442396572688689 -0.7673661111166267 -0.22935479646650192 -1.3146106389479766e-11 0.0 2.6243193506168444e-25 -7.14586669994025 -7.145866699940251 -1.0424175499402513 -5.974905354018553e-11 0.0 0.0 -1.570796314870016 1.5707963705062866 -1.570796314870016 -1.570796314870016 5.347285114698508e-16 0.0 0.0 0.0 0.0 0.0 0.0 1.998719927374967e-26 -0.5442396402359009 -0.7673661112785339 -0.22935479879379272 -1.3146106599137841e-11 0.0 1.998719927374967e-26 -0.5442396402359009 -0.7673661112785339 -0.22935479879379272 -1.3146106599137841e-11 0.0 -0.2985999973554403 -0.11235000099231761 0.3136499823461779 2.221441219594292 2.2214412191386645 6.515886891884209e-08 0.0 0.0 0.0 0.0 0.0 0.0 9.240738067961096e-07 3.4768818278582924e-07 4.2531464706885504e-08 -2.847566213320247e-08 6.147405312801053e-08 -2.650151148498864e-15 -0.29859999998320197 -0.11235000001566982 0.31364999997695664 2.221441469306996 2.2214414688513697 4.556264692367111e-10 0.0 0.0 0.0 0.0 0.0 0.0
1231.04 0.0 -1.5707963267948966 1.570796326794897 -1.5707963267948966 -1.5707963267948974 5.347285114698508e-16 0.0 0.0 0.0 0.0 0.0 0.0 0.0 0.0 0.0 0.0 0.0 0.0 1.9987199928536514e-26 -0.5442396572688689 -0.7673661111166267 -0.22935479646650192 -1.3146106389479766e-11 0.0 2.6243193506168444e-25 -7.14586669994025 -7.145866699940251 -1.0424175499402513 -5.974905354018553e-11 0.0 0.0 -1.570796314870016 1.5707963705062866 -1.570796314870016 -1.570796314870016 5.347285114698508e-16 0.0 0.0 0.0 0.0 0.0 0.0 1.998719927374967e-26 -0.5442396402359009 -0.7673661112785339 -0.22935479879379272 -1.3146106599137841e-11 0.0 1.998719927374967e-26 -0.5442396402359009 -0.7673661112785339 -0.22935479879379272 -1.3146106599137841e-11 0.0 -0.2985999973554403 -0.11235000099231761 0.3136499823461779 2.221441219594292 2.2214412191386645 6.515886891884209e-08 0.0 0.0 0.0 0.0 0.0 0.0 9.240738067961096e-07 3.4768818278582924e-07 4.2531464706885504e-08 -2.847566213320247e-08 6.147405312801053e-08 -2.650151148498864e-15 -0.29859999998320197 -0.11235000001566982 0.31364999997695664 2.221441469306996 2.2214414688513697 4.556264692367111e-10 0.0 0.0 0.0 0.0 0.0 0.0
1231.048 0.0 -1.5707963267948966 1.570796326794897 -1.5707963267948966 -1.5707963267948974 5.347285114698508e-16 0.0 0.0 0.0 0.0 0.0 0.0 0.0 0.0 0.0 0.0 0.0 0.0 1.9987199928536514e-26 -0.5442396572688689 -0.7673661111166267 -0.22935479646650192 -1.3146106389479766e-11 0.0 2.6243193506168444e-25 -7.14586669994025 -7.145866699940251 -1.0424175499402513 -5.974905354018553e-11 0.0 0.0 -1.570796314870016 1.5707963705062866 -1.570796314870016 -1.570796314870016 5.347285114698508e-16 0.0 0.0 0.0 0.0 0.0 0.0 1.998719927374967e-26 -0.5442396402359009 -0.7673661112785339 -0.22935479879379272 -1.3146106599137841e-11 0.0 1.998719927374967e-26 -0.5442396402359009 -0.7673661112785339 -0.22935479879379272 -1.3146106599137841e-11 0.0 -0.2985999973554403 -0.11235000099231761 0.3136499823461779 2.221441219594292 2.2214412191386645 6.515886891884209e-08 0.0 0.0 0.0 0.0 0.0 0.0 9.240738067961096e-07 3.4768818278582924e-07 4.2531464706885504e-08 -2.847566213320247e-08 6.147405312801053e-08 -2.650151148498864e-15 -0.29859999998320197 -0.11235000001566982 0.31364999997695664 2.221441469306996 2.2214414688513697 4.556264692367111e-10 0.0 0.0 0.0 0.0 0.0 0.0
1231.056 0.0 -1.5707963267948966 1.570796326794897 -1.5707963267948966 -1.5707963267948974 5.347285114698508e-16 0.0 0.0 0.0 0.0 0.0 0.0 0.0 0.0 0.0 0.0 0.0 0.0 1.9987199928536514e-26 -0.5442396572688689 -0.7673661111166267 -0.22935479646650192 -1.3146106389479766e-11 0.0 2.6243193506168444e-25 -7.14586669994025 -7.145866699940251 -1.0424175499402513 -5.974905354018553e-11 0.0 0.0 -1.570796314870016 1.5707963705062866 -1.570796314870016 -1.570796314870016 5.347285114698508e-16 0.0 0.0 0.0 0.0 0.0 0.0 1.998719927374967e-26 -0.5442396402359009 -0.7673661112785339 -0.22935479879379272 -1.3146106599137841e-11 0.0 1.998719927374967e-26 -0.5442396402359009 -0.7673661112785339 -0.22935479879379272 -1.3146106599137841e-11 0.0 -0.2985999973554403 -0.11235000099231761 0.3136499823461779 2.221441219594292 2.2214412191386645 6.515886891884209e-08 0.0 0.0 0.0 0.0 0.0 0.0 9.240738067961096e-07 3.4768818278582924e-07 4.2531464706885504e-08 -2.847566213320247e-08 6.147405312801053e-08 -2.650151148498864e-15 -0.29859999998320197 -0.11235000001566982 0.31364999997695664 2.221441469306996 2.2214414688513697 4.556264692367111e-10 0.0 0.0 0.0 0.0 0.0 0.0
1231.0639999999999 0.0 -1.5707963267948966 1.570796326794897 -1.5707963267948966 -1.5707963267948974 5.347285114698508e-16 0.0 0.0 0.0 0.0 0.0 0.0 0.0 0.0 0.0 0.0 0.0 0.0 1.9987199928536514e-26 -0.5442396572688689 -0.7673661111166267 -0.22935479646650192 -1.3146106389479766e-11 0.0 2.6243193506168444e-25 -7.14586669994025 -7.145866699940251 -1.0424175499402513 -5.974905354018553e-11 0.0 0.0 -1.570796314870016 1.5707963705062866 -1.570796314870016 -1.570796314870016 5.347285114698508e-16 0.0 0.0 0.0 0.0 0.0 0.0 1.998719927374967e-26 -0.5442396402359009 -0.7673661112785339 -0.22935479879379272 -1.3146106599137841e-11 0.0 1.998719927374967e-26 -0.5442396402359009 -0.7673661112785339 -0.22935479879379272 -1.3146106599137841e-11 0.0 -0.2985999973554403 -0.11235000099231761 0.3136499823461779 2.221441219594292 2.2214412191386645 6.515886891884209e-08 0.0 0.0 0.0 0.0 0.0 0.0 9.240738067961096e-07 3.4768818278582924e-07 4.2531464706885504e-08 -2.847566213320247e-08 6.147405312801053e-08 -2.650151148498864e-15 -0.29859999998320197 -0.11235000001566982 0.31364999997695664 2.221441469306996 2.2214414688513697 4.556264692367111e-10 0.0 0.0 0.0 0.0 0.0 0.0
1231.072 0.0 -1.5707963267948966 1.570796326794897 -1.5707963267948966 -1.5707963267948974 5.347285114698508e-16 0.0 0.0 0.0 0.0 0.0 0.0 0.0 0.0 0.0 0.0 0.0 0.0 1.9987199928536514e-26 -0.5442396572688689 -0.7673661111166267 -0.22935479646650192 -1.3146106389479766e-11 0.0 2.6243193506168444e-25 -7.14586669994025 -7.145866699940251 -1.0424175499402513 -5.974905354018553e-11 0.0 0.0 -1.570796314870016 1.5707963705062866 -1.570796314870016 -1.570796314870016 5.347285114698508e-16 0.0 0.0 0.0 0.0 0.0 0.0 1.998719927374967e-26 -0.5442396402359009 -0.7673661112785339 -0.22935479879379272 -1.3146106599137841e-11 0.0 1.998719927374967e-26 -0.5442396402359009 -0.7673661112785339 -0.22935479879379272 -1.3146106599137841e-11 0.0 -0.2985999973554403 -0.11235000099231761 0.3136499823461779 2.221441219594292 2.2214412191386645 6.515886891884209e-08 0.0 0.0 0.0 0.0 0.0 0.0 9.240738067961096e-07 3.4768818278582924e-07 4.2531464706885504e-08 -2.847566213320247e-08 6.147405312801053e-08 -2.650151148498864e-15 -0.29859999998320197 -0.11235000001566982 0.31364999997695664 2.221441469306996 2.2214414688513697 4.556264692367111e-10 0.0 0.0 0.0 0.0 0.0 0.0
1231.08 0.0 -1.5707963267948966 1.570796326794897 -1.5707963267948966 -1.5707963267948974 5.347285114698508e-16 0.0 0.0 0.0 0.0 0.0 0.0 0.0 0.0 0.0 0.0 0.0 0.0 1.9987199928536514e-26 -0.5442396572688689 -0.7673661111166267 -0.22935479646650192 -1.3146106389479766e-11 0.0 2.6243193506168444e-25 -7.14586669994025 -7.145866699940251 -1.0424175499402513 -5.974905354018553e-11 0.0 0.0 -1.570796314870016 1.5707963705062866 -1.570796314870016 -1.570796314870016 5.347285114698508e-16 0.0 0.0 0.0 0.0 0.0 0.0 1.998719927374967e-26 -0.5442396402359009 -0.7673661112785339 -0.22935479879379272 -1.3146106599137841e-11 0.0 1.998719927374967e-26 -0.5442396402359009 -0.7673661112785339 -0.22935479879379272 -1.3146106599137841e-11 0.0 -0.2985999973554403 -0.11235000099231761 0.3136499823461779 2.221441219594292 2.2214412191386645 6.515886891884209e-08 0.0 0.0 0.0 0.0 0.0 0.0 9.240738067961096e-07 3.4768818278582924e-07 4.2531464706885504e-08 -2.847566213320247e-08 6.147405312801053e-08 -2.650151148498864e-15 -0.29859999998320197 -0.11235000001566982 0.31364999997695664 2.221441469306996 2.2214414688513697 4.556264692367111e-10 0.0 0.0 0.0 0.0 0.0 0.0
1231.088 0.0 -1.5707963267948966 1.570796326794897 -1.5707963267948966 -1.5707963267948974 5.347285114698508e-16 0.0 0.0 0.0 0.0 0.0 0.0 0.0 0.0 0.0 0.0 0.0 0.0 1.9987199928536514e-26 -0.5442396572688689 -0.7673661111166267 -0.22935479646650192 -1.3146106389479766e-11 0.0 2.6243193506168444e-25 -7.14586669994025 -7.145866699940251 -1.0424175499402513 -5.974905354018553e-11 0.0 0.0 -1.570796314870016 1.5707963705062866 -1.570796314870016 -1.570796314870016 5.347285114698508e-16 0.0 0.0 0.0 0.0 0.0 0.0 1.998719927374967e-26 -0.5442396402359009 -0.7673661112785339 -0.22935479879379272 -1.3146106599137841e-11 0.0 1.998719927374967e-26 -0.5442396402359009 -0.7673661112785339 -0.22935479879379272 -1.3146106599137841e-11 0.0 -0.2985999973554403 -0.11235000099231761 0.3136499823461779 2.221441219594292 2.2214412191386645 6.515886891884209e-08 0.0 0.0 0.0 0.0 0.0 0.0 9.240738067961096e-07 3.4768818278582924e-07 4.2531464706885504e-08 -2.847566213320247e-08 6.147405312801053e-08 -2.650151148498864e-15 -0.29859999998320197 -0.11235000001566982 0.31364999997695664 2.221441469306996 2.2214414688513697 4.556264692367111e-10 0.0 0.0 0.0 0.0 0.0 0.0
1231.096 0.0 -1.5707963267948966 1.570796326794897 -1.5707963267948966 -1.5707963267948974 5.347285114698508e-16 0.0 0.0 0.0 0.0 0.0 0.0 0.0 0.0 0.0 0.0 0.0 0.0 1.9987199928536514e-26 -0.5442396572688689 -0.7673661111166267 -0.22935479646650192 -1.3146106389479766e-11 0.0 2.6243193506168444e-25 -7.14586669994025 -7.145866699940251 -1.0424175499402513 -5.974905354018553e-11 0.0 0.0 -1.570796314870016 1.5707963705062866 -1.570796314870016 -1.570796314870016 5.347285114698508e-16 0.0 0.0 0.0 0.0 0.0 0.0 1.998719927374967e-26 -0.5442396402359009 -0.7673661112785339 -0.22935479879379272 -1.3146106599137841e-11 0.0 1.998719927374967e-26 -0.5442396402359009 -0.7673661112785339 -0.22935479879379272 -1.3146106599137841e-11 0.0 -0.2985999973554403 -0.11235000099231761 0.3136499823461779 2.221441219594292 2.2214412191386645 6.515886891884209e-08 0.0 0.0 0.0 0.0 0.0 0.0 9.240738067961096e-07 3.4768818278582924e-07 4.2531464706885504e-08 -2.847566213320247e-08 6.147405312801053e-08 -2.650151148498864e-15 -0.29859999998320197 -0.11235000001566982 0.31364999997695664 2.221441469306996 2.2214414688513697 4.556264692367111e-10 0.0 0.0 0.0 0.0 0.0 0.0
1231.104 0.0 -1.5707963267948966 1.570796326794897 -1.5707963267948966 -1.5707963267948974 5.347285114698508e-16 0.0 0.0 0.0 0.0 0.0 0.0 0.0 0.0 0.0 0.0 0.0 0.0 1.9987199928536514e-26 -0.5442396572688689 -0.7673661111166267 -0.22935479646650192 -1.3146106389479766e-11 0.0 2.6243193506168444e-25 -7.14586669994025 -7.145866699940251 -1.0424175499402513 -5.974905354018553e-11 0.0 0.0 -1.570796314870016 1.5707963705062866 -1.570796314870016 -1.570796314870016 5.347285114698508e-16 0.0 0.0 0.0 0.0 0.0 0.0 1.998719927374967e-26 -0.5442396402359009 -0.7673661112785339 -0.22935479879379272 -1.3146106599137841e-11 0.0 1.998719927374967e-26 -0.5442396402359009 -0.7673661112785339 -0.22935479879379272 -1.3146106599137841e-11 0.0 -0.2985999973554403 -0.11235000099231761 0.3136499823461779 2.221441219594292 2.2214412191386645 6.515886891884209e-08 0.0 0.0 0.0 0.0 0.0 0.0 9.240738067961096e-07 3.4768818278582924e-07 4.2531464706885504e-08 -2.847566213320247e-08 6.147405312801053e-08 -2.650151148498864e-15 -0.29859999998320197 -0.11235000001566982 0.31364999997695664 2.221441469306996 2.2214414688513697 4.556264692367111e-10 0.0 0.0 0.0 0.0 0.0 0.0
1231.1119999999999 0.0 -1.5707963267948966 1.570796326794897 -1.5707963267948966 -1.5707963267948974 5.347285114698508e-16 0.0 0.0 0.0 0.0 0.0 0.0 0.0 0.0 0.0 0.0 0.0 0.0 1.9987199928536514e-26 -0.5442396572688689 -0.7673661111166267 -0.22935479646650192 -1.3146106389479766e-11 0.0 2.6243193506168444e-25 -7.14586669994025 -7.145866699940251 -1.0424175499402513 -5.974905354018553e-11 0.0 0.0 -1.570796314870016 1.5707963705062866 -1.570796314870016 -1.570796314870016 5.347285114698508e-16 0.0 0.0 0.0 0.0 0.0 0.0 1.998719927374967e-26 -0.5442396402359009 -0.7673661112785339 -0.22935479879379272 -1.3146106599137841e-11 0.0 1.998719927374967e-26 -0.5442396402359009 -0.7673661112785339 -0.22935479879379272 -1.3146106599137841e-11 0.0 -0.2985999973554403 -0.11235000099231761 0.3136499823461779 2.221441219594292 2.2214412191386645 6.515886891884209e-08 0.0 0.0 0.0 0.0 0.0 0.0 9.240738067961096e-07 3.4768818278582924e-07 4.2531464706885504e-08 -2.847566213320247e-08 6.147405312801053e-08 -2.650151148498864e-15 -0.29859999998320197 -0.11235000001566982 0.31364999997695664 2.221441469306996 2.2214414688513697 4.556264692367111e-10 0.0 0.0 0.0 0.0 0.0 0.0
1231.12 0.0 -1.5707963267948966 1.570796326794897 -1.5707963267948966 -1.5707963267948974 5.347285114698508e-16 0.0 0.0 0.0 0.0 0.0 0.0 0.0 0.0 0.0 0.0 0.0 0.0 1.9987199928536514e-26 -0.5442396572688689 -0.7673661111166267 -0.22935479646650192 -1.3146106389479766e-11 0.0 2.6243193506168444e-25 -7.14586669994025 -7.145866699940251 -1.0424175499402513 -5.974905354018553e-11 0.0 0.0 -1.570796314870016 1.5707963705062866 -1.570796314870016 -1.570796314870016 5.347285114698508e-16 0.0 0.0 0.0 0.0 0.0 0.0 1.998719927374967e-26 -0.5442396402359009 -0.7673661112785339 -0.22935479879379272 -1.3146106599137841e-11 0.0 1.998719927374967e-26 -0.5442396402359009 -0.7673661112785339 -0.22935479879379272 -1.3146106599137841e-11 0.0 -0.2985999973554403 -0.11235000099231761 0.3136499823461779 2.221441219594292 2.2214412191386645 6.515886891884209e-08 0.0 0.0 0.0 0.0 0.0 0.0 9.240738067961096e-07 3.4768818278582924e-07 4.2531464706885504e-08 -2.847566213320247e-08 6.147405312801053e-08 -2.650151148498864e-15 -0.29859999998320197 -0.11235000001566982 0.31364999997695664 2.221441469306996 2.2214414688513697 4.556264692367111e-10 0.0 0.0 0.0 0.0 0.0 0.0
1231.128 0.0 -1.5707963267948966 1.570796326794897 -1.5707963267948966 -1.5707963267948974 5.347285114698508e-16 0.0 0.0 0.0 0.0 0.0 0.0 0.0 0.0 0.0 0.0 0.0 0.0 1.9987199928536514e-26 -0.5442396572688689 -0.7673661111166267 -0.22935479646650192 -1.3146106389479766e-11 0.0 2.6243193506168444e-25 -7.14586669994025 -7.145866699940251 -1.0424175499402513 -5.974905354018553e-11 0.0 0.0 -1.570796314870016 1.5707963705062866 -1.570796314870016 -1.570796314870016 5.347285114698508e-16 0.0 0.0 0.0 0.0 0.0 0.0 1.998719927374967e-26 -0.5442396402359009 -0.7673661112785339 -0.22935479879379272 -1.3146106599137841e-11 0.0 1.998719927374967e-26 -0.5442396402359009 -0.7673661112785339 -0.22935479879379272 -1.3146106599137841e-11 0.0 -0.2985999973554403 -0.11235000099231761 0.3136499823461779 2.221441219594292 2.2214412191386645 6.515886891884209e-08 0.0 0.0 0.0 0.0 0.0 0.0 9.240738067961096e-07 3.4768818278582924e-07 4.2531464706885504e-08 -2.847566213320247e-08 6.147405312801053e-08 -2.650151148498864e-15 -0.29859999998320197 -0.11235000001566982 0.31364999997695664 2.221441469306996 2.2214414688513697 4.556264692367111e-10 0.0 0.0 0.0 0.0 0.0 0.0
1231.136 0.0 -1.5707963267948966 1.570796326794897 -1.5707963267948966 -1.5707963267948974 5.347285114698508e-16 0.0 0.0 0.0 0.0 0.0 0.0 0.0 0.0 0.0 0.0 0.0 0.0 1.9987199928536514e-26 -0.5442396572688689 -0.7673661111166267 -0.22935479646650192 -1.3146106389479766e-11 0.0 2.6243193506168444e-25 -7.14586669994025 -7.145866699940251 -1.0424175499402513 -5.974905354018553e-11 0.0 0.0 -1.570796314870016 1.5707963705062866 -1.570796314870016 -1.570796314870016 5.347285114698508e-16 0.0 0.0 0.0 0.0 0.0 0.0 1.998719927374967e-26 -0.5442396402359009 -0.7673661112785339 -0.22935479879379272 -1.3146106599137841e-11 0.0 1.998719927374967e-26 -0.5442396402359009 -0.7673661112785339 -0.22935479879379272 -1.3146106599137841e-11 0.0 -0.2985999973554403 -0.11235000099231761 0.3136499823461779 2.221441219594292 2.2214412191386645 6.515886891884209e-08 0.0 0.0 0.0 0.0 0.0 0.0 9.240738067961096e-07 3.4768818278582924e-07 4.2531464706885504e-08 -2.847566213320247e-08 6.147405312801053e-08 -2.650151148498864e-15 -0.29859999998320197 -0.11235000001566982 0.31364999997695664 2.221441469306996 2.2214414688513697 4.556264692367111e-10 0.0 0.0 0.0 0.0 0.0 0.0
1231.144 0.0 -1.5707963267948966 1.570796326794897 -1.5707963267948966 -1.5707963267948974 5.347285114698508e-16 0.0 0.0 0.0 0.0 0.0 0.0 0.0 0.0 0.0 0.0 0.0 0.0 1.9987199928536514e-26 -0.5442396572688689 -0.7673661111166267 -0.22935479646650192 -1.3146106389479766e-11 0.0 2.6243193506168444e-25 -7.14586669994025 -7.145866699940251 -1.0424175499402513 -5.974905354018553e-11 0.0 0.0 -1.570796314870016 1.5707963705062866 -1.570796314870016 -1.570796314870016 5.347285114698508e-16 0.0 0.0 0.0 0.0 0.0 0.0 1.998719927374967e-26 -0.5442396402359009 -0.7673661112785339 -0.22935479879379272 -1.3146106599137841e-11 0.0 1.998719927374967e-26 -0.5442396402359009 -0.7673661112785339 -0.22935479879379272 -1.3146106599137841e-11 0.0 -0.2985999973554403 -0.11235000099231761 0.3136499823461779 2.221441219594292 2.2214412191386645 6.515886891884209e-08 0.0 0.0 0.0 0.0 0.0 0.0 9.240738067961096e-07 3.4768818278582924e-07 4.2531464706885504e-08 -2.847566213320247e-08 6.147405312801053e-08 -2.650151148498864e-15 -0.29859999998320197 -0.11235000001566982 0.31364999997695664 2.221441469306996 2.2214414688513697 4.556264692367111e-10 0.0 0.0 0.0 0.0 0.0 0.0
1231.152 0.0 -1.5707963267948966 1.570796326794897 -1.5707963267948966 -1.5707963267948974 5.347285114698508e-16 0.0 0.0 0.0 0.0 0.0 0.0 0.0 0.0 0.0 0.0 0.0 0.0 1.9987199928536514e-26 -0.5442396572688689 -0.7673661111166267 -0.22935479646650192 -1.3146106389479766e-11 0.0 2.6243193506168444e-25 -7.14586669994025 -7.145866699940251 -1.0424175499402513 -5.974905354018553e-11 0.0 0.0 -1.570796314870016 1.5707963705062866 -1.570796314870016 -1.570796314870016 5.347285114698508e-16 0.0 0.0 0.0 0.0 0.0 0.0 1.998719927374967e-26 -0.5442396402359009 -0.7673661112785339 -0.22935479879379272 -1.3146106599137841e-11 0.0 1.998719927374967e-26 -0.5442396402359009 -0.7673661112785339 -0.22935479879379272 -1.3146106599137841e-11 0.0 -0.2985999973554403 -0.11235000099231761 0.3136499823461779 2.221441219594292 2.2214412191386645 6.515886891884209e-08 0.0 0.0 0.0 0.0 0.0 0.0 9.240738067961096e-07 3.4768818278582924e-07 4.2531464706885504e-08 -2.847566213320247e-08 6.147405312801053e-08 -2.650151148498864e-15 -0.29859999998320197 -0.11235000001566982 0.31364999997695664 2.221441469306996 2.2214414688513697 4.556264692367111e-10 0.0 0.0 0.0 0.0 0.0 0.0
1231.1599999999999 0.0 -1.5707963267948966 1.570796326794897 -1.5707963267948966 -1.5707963267948974 5.347285114698508e-16 0.0 0.0 0.0 0.0 0.0 0.0 0.0 0.0 0.0 0.0 0.0 0.0 1.9987199928536514e-26 -0.5442396572688689 -0.7673661111166267 -0.22935479646650192 -1.3146106389479766e-11 0.0 2.6243193506168444e-25 -7.14586669994025 -7.145866699940251 -1.0424175499402513 -5.974905354018553e-11 0.0 0.0 -1.570796314870016 1.5707963705062866 -1.570796314870016 -1.570796314870016 5.347285114698508e-16 0.0 0.0 0.0 0.0 0.0 0.0 1.998719927374967e-26 -0.5442396402359009 -0.7673661112785339 -0.22935479879379272 -1.3146106599137841e-11 0.0 1.998719927374967e-26 -0.5442396402359009 -0.7673661112785339 -0.22935479879379272 -1.3146106599137841e-11 0.0 -0.2985999973554403 -0.11235000099231761 0.3136499823461779 2.221441219594292 2.2214412191386645 6.515886891884209e-08 0.0 0.0 0.0 0.0 0.0 0.0 9.240738067961096e-07 3.4768818278582924e-07 4.2531464706885504e-08 -2.847566213320247e-08 6.147405312801053e-08 -2.650151148498864e-15 -0.29859999998320197 -0.11235000001566982 0.31364999997695664 2.221441469306996 2.2214414688513697 4.556264692367111e-10 0.0 0.0 0.0 0.0 0.0 0.0
1231.168 0.0 -1.5707963267948966 1.570796326794897 -1.5707963267948966 -1.5707963267948974 5.347285114698508e-16 0.0 0.0 0.0 0.0 0.0 0.0 0.0 0.0 0.0 0.0 0.0 0.0 1.9987199928536514e-26 -0.5442396572688689 -0.7673661111166267 -0.22935479646650192 -1.3146106389479766e-11 0.0 2.6243193506168444e-25 -7.14586669994025 -7.145866699940251 -1.0424175499402513 -5.974905354018553e-11 0.0 0.0 -1.570796314870016 1.5707963705062866 -1.570796314870016 -1.570796314870016 5.347285114698508e-16 0.0 0.0 0.0 0.0 0.0 0.0 1.998719927374967e-26 -0.5442396402359009 -0.7673661112785339 -0.22935479879379272 -1.3146106599137841e-11 0.0 1.998719927374967e-26 -0.5442396402359009 -0.7673661112785339 -0.22935479879379272 -1.3146106599137841e-11 0.0 -0.2985999973554403 -0.11235000099231761 0.3136499823461779 2.221441219594292 2.2214412191386645 6.515886891884209e-08 0.0 0.0 0.0 0.0 0.0 0.0 9.240738067961096e-07 3.4768818278582924e-07 4.2531464706885504e-08 -2.847566213320247e-08 6.147405312801053e-08 -2.650151148498864e-15 -0.29859999998320197 -0.11235000001566982 0.31364999997695664 2.221441469306996 2.2214414688513697 4.556264692367111e-10 0.0 0.0 0.0 0.0 0.0 0.0
1231.176 0.0 -1.5707963267948966 1.570796326794897 -1.5707963267948966 -1.5707963267948974 5.347285114698508e-16 0.0 0.0 0.0 0.0 0.0 0.0 0.0 0.0 0.0 0.0 0.0 0.0 1.9987199928536514e-26 -0.5442396572688689 -0.7673661111166267 -0.22935479646650192 -1.3146106389479766e-11 0.0 2.6243193506168444e-25 -7.14586669994025 -7.145866699940251 -1.0424175499402513 -5.974905354018553e-11 0.0 0.0 -1.570796314870016 1.5707963705062866 -1.570796314870016 -1.570796314870016 5.347285114698508e-16 0.0 0.0 0.0 0.0 0.0 0.0 1.998719927374967e-26 -0.5442396402359009 -0.7673661112785339 -0.22935479879379272 -1.3146106599137841e-11 0.0 1.998719927374967e-26 -0.5442396402359009 -0.7673661112785339 -0.22935479879379272 -1.3146106599137841e-11 0.0 -0.2985999973554403 -0.11235000099231761 0.3136499823461779 2.221441219594292 2.2214412191386645 6.515886891884209e-08 0.0 0.0 0.0 0.0 0.0 0.0 9.240738067961096e-07 3.4768818278582924e-07 4.2531464706885504e-08 -2.847566213320247e-08 6.147405312801053e-08 -2.650151148498864e-15 -0.29859999998320197 -0.11235000001566982 0.31364999997695664 2.221441469306996 2.2214414688513697 4.556264692367111e-10 0.0 0.0 0.0 0.0 0.0 0.0
1231.184 0.0 -1.5707963267948966 1.570796326794897 -1.5707963267948966 -1.5707963267948974 5.347285114698508e-16 0.0 0.0 0.0 0.0 0.0 0.0 0.0 0.0 0.0 0.0 0.0 0.0 1.9987199928536514e-26 -0.5442396572688689 -0.7673661111166267 -0.22935479646650192 -1.3146106389479766e-11 0.0 2.6243193506168444e-25 -7.14586669994025 -7.145866699940251 -1.0424175499402513 -5.974905354018553e-11 0.0 0.0 -1.570796314870016 1.5707963705062866 -1.570796314870016 -1.570796314870016 5.347285114698508e-16 0.0 0.0 0.0 0.0 0.0 0.0 1.998719927374967e-26 -0.5442396402359009 -0.7673661112785339 -0.22935479879379272 -1.3146106599137841e-11 0.0 1.998719927374967e-26 -0.5442396402359009 -0.7673661112785339 -0.22935479879379272 -1.3146106599137841e-11 0.0 -0.2985999973554403 -0.11235000099231761 0.3136499823461779 2.221441219594292 2.2214412191386645 6.515886891884209e-08 0.0 0.0 0.0 0.0 0.0 0.0 9.240738067961096e-07 3.4768818278582924e-07 4.2531464706885504e-08 -2.847566213320247e-08 6.147405312801053e-08 -2.650151148498864e-15 -0.29859999998320197 -0.11235000001566982 0.31364999997695664 2.221441469306996 2.2214414688513697 4.556264692367111e-10 0.0 0.0 0.0 0.0 0.0 0.0
1231.192 0.0 -1.5707963267948966 1.570796326794897 -1.5707963267948966 -1.5707963267948974 5.347285114698508e-16 0.0 0.0 0.0 0.0 0.0 0.0 0.0 0.0 0.0 0.0 0.0 0.0 1.9987199928536514e-26 -0.5442396572688689 -0.7673661111166267 -0.22935479646650192 -1.3146106389479766e-11 0.0 2.6243193506168444e-25 -7.14586669994025 -7.145866699940251 -1.0424175499402513 -5.974905354018553e-11 0.0 0.0 -1.570796314870016 1.5707963705062866 -1.570796314870016 -1.570796314870016 5.347285114698508e-16 0.0 0.0 0.0 0.0 0.0 0.0 1.998719927374967e-26 -0.5442396402359009 -0.7673661112785339 -0.22935479879379272 -1.3146106599137841e-11 0.0 1.998719927374967e-26 -0.5442396402359009 -0.7673661112785339 -0.22935479879379272 -1.3146106599137841e-11 0.0 -0.2985999973554403 -0.11235000099231761 0.3136499823461779 2.221441219594292 2.2214412191386645 6.515886891884209e-08 0.0 0.0 0.0 0.0 0.0 0.0 9.240738067961096e-07 3.4768818278582924e-07 4.2531464706885504e-08 -2.847566213320247e-08 6.147405312801053e-08 -2.650151148498864e-15 -0.29859999998320197 -0.11235000001566982 0.31364999997695664 2.221441469306996 2.2214414688513697 4.556264692367111e-10 0.0 0.0 0.0 0.0 0.0 0.0
1231.2 0.0 -1.5707963267948966 1.570796326794897 -1.5707963267948966 -1.5707963267948974 5.347285114698508e-16 0.0 0.0 0.0 0.0 0.0 0.0 0.0 0.0 0.0 0.0 0.0 0.0 1.9987199928536514e-26 -0.5442396572688689 -0.7673661111166267 -0.22935479646650192 -1.3146106389479766e-11 0.0 2.6243193506168444e-25 -7.14586669994025 -7.145866699940251 -1.0424175499402513 -5.974905354018553e-11 0.0 0.0 -1.570796314870016 1.5707963705062866 -1.570796314870016 -1.570796314870016 5.347285114698508e-16 0.0 0.0 0.0 0.0 0.0 0.0 1.998719927374967e-26 -0.5442396402359009 -0.7673661112785339 -0.22935479879379272 -1.3146106599137841e-11 0.0 1.998719927374967e-26 -0.5442396402359009 -0.7673661112785339 -0.22935479879379272 -1.3146106599137841e-11 0.0 -0.2985999973554403 -0.11235000099231761 0.3136499823461779 2.221441219594292 2.2214412191386645 6.515886891884209e-08 0.0 0.0 0.0 0.0 0.0 0.0 9.240738067961096e-07 3.4768818278582924e-07 4.2531464706885504e-08 -2.847566213320247e-08 6.147405312801053e-08 -2.650151148498864e-15 -0.29859999998320197 -0.11235000001566982 0.31364999997695664 2.221441469306996 2.2214414688513697 4.556264692367111e-10 0.0 0.0 0.0 0.0 0.0 0.0
1231.2079999999999 0.0 -1.5707963267948966 1.570796326794897 -1.5707963267948966 -1.5707963267948974 5.347285114698508e-16 0.0 0.0 0.0 0.0 0.0 0.0 0.0 0.0 0.0 0.0 0.0 0.0 1.9987199928536514e-26 -0.5442396572688689 -0.7673661111166267 -0.22935479646650192 -1.3146106389479766e-11 0.0 2.6243193506168444e-25 -7.14586669994025 -7.145866699940251 -1.0424175499402513 -5.974905354018553e-11 0.0 0.0 -1.570796314870016 1.5707963705062866 -1.570796314870016 -1.570796314870016 5.347285114698508e-16 0.0 0.0 0.0 0.0 0.0 0.0 1.998719927374967e-26 -0.5442396402359009 -0.7673661112785339 -0.22935479879379272 -1.3146106599137841e-11 0.0 1.998719927374967e-26 -0.5442396402359009 -0.7673661112785339 -0.22935479879379272 -1.3146106599137841e-11 0.0 -0.2985999973554403 -0.11235000099231761 0.3136499823461779 2.221441219594292 2.2214412191386645 6.515886891884209e-08 0.0 0.0 0.0 0.0 0.0 0.0 9.240738067961096e-07 3.4768818278582924e-07 4.2531464706885504e-08 -2.847566213320247e-08 6.147405312801053e-08 -2.650151148498864e-15 -0.29859999998320197 -0.11235000001566982 0.31364999997695664 2.221441469306996 2.2214414688513697 4.556264692367111e-10 0.0 0.0 0.0 0.0 0.0 0.0
1231.216 0.0 -1.5707963267948966 1.570796326794897 -1.5707963267948966 -1.5707963267948974 5.347285114698508e-16 0.0 0.0 0.0 0.0 0.0 0.0 0.0 0.0 0.0 0.0 0.0 0.0 1.9987199928536514e-26 -0.5442396572688689 -0.7673661111166267 -0.22935479646650192 -1.3146106389479766e-11 0.0 2.6243193506168444e-25 -7.14586669994025 -7.145866699940251 -1.0424175499402513 -5.974905354018553e-11 0.0 0.0 -1.570796314870016 1.5707963705062866 -1.570796314870016 -1.570796314870016 5.347285114698508e-16 0.0 0.0 0.0 0.0 0.0 0.0 1.998719927374967e-26 -0.5442396402359009 -0.7673661112785339 -0.22935479879379272 -1.3146106599137841e-11 0.0 1.998719927374967e-26 -0.5442396402359009 -0.7673661112785339 -0.22935479879379272 -1.3146106599137841e-11 0.0 -0.2985999973554403 -0.11235000099231761 0.3136499823461779 2.221441219594292 2.2214412191386645 6.515886891884209e-08 0.0 0.0 0.0 0.0 0.0 0.0 9.240738067961096e-07 3.4768818278582924e-07 4.2531464706885504e-08 -2.847566213320247e-08 6.147405312801053e-08 -2.650151148498864e-15 -0.29859999998320197 -0.11235000001566982 0.31364999997695664 2.221441469306996 2.2214414688513697 4.556264692367111e-10 0.0 0.0 0.0 0.0 0.0 0.0
1231.224 0.0 -1.5707963267948966 1.570796326794897 -1.5707963267948966 -1.5707963267948974 5.347285114698508e-16 0.0 0.0 0.0 0.0 0.0 0.0 0.0 0.0 0.0 0.0 0.0 0.0 1.9987199928536514e-26 -0.5442396572688689 -0.7673661111166267 -0.22935479646650192 -1.3146106389479766e-11 0.0 2.6243193506168444e-25 -7.14586669994025 -7.145866699940251 -1.0424175499402513 -5.974905354018553e-11 0.0 0.0 -1.570796314870016 1.5707963705062866 -1.570796314870016 -1.570796314870016 5.347285114698508e-16 0.0 0.0 0.0 0.0 0.0 0.0 1.998719927374967e-26 -0.5442396402359009 -0.7673661112785339 -0.22935479879379272 -1.3146106599137841e-11 0.0 1.998719927374967e-26 -0.5442396402359009 -0.7673661112785339 -0.22935479879379272 -1.3146106599137841e-11 0.0 -0.2985999973554403 -0.11235000099231761 0.3136499823461779 2.221441219594292 2.2214412191386645 6.515886891884209e-08 0.0 0.0 0.0 0.0 0.0 0.0 9.240738067961096e-07 3.4768818278582924e-07 4.2531464706885504e-08 -2.847566213320247e-08 6.147405312801053e-08 -2.650151148498864e-15 -0.29859999998320197 -0.11235000001566982 0.31364999997695664 2.221441469306996 2.2214414688513697 4.556264692367111e-10 0.0 0.0 0.0 0.0 0.0 0.0
1231.232 0.0 -1.5707963267948966 1.570796326794897 -1.5707963267948966 -1.5707963267948974 5.347285114698508e-16 0.0 0.0 0.0 0.0 0.0 0.0 0.0 0.0 0.0 0.0 0.0 0.0 1.9987199928536514e-26 -0.5442396572688689 -0.7673661111166267 -0.22935479646650192 -1.3146106389479766e-11 0.0 2.6243193506168444e-25 -7.14586669994025 -7.145866699940251 -1.0424175499402513 -5.974905354018553e-11 0.0 0.0 -1.570796314870016 1.5707963705062866 -1.570796314870016 -1.570796314870016 5.347285114698508e-16 0.0 0.0 0.0 0.0 0.0 0.0 1.998719927374967e-26 -0.5442396402359009 -0.7673661112785339 -0.22935479879379272 -1.3146106599137841e-11 0.0 1.998719927374967e-26 -0.5442396402359009 -0.7673661112785339 -0.22935479879379272 -1.3146106599137841e-11 0.0 -0.2985999973554403 -0.11235000099231761 0.3136499823461779 2.221441219594292 2.2214412191386645 6.515886891884209e-08 0.0 0.0 0.0 0.0 0.0 0.0 9.240738067961096e-07 3.4768818278582924e-07 4.2531464706885504e-08 -2.847566213320247e-08 6.147405312801053e-08 -2.650151148498864e-15 -0.29859999998320197 -0.11235000001566982 0.31364999997695664 2.221441469306996 2.2214414688513697 4.556264692367111e-10 0.0 0.0 0.0 0.0 0.0 0.0
1231.24 0.0 -1.5707963267948966 1.570796326794897 -1.5707963267948966 -1.5707963267948974 5.347285114698508e-16 0.0 0.0 0.0 0.0 0.0 0.0 0.0 0.0 0.0 0.0 0.0 0.0 1.9987199928536514e-26 -0.5442396572688689 -0.7673661111166267 -0.22935479646650192 -1.3146106389479766e-11 0.0 2.6243193506168444e-25 -7.14586669994025 -7.145866699940251 -1.0424175499402513 -5.974905354018553e-11 0.0 0.0 -1.570796314870016 1.5707963705062866 -1.570796314870016 -1.570796314870016 5.347285114698508e-16 0.0 0.0 0.0 0.0 0.0 0.0 1.998719927374967e-26 -0.5442396402359009 -0.7673661112785339 -0.22935479879379272 -1.3146106599137841e-11 0.0 1.998719927374967e-26 -0.5442396402359009 -0.7673661112785339 -0.22935479879379272 -1.3146106599137841e-11 0.0 -0.2985999973554403 -0.11235000099231761 0.3136499823461779 2.221441219594292 2.2214412191386645 6.515886891884209e-08 0.0 0.0 0.0 0.0 0.0 0.0 9.240738067961096e-07 3.4768818278582924e-07 4.2531464706885504e-08 -2.847566213320247e-08 6.147405312801053e-08 -2.650151148498864e-15 -0.29859999998320197 -0.11235000001566982 0.31364999997695664 2.221441469306996 2.2214414688513697 4.556264692367111e-10 0.0 0.0 0.0 0.0 0.0 0.0
1231.248 0.0 -1.5707963267948966 1.570796326794897 -1.5707963267948966 -1.5707963267948974 5.347285114698508e-16 0.0 0.0 0.0 0.0 0.0 0.0 0.0 0.0 0.0 0.0 0.0 0.0 1.9987199928536514e-26 -0.5442396572688689 -0.7673661111166267 -0.22935479646650192 -1.3146106389479766e-11 0.0 2.6243193506168444e-25 -7.14586669994025 -7.145866699940251 -1.0424175499402513 -5.974905354018553e-11 0.0 0.0 -1.570796314870016 1.5707963705062866 -1.570796314870016 -1.570796314870016 5.347285114698508e-16 0.0 0.0 0.0 0.0 0.0 0.0 1.998719927374967e-26 -0.5442396402359009 -0.7673661112785339 -0.22935479879379272 -1.3146106599137841e-11 0.0 1.998719927374967e-26 -0.5442396402359009 -0.7673661112785339 -0.22935479879379272 -1.3146106599137841e-11 0.0 -0.2985999973554403 -0.11235000099231761 0.3136499823461779 2.221441219594292 2.2214412191386645 6.515886891884209e-08 0.0 0.0 0.0 0.0 0.0 0.0 9.240738067961096e-07 3.4768818278582924e-07 4.2531464706885504e-08 -2.847566213320247e-08 6.147405312801053e-08 -2.650151148498864e-15 -0.29859999998320197 -0.11235000001566982 0.31364999997695664 2.221441469306996 2.2214414688513697 4.556264692367111e-10 0.0 0.0 0.0 0.0 0.0 0.0
1231.2559999999999 0.0 -1.5707963267948966 1.570796326794897 -1.5707963267948966 -1.5707963267948974 5.347285114698508e-16 0.0 0.0 0.0 0.0 0.0 0.0 0.0 0.0 0.0 0.0 0.0 0.0 1.9987199928536514e-26 -0.5442396572688689 -0.7673661111166267 -0.22935479646650192 -1.3146106389479766e-11 0.0 2.6243193506168444e-25 -7.14586669994025 -7.145866699940251 -1.0424175499402513 -5.974905354018553e-11 0.0 0.0 -1.570796314870016 1.5707963705062866 -1.570796314870016 -1.570796314870016 5.347285114698508e-16 0.0 0.0 0.0 0.0 0.0 0.0 1.998719927374967e-26 -0.5442396402359009 -0.7673661112785339 -0.22935479879379272 -1.3146106599137841e-11 0.0 1.998719927374967e-26 -0.5442396402359009 -0.7673661112785339 -0.22935479879379272 -1.3146106599137841e-11 0.0 -0.2985999973554403 -0.11235000099231761 0.3136499823461779 2.221441219594292 2.2214412191386645 6.515886891884209e-08 0.0 0.0 0.0 0.0 0.0 0.0 9.240738067961096e-07 3.4768818278582924e-07 4.2531464706885504e-08 -2.847566213320247e-08 6.147405312801053e-08 -2.650151148498864e-15 -0.29859999998320197 -0.11235000001566982 0.31364999997695664 2.221441469306996 2.2214414688513697 4.556264692367111e-10 0.0 0.0 0.0 0.0 0.0 0.0
1231.264 0.0 -1.5707963267948966 1.570796326794897 -1.5707963267948966 -1.5707963267948974 5.347285114698508e-16 0.0 0.0 0.0 0.0 0.0 0.0 0.0 0.0 0.0 0.0 0.0 0.0 1.9987199928536514e-26 -0.5442396572688689 -0.7673661111166267 -0.22935479646650192 -1.3146106389479766e-11 0.0 2.6243193506168444e-25 -7.14586669994025 -7.145866699940251 -1.0424175499402513 -5.974905354018553e-11 0.0 0.0 -1.570796314870016 1.5707963705062866 -1.570796314870016 -1.570796314870016 5.347285114698508e-16 0.0 0.0 0.0 0.0 0.0 0.0 1.998719927374967e-26 -0.5442396402359009 -0.7673661112785339 -0.22935479879379272 -1.3146106599137841e-11 0.0 1.998719927374967e-26 -0.5442396402359009 -0.7673661112785339 -0.22935479879379272 -1.3146106599137841e-11 0.0 -0.2985999973554403 -0.11235000099231761 0.3136499823461779 2.221441219594292 2.2214412191386645 6.515886891884209e-08 0.0 0.0 0.0 0.0 0.0 0.0 9.240738067961096e-07 3.4768818278582924e-07 4.2531464706885504e-08 -2.847566213320247e-08 6.147405312801053e-08 -2.650151148498864e-15 -0.29859999998320197 -0.11235000001566982 0.31364999997695664 2.221441469306996 2.2214414688513697 4.556264692367111e-10 0.0 0.0 0.0 0.0 0.0 0.0
1231.272 0.0 -1.5707963267948966 1.570796326794897 -1.5707963267948966 -1.5707963267948974 5.347285114698508e-16 0.0 0.0 0.0 0.0 0.0 0.0 0.0 0.0 0.0 0.0 0.0 0.0 1.9987199928536514e-26 -0.5442396572688689 -0.7673661111166267 -0.22935479646650192 -1.3146106389479766e-11 0.0 2.6243193506168444e-25 -7.14586669994025 -7.145866699940251 -1.0424175499402513 -5.974905354018553e-11 0.0 0.0 -1.570796314870016 1.5707963705062866 -1.570796314870016 -1.570796314870016 5.347285114698508e-16 0.0 0.0 0.0 0.0 0.0 0.0 1.998719927374967e-26 -0.5442396402359009 -0.7673661112785339 -0.22935479879379272 -1.3146106599137841e-11 0.0 1.998719927374967e-26 -0.5442396402359009 -0.7673661112785339 -0.22935479879379272 -1.3146106599137841e-11 0.0 -0.2985999973554403 -0.11235000099231761 0.3136499823461779 2.221441219594292 2.2214412191386645 6.515886891884209e-08 0.0 0.0 0.0 0.0 0.0 0.0 9.240738067961096e-07 3.4768818278582924e-07 4.2531464706885504e-08 -2.847566213320247e-08 6.147405312801053e-08 -2.650151148498864e-15 -0.29859999998320197 -0.11235000001566982 0.31364999997695664 2.221441469306996 2.2214414688513697 4.556264692367111e-10 0.0 0.0 0.0 0.0 0.0 0.0
1231.28 0.0 -1.5707963267948966 1.570796326794897 -1.5707963267948966 -1.5707963267948974 5.347285114698508e-16 0.0 0.0 0.0 0.0 0.0 0.0 0.0 0.0 0.0 0.0 0.0 0.0 1.9987199928536514e-26 -0.5442396572688689 -0.7673661111166267 -0.22935479646650192 -1.3146106389479766e-11 0.0 2.6243193506168444e-25 -7.14586669994025 -7.145866699940251 -1.0424175499402513 -5.974905354018553e-11 0.0 0.0 -1.570796314870016 1.5707963705062866 -1.570796314870016 -1.570796314870016 5.347285114698508e-16 0.0 0.0 0.0 0.0 0.0 0.0 1.998719927374967e-26 -0.5442396402359009 -0.7673661112785339 -0.22935479879379272 -1.3146106599137841e-11 0.0 1.998719927374967e-26 -0.5442396402359009 -0.7673661112785339 -0.22935479879379272 -1.3146106599137841e-11 0.0 -0.2985999973554403 -0.11235000099231761 0.3136499823461779 2.221441219594292 2.2214412191386645 6.515886891884209e-08 0.0 0.0 0.0 0.0 0.0 0.0 9.240738067961096e-07 3.4768818278582924e-07 4.2531464706885504e-08 -2.847566213320247e-08 6.147405312801053e-08 -2.650151148498864e-15 -0.29859999998320197 -0.11235000001566982 0.31364999997695664 2.221441469306996 2.2214414688513697 4.556264692367111e-10 0.0 0.0 0.0 0.0 0.0 0.0
1231.288 0.0 -1.5707963267948966 1.570796326794897 -1.5707963267948966 -1.5707963267948974 5.347285114698508e-16 0.0 0.0 0.0 0.0 0.0 0.0 0.0 0.0 0.0 0.0 0.0 0.0 1.9987199928536514e-26 -0.5442396572688689 -0.7673661111166267 -0.22935479646650192 -1.3146106389479766e-11 0.0 2.6243193506168444e-25 -7.14586669994025 -7.145866699940251 -1.0424175499402513 -5.974905354018553e-11 0.0 0.0 -1.570796314870016 1.5707963705062866 -1.570796314870016 -1.570796314870016 5.347285114698508e-16 0.0 0.0 0.0 0.0 0.0 0.0 1.998719927374967e-26 -0.5442396402359009 -0.7673661112785339 -0.22935479879379272 -1.3146106599137841e-11 0.0 1.998719927374967e-26 -0.5442396402359009 -0.7673661112785339 -0.22935479879379272 -1.3146106599137841e-11 0.0 -0.2985999973554403 -0.11235000099231761 0.3136499823461779 2.221441219594292 2.2214412191386645 6.515886891884209e-08 0.0 0.0 0.0 0.0 0.0 0.0 9.240738067961096e-07 3.4768818278582924e-07 4.2531464706885504e-08 -2.847566213320247e-08 6.147405312801053e-08 -2.650151148498864e-15 -0.29859999998320197 -0.11235000001566982 0.31364999997695664 2.221441469306996 2.2214414688513697 4.556264692367111e-10 0.0 0.0 0.0 0.0 0.0 0.0
1231.296 0.0 -1.5707963267948966 1.570796326794897 -1.5707963267948966 -1.5707963267948974 5.347285114698508e-16 0.0 0.0 0.0 0.0 0.0 0.0 0.0 0.0 0.0 0.0 0.0 0.0 1.9987199928536514e-26 -0.5442396572688689 -0.7673661111166267 -0.22935479646650192 -1.3146106389479766e-11 0.0 2.6243193506168444e-25 -7.14586669994025 -7.145866699940251 -1.0424175499402513 -5.974905354018553e-11 0.0 0.0 -1.570796314870016 1.5707963705062866 -1.570796314870016 -1.570796314870016 5.347285114698508e-16 0.0 0.0 0.0 0.0 0.0 0.0 1.998719927374967e-26 -0.5442396402359009 -0.7673661112785339 -0.22935479879379272 -1.3146106599137841e-11 0.0 1.998719927374967e-26 -0.5442396402359009 -0.7673661112785339 -0.22935479879379272 -1.3146106599137841e-11 0.0 -0.2985999973554403 -0.11235000099231761 0.3136499823461779 2.221441219594292 2.2214412191386645 6.515886891884209e-08 0.0 0.0 0.0 0.0 0.0 0.0 9.240738067961096e-07 3.4768818278582924e-07 4.2531464706885504e-08 -2.847566213320247e-08 6.147405312801053e-08 -2.650151148498864e-15 -0.29859999998320197 -0.11235000001566982 0.31364999997695664 2.221441469306996 2.2214414688513697 4.556264692367111e-10 0.0 0.0 0.0 0.0 0.0 0.0
1231.3039999999999 0.0 -1.5707963267948966 1.570796326794897 -1.5707963267948966 -1.5707963267948974 5.347285114698508e-16 0.0 0.0 0.0 0.0 0.0 0.0 0.0 0.0 0.0 0.0 0.0 0.0 1.9987199928536514e-26 -0.5442396572688689 -0.7673661111166267 -0.22935479646650192 -1.3146106389479766e-11 0.0 2.6243193506168444e-25 -7.14586669994025 -7.145866699940251 -1.0424175499402513 -5.974905354018553e-11 0.0 0.0 -1.570796314870016 1.5707963705062866 -1.570796314870016 -1.570796314870016 5.347285114698508e-16 0.0 0.0 0.0 0.0 0.0 0.0 1.998719927374967e-26 -0.5442396402359009 -0.7673661112785339 -0.22935479879379272 -1.3146106599137841e-11 0.0 1.998719927374967e-26 -0.5442396402359009 -0.7673661112785339 -0.22935479879379272 -1.3146106599137841e-11 0.0 -0.2985999973554403 -0.11235000099231761 0.3136499823461779 2.221441219594292 2.2214412191386645 6.515886891884209e-08 0.0 0.0 0.0 0.0 0.0 0.0 9.240738067961096e-07 3.4768818278582924e-07 4.2531464706885504e-08 -2.847566213320247e-08 6.147405312801053e-08 -2.650151148498864e-15 -0.29859999998320197 -0.11235000001566982 0.31364999997695664 2.221441469306996 2.2214414688513697 4.556264692367111e-10 0.0 0.0 0.0 0.0 0.0 0.0
1231.312 0.0 -1.5707963267948966 1.570796326794897 -1.5707963267948966 -1.5707963267948974 5.347285114698508e-16 0.0 0.0 0.0 0.0 0.0 0.0 0.0 0.0 0.0 0.0 0.0 0.0 1.9987199928536514e-26 -0.5442396572688689 -0.7673661111166267 -0.22935479646650192 -1.3146106389479766e-11 0.0 2.6243193506168444e-25 -7.14586669994025 -7.145866699940251 -1.0424175499402513 -5.974905354018553e-11 0.0 0.0 -1.570796314870016 1.5707963705062866 -1.570796314870016 -1.570796314870016 5.347285114698508e-16 0.0 0.0 0.0 0.0 0.0 0.0 1.998719927374967e-26 -0.5442396402359009 -0.7673661112785339 -0.22935479879379272 -1.3146106599137841e-11 0.0 1.998719927374967e-26 -0.5442396402359009 -0.7673661112785339 -0.22935479879379272 -1.3146106599137841e-11 0.0 -0.2985999973554403 -0.11235000099231761 0.3136499823461779 2.221441219594292 2.2214412191386645 6.515886891884209e-08 0.0 0.0 0.0 0.0 0.0 0.0 9.240738067961096e-07 3.4768818278582924e-07 4.2531464706885504e-08 -2.847566213320247e-08 6.147405312801053e-08 -2.650151148498864e-15 -0.29859999998320197 -0.11235000001566982 0.31364999997695664 2.221441469306996 2.2214414688513697 4.556264692367111e-10 0.0 0.0 0.0 0.0 0.0 0.0
1231.32 0.0 -1.5707963267948966 1.570796326794897 -1.5707963267948966 -1.5707963267948974 5.347285114698508e-16 0.0 0.0 0.0 0.0 0.0 0.0 0.0 0.0 0.0 0.0 0.0 0.0 1.9987199928536514e-26 -0.5442396572688689 -0.7673661111166267 -0.22935479646650192 -1.3146106389479766e-11 0.0 2.6243193506168444e-25 -7.14586669994025 -7.145866699940251 -1.0424175499402513 -5.974905354018553e-11 0.0 0.0 -1.570796314870016 1.5707963705062866 -1.570796314870016 -1.570796314870016 5.347285114698508e-16 0.0 0.0 0.0 0.0 0.0 0.0 1.998719927374967e-26 -0.5442396402359009 -0.7673661112785339 -0.22935479879379272 -1.3146106599137841e-11 0.0 1.998719927374967e-26 -0.5442396402359009 -0.7673661112785339 -0.22935479879379272 -1.3146106599137841e-11 0.0 -0.2985999973554403 -0.11235000099231761 0.3136499823461779 2.221441219594292 2.2214412191386645 6.515886891884209e-08 0.0 0.0 0.0 0.0 0.0 0.0 9.240738067961096e-07 3.4768818278582924e-07 4.2531464706885504e-08 -2.847566213320247e-08 6.147405312801053e-08 -2.650151148498864e-15 -0.29859999998320197 -0.11235000001566982 0.31364999997695664 2.221441469306996 2.2214414688513697 4.556264692367111e-10 0.0 0.0 0.0 0.0 0.0 0.0
1231.328 0.0 -1.5707963267948966 1.570796326794897 -1.5707963267948966 -1.5707963267948974 5.347285114698508e-16 0.0 0.0 0.0 0.0 0.0 0.0 0.0 0.0 0.0 0.0 0.0 0.0 1.9987199928536514e-26 -0.5442396572688689 -0.7673661111166267 -0.22935479646650192 -1.3146106389479766e-11 0.0 2.6243193506168444e-25 -7.14586669994025 -7.145866699940251 -1.0424175499402513 -5.974905354018553e-11 0.0 0.0 -1.570796314870016 1.5707963705062866 -1.570796314870016 -1.570796314870016 5.347285114698508e-16 0.0 0.0 0.0 0.0 0.0 0.0 1.998719927374967e-26 -0.5442396402359009 -0.7673661112785339 -0.22935479879379272 -1.3146106599137841e-11 0.0 1.998719927374967e-26 -0.5442396402359009 -0.7673661112785339 -0.22935479879379272 -1.3146106599137841e-11 0.0 -0.2985999973554403 -0.11235000099231761 0.3136499823461779 2.221441219594292 2.2214412191386645 6.515886891884209e-08 0.0 0.0 0.0 0.0 0.0 0.0 9.240738067961096e-07 3.4768818278582924e-07 4.2531464706885504e-08 -2.847566213320247e-08 6.147405312801053e-08 -2.650151148498864e-15 -0.29859999998320197 -0.11235000001566982 0.31364999997695664 2.221441469306996 2.2214414688513697 4.556264692367111e-10 0.0 0.0 0.0 0.0 0.0 0.0
1231.336 0.0 -1.5707963267948966 1.570796326794897 -1.5707963267948966 -1.5707963267948974 5.347285114698508e-16 0.0 0.0 0.0 0.0 0.0 0.0 0.0 0.0 0.0 0.0 0.0 0.0 1.9987199928536514e-26 -0.5442396572688689 -0.7673661111166267 -0.22935479646650192 -1.3146106389479766e-11 0.0 2.6243193506168444e-25 -7.14586669994025 -7.145866699940251 -1.0424175499402513 -5.974905354018553e-11 0.0 0.0 -1.570796314870016 1.5707963705062866 -1.570796314870016 -1.570796314870016 5.347285114698508e-16 0.0 0.0 0.0 0.0 0.0 0.0 1.998719927374967e-26 -0.5442396402359009 -0.7673661112785339 -0.22935479879379272 -1.3146106599137841e-11 0.0 1.998719927374967e-26 -0.5442396402359009 -0.7673661112785339 -0.22935479879379272 -1.3146106599137841e-11 0.0 -0.2985999973554403 -0.11235000099231761 0.3136499823461779 2.221441219594292 2.2214412191386645 6.515886891884209e-08 0.0 0.0 0.0 0.0 0.0 0.0 9.240738067961096e-07 3.4768818278582924e-07 4.2531464706885504e-08 -2.847566213320247e-08 6.147405312801053e-08 -2.650151148498864e-15 -0.29859999998320197 -0.11235000001566982 0.31364999997695664 2.221441469306996 2.2214414688513697 4.556264692367111e-10 0.0 0.0 0.0 0.0 0.0 0.0
1231.344 0.0 -1.5707963267948966 1.570796326794897 -1.5707963267948966 -1.5707963267948974 5.347285114698508e-16 0.0 0.0 0.0 0.0 0.0 0.0 0.0 0.0 0.0 0.0 0.0 0.0 1.9987199928536514e-26 -0.5442396572688689 -0.7673661111166267 -0.22935479646650192 -1.3146106389479766e-11 0.0 2.6243193506168444e-25 -7.14586669994025 -7.145866699940251 -1.0424175499402513 -5.974905354018553e-11 0.0 0.0 -1.570796314870016 1.5707963705062866 -1.570796314870016 -1.570796314870016 5.347285114698508e-16 0.0 0.0 0.0 0.0 0.0 0.0 1.998719927374967e-26 -0.5442396402359009 -0.7673661112785339 -0.22935479879379272 -1.3146106599137841e-11 0.0 1.998719927374967e-26 -0.5442396402359009 -0.7673661112785339 -0.22935479879379272 -1.3146106599137841e-11 0.0 -0.2985999973554403 -0.11235000099231761 0.3136499823461779 2.221441219594292 2.2214412191386645 6.515886891884209e-08 0.0 0.0 0.0 0.0 0.0 0.0 9.240738067961096e-07 3.4768818278582924e-07 4.2531464706885504e-08 -2.847566213320247e-08 6.147405312801053e-08 -2.650151148498864e-15 -0.29859999998320197 -0.11235000001566982 0.31364999997695664 2.221441469306996 2.2214414688513697 4.556264692367111e-10 0.0 0.0 0.0 0.0 0.0 0.0
1231.3519999999999 0.0 -1.5707963267948966 1.570796326794897 -1.5707963267948966 -1.5707963267948974 5.347285114698508e-16 0.0 0.0 0.0 0.0 0.0 0.0 0.0 0.0 0.0 0.0 0.0 0.0 1.9987199928536514e-26 -0.5442396572688689 -0.7673661111166267 -0.22935479646650192 -1.3146106389479766e-11 0.0 2.6243193506168444e-25 -7.14586669994025 -7.145866699940251 -1.0424175499402513 -5.974905354018553e-11 0.0 0.0 -1.570796314870016 1.5707963705062866 -1.570796314870016 -1.570796314870016 5.347285114698508e-16 0.0 0.0 0.0 0.0 0.0 0.0 1.998719927374967e-26 -0.5442396402359009 -0.7673661112785339 -0.22935479879379272 -1.3146106599137841e-11 0.0 1.998719927374967e-26 -0.5442396402359009 -0.7673661112785339 -0.22935479879379272 -1.3146106599137841e-11 0.0 -0.2985999973554403 -0.11235000099231761 0.3136499823461779 2.221441219594292 2.2214412191386645 6.515886891884209e-08 0.0 0.0 0.0 0.0 0.0 0.0 9.240738067961096e-07 3.4768818278582924e-07 4.2531464706885504e-08 -2.847566213320247e-08 6.147405312801053e-08 -2.650151148498864e-15 -0.29859999998320197 -0.11235000001566982 0.31364999997695664 2.221441469306996 2.2214414688513697 4.556264692367111e-10 0.0 0.0 0.0 0.0 0.0 0.0
1231.36 0.0 -1.5707963267948966 1.570796326794897 -1.5707963267948966 -1.5707963267948974 5.347285114698508e-16 0.0 0.0 0.0 0.0 0.0 0.0 0.0 0.0 0.0 0.0 0.0 0.0 1.9987199928536514e-26 -0.5442396572688689 -0.7673661111166267 -0.22935479646650192 -1.3146106389479766e-11 0.0 2.6243193506168444e-25 -7.14586669994025 -7.145866699940251 -1.0424175499402513 -5.974905354018553e-11 0.0 0.0 -1.570796314870016 1.5707963705062866 -1.570796314870016 -1.570796314870016 5.347285114698508e-16 0.0 0.0 0.0 0.0 0.0 0.0 1.998719927374967e-26 -0.5442396402359009 -0.7673661112785339 -0.22935479879379272 -1.3146106599137841e-11 0.0 1.998719927374967e-26 -0.5442396402359009 -0.7673661112785339 -0.22935479879379272 -1.3146106599137841e-11 0.0 -0.2985999973554403 -0.11235000099231761 0.3136499823461779 2.221441219594292 2.2214412191386645 6.515886891884209e-08 0.0 0.0 0.0 0.0 0.0 0.0 9.240738067961096e-07 3.4768818278582924e-07 4.2531464706885504e-08 -2.847566213320247e-08 6.147405312801053e-08 -2.650151148498864e-15 -0.29859999998320197 -0.11235000001566982 0.31364999997695664 2.221441469306996 2.2214414688513697 4.556264692367111e-10 0.0 0.0 0.0 0.0 0.0 0.0
1231.368 0.0 -1.5707963267948966 1.570796326794897 -1.5707963267948966 -1.5707963267948974 5.347285114698508e-16 0.0 0.0 0.0 0.0 0.0 0.0 0.0 0.0 0.0 0.0 0.0 0.0 1.9987199928536514e-26 -0.5442396572688689 -0.7673661111166267 -0.22935479646650192 -1.3146106389479766e-11 0.0 2.6243193506168444e-25 -7.14586669994025 -7.145866699940251 -1.0424175499402513 -5.974905354018553e-11 0.0 0.0 -1.570796314870016 1.5707963705062866 -1.570796314870016 -1.570796314870016 5.347285114698508e-16 0.0 0.0 0.0 0.0 0.0 0.0 1.998719927374967e-26 -0.5442396402359009 -0.7673661112785339 -0.22935479879379272 -1.3146106599137841e-11 0.0 1.998719927374967e-26 -0.5442396402359009 -0.7673661112785339 -0.22935479879379272 -1.3146106599137841e-11 0.0 -0.2985999973554403 -0.11235000099231761 0.3136499823461779 2.221441219594292 2.2214412191386645 6.515886891884209e-08 0.0 0.0 0.0 0.0 0.0 0.0 9.240738067961096e-07 3.4768818278582924e-07 4.2531464706885504e-08 -2.847566213320247e-08 6.147405312801053e-08 -2.650151148498864e-15 -0.29859999998320197 -0.11235000001566982 0.31364999997695664 2.221441469306996 2.2214414688513697 4.556264692367111e-10 0.0 0.0 0.0 0.0 0.0 0.0
1231.376 0.0 -1.5707963267948966 1.570796326794897 -1.5707963267948966 -1.5707963267948974 5.347285114698508e-16 0.0 0.0 0.0 0.0 0.0 0.0 0.0 0.0 0.0 0.0 0.0 0.0 1.9987199928536514e-26 -0.5442396572688689 -0.7673661111166267 -0.22935479646650192 -1.3146106389479766e-11 0.0 2.6243193506168444e-25 -7.14586669994025 -7.145866699940251 -1.0424175499402513 -5.974905354018553e-11 0.0 0.0 -1.570796314870016 1.5707963705062866 -1.570796314870016 -1.570796314870016 5.347285114698508e-16 0.0 0.0 0.0 0.0 0.0 0.0 1.998719927374967e-26 -0.5442396402359009 -0.7673661112785339 -0.22935479879379272 -1.3146106599137841e-11 0.0 1.998719927374967e-26 -0.5442396402359009 -0.7673661112785339 -0.22935479879379272 -1.3146106599137841e-11 0.0 -0.2985999973554403 -0.11235000099231761 0.3136499823461779 2.221441219594292 2.2214412191386645 6.515886891884209e-08 0.0 0.0 0.0 0.0 0.0 0.0 9.240738067961096e-07 3.4768818278582924e-07 4.2531464706885504e-08 -2.847566213320247e-08 6.147405312801053e-08 -2.650151148498864e-15 -0.29859999998320197 -0.11235000001566982 0.31364999997695664 2.221441469306996 2.2214414688513697 4.556264692367111e-10 0.0 0.0 0.0 0.0 0.0 0.0
1231.384 0.0 -1.5707963267948966 1.570796326794897 -1.5707963267948966 -1.5707963267948974 5.347285114698508e-16 0.0 0.0 0.0 0.0 0.0 0.0 0.0 0.0 0.0 0.0 0.0 0.0 1.9987199928536514e-26 -0.5442396572688689 -0.7673661111166267 -0.22935479646650192 -1.3146106389479766e-11 0.0 2.6243193506168444e-25 -7.14586669994025 -7.145866699940251 -1.0424175499402513 -5.974905354018553e-11 0.0 0.0 -1.570796314870016 1.5707963705062866 -1.570796314870016 -1.570796314870016 5.347285114698508e-16 0.0 0.0 0.0 0.0 0.0 0.0 1.998719927374967e-26 -0.5442396402359009 -0.7673661112785339 -0.22935479879379272 -1.3146106599137841e-11 0.0 1.998719927374967e-26 -0.5442396402359009 -0.7673661112785339 -0.22935479879379272 -1.3146106599137841e-11 0.0 -0.2985999973554403 -0.11235000099231761 0.3136499823461779 2.221441219594292 2.2214412191386645 6.515886891884209e-08 0.0 0.0 0.0 0.0 0.0 0.0 9.240738067961096e-07 3.4768818278582924e-07 4.2531464706885504e-08 -2.847566213320247e-08 6.147405312801053e-08 -2.650151148498864e-15 -0.29859999998320197 -0.11235000001566982 0.31364999997695664 2.221441469306996 2.2214414688513697 4.556264692367111e-10 0.0 0.0 0.0 0.0 0.0 0.0
1231.392 0.0 -1.5707963267948966 1.570796326794897 -1.5707963267948966 -1.5707963267948974 5.347285114698508e-16 0.0 0.0 0.0 0.0 0.0 0.0 0.0 0.0 0.0 0.0 0.0 0.0 1.9987199928536514e-26 -0.5442396572688689 -0.7673661111166267 -0.22935479646650192 -1.3146106389479766e-11 0.0 2.6243193506168444e-25 -7.14586669994025 -7.145866699940251 -1.0424175499402513 -5.974905354018553e-11 0.0 0.0 -1.570796314870016 1.5707963705062866 -1.570796314870016 -1.570796314870016 5.347285114698508e-16 0.0 0.0 0.0 0.0 0.0 0.0 1.998719927374967e-26 -0.5442396402359009 -0.7673661112785339 -0.22935479879379272 -1.3146106599137841e-11 0.0 1.998719927374967e-26 -0.5442396402359009 -0.7673661112785339 -0.22935479879379272 -1.3146106599137841e-11 0.0 -0.2985999973554403 -0.11235000099231761 0.3136499823461779 2.221441219594292 2.2214412191386645 6.515886891884209e-08 0.0 0.0 0.0 0.0 0.0 0.0 9.240738067961096e-07 3.4768818278582924e-07 4.2531464706885504e-08 -2.847566213320247e-08 6.147405312801053e-08 -2.650151148498864e-15 -0.29859999998320197 -0.11235000001566982 0.31364999997695664 2.221441469306996 2.2214414688513697 4.556264692367111e-10 0.0 0.0 0.0 0.0 0.0 0.0
1231.3999999999999 0.0 -1.5707963267948966 1.570796326794897 -1.5707963267948966 -1.5707963267948974 5.347285114698508e-16 0.0 0.0 0.0 0.0 0.0 0.0 0.0 0.0 0.0 0.0 0.0 0.0 1.9987199928536514e-26 -0.5442396572688689 -0.7673661111166267 -0.22935479646650192 -1.3146106389479766e-11 0.0 2.6243193506168444e-25 -7.14586669994025 -7.145866699940251 -1.0424175499402513 -5.974905354018553e-11 0.0 0.0 -1.570796314870016 1.5707963705062866 -1.570796314870016 -1.570796314870016 5.347285114698508e-16 0.0 0.0 0.0 0.0 0.0 0.0 1.998719927374967e-26 -0.5442396402359009 -0.7673661112785339 -0.22935479879379272 -1.3146106599137841e-11 0.0 1.998719927374967e-26 -0.5442396402359009 -0.7673661112785339 -0.22935479879379272 -1.3146106599137841e-11 0.0 -0.2985999973554403 -0.11235000099231761 0.3136499823461779 2.221441219594292 2.2214412191386645 6.515886891884209e-08 0.0 0.0 0.0 0.0 0.0 0.0 9.240738067961096e-07 3.4768818278582924e-07 4.2531464706885504e-08 -2.847566213320247e-08 6.147405312801053e-08 -2.650151148498864e-15 -0.29859999998320197 -0.11235000001566982 0.31364999997695664 2.221441469306996 2.2214414688513697 4.556264692367111e-10 0.0 0.0 0.0 0.0 0.0 0.0
1231.408 0.0 -1.5707963267948966 1.570796326794897 -1.5707963267948966 -1.5707963267948974 5.347285114698508e-16 0.0 0.0 0.0 0.0 0.0 0.0 0.0 0.0 0.0 0.0 0.0 0.0 1.9987199928536514e-26 -0.5442396572688689 -0.7673661111166267 -0.22935479646650192 -1.3146106389479766e-11 0.0 2.6243193506168444e-25 -7.14586669994025 -7.145866699940251 -1.0424175499402513 -5.974905354018553e-11 0.0 0.0 -1.570796314870016 1.5707963705062866 -1.570796314870016 -1.570796314870016 5.347285114698508e-16 0.0 0.0 0.0 0.0 0.0 0.0 1.998719927374967e-26 -0.5442396402359009 -0.7673661112785339 -0.22935479879379272 -1.3146106599137841e-11 0.0 1.998719927374967e-26 -0.5442396402359009 -0.7673661112785339 -0.22935479879379272 -1.3146106599137841e-11 0.0 -0.2985999973554403 -0.11235000099231761 0.3136499823461779 2.221441219594292 2.2214412191386645 6.515886891884209e-08 0.0 0.0 0.0 0.0 0.0 0.0 9.240738067961096e-07 3.4768818278582924e-07 4.2531464706885504e-08 -2.847566213320247e-08 6.147405312801053e-08 -2.650151148498864e-15 -0.29859999998320197 -0.11235000001566982 0.31364999997695664 2.221441469306996 2.2214414688513697 4.556264692367111e-10 0.0 0.0 0.0 0.0 0.0 0.0
1231.416 0.0 -1.5707963267948966 1.570796326794897 -1.5707963267948966 -1.5707963267948974 5.347285114698508e-16 0.0 0.0 0.0 0.0 0.0 0.0 0.0 0.0 0.0 0.0 0.0 0.0 1.9987199928536514e-26 -0.5442396572688689 -0.7673661111166267 -0.22935479646650192 -1.3146106389479766e-11 0.0 2.6243193506168444e-25 -7.14586669994025 -7.145866699940251 -1.0424175499402513 -5.974905354018553e-11 0.0 0.0 -1.570796314870016 1.5707963705062866 -1.570796314870016 -1.570796314870016 5.347285114698508e-16 0.0 0.0 0.0 0.0 0.0 0.0 1.998719927374967e-26 -0.5442396402359009 -0.7673661112785339 -0.22935479879379272 -1.3146106599137841e-11 0.0 1.998719927374967e-26 -0.5442396402359009 -0.7673661112785339 -0.22935479879379272 -1.3146106599137841e-11 0.0 -0.2985999973554403 -0.11235000099231761 0.3136499823461779 2.221441219594292 2.2214412191386645 6.515886891884209e-08 0.0 0.0 0.0 0.0 0.0 0.0 9.240738067961096e-07 3.4768818278582924e-07 4.2531464706885504e-08 -2.847566213320247e-08 6.147405312801053e-08 -2.650151148498864e-15 -0.29859999998320197 -0.11235000001566982 0.31364999997695664 2.221441469306996 2.2214414688513697 4.556264692367111e-10 0.0 0.0 0.0 0.0 0.0 0.0
1231.424 0.0 -1.5707963267948966 1.570796326794897 -1.5707963267948966 -1.5707963267948974 5.347285114698508e-16 0.0 0.0 0.0 0.0 0.0 0.0 0.0 0.0 0.0 0.0 0.0 0.0 1.9987199928536514e-26 -0.5442396572688689 -0.7673661111166267 -0.22935479646650192 -1.3146106389479766e-11 0.0 2.6243193506168444e-25 -7.14586669994025 -7.145866699940251 -1.0424175499402513 -5.974905354018553e-11 0.0 0.0 -1.570796314870016 1.5707963705062866 -1.570796314870016 -1.570796314870016 5.347285114698508e-16 0.0 0.0 0.0 0.0 0.0 0.0 1.998719927374967e-26 -0.5442396402359009 -0.7673661112785339 -0.22935479879379272 -1.3146106599137841e-11 0.0 1.998719927374967e-26 -0.5442396402359009 -0.7673661112785339 -0.22935479879379272 -1.3146106599137841e-11 0.0 -0.2985999973554403 -0.11235000099231761 0.3136499823461779 2.221441219594292 2.2214412191386645 6.515886891884209e-08 0.0 0.0 0.0 0.0 0.0 0.0 9.240738067961096e-07 3.4768818278582924e-07 4.2531464706885504e-08 -2.847566213320247e-08 6.147405312801053e-08 -2.650151148498864e-15 -0.29859999998320197 -0.11235000001566982 0.31364999997695664 2.221441469306996 2.2214414688513697 4.556264692367111e-10 0.0 0.0 0.0 0.0 0.0 0.0
1231.432 0.0 -1.5707963267948966 1.570796326794897 -1.5707963267948966 -1.5707963267948974 5.347285114698508e-16 0.0 0.0 0.0 0.0 0.0 0.0 0.0 0.0 0.0 0.0 0.0 0.0 1.9987199928536514e-26 -0.5442396572688689 -0.7673661111166267 -0.22935479646650192 -1.3146106389479766e-11 0.0 2.6243193506168444e-25 -7.14586669994025 -7.145866699940251 -1.0424175499402513 -5.974905354018553e-11 0.0 0.0 -1.570796314870016 1.5707963705062866 -1.570796314870016 -1.570796314870016 5.347285114698508e-16 0.0 0.0 0.0 0.0 0.0 0.0 1.998719927374967e-26 -0.5442396402359009 -0.7673661112785339 -0.22935479879379272 -1.3146106599137841e-11 0.0 1.998719927374967e-26 -0.5442396402359009 -0.7673661112785339 -0.22935479879379272 -1.3146106599137841e-11 0.0 -0.2985999973554403 -0.11235000099231761 0.3136499823461779 2.221441219594292 2.2214412191386645 6.515886891884209e-08 0.0 0.0 0.0 0.0 0.0 0.0 9.240738067961096e-07 3.4768818278582924e-07 4.2531464706885504e-08 -2.847566213320247e-08 6.147405312801053e-08 -2.650151148498864e-15 -0.29859999998320197 -0.11235000001566982 0.31364999997695664 2.221441469306996 2.2214414688513697 4.556264692367111e-10 0.0 0.0 0.0 0.0 0.0 0.0
1231.44 0.0 -1.5707963267948966 1.570796326794897 -1.5707963267948966 -1.5707963267948974 5.347285114698508e-16 0.0 0.0 0.0 0.0 0.0 0.0 0.0 0.0 0.0 0.0 0.0 0.0 1.9987199928536514e-26 -0.5442396572688689 -0.7673661111166267 -0.22935479646650192 -1.3146106389479766e-11 0.0 2.6243193506168444e-25 -7.14586669994025 -7.145866699940251 -1.0424175499402513 -5.974905354018553e-11 0.0 0.0 -1.570796314870016 1.5707963705062866 -1.570796314870016 -1.570796314870016 5.347285114698508e-16 0.0 0.0 0.0 0.0 0.0 0.0 1.998719927374967e-26 -0.5442396402359009 -0.7673661112785339 -0.22935479879379272 -1.3146106599137841e-11 0.0 1.998719927374967e-26 -0.5442396402359009 -0.7673661112785339 -0.22935479879379272 -1.3146106599137841e-11 0.0 -0.2985999973554403 -0.11235000099231761 0.3136499823461779 2.221441219594292 2.2214412191386645 6.515886891884209e-08 0.0 0.0 0.0 0.0 0.0 0.0 9.240738067961096e-07 3.4768818278582924e-07 4.2531464706885504e-08 -2.847566213320247e-08 6.147405312801053e-08 -2.650151148498864e-15 -0.29859999998320197 -0.11235000001566982 0.31364999997695664 2.221441469306996 2.2214414688513697 4.556264692367111e-10 0.0 0.0 0.0 0.0 0.0 0.0
1231.4479999999999 0.0 -1.5707963267948966 1.570796326794897 -1.5707963267948966 -1.5707963267948974 5.347285114698508e-16 0.0 0.0 0.0 0.0 0.0 0.0 0.0 0.0 0.0 0.0 0.0 0.0 1.9987199928536514e-26 -0.5442396572688689 -0.7673661111166267 -0.22935479646650192 -1.3146106389479766e-11 0.0 2.6243193506168444e-25 -7.14586669994025 -7.145866699940251 -1.0424175499402513 -5.974905354018553e-11 0.0 0.0 -1.570796314870016 1.5707963705062866 -1.570796314870016 -1.570796314870016 5.347285114698508e-16 0.0 0.0 0.0 0.0 0.0 0.0 1.998719927374967e-26 -0.5442396402359009 -0.7673661112785339 -0.22935479879379272 -1.3146106599137841e-11 0.0 1.998719927374967e-26 -0.5442396402359009 -0.7673661112785339 -0.22935479879379272 -1.3146106599137841e-11 0.0 -0.2985999973554403 -0.11235000099231761 0.3136499823461779 2.221441219594292 2.2214412191386645 6.515886891884209e-08 0.0 0.0 0.0 0.0 0.0 0.0 9.240738067961096e-07 3.4768818278582924e-07 4.2531464706885504e-08 -2.847566213320247e-08 6.147405312801053e-08 -2.650151148498864e-15 -0.29859999998320197 -0.11235000001566982 0.31364999997695664 2.221441469306996 2.2214414688513697 4.556264692367111e-10 0.0 0.0 0.0 0.0 0.0 0.0
1231.456 0.0 -1.5707963267948966 1.570796326794897 -1.5707963267948966 -1.5707963267948974 5.347285114698508e-16 0.0 0.0 0.0 0.0 0.0 0.0 0.0 0.0 0.0 0.0 0.0 0.0 1.9987199928536514e-26 -0.5442396572688689 -0.7673661111166267 -0.22935479646650192 -1.3146106389479766e-11 0.0 2.6243193506168444e-25 -7.14586669994025 -7.145866699940251 -1.0424175499402513 -5.974905354018553e-11 0.0 0.0 -1.570796314870016 1.5707963705062866 -1.570796314870016 -1.570796314870016 5.347285114698508e-16 0.0 0.0 0.0 0.0 0.0 0.0 1.998719927374967e-26 -0.5442396402359009 -0.7673661112785339 -0.22935479879379272 -1.3146106599137841e-11 0.0 1.998719927374967e-26 -0.5442396402359009 -0.7673661112785339 -0.22935479879379272 -1.3146106599137841e-11 0.0 -0.2985999973554403 -0.11235000099231761 0.3136499823461779 2.221441219594292 2.2214412191386645 6.515886891884209e-08 0.0 0.0 0.0 0.0 0.0 0.0 9.240738067961096e-07 3.4768818278582924e-07 4.2531464706885504e-08 -2.847566213320247e-08 6.147405312801053e-08 -2.650151148498864e-15 -0.29859999998320197 -0.11235000001566982 0.31364999997695664 2.221441469306996 2.2214414688513697 4.556264692367111e-10 0.0 0.0 0.0 0.0 0.0 0.0
