mkrssg/UniversalRobots/rtde_client_3.5/examples/roboter/backup/michi_movel_19.6/movel_x400_robo.csv
timestamp target_q_0 target_q_1 target_q_2 target_q_3 target_q_4 target_q_5 target_qd_0 target_qd_1 target_qd_2 target_qd_3 target_qd_4 target_qd_5 target_qdd_0 target_qdd_1 target_qdd_2 target_qdd_3 target_qdd_4 target_qdd_5 target_current_0 target_current_1 target_current_2 target_current_3 target_current_4 target_current_5 target_moment_0 target_moment_1 target_moment_2 target_moment_3 target_moment_4 target_moment_5 actual_q_0 actual_q_1 actual_q_2 actual_q_3 actual_q_4 actual_q_5 actual_qd_0 actual_qd_1 actual_qd_2 actual_qd_3 actual_qd_4 actual_qd_5 actual_current_0 actual_current_1 actual_current_2 actual_current_3 actual_current_4 actual_current_5 joint_control_output_0 joint_control_output_1 joint_control_output_2 joint_control_output_3 joint_control_output_4 joint_control_output_5 actual_TCP_pose_0 actual_TCP_pose_1 actual_TCP_pose_2 actual_TCP_pose_3 actual_TCP_pose_4 actual_TCP_pose_5 actual_TCP_speed_0 actual_TCP_speed_1 actual_TCP_speed_2 actual_TCP_speed_3 actual_TCP_speed_4 actual_TCP_speed_5 actual_TCP_force_0 actual_TCP_force_1 actual_TCP_force_2 actual_TCP_force_3 actual_TCP_force_4 actual_TCP_force_5 target_TCP_pose_0 target_TCP_pose_1 target_TCP_pose_2 target_TCP_pose_3 target_TCP_pose_4 target_TCP_pose_5 target_TCP_speed_0 target_TCP_speed_1 target_TCP_speed_2 target_TCP_speed_3 target_TCP_speed_4 target_TCP_speed_5
1704.6 -3.5488375054410173 -1.347457273497529 -1.8297531969842105 -1.5352330123231033 1.5708179790210215 -0.4072448522401473 0.0 0.0 0.0 0.0 0.0 0.0 0.0 0.0 0.0 0.0 0.0 0.0 -1.1038480459098545e-17 0.3499991142843476 0.766948704347012 0.2293513028109214 1.387805551208246e-06 0.0 -1.4493524842796392e-16 4.595488370553484 7.141979724620246 1.0424016712756377 6.307576230241479e-06 0.0 -3.548837486897604 -1.347457234059469 -1.8297532240497034 -1.5352328459369105 1.5708179473876953 -0.40724498430360967 0.0 0.0 0.0 0.0 0.0 0.0 -1.1038480429058839e-17 0.3499990999698639 0.7669486999511719 0.22935129702091217 1.3878055824534385e-06 0.0 -1.1038480429058839e-17 0.3499990999698639 0.7669486999511719 0.22935129702091217 1.3878055824534385e-06 0.0 -0.18000010649656395 0.199999712365214 0.30000001589716463 2.221399958473569 2.2214002930459764 -5.750839458807407e-08 0.0 0.0 0.0 0.0 0.0 0.0 4.708121692583919e-07 -5.231248226505691e-07 9.138596141260942e-08 5.017929394063035e-08 5.556398824408035e-08 -2.2535837766982664e-13 -0.18000009888808743 0.1999997111992886 0.30000000013246775 2.221400000026583 2.2214000000355214 -1.4868013180576755e-11 0.0 0.0 0.0 0.0 0.0 0.0
1704.608 -3.5488375054410173 -1.347457273497529 -1.8297531969842105 -1.5352330123231033 1.5708179790210215 -0.4072448522401473 0.0 0.0 0.0 0.0 0.0 0.0 0.0 0.0 0.0 0.0 0.0 0.0 -1.1038480459098545e-17 0.3499991142843476 0.766948704347012 0.2293513028109214 1.387805551208246e-06 0.0 -1.4493524842796392e-16 4.595488370553484 7.141979724620246 1.0424016712756377 6.307576230241479e-06 0.0 -3.548837486897604 -1.347457234059469 -1.8297532240497034 -1.5352328459369105 1.5708179473876953 -0.40724498430360967 0.0 0.0 0.0 0.0 0.0 0.0 -1.1038480429058839e-17 0.3499990999698639 0.7669486999511719 0.22935129702091217 1.3878055824534385e-06 0.0 -1.1038480429058839e-17 0.3499990999698639 0.7669486999511719 0.22935129702091217 1.3878055824534385e-06 0.0 -0.18000010649656395 0.199999712365214 0.30000001589716463 2.221399958473569 2.2214002930459764 -5.750839458807407e-08 0.0 0.0 0.0 0.0 0.0 0.0 4.708121692583919e-07 -5.231248226505691e-07 9.138596141260942e-08 5.017929394063035e-08 5.556398824408035e-08 -2.2535837766982664e-13 -0.18000009888808743 0.1999997111992886 0.30000000013246775 2.221400000026583 2.2214000000355214 -1.4868013180576755e-11 0.0 0.0 0.0 0.0 0.0 0.0
1704.616 -3.5488375054410173 -1.347457273497529 -1.8297531969842105 -1.5352330123231033 1.5708179790210215 -0.4072448522401473 0.0 0.0 0.0 0.0 0.0 0.0 0.0 0.0 0.0 0.0 0.0 0.0 -1.1038480459098545e-17 0.3499991142843476 0.766948704347012 0.2293513028109214 1.387805551208246e-06 0.0 -1.4493524842796392e-16 4.595488370553484 7.141979724620246 1.0424016712756377 6.307576230241479e-06 0.0 -3.548837486897604 -1.347457234059469 -1.8297532240497034 -1.5352328459369105 1.5708179473876953 -0.40724498430360967 0.0 0.0 0.0 0.0 0.0 0.0 -1.1038480429058839e-17 0.3499990999698639 0.7669486999511719 0.22935129702091217 1.3878055824534385e-06 0.0 -1.1038480429058839e-17 0.3499990999698639 0.7669486999511719 0.22935129702091217 1.3878055824534385e-06 0.0 -0.18000010649656395 0.199999712365214 0.30000001589716463 2.221399958473569 2.2214002930459764 -5.750839458807407e-08 0.0 0.0 0.0 0.0 0.0 0.0 4.708121692583919e-07 -5.231248226505691e-07 9.138596141260942e-08 5.017929394063035e-08 5.556398824408035e-08 -2.2535837766982664e-13 -0.18000009888808743 0.1999997111992886 0.30000000013246775 2.221400000026583 2.2214000000355214 -1.4868013180576755e-11 0.0 0.0 0.0 0.0 0.0 0.0
1704.624 -3.5488375054410173 -1.347457273497529 -1.8297531969842105 -1.5352330123231033 1.5708179790210215 -0.4072448522401473 0.0 0.0 0.0 0.0 0.0 0.0 0.0 0.0 0.0 0.0 0.0 0.0 -1.1038480459098545e-17 0.3499991142843476 0.766948704347012 0.2293513028109214 1.387805551208246e-06 0.0 -1.4493524842796392e-16 4.595488370553484 7.141979724620246 1.0424016712756377 6.307576230241479e-06 0.0 -3.548837486897604 -1.347457234059469 -1.8297532240497034 -1.5352328459369105 1.5708179473876953 -0.40724498430360967 0.0 0.0 0.0 0.0 0.0 0.0 -1.1038480429058839e-17 0.3499990999698639 0.7669486999511719 0.22935129702091217 1.3878055824534385e-06 0.0 -1.1038480429058839e-17 0.3499990999698639 0.7669486999511719 0.22935129702091217 1.3878055824534385e-06 0.0 -0.18000010649656395 0.199999712365214 0.30000001589716463 2.221399958473569 2.2214002930459764 -5.750839458807407e-08 0.0 0.0 0.0 0.0 0.0 0.0 4.708121692583919e-07 -5.231248226505691e-07 9.138596141260942e-08 5.017929394063035e-08 5.556398824408035e-08 -2.2535837766982664e-13 -0.18000009888808743 0.1999997111992886 0.30000000013246775 2.221400000026583 2.2214000000355214 -1.4868013180576755e-11 0.0 0.0 0.0 0.0 0.0 0.0
1704.6319999999998 -3.5488375054410173 -1.347457273497529 -1.8297531969842105 -1.5352330123231033 1.5708179790210215 -0.4072448522401473 0.0 0.0 0.0 0.0 0.0 0.0 0.0 0.0 0.0 0.0 0.0 0.0 -1.1038480459098545e-17 0.3499991142843476 0.766948704347012 0.2293513028109214 1.387805551208246e-06 0.0 -1.4493524842796392e-16 4.595488370553484 7.141979724620246 1.0424016712756377 6.307576230241479e-06 0.0 -3.548837486897604 -1.347457234059469 -1.8297532240497034 -1.5352328459369105 1.5708179473876953 -0.40724498430360967 0.0 0.0 0.0 0.0 0.0 0.0 -1.1038480429058839e-17 0.3499990999698639 0.7669486999511719 0.22935129702091217 1.3878055824534385e-06 0.0 -1.1038480429058839e-17 0.3499990999698639 0.7669486999511719 0.22935129702091217 1.3878055824534385e-06 0.0 -0.18000010649656395 0.199999712365214 0.30000001589716463 2.221399958473569 2.2214002930459764 -5.750839458807407e-08 0.0 0.0 0.0 0.0 0.0 0.0 4.708121692583919e-07 -5.231248226505691e-07 9.138596141260942e-08 5.017929394063035e-08 5.556398824408035e-08 -2.2535837766982664e-13 -0.18000009888808743 0.1999997111992886 0.30000000013246775 2.221400000026583 2.2214000000355214 -1.4868013180576755e-11 0.0 0.0 0.0 0.0 0.0 0.0
1704.6399999999999 -3.5488375054410173 -1.347457273497529 -1.8297531969842105 -1.5352330123231033 1.5708179790210215 -0.4072448522401473 0.0 0.0 0.0 0.0 0.0 0.0 0.0 0.0 0.0 0.0 0.0 0.0 -1.1038480459098545e-17 0.3499991142843476 0.766948704347012 0.2293513028109214 1.387805551208246e-06 0.0 -1.4493524842796392e-16 4.595488370553484 7.141979724620246 1.0424016712756377 6.307576230241479e-06 0.0 -3.548837486897604 -1.347457234059469 -1.8297532240497034 -1.5352328459369105 1.5708179473876953 -0.40724498430360967 0.0 0.0 0.0 0.0 0.0 0.0 -1.1038480429058839e-17 0.3499990999698639 0.7669486999511719 0.22935129702091217 1.3878055824534385e-06 0.0 -1.1038480429058839e-17 0.3499990999698639 0.7669486999511719 0.22935129702091217 1.3878055824534385e-06 0.0 -0.18000010649656395 0.199999712365214 0.30000001589716463 2.221399958473569 2.2214002930459764 -5.750839458807407e-08 0.0 0.0 0.0 0.0 0.0 0.0 4.708121692583919e-07 -5.231248226505691e-07 9.138596141260942e-08 5.017929394063035e-08 5.556398824408035e-08 -2.2535837766982664e-13 -0.18000009888808743 0.1999997111992886 0.30000000013246775 2.221400000026583 2.2214000000355214 -1.4868013180576755e-11 0.0 0.0 0.0 0.0 0.0 0.0
1704.648 -3.5488375054410173 -1.347457273497529 -1.8297531969842105 -1.5352330123231033 1.5708179790210215 -0.4072448522401473 0.0 0.0 0.0 0.0 0.0 0.0 0.0 0.0 0.0 0.0 0.0 0.0 -1.1038480459098545e-17 0.3499991142843476 0.766948704347012 0.2293513028109214 1.387805551208246e-06 0.0 -1.4493524842796392e-16 4.595488370553484 7.141979724620246 1.0424016712756377 6.307576230241479e-06 0.0 -3.548837486897604 -1.347457234059469 -1.8297532240497034 -1.5352328459369105 1.5708179473876953 -0.40724498430360967 0.0 0.0 0.0 0.0 0.0 0.0 -1.1038480429058839e-17 0.3499990999698639 0.7669486999511719 0.22935129702091217 1.3878055824534385e-06 0.0 -1.1038480429058839e-17 0.3499990999698639 0.7669486999511719 0.22935129702091217 1.3878055824534385e-06 0.0 -0.18000010649656395 0.199999712365214 0.30000001589716463 2.221399958473569 2.2214002930459764 -5.750839458807407e-08 0.0 0.0 0.0 0.0 0.0 0.0 4.708121692583919e-07 -5.231248226505691e-07 9.138596141260942e-08 5.017929394063035e-08 5.556398824408035e-08 -2.2535837766982664e-13 -0.18000009888808743 0.1999997111992886 0.30000000013246775 2.221400000026583 2.2214000000355214 -1.4868013180576755e-11 0.0 0.0 0.0 0.0 0.0 0.0
1704.656 -3.5488375054410173 -1.347457273497529 -1.8297531969842105 -1.5352330123231033 1.5708179790210215 -0.4072448522401473 0.0 0.0 0.0 0.0 0.0 0.0 0.0 0.0 0.0 0.0 0.0 0.0 -1.1038480459098545e-17 0.3499991142843476 0.766948704347012 0.2293513028109214 1.387805551208246e-06 0.0 -1.4493524842796392e-16 4.595488370553484 7.141979724620246 1.0424016712756377 6.307576230241479e-06 0.0 -3.548837486897604 -1.347457234059469 -1.8297532240497034 -1.5352328459369105 1.5708179473876953 -0.40724498430360967 0.0 0.0 0.0 0.0 0.0 0.0 -1.1038480429058839e-17 0.3499990999698639 0.7669486999511719 0.22935129702091217 1.3878055824534385e-06 0.0 -1.1038480429058839e-17 0.3499990999698639 0.7669486999511719 0.22935129702091217 1.3878055824534385e-06 0.0 -0.18000010649656395 0.199999712365214 0.30000001589716463 2.221399958473569 2.2214002930459764 -5.750839458807407e-08 0.0 0.0 0.0 0.0 0.0 0.0 4.708121692583919e-07 -5.231248226505691e-07 9.138596141260942e-08 5.017929394063035e-08 5.556398824408035e-08 -2.2535837766982664e-13 -0.18000009888808743 0.1999997111992886 0.30000000013246775 2.221400000026583 2.2214000000355214 -1.4868013180576755e-11 0.0 0.0 0.0 0.0 0.0 0.0
1704.664 -3.5488375054410173 -1.347457273497529 -1.8297531969842105 -1.5352330123231033 1.5708179790210215 -0.4072448522401473 0.0 0.0 0.0 0.0 0.0 0.0 0.0 0.0 0.0 0.0 0.0 0.0 -1.1038480459098545e-17 0.3499991142843476 0.766948704347012 0.2293513028109214 1.387805551208246e-06 0.0 -1.4493524842796392e-16 4.595488370553484 7.141979724620246 1.0424016712756377 6.307576230241479e-06 0.0 -3.548837486897604 -1.347457234059469 -1.8297532240497034 -1.5352328459369105 1.5708179473876953 -0.40724498430360967 0.0 0.0 0.0 0.0 0.0 0.0 -1.1038480429058839e-17 0.3499990999698639 0.7669486999511719 0.22935129702091217 1.3878055824534385e-06 0.0 -1.1038480429058839e-17 0.3499990999698639 0.7669486999511719 0.22935129702091217 1.3878055824534385e-06 0.0 -0.18000010649656395 0.199999712365214 0.30000001589716463 2.221399958473569 2.2214002930459764 -5.750839458807407e-08 0.0 0.0 0.0 0.0 0.0 0.0 4.708121692583919e-07 -5.231248226505691e-07 9.138596141260942e-08 5.017929394063035e-08 5.556398824408035e-08 -2.2535837766982664e-13 -0.18000009888808743 0.1999997111992886 0.30000000013246775 2.221400000026583 2.2214000000355214 -1.4868013180576755e-11 0.0 0.0 0.0 0.0 0.0 0.0
1704.672 -3.5488375054410173 -1.347457273497529 -1.8297531969842105 -1.5352330123231033 1.5708179790210215 -0.4072448522401473 0.0 0.0 0.0 0.0 0.0 0.0 0.0 0.0 0.0 0.0 0.0 0.0 -1.1038480459098545e-17 0.3499991142843476 0.766948704347012 0.2293513028109214 1.387805551208246e-06 0.0 -1.4493524842796392e-16 4.595488370553484 7.141979724620246 1.0424016712756377 6.307576230241479e-06 0.0 -3.548837486897604 -1.347457234059469 -1.8297532240497034 -1.5352328459369105 1.5708179473876953 -0.40724498430360967 0.0 0.0 0.0 0.0 0.0 0.0 -1.1038480429058839e-17 0.3499990999698639 0.7669486999511719 0.22935129702091217 1.3878055824534385e-06 0.0 -1.1038480429058839e-17 0.3499990999698639 0.7669486999511719 0.22935129702091217 1.3878055824534385e-06 0.0 -0.18000010649656395 0.199999712365214 0.30000001589716463 2.221399958473569 2.2214002930459764 -5.750839458807407e-08 0.0 0.0 0.0 0.0 0.0 0.0 4.708121692583919e-07 -5.231248226505691e-07 9.138596141260942e-08 5.017929394063035e-08 5.556398824408035e-08 -2.2535837766982664e-13 -0.18000009888808743 0.1999997111992886 0.30000000013246775 2.221400000026583 2.2214000000355214 -1.4868013180576755e-11 0.0 0.0 0.0 0.0 0.0 0.0
1704.6799999999998 -3.5488375054410173 -1.347457273497529 -1.8297531969842105 -1.5352330123231033 1.5708179790210215 -0.4072448522401473 0.0 0.0 0.0 0.0 0.0 0.0 0.0 0.0 0.0 0.0 0.0 0.0 -1.1038480459098545e-17 0.3499991142843476 0.766948704347012 0.2293513028109214 1.387805551208246e-06 0.0 -1.4493524842796392e-16 4.595488370553484 7.141979724620246 1.0424016712756377 6.307576230241479e-06 0.0 -3.548837486897604 -1.347457234059469 -1.8297532240497034 -1.5352328459369105 1.5708179473876953 -0.40724498430360967 0.0 0.0 0.0 0.0 0.0 0.0 -1.1038480429058839e-17 0.3499990999698639 0.7669486999511719 0.22935129702091217 1.3878055824534385e-06 0.0 -1.1038480429058839e-17 0.3499990999698639 0.7669486999511719 0.22935129702091217 1.3878055824534385e-06 0.0 -0.18000010649656395 0.199999712365214 0.30000001589716463 2.221399958473569 2.2214002930459764 -5.750839458807407e-08 0.0 0.0 0.0 0.0 0.0 0.0 4.708121692583919e-07 -5.231248226505691e-07 9.138596141260942e-08 5.017929394063035e-08 5.556398824408035e-08 -2.2535837766982664e-13 -0.18000009888808743 0.1999997111992886 0.30000000013246775 2.221400000026583 2.2214000000355214 -1.4868013180576755e-11 0.0 0.0 0.0 0.0 0.0 0.0
1704.6879999999999 -3.5488375054410173 -1.347457273497529 -1.8297531969842105 -1.5352330123231033 1.5708179790210215 -0.4072448522401473 0.0 0.0 0.0 0.0 0.0 0.0 0.0 0.0 0.0 0.0 0.0 0.0 -1.1038480459098545e-17 0.3499991142843476 0.766948704347012 0.2293513028109214 1.387805551208246e-06 0.0 -1.4493524842796392e-16 4.595488370553484 7.141979724620246 1.0424016712756377 6.307576230241479e-06 0.0 -3.548837486897604 -1.347457234059469 -1.8297532240497034 -1.5352328459369105 1.5708179473876953 -0.40724498430360967 0.0 0.0 0.0 0.0 0.0 0.0 -1.1038480429058839e-17 0.3499990999698639 0.7669486999511719 0.22935129702091217 1.3878055824534385e-06 0.0 -1.1038480429058839e-17 0.3499990999698639 0.7669486999511719 0.22935129702091217 1.3878055824534385e-06 0.0 -0.18000010649656395 0.199999712365214 0.30000001589716463 2.221399958473569 2.2214002930459764 -5.750839458807407e-08 0.0 0.0 0.0 0.0 0.0 0.0 4.708121692583919e-07 -5.231248226505691e-07 9.138596141260942e-08 5.017929394063035e-08 5.556398824408035e-08 -2.2535837766982664e-13 -0.18000009888808743 0.1999997111992886 0.30000000013246775 2.221400000026583 2.2214000000355214 -1.4868013180576755e-11 0.0 0.0 0.0 0.0 0.0 0.0
1704.696 -3.5488375054410173 -1.347457273497529 -1.8297531969842105 -1.5352330123231033 1.5708179790210215 -0.4072448522401473 0.0 0.0 0.0 0.0 0.0 0.0 0.0 0.0 0.0 0.0 0.0 0.0 -1.1038480459098545e-17 0.3499991142843476 0.766948704347012 0.2293513028109214 1.387805551208246e-06 0.0 -1.4493524842796392e-16 4.595488370553484 7.141979724620246 1.0424016712756377 6.307576230241479e-06 0.0 -3.548837486897604 -1.347457234059469 -1.8297532240497034 -1.5352328459369105 1.5708179473876953 -0.40724498430360967 0.0 0.0 0.0 0.0 0.0 0.0 -1.1038480429058839e-17 0.3499990999698639 0.7669486999511719 0.22935129702091217 1.3878055824534385e-06 0.0 -1.1038480429058839e-17 0.3499990999698639 0.7669486999511719 0.22935129702091217 1.3878055824534385e-06 0.0 -0.18000010649656395 0.199999712365214 0.30000001589716463 2.221399958473569 2.2214002930459764 -5.750839458807407e-08 0.0 0.0 0.0 0.0 0.0 0.0 4.708121692583919e-07 -5.231248226505691e-07 9.138596141260942e-08 5.017929394063035e-08 5.556398824408035e-08 -2.2535837766982664e-13 -0.18000009888808743 0.1999997111992886 0.30000000013246775 2.221400000026583 2.2214000000355214 -1.4868013180576755e-11 0.0 0.0 0.0 0.0 0.0 0.0
1704.704 -3.5488375054410173 -1.347457273497529 -1.8297531969842105 -1.5352330123231033 1.5708179790210215 -0.4072448522401473 0.0 0.0 0.0 0.0 0.0 0.0 0.0 0.0 0.0 0.0 0.0 0.0 -1.1038480459098545e-17 0.3499991142843476 0.766948704347012 0.2293513028109214 1.387805551208246e-06 0.0 -1.4493524842796392e-16 4.595488370553484 7.141979724620246 1.0424016712756377 6.307576230241479e-06 0.0 -3.548837486897604 -1.347457234059469 -1.8297532240497034 -1.5352328459369105 1.5708179473876953 -0.40724498430360967 0.0 0.0 0.0 0.0 0.0 0.0 -1.1038480429058839e-17 0.3499990999698639 0.7669486999511719 0.22935129702091217 1.3878055824534385e-06 0.0 -1.1038480429058839e-17 0.3499990999698639 0.7669486999511719 0.22935129702091217 1.3878055824534385e-06 0.0 -0.18000010649656395 0.199999712365214 0.30000001589716463 2.221399958473569 2.2214002930459764 -5.750839458807407e-08 0.0 0.0 0.0 0.0 0.0 0.0 4.708121692583919e-07 -5.231248226505691e-07 9.138596141260942e-08 5.017929394063035e-08 5.556398824408035e-08 -2.2535837766982664e-13 -0.18000009888808743 0.1999997111992886 0.30000000013246775 2.221400000026583 2.2214000000355214 -1.4868013180576755e-11 0.0 0.0 0.0 0.0 0.0 0.0
1704.712 -3.5488375054410173 -1.347457273497529 -1.8297531969842105 -1.5352330123231033 1.5708179790210215 -0.4072448522401473 0.0 0.0 0.0 0.0 0.0 0.0 0.0 0.0 0.0 0.0 0.0 0.0 -1.1038480459098545e-17 0.3499991142843476 0.766948704347012 0.2293513028109214 1.387805551208246e-06 0.0 -1.4493524842796392e-16 4.595488370553484 7.141979724620246 1.0424016712756377 6.307576230241479e-06 0.0 -3.548837486897604 -1.347457234059469 -1.8297532240497034 -1.5352328459369105 1.5708179473876953 -0.40724498430360967 0.0 0.0 0.0 0.0 0.0 0.0 -1.1038480429058839e-17 0.3499990999698639 0.7669486999511719 0.22935129702091217 1.3878055824534385e-06 0.0 -1.1038480429058839e-17 0.3499990999698639 0.7669486999511719 0.22935129702091217 1.3878055824534385e-06 0.0 -0.18000010649656395 0.199999712365214 0.30000001589716463 2.221399958473569 2.2214002930459764 -5.750839458807407e-08 0.0 0.0 0.0 0.0 0.0 0.0 4.708121692583919e-07 -5.231248226505691e-07 9.138596141260942e-08 5.017929394063035e-08 5.556398824408035e-08 -2.2535837766982664e-13 -0.18000009888808743 0.1999997111992886 0.30000000013246775 2.221400000026583 2.2214000000355214 -1.4868013180576755e-11 0.0 0.0 0.0 0.0 0.0 0.0
1704.72 -3.5488375054410173 -1.347457273497529 -1.8297531969842105 -1.5352330123231033 1.5708179790210215 -0.4072448522401473 0.0 0.0 0.0 0.0 0.0 0.0 0.0 0.0 0.0 0.0 0.0 0.0 -1.1038480459098545e-17 0.3499991142843476 0.766948704347012 0.2293513028109214 1.387805551208246e-06 0.0 -1.4493524842796392e-16 4.595488370553484 7.141979724620246 1.0424016712756377 6.307576230241479e-06 0.0 -3.548837486897604 -1.347457234059469 -1.8297532240497034 -1.5352328459369105 1.5708179473876953 -0.40724498430360967 0.0 0.0 0.0 0.0 0.0 0.0 -1.1038480429058839e-17 0.3499990999698639 0.7669486999511719 0.22935129702091217 1.3878055824534385e-06 0.0 -1.1038480429058839e-17 0.3499990999698639 0.7669486999511719 0.22935129702091217 1.3878055824534385e-06 0.0 -0.18000010649656395 0.199999712365214 0.30000001589716463 2.221399958473569 2.2214002930459764 -5.750839458807407e-08 0.0 0.0 0.0 0.0 0.0 0.0 4.708121692583919e-07 -5.231248226505691e-07 9.138596141260942e-08 5.017929394063035e-08 5.556398824408035e-08 -2.2535837766982664e-13 -0.18000009888808743 0.1999997111992886 0.30000000013246775 2.221400000026583 2.2214000000355214 -1.4868013180576755e-11 0.0 0.0 0.0 0.0 0.0 0.0
1704.7279999999998 -3.5488375054410173 -1.347457273497529 -1.8297531969842105 -1.5352330123231033 1.5708179790210215 -0.4072448522401473 0.0 0.0 0.0 0.0 0.0 0.0 0.0 0.0 0.0 0.0 0.0 0.0 -1.1038480459098545e-17 0.3499991142843476 0.766948704347012 0.2293513028109214 1.387805551208246e-06 0.0 -1.4493524842796392e-16 4.595488370553484 7.141979724620246 1.0424016712756377 6.307576230241479e-06 0.0 -3.548837486897604 -1.347457234059469 -1.8297532240497034 -1.5352328459369105 1.5708179473876953 -0.40724498430360967 0.0 0.0 0.0 0.0 0.0 0.0 -1.1038480429058839e-17 0.3499990999698639 0.7669486999511719 0.22935129702091217 1.3878055824534385e-06 0.0 -1.1038480429058839e-17 0.3499990999698639 0.7669486999511719 0.22935129702091217 1.3878055824534385e-06 0.0 -0.18000010649656395 0.199999712365214 0.30000001589716463 2.221399958473569 2.2214002930459764 -5.750839458807407e-08 0.0 0.0 0.0 0.0 0.0 0.0 4.708121692583919e-07 -5.231248226505691e-07 9.138596141260942e-08 5.017929394063035e-08 5.556398824408035e-08 -2.2535837766982664e-13 -0.18000009888808743 0.1999997111992886 0.30000000013246775 2.221400000026583 2.2214000000355214 -1.4868013180576755e-11 0.0 0.0 0.0 0.0 0.0 0.0
1704.7359999999999 -3.5488375054410173 -1.347457273497529 -1.8297531969842105 -1.5352330123231033 1.5708179790210215 -0.4072448522401473 0.0 0.0 0.0 0.0 0.0 0.0 0.0 0.0 0.0 0.0 0.0 0.0 -1.1038480459098545e-17 0.3499991142843476 0.766948704347012 0.2293513028109214 1.387805551208246e-06 0.0 -1.4493524842796392e-16 4.595488370553484 7.141979724620246 1.0424016712756377 6.307576230241479e-06 0.0 -3.548837486897604 -1.347457234059469 -1.8297532240497034 -1.5352328459369105 1.5708179473876953 -0.40724498430360967 0.0 0.0 0.0 0.0 0.0 0.0 -1.1038480429058839e-17 0.3499990999698639 0.7669486999511719 0.22935129702091217 1.3878055824534385e-06 0.0 -1.1038480429058839e-17 0.3499990999698639 0.7669486999511719 0.22935129702091217 1.3878055824534385e-06 0.0 -0.18000010649656395 0.199999712365214 0.30000001589716463 2.221399958473569 2.2214002930459764 -5.750839458807407e-08 0.0 0.0 0.0 0.0 0.0 0.0 4.708121692583919e-07 -5.231248226505691e-07 9.138596141260942e-08 5.017929394063035e-08 5.556398824408035e-08 -2.2535837766982664e-13 -0.18000009888808743 0.1999997111992886 0.30000000013246775 2.221400000026583 2.2214000000355214 -1.4868013180576755e-11 0.0 0.0 0.0 0.0 0.0 0.0
1704.744 -3.5488375054410173 -1.347457273497529 -1.8297531969842105 -1.5352330123231033 1.5708179790210215 -0.4072448522401473 0.0 0.0 0.0 0.0 0.0 0.0 0.0 0.0 0.0 0.0 0.0 0.0 -1.1038480459098545e-17 0.3499991142843476 0.766948704347012 0.2293513028109214 1.387805551208246e-06 0.0 -1.4493524842796392e-16 4.595488370553484 7.141979724620246 1.0424016712756377 6.307576230241479e-06 0.0 -3.548837486897604 -1.347457234059469 -1.8297532240497034 -1.5352328459369105 1.5708179473876953 -0.40724498430360967 0.0 0.0 0.0 0.0 0.0 0.0 -1.1038480429058839e-17 0.3499990999698639 0.7669486999511719 0.22935129702091217 1.3878055824534385e-06 0.0 -1.1038480429058839e-17 0.3499990999698639 0.7669486999511719 0.22935129702091217 1.3878055824534385e-06 0.0 -0.18000010649656395 0.199999712365214 0.30000001589716463 2.221399958473569 2.2214002930459764 -5.750839458807407e-08 0.0 0.0 0.0 0.0 0.0 0.0 4.708121692583919e-07 -5.231248226505691e-07 9.138596141260942e-08 5.017929394063035e-08 5.556398824408035e-08 -2.2535837766982664e-13 -0.18000009888808743 0.1999997111992886 0.30000000013246775 2.221400000026583 2.2214000000355214 -1.4868013180576755e-11 0.0 0.0 0.0 0.0 0.0 0.0
1704.752 -3.5488375054410173 -1.347457273497529 -1.8297531969842105 -1.5352330123231033 1.5708179790210215 -0.4072448522401473 0.0 0.0 0.0 0.0 0.0 0.0 0.0 0.0 0.0 0.0 0.0 0.0 -1.1038480459098545e-17 0.3499991142843476 0.766948704347012 0.2293513028109214 1.387805551208246e-06 0.0 -1.4493524842796392e-16 4.595488370553484 7.141979724620246 1.0424016712756377 6.307576230241479e-06 0.0 -3.548837486897604 -1.347457234059469 -1.8297532240497034 -1.5352328459369105 1.5708179473876953 -0.40724498430360967 0.0 0.0 0.0 0.0 0.0 0.0 -1.1038480429058839e-17 0.3499990999698639 0.7669486999511719 0.22935129702091217 1.3878055824534385e-06 0.0 -1.1038480429058839e-17 0.3499990999698639 0.7669486999511719 0.22935129702091217 1.3878055824534385e-06 0.0 -0.18000010649656395 0.199999712365214 0.30000001589716463 2.221399958473569 2.2214002930459764 -5.750839458807407e-08 0.0 0.0 0.0 0.0 0.0 0.0 4.708121692583919e-07 -5.231248226505691e-07 9.138596141260942e-08 5.017929394063035e-08 5.556398824408035e-08 -2.2535837766982664e-13 -0.18000009888808743 0.1999997111992886 0.30000000013246775 2.221400000026583 2.2214000000355214 -1.4868013180576755e-11 0.0 0.0 0.0 0.0 0.0 0.0
1704.76 -3.5488375054410173 -1.347457273497529 -1.8297531969842105 -1.5352330123231033 1.5708179790210215 -0.4072448522401473 0.0 0.0 0.0 0.0 0.0 0.0 0.0 0.0 0.0 0.0 0.0 0.0 -1.1038480459098545e-17 0.3499991142843476 0.766948704347012 0.2293513028109214 1.387805551208246e-06 0.0 -1.4493524842796392e-16 4.595488370553484 7.141979724620246 1.0424016712756377 6.307576230241479e-06 0.0 -3.548837486897604 -1.347457234059469 -1.8297532240497034 -1.5352328459369105 1.5708179473876953 -0.40724498430360967 0.0 0.0 0.0 0.0 0.0 0.0 -1.1038480429058839e-17 0.3499990999698639 0.7669486999511719 0.22935129702091217 1.3878055824534385e-06 0.0 -1.1038480429058839e-17 0.3499990999698639 0.7669486999511719 0.22935129702091217 1.3878055824534385e-06 0.0 -0.18000010649656395 0.199999712365214 0.30000001589716463 2.221399958473569 2.2214002930459764 -5.750839458807407e-08 0.0 0.0 0.0 0.0 0.0 0.0 4.708121692583919e-07 -5.231248226505691e-07 9.138596141260942e-08 5.017929394063035e-08 5.556398824408035e-08 -2.2535837766982664e-13 -0.18000009888808743 0.1999997111992886 0.30000000013246775 2.221400000026583 2.2214000000355214 -1.4868013180576755e-11 0.0 0.0 0.0 0.0 0.0 0.0
1704.768 -3.5488375054410173 -1.347457273497529 -1.8297531969842105 -1.5352330123231033 1.5708179790210215 -0.4072448522401473 0.0 0.0 0.0 0.0 0.0 0.0 0.0 0.0 0.0 0.0 0.0 0.0 -1.1038480459098545e-17 0.3499991142843476 0.766948704347012 0.2293513028109214 1.387805551208246e-06 0.0 -1.4493524842796392e-16 4.595488370553484 7.141979724620246 1.0424016712756377 6.307576230241479e-06 0.0 -3.548837486897604 -1.347457234059469 -1.8297532240497034 -1.5352328459369105 1.5708179473876953 -0.40724498430360967 0.0 0.0 0.0 0.0 0.0 0.0 -1.1038480429058839e-17 0.3499990999698639 0.7669486999511719 0.22935129702091217 1.3878055824534385e-06 0.0 -1.1038480429058839e-17 0.3499990999698639 0.7669486999511719 0.22935129702091217 1.3878055824534385e-06 0.0 -0.18000010649656395 0.199999712365214 0.30000001589716463 2.221399958473569 2.2214002930459764 -5.750839458807407e-08 0.0 0.0 0.0 0.0 0.0 0.0 4.708121692583919e-07 -5.231248226505691e-07 9.138596141260942e-08 5.017929394063035e-08 5.556398824408035e-08 -2.2535837766982664e-13 -0.18000009888808743 0.1999997111992886 0.30000000013246775 2.221400000026583 2.2214000000355214 -1.4868013180576755e-11 0.0 0.0 0.0 0.0 0.0 0.0
1704.7759999999998 -3.5488375054410173 -1.347457273497529 -1.8297531969842105 -1.5352330123231033 1.5708179790210215 -0.4072448522401473 0.0 0.0 0.0 0.0 0.0 0.0 0.0 0.0 0.0 0.0 0.0 0.0 -1.1038480459098545e-17 0.3499991142843476 0.766948704347012 0.2293513028109214 1.387805551208246e-06 0.0 -1.4493524842796392e-16 4.595488370553484 7.141979724620246 1.0424016712756377 6.307576230241479e-06 0.0 -3.548837486897604 -1.347457234059469 -1.8297532240497034 -1.5352328459369105 1.5708179473876953 -0.40724498430360967 0.0 0.0 0.0 0.0 0.0 0.0 -1.1038480429058839e-17 0.3499990999698639 0.7669486999511719 0.22935129702091217 1.3878055824534385e-06 0.0 -1.1038480429058839e-17 0.3499990999698639 0.7669486999511719 0.22935129702091217 1.3878055824534385e-06 0.0 -0.18000010649656395 0.199999712365214 0.30000001589716463 2.221399958473569 2.2214002930459764 -5.750839458807407e-08 0.0 0.0 0.0 0.0 0.0 0.0 4.708121692583919e-07 -5.231248226505691e-07 9.138596141260942e-08 5.017929394063035e-08 5.556398824408035e-08 -2.2535837766982664e-13 -0.18000009888808743 0.1999997111992886 0.30000000013246775 2.221400000026583 2.2214000000355214 -1.4868013180576755e-11 0.0 0.0 0.0 0.0 0.0 0.0
1704.7839999999999 -3.5488375054410173 -1.347457273497529 -1.8297531969842105 -1.5352330123231033 1.5708179790210215 -0.4072448522401473 0.0 0.0 0.0 0.0 0.0 0.0 0.0 0.0 0.0 0.0 0.0 0.0 -1.1038480459098545e-17 0.3499991142843476 0.766948704347012 0.2293513028109214 1.387805551208246e-06 0.0 -1.4493524842796392e-16 4.595488370553484 7.141979724620246 1.0424016712756377 6.307576230241479e-06 0.0 -3.548837486897604 -1.347457234059469 -1.8297532240497034 -1.5352328459369105 1.5708179473876953 -0.40724498430360967 0.0 0.0 0.0 0.0 0.0 0.0 -1.1038480429058839e-17 0.3499990999698639 0.7669486999511719 0.22935129702091217 1.3878055824534385e-06 0.0 -1.1038480429058839e-17 0.3499990999698639 0.7669486999511719 0.22935129702091217 1.3878055824534385e-06 0.0 -0.18000010649656395 0.199999712365214 0.30000001589716463 2.221399958473569 2.2214002930459764 -5.750839458807407e-08 0.0 0.0 0.0 0.0 0.0 0.0 4.708121692583919e-07 -5.231248226505691e-07 9.138596141260942e-08 5.017929394063035e-08 5.556398824408035e-08 -2.2535837766982664e-13 -0.18000009888808743 0.1999997111992886 0.30000000013246775 2.221400000026583 2.2214000000355214 -1.4868013180576755e-11 0.0 0.0 0.0 0.0 0.0 0.0
1704.792 -3.5488375054410173 -1.347457273497529 -1.8297531969842105 -1.5352330123231033 1.5708179790210215 -0.4072448522401473 0.0 0.0 0.0 0.0 0.0 0.0 0.0 0.0 0.0 0.0 0.0 0.0 -1.1038480459098545e-17 0.3499991142843476 0.766948704347012 0.2293513028109214 1.387805551208246e-06 0.0 -1.4493524842796392e-16 4.595488370553484 7.141979724620246 1.0424016712756377 6.307576230241479e-06 0.0 -3.548837486897604 -1.347457234059469 -1.8297532240497034 -1.5352328459369105 1.5708179473876953 -0.40724498430360967 0.0 0.0 0.0 0.0 0.0 0.0 -1.1038480429058839e-17 0.3499990999698639 0.7669486999511719 0.22935129702091217 1.3878055824534385e-06 0.0 -1.1038480429058839e-17 0.3499990999698639 0.7669486999511719 0.22935129702091217 1.3878055824534385e-06 0.0 -0.18000010649656395 0.199999712365214 0.30000001589716463 2.221399958473569 2.2214002930459764 -5.750839458807407e-08 0.0 0.0 0.0 0.0 0.0 0.0 4.708121692583919e-07 -5.231248226505691e-07 9.138596141260942e-08 5.017929394063035e-08 5.556398824408035e-08 -2.2535837766982664e-13 -0.18000009888808743 0.1999997111992886 0.30000000013246775 2.221400000026583 2.2214000000355214 -1.4868013180576755e-11 0.0 0.0 0.0 0.0 0.0 0.0
1704.8 -3.5488375054410173 -1.347457273497529 -1.8297531969842105 -1.5352330123231033 1.5708179790210215 -0.4072448522401473 0.0 0.0 0.0 0.0 0.0 0.0 0.0 0.0 0.0 0.0 0.0 0.0 -1.1038480459098545e-17 0.3499991142843476 0.766948704347012 0.2293513028109214 1.387805551208246e-06 0.0 -1.4493524842796392e-16 4.595488370553484 7.141979724620246 1.0424016712756377 6.307576230241479e-06 0.0 -3.548837486897604 -1.347457234059469 -1.8297532240497034 -1.5352328459369105 1.5708179473876953 -0.40724498430360967 0.0 0.0 0.0 0.0 0.0 0.0 -1.1038480429058839e-17 0.3499990999698639 0.7669486999511719 0.22935129702091217 1.3878055824534385e-06 0.0 -1.1038480429058839e-17 0.3499990999698639 0.7669486999511719 0.22935129702091217 1.3878055824534385e-06 0.0 -0.18000010649656395 0.199999712365214 0.30000001589716463 2.221399958473569 2.2214002930459764 -5.750839458807407e-08 0.0 0.0 0.0 0.0 0.0 0.0 4.708121692583919e-07 -5.231248226505691e-07 9.138596141260942e-08 5.017929394063035e-08 5.556398824408035e-08 -2.2535837766982664e-13 -0.18000009888808743 0.1999997111992886 0.30000000013246775 2.221400000026583 2.2214000000355214 -1.4868013180576755e-11 0.0 0.0 0.0 0.0 0.0 0.0
1704.808 -3.5488375054410173 -1.347457273497529 -1.8297531969842105 -1.5352330123231033 1.5708179790210215 -0.4072448522401473 0.0 0.0 0.0 0.0 0.0 0.0 0.0 0.0 0.0 0.0 0.0 0.0 -1.1038480459098545e-17 0.3499991142843476 0.766948704347012 0.2293513028109214 1.387805551208246e-06 0.0 -1.4493524842796392e-16 4.595488370553484 7.141979724620246 1.0424016712756377 6.307576230241479e-06 0.0 -3.548837486897604 -1.347457234059469 -1.8297532240497034 -1.5352328459369105 1.5708179473876953 -0.40724498430360967 0.0 0.0 0.0 0.0 0.0 0.0 -1.1038480429058839e-17 0.3499990999698639 0.7669486999511719 0.22935129702091217 1.3878055824534385e-06 0.0 -1.1038480429058839e-17 0.3499990999698639 0.7669486999511719 0.22935129702091217 1.3878055824534385e-06 0.0 -0.18000010649656395 0.199999712365214 0.30000001589716463 2.221399958473569 2.2214002930459764 -5.750839458807407e-08 0.0 0.0 0.0 0.0 0.0 0.0 4.708121692583919e-07 -5.231248226505691e-07 9.138596141260942e-08 5.017929394063035e-08 5.556398824408035e-08 -2.2535837766982664e-13 -0.18000009888808743 0.1999997111992886 0.30000000013246775 2.221400000026583 2.2214000000355214 -1.4868013180576755e-11 0.0 0.0 0.0 0.0 0.0 0.0
1704.816 -3.5488375054410173 -1.347457273497529 -1.8297531969842105 -1.5352330123231033 1.5708179790210215 -0.4072448522401473 0.0 0.0 0.0 0.0 0.0 0.0 0.0 0.0 0.0 0.0 0.0 0.0 -1.1038480459098545e-17 0.3499991142843476 0.766948704347012 0.2293513028109214 1.387805551208246e-06 0.0 -1.4493524842796392e-16 4.595488370553484 7.141979724620246 1.0424016712756377 6.307576230241479e-06 0.0 -3.548837486897604 -1.347457234059469 -1.8297532240497034 -1.5352328459369105 1.5708179473876953 -0.40724498430360967 0.0 0.0 0.0 0.0 0.0 0.0 -1.1038480429058839e-17 0.3499990999698639 0.7669486999511719 0.22935129702091217 1.3878055824534385e-06 0.0 -1.1038480429058839e-17 0.3499990999698639 0.7669486999511719 0.22935129702091217 1.3878055824534385e-06 0.0 -0.18000010649656395 0.199999712365214 0.30000001589716463 2.221399958473569 2.2214002930459764 -5.750839458807407e-08 0.0 0.0 0.0 0.0 0.0 0.0 4.708121692583919e-07 -5.231248226505691e-07 9.138596141260942e-08 5.017929394063035e-08 5.556398824408035e-08 -2.2535837766982664e-13 -0.18000009888808743 0.1999997111992886 0.30000000013246775 2.221400000026583 2.2214000000355214 -1.4868013180576755e-11 0.0 0.0 0.0 0.0 0.0 0.0
1704.8239999999998 -3.5488375054410173 -1.347457273497529 -1.8297531969842105 -1.5352330123231033 1.5708179790210215 -0.4072448522401473 0.0 0.0 0.0 0.0 0.0 0.0 0.0 0.0 0.0 0.0 0.0 0.0 -1.1038480459098545e-17 0.3499991142843476 0.766948704347012 0.2293513028109214 1.387805551208246e-06 0.0 -1.4493524842796392e-16 4.595488370553484 7.141979724620246 1.0424016712756377 6.307576230241479e-06 0.0 -3.548837486897604 -1.347457234059469 -1.8297532240497034 -1.5352328459369105 1.5708179473876953 -0.40724498430360967 0.0 0.0 0.0 0.0 0.0 0.0 -1.1038480429058839e-17 0.3499990999698639 0.7669486999511719 0.22935129702091217 1.3878055824534385e-06 0.0 -1.1038480429058839e-17 0.3499990999698639 0.7669486999511719 0.22935129702091217 1.3878055824534385e-06 0.0 -0.18000010649656395 0.199999712365214 0.30000001589716463 2.221399958473569 2.2214002930459764 -5.750839458807407e-08 0.0 0.0 0.0 0.0 0.0 0.0 4.708121692583919e-07 -5.231248226505691e-07 9.138596141260942e-08 5.017929394063035e-08 5.556398824408035e-08 -2.2535837766982664e-13 -0.18000009888808743 0.1999997111992886 0.30000000013246775 2.221400000026583 2.2214000000355214 -1.4868013180576755e-11 0.0 0.0 0.0 0.0 0.0 0.0
1704.8319999999999 -3.5488375054410173 -1.347457273497529 -1.8297531969842105 -1.5352330123231033 1.5708179790210215 -0.4072448522401473 0.0 0.0 0.0 0.0 0.0 0.0 0.0 0.0 0.0 0.0 0.0 0.0 -1.1038480459098545e-17 0.3499991142843476 0.766948704347012 0.2293513028109214 1.387805551208246e-06 0.0 -1.4493524842796392e-16 4.595488370553484 7.141979724620246 1.0424016712756377 6.307576230241479e-06 0.0 -3.548837486897604 -1.347457234059469 -1.8297532240497034 -1.5352328459369105 1.5708179473876953 -0.40724498430360967 0.0 0.0 0.0 0.0 0.0 0.0 -1.1038480429058839e-17 0.3499990999698639 0.7669486999511719 0.22935129702091217 1.3878055824534385e-06 0.0 -1.1038480429058839e-17 0.3499990999698639 0.7669486999511719 0.22935129702091217 1.3878055824534385e-06 0.0 -0.18000010649656395 0.199999712365214 0.30000001589716463 2.221399958473569 2.2214002930459764 -5.750839458807407e-08 0.0 0.0 0.0 0.0 0.0 0.0 4.708121692583919e-07 -5.231248226505691e-07 9.138596141260942e-08 5.017929394063035e-08 5.556398824408035e-08 -2.2535837766982664e-13 -0.18000009888808743 0.1999997111992886 0.30000000013246775 2.221400000026583 2.2214000000355214 -1.4868013180576755e-11 0.0 0.0 0.0 0.0 0.0 0.0
1704.84 -3.5488375054410173 -1.347457273497529 -1.8297531969842105 -1.5352330123231033 1.5708179790210215 -0.4072448522401473 0.0 0.0 0.0 0.0 0.0 0.0 0.0 0.0 0.0 0.0 0.0 0.0 -1.1038480459098545e-17 0.3499991142843476 0.766948704347012 0.2293513028109214 1.387805551208246e-06 0.0 -1.4493524842796392e-16 4.595488370553484 7.141979724620246 1.0424016712756377 6.307576230241479e-06 0.0 -3.548837486897604 -1.347457234059469 -1.8297532240497034 -1.5352328459369105 1.5708179473876953 -0.40724498430360967 0.0 0.0 0.0 0.0 0.0 0.0 -1.1038480429058839e-17 0.3499990999698639 0.7669486999511719 0.22935129702091217 1.3878055824534385e-06 0.0 -1.1038480429058839e-17 0.3499990999698639 0.7669486999511719 0.22935129702091217 1.3878055824534385e-06 0.0 -0.18000010649656395 0.199999712365214 0.30000001589716463 2.221399958473569 2.2214002930459764 -5.750839458807407e-08 0.0 0.0 0.0 0.0 0.0 0.0 4.708121692583919e-07 -5.231248226505691e-07 9.138596141260942e-08 5.017929394063035e-08 5.556398824408035e-08 -2.2535837766982664e-13 -0.18000009888808743 0.1999997111992886 0.30000000013246775 2.221400000026583 2.2214000000355214 -1.4868013180576755e-11 0.0 0.0 0.0 0.0 0.0 0.0
1704.848 -3.5488375054410173 -1.347457273497529 -1.8297531969842105 -1.5352330123231033 1.5708179790210215 -0.4072448522401473 0.0 0.0 0.0 0.0 0.0 0.0 0.0 0.0 0.0 0.0 0.0 0.0 -1.1038480459098545e-17 0.3499991142843476 0.766948704347012 0.2293513028109214 1.387805551208246e-06 0.0 -1.4493524842796392e-16 4.595488370553484 7.141979724620246 1.0424016712756377 6.307576230241479e-06 0.0 -3.548837486897604 -1.347457234059469 -1.8297532240497034 -1.5352328459369105 1.5708179473876953 -0.40724498430360967 0.0 0.0 0.0 0.0 0.0 0.0 -1.1038480429058839e-17 0.3499990999698639 0.7669486999511719 0.22935129702091217 1.3878055824534385e-06 0.0 -1.1038480429058839e-17 0.3499990999698639 0.7669486999511719 0.22935129702091217 1.3878055824534385e-06 0.0 -0.18000010649656395 0.199999712365214 0.30000001589716463 2.221399958473569 2.2214002930459764 -5.750839458807407e-08 0.0 0.0 0.0 0.0 0.0 0.0 4.708121692583919e-07 -5.231248226505691e-07 9.138596141260942e-08 5.017929394063035e-08 5.556398824408035e-08 -2.2535837766982664e-13 -0.18000009888808743 0.1999997111992886 0.30000000013246775 2.221400000026583 2.2214000000355214 -1.4868013180576755e-11 0.0 0.0 0.0 0.0 0.0 0.0
1704.856 -3.5488375054410173 -1.347457273497529 -1.8297531969842105 -1.5352330123231033 1.5708179790210215 -0.4072448522401473 0.0 0.0 0.0 0.0 0.0 0.0 0.0 0.0 0.0 0.0 0.0 0.0 -1.1038480459098545e-17 0.3499991142843476 0.766948704347012 0.2293513028109214 1.387805551208246e-06 0.0 -1.4493524842796392e-16 4.595488370553484 7.141979724620246 1.0424016712756377 6.307576230241479e-06 0.0 -3.548837486897604 -1.347457234059469 -1.8297532240497034 -1.5352328459369105 1.5708179473876953 -0.40724498430360967 0.0 0.0 0.0 0.0 0.0 0.0 -1.1038480429058839e-17 0.3499990999698639 0.7669486999511719 0.22935129702091217 1.3878055824534385e-06 0.0 -1.1038480429058839e-17 0.3499990999698639 0.7669486999511719 0.22935129702091217 1.3878055824534385e-06 0.0 -0.18000010649656395 0.199999712365214 0.30000001589716463 2.221399958473569 2.2214002930459764 -5.750839458807407e-08 0.0 0.0 0.0 0.0 0.0 0.0 4.708121692583919e-07 -5.231248226505691e-07 9.138596141260942e-08 5.017929394063035e-08 5.556398824408035e-08 -2.2535837766982664e-13 -0.18000009888808743 0.1999997111992886 0.30000000013246775 2.221400000026583 2.2214000000355214 -1.4868013180576755e-11 0.0 0.0 0.0 0.0 0.0 0.0
1704.864 -3.5488375054410173 -1.347457273497529 -1.8297531969842105 -1.5352330123231033 1.5708179790210215 -0.4072448522401473 0.0 0.0 0.0 0.0 0.0 0.0 0.0 0.0 0.0 0.0 0.0 0.0 -1.1038480459098545e-17 0.3499991142843476 0.766948704347012 0.2293513028109214 1.387805551208246e-06 0.0 -1.4493524842796392e-16 4.595488370553484 7.141979724620246 1.0424016712756377 6.307576230241479e-06 0.0 -3.548837486897604 -1.347457234059469 -1.8297532240497034 -1.5352328459369105 1.5708179473876953 -0.40724498430360967 0.0 0.0 0.0 0.0 0.0 0.0 -1.1038480429058839e-17 0.3499990999698639 0.7669486999511719 0.22935129702091217 1.3878055824534385e-06 0.0 -1.1038480429058839e-17 0.3499990999698639 0.7669486999511719 0.22935129702091217 1.3878055824534385e-06 0.0 -0.18000010649656395 0.199999712365214 0.30000001589716463 2.221399958473569 2.2214002930459764 -5.750839458807407e-08 0.0 0.0 0.0 0.0 0.0 0.0 4.708121692583919e-07 -5.231248226505691e-07 9.138596141260942e-08 5.017929394063035e-08 5.556398824408035e-08 -2.2535837766982664e-13 -0.18000009888808743 0.1999997111992886 0.30000000013246775 2.221400000026583 2.2214000000355214 -1.4868013180576755e-11 0.0 0.0 0.0 0.0 0.0 0.0
1704.8719999999998 -3.5488375054410173 -1.347457273497529 -1.8297531969842105 -1.5352330123231033 1.5708179790210215 -0.4072448522401473 0.0 0.0 0.0 0.0 0.0 0.0 0.0 0.0 0.0 0.0 0.0 0.0 -1.1038480459098545e-17 0.3499991142843476 0.766948704347012 0.2293513028109214 1.387805551208246e-06 0.0 -1.4493524842796392e-16 4.595488370553484 7.141979724620246 1.0424016712756377 6.307576230241479e-06 0.0 -3.548837486897604 -1.347457234059469 -1.8297532240497034 -1.5352328459369105 1.5708179473876953 -0.40724498430360967 0.0 0.0 0.0 0.0 0.0 0.0 -1.1038480429058839e-17 0.3499990999698639 0.7669486999511719 0.22935129702091217 1.3878055824534385e-06 0.0 -1.1038480429058839e-17 0.3499990999698639 0.7669486999511719 0.22935129702091217 1.3878055824534385e-06 0.0 -0.18000010649656395 0.199999712365214 0.30000001589716463 2.221399958473569 2.2214002930459764 -5.750839458807407e-08 0.0 0.0 0.0 0.0 0.0 0.0 4.708121692583919e-07 -5.231248226505691e-07 9.138596141260942e-08 5.017929394063035e-08 5.556398824408035e-08 -2.2535837766982664e-13 -0.18000009888808743 0.1999997111992886 0.30000000013246775 2.221400000026583 2.2214000000355214 -1.4868013180576755e-11 0.0 0.0 0.0 0.0 0.0 0.0
1704.8799999999999 -3.5488375054410173 -1.347457273497529 -1.8297531969842105 -1.5352330123231033 1.5708179790210215 -0.4072448522401473 0.0 0.0 0.0 0.0 0.0 0.0 0.0 0.0 0.0 0.0 0.0 0.0 -1.1038480459098545e-17 0.3499991142843476 0.766948704347012 0.2293513028109214 1.387805551208246e-06 0.0 -1.4493524842796392e-16 4.595488370553484 7.141979724620246 1.0424016712756377 6.307576230241479e-06 0.0 -3.548837486897604 -1.347457234059469 -1.8297532240497034 -1.5352328459369105 1.5708179473876953 -0.40724498430360967 0.0 0.0 0.0 0.0 0.0 0.0 -1.1038480429058839e-17 0.3499990999698639 0.7669486999511719 0.22935129702091217 1.3878055824534385e-06 0.0 -1.1038480429058839e-17 0.3499990999698639 0.7669486999511719 0.22935129702091217 1.3878055824534385e-06 0.0 -0.18000010649656395 0.199999712365214 0.30000001589716463 2.221399958473569 2.2214002930459764 -5.750839458807407e-08 0.0 0.0 0.0 0.0 0.0 0.0 4.708121692583919e-07 -5.231248226505691e-07 9.138596141260942e-08 5.017929394063035e-08 5.556398824408035e-08 -2.2535837766982664e-13 -0.18000009888808743 0.1999997111992886 0.30000000013246775 2.221400000026583 2.2214000000355214 -1.4868013180576755e-11 0.0 0.0 0.0 0.0 0.0 0.0
1704.888 -3.5488375054410173 -1.347457273497529 -1.8297531969842105 -1.5352330123231033 1.5708179790210215 -0.4072448522401473 0.0 0.0 0.0 0.0 0.0 0.0 0.0 0.0 0.0 0.0 0.0 0.0 -1.1038480459098545e-17 0.3499991142843476 0.766948704347012 0.2293513028109214 1.387805551208246e-06 0.0 -1.4493524842796392e-16 4.595488370553484 7.141979724620246 1.0424016712756377 6.307576230241479e-06 0.0 -3.548837486897604 -1.347457234059469 -1.8297532240497034 -1.5352328459369105 1.5708179473876953 -0.40724498430360967 0.0 0.0 0.0 0.0 0.0 0.0 -1.1038480429058839e-17 0.3499990999698639 0.7669486999511719 0.22935129702091217 1.3878055824534385e-06 0.0 -1.1038480429058839e-17 0.3499990999698639 0.7669486999511719 0.22935129702091217 1.3878055824534385e-06 0.0 -0.18000010649656395 0.199999712365214 0.30000001589716463 2.221399958473569 2.2214002930459764 -5.750839458807407e-08 0.0 0.0 0.0 0.0 0.0 0.0 4.708121692583919e-07 -5.231248226505691e-07 9.138596141260942e-08 5.017929394063035e-08 5.556398824408035e-08 -2.2535837766982664e-13 -0.18000009888808743 0.1999997111992886 0.30000000013246775 2.221400000026583 2.2214000000355214 -1.4868013180576755e-11 0.0 0.0 0.0 0.0 0.0 0.0
1704.896 -3.5488375054410173 -1.347457273497529 -1.8297531969842105 -1.5352330123231033 1.5708179790210215 -0.4072448522401473 0.0 0.0 0.0 0.0 0.0 0.0 0.0 0.0 0.0 0.0 0.0 0.0 -1.1038480459098545e-17 0.3499991142843476 0.766948704347012 0.2293513028109214 1.387805551208246e-06 0.0 -1.4493524842796392e-16 4.595488370553484 7.141979724620246 1.0424016712756377 6.307576230241479e-06 0.0 -3.548837486897604 -1.347457234059469 -1.8297532240497034 -1.5352328459369105 1.5708179473876953 -0.40724498430360967 0.0 0.0 0.0 0.0 0.0 0.0 -1.1038480429058839e-17 0.3499990999698639 0.7669486999511719 0.22935129702091217 1.3878055824534385e-06 0.0 -1.1038480429058839e-17 0.3499990999698639 0.7669486999511719 0.22935129702091217 1.3878055824534385e-06 0.0 -0.18000010649656395 0.199999712365214 0.30000001589716463 2.221399958473569 2.2214002930459764 -5.750839458807407e-08 0.0 0.0 0.0 0.0 0.0 0.0 4.708121692583919e-07 -5.231248226505691e-07 9.138596141260942e-08 5.017929394063035e-08 5.556398824408035e-08 -2.2535837766982664e-13 -0.18000009888808743 0.1999997111992886 0.30000000013246775 2.221400000026583 2.2214000000355214 -1.4868013180576755e-11 0.0 0.0 0.0 0.0 0.0 0.0
1704.904 -3.5488375054410173 -1.347457273497529 -1.8297531969842105 -1.5352330123231033 1.5708179790210215 -0.4072448522401473 0.0 0.0 0.0 0.0 0.0 0.0 0.0 0.0 0.0 0.0 0.0 0.0 -1.1038480459098545e-17 0.3499991142843476 0.766948704347012 0.2293513028109214 1.387805551208246e-06 0.0 -1.4493524842796392e-16 4.595488370553484 7.141979724620246 1.0424016712756377 6.307576230241479e-06 0.0 -3.548837486897604 -1.347457234059469 -1.8297532240497034 -1.5352328459369105 1.5708179473876953 -0.40724498430360967 0.0 0.0 0.0 0.0 0.0 0.0 -1.1038480429058839e-17 0.3499990999698639 0.7669486999511719 0.22935129702091217 1.3878055824534385e-06 0.0 -1.1038480429058839e-17 0.3499990999698639 0.7669486999511719 0.22935129702091217 1.3878055824534385e-06 0.0 -0.18000010649656395 0.199999712365214 0.30000001589716463 2.221399958473569 2.2214002930459764 -5.750839458807407e-08 0.0 0.0 0.0 0.0 0.0 0.0 4.708121692583919e-07 -5.231248226505691e-07 9.138596141260942e-08 5.017929394063035e-08 5.556398824408035e-08 -2.2535837766982664e-13 -0.18000009888808743 0.1999997111992886 0.30000000013246775 2.221400000026583 2.2214000000355214 -1.4868013180576755e-11 0.0 0.0 0.0 0.0 0.0 0.0
1704.912 -3.5488375054410173 -1.347457273497529 -1.8297531969842105 -1.5352330123231033 1.5708179790210215 -0.4072448522401473 0.0 0.0 0.0 0.0 0.0 0.0 0.0 0.0 0.0 0.0 0.0 0.0 -1.1038480459098545e-17 0.3499991142843476 0.766948704347012 0.2293513028109214 1.387805551208246e-06 0.0 -1.4493524842796392e-16 4.595488370553484 7.141979724620246 1.0424016712756377 6.307576230241479e-06 0.0 -3.548837486897604 -1.347457234059469 -1.8297532240497034 -1.5352328459369105 1.5708179473876953 -0.40724498430360967 0.0 0.0 0.0 0.0 0.0 0.0 -1.1038480429058839e-17 0.3499990999698639 0.7669486999511719 0.22935129702091217 1.3878055824534385e-06 0.0 -1.1038480429058839e-17 0.3499990999698639 0.7669486999511719 0.22935129702091217 1.3878055824534385e-06 0.0 -0.18000010649656395 0.199999712365214 0.30000001589716463 2.221399958473569 2.2214002930459764 -5.750839458807407e-08 0.0 0.0 0.0 0.0 0.0 0.0 4.708121692583919e-07 -5.231248226505691e-07 9.138596141260942e-08 5.017929394063035e-08 5.556398824408035e-08 -2.2535837766982664e-13 -0.18000009888808743 0.1999997111992886 0.30000000013246775 2.221400000026583 2.2214000000355214 -1.4868013180576755e-11 0.0 0.0 0.0 0.0 0.0 0.0
1704.9199999999998 -3.5488375054410173 -1.347457273497529 -1.8297531969842105 -1.5352330123231033 1.5708179790210215 -0.4072448522401473 0.0 0.0 0.0 0.0 0.0 0.0 0.0 0.0 0.0 0.0 0.0 0.0 -1.1038480459098545e-17 0.3499991142843476 0.766948704347012 0.2293513028109214 1.387805551208246e-06 0.0 -1.4493524842796392e-16 4.595488370553484 7.141979724620246 1.0424016712756377 6.307576230241479e-06 0.0 -3.548837486897604 -1.347457234059469 -1.8297532240497034 -1.5352328459369105 1.5708179473876953 -0.40724498430360967 0.0 0.0 0.0 0.0 0.0 0.0 -1.1038480429058839e-17 0.3499990999698639 0.7669486999511719 0.22935129702091217 1.3878055824534385e-06 0.0 -1.1038480429058839e-17 0.3499990999698639 0.7669486999511719 0.22935129702091217 1.3878055824534385e-06 0.0 -0.18000010649656395 0.199999712365214 0.30000001589716463 2.221399958473569 2.2214002930459764 -5.750839458807407e-08 0.0 0.0 0.0 0.0 0.0 0.0 4.708121692583919e-07 -5.231248226505691e-07 9.138596141260942e-08 5.017929394063035e-08 5.556398824408035e-08 -2.2535837766982664e-13 -0.18000009888808743 0.1999997111992886 0.30000000013246775 2.221400000026583 2.2214000000355214 -1.4868013180576755e-11 0.0 0.0 0.0 0.0 0.0 0.0
1704.9279999999999 -3.5488375054410173 -1.347457273497529 -1.8297531969842105 -1.5352330123231033 1.5708179790210215 -0.4072448522401473 0.0 0.0 0.0 0.0 0.0 0.0 0.0 0.0 0.0 0.0 0.0 0.0 -1.1038480459098545e-17 0.3499991142843476 0.766948704347012 0.2293513028109214 1.387805551208246e-06 0.0 -1.4493524842796392e-16 4.595488370553484 7.141979724620246 1.0424016712756377 6.307576230241479e-06 0.0 -3.548837486897604 -1.347457234059469 -1.8297532240497034 -1.5352328459369105 1.5708179473876953 -0.40724498430360967 0.0 0.0 0.0 0.0 0.0 0.0 -1.1038480429058839e-17 0.3499990999698639 0.7669486999511719 0.22935129702091217 1.3878055824534385e-06 0.0 -1.1038480429058839e-17 0.3499990999698639 0.7669486999511719 0.22935129702091217 1.3878055824534385e-06 0.0 -0.18000010649656395 0.199999712365214 0.30000001589716463 2.221399958473569 2.2214002930459764 -5.750839458807407e-08 0.0 0.0 0.0 0.0 0.0 0.0 4.708121692583919e-07 -5.231248226505691e-07 9.138596141260942e-08 5.017929394063035e-08 5.556398824408035e-08 -2.2535837766982664e-13 -0.18000009888808743 0.1999997111992886 0.30000000013246775 2.221400000026583 2.2214000000355214 -1.4868013180576755e-11 0.0 0.0 0.0 0.0 0.0 0.0
1704.936 -3.5488375054410173 -1.347457273497529 -1.8297531969842105 -1.5352330123231033 1.5708179790210215 -0.4072448522401473 0.0 0.0 0.0 0.0 0.0 0.0 0.0 0.0 0.0 0.0 0.0 0.0 -1.1038480459098545e-17 0.3499991142843476 0.766948704347012 0.2293513028109214 1.387805551208246e-06 0.0 -1.4493524842796392e-16 4.595488370553484 7.141979724620246 1.0424016712756377 6.307576230241479e-06 0.0 -3.548837486897604 -1.347457234059469 -1.8297532240497034 -1.5352328459369105 1.5708179473876953 -0.40724498430360967 0.0 0.0 0.0 0.0 0.0 0.0 -1.1038480429058839e-17 0.3499990999698639 0.7669486999511719 0.22935129702091217 1.3878055824534385e-06 0.0 -1.1038480429058839e-17 0.3499990999698639 0.7669486999511719 0.22935129702091217 1.3878055824534385e-06 0.0 -0.18000010649656395 0.199999712365214 0.30000001589716463 2.221399958473569 2.2214002930459764 -5.750839458807407e-08 0.0 0.0 0.0 0.0 0.0 0.0 4.708121692583919e-07 -5.231248226505691e-07 9.138596141260942e-08 5.017929394063035e-08 5.556398824408035e-08 -2.2535837766982664e-13 -0.18000009888808743 0.1999997111992886 0.30000000013246775 2.221400000026583 2.2214000000355214 -1.4868013180576755e-11 0.0 0.0 0.0 0.0 0.0 0.0
1704.944 -3.5488375054410173 -1.347457273497529 -1.8297531969842105 -1.5352330123231033 1.5708179790210215 -0.4072448522401473 0.0 0.0 0.0 0.0 0.0 0.0 0.0 0.0 0.0 0.0 0.0 0.0 -1.1038480459098545e-17 0.3499991142843476 0.766948704347012 0.2293513028109214 1.387805551208246e-06 0.0 -1.4493524842796392e-16 4.595488370553484 7.141979724620246 1.0424016712756377 6.307576230241479e-06 0.0 -3.548837486897604 -1.347457234059469 -1.8297532240497034 -1.5352328459369105 1.5708179473876953 -0.40724498430360967 0.0 0.0 0.0 0.0 0.0 0.0 -1.1038480429058839e-17 0.3499990999698639 0.7669486999511719 0.22935129702091217 1.3878055824534385e-06 0.0 -1.1038480429058839e-17 0.3499990999698639 0.7669486999511719 0.22935129702091217 1.3878055824534385e-06 0.0 -0.18000010649656395 0.199999712365214 0.30000001589716463 2.221399958473569 2.2214002930459764 -5.750839458807407e-08 0.0 0.0 0.0 0.0 0.0 0.0 4.708121692583919e-07 -5.231248226505691e-07 9.138596141260942e-08 5.017929394063035e-08 5.556398824408035e-08 -2.2535837766982664e-13 -0.18000009888808743 0.1999997111992886 0.30000000013246775 2.221400000026583 2.2214000000355214 -1.4868013180576755e-11 0.0 0.0 0.0 0.0 0.0 0.0
1704.952 -3.5488375054410173 -1.347457273497529 -1.8297531969842105 -1.5352330123231033 1.5708179790210215 -0.4072448522401473 0.0 0.0 0.0 0.0 0.0 0.0 0.0 0.0 0.0 0.0 0.0 0.0 -1.1038480459098545e-17 0.3499991142843476 0.766948704347012 0.2293513028109214 1.387805551208246e-06 0.0 -1.4493524842796392e-16 4.595488370553484 7.141979724620246 1.0424016712756377 6.307576230241479e-06 0.0 -3.548837486897604 -1.347457234059469 -1.8297532240497034 -1.5352328459369105 1.5708179473876953 -0.40724498430360967 0.0 0.0 0.0 0.0 0.0 0.0 -1.1038480429058839e-17 0.3499990999698639 0.7669486999511719 0.22935129702091217 1.3878055824534385e-06 0.0 -1.1038480429058839e-17 0.3499990999698639 0.7669486999511719 0.22935129702091217 1.3878055824534385e-06 0.0 -0.18000010649656395 0.199999712365214 0.30000001589716463 2.221399958473569 2.2214002930459764 -5.750839458807407e-08 0.0 0.0 0.0 0.0 0.0 0.0 4.708121692583919e-07 -5.231248226505691e-07 9.138596141260942e-08 5.017929394063035e-08 5.556398824408035e-08 -2.2535837766982664e-13 -0.18000009888808743 0.1999997111992886 0.30000000013246775 2.221400000026583 2.2214000000355214 -1.4868013180576755e-11 0.0 0.0 0.0 0.0 0.0 0.0
1704.96 -3.5488375054410173 -1.347457273497529 -1.8297531969842105 -1.5352330123231033 1.5708179790210215 -0.4072448522401473 0.0 0.0 0.0 0.0 0.0 0.0 0.0 0.0 0.0 0.0 0.0 0.0 -1.1038480459098545e-17 0.3499991142843476 0.766948704347012 0.2293513028109214 1.387805551208246e-06 0.0 -1.4493524842796392e-16 4.595488370553484 7.141979724620246 1.0424016712756377 6.307576230241479e-06 0.0 -3.548837486897604 -1.347457234059469 -1.8297532240497034 -1.5352328459369105 1.5708179473876953 -0.40724498430360967 0.0 0.0 0.0 0.0 0.0 0.0 -1.1038480429058839e-17 0.3499990999698639 0.7669486999511719 0.22935129702091217 1.3878055824534385e-06 0.0 -1.1038480429058839e-17 0.3499990999698639 0.7669486999511719 0.22935129702091217 1.3878055824534385e-06 0.0 -0.18000010649656395 0.199999712365214 0.30000001589716463 2.221399958473569 2.2214002930459764 -5.750839458807407e-08 0.0 0.0 0.0 0.0 0.0 0.0 4.708121692583919e-07 -5.231248226505691e-07 9.138596141260942e-08 5.017929394063035e-08 5.556398824408035e-08 -2.2535837766982664e-13 -0.18000009888808743 0.1999997111992886 0.30000000013246775 2.221400000026583 2.2214000000355214 -1.4868013180576755e-11 0.0 0.0 0.0 0.0 0.0 0.0
1704.9679999999998 -3.5488375054410173 -1.347457273497529 -1.8297531969842105 -1.5352330123231033 1.5708179790210215 -0.4072448522401473 0.0 0.0 0.0 0.0 0.0 0.0 0.0 0.0 0.0 0.0 0.0 0.0 -1.1038480459098545e-17 0.3499991142843476 0.766948704347012 0.2293513028109214 1.387805551208246e-06 0.0 -1.4493524842796392e-16 4.595488370553484 7.141979724620246 1.0424016712756377 6.307576230241479e-06 0.0 -3.548837486897604 -1.347457234059469 -1.8297532240497034 -1.5352328459369105 1.5708179473876953 -0.40724498430360967 0.0 0.0 0.0 0.0 0.0 0.0 -1.1038480429058839e-17 0.3499990999698639 0.7669486999511719 0.22935129702091217 1.3878055824534385e-06 0.0 -1.1038480429058839e-17 0.3499990999698639 0.7669486999511719 0.22935129702091217 1.3878055824534385e-06 0.0 -0.18000010649656395 0.199999712365214 0.30000001589716463 2.221399958473569 2.2214002930459764 -5.750839458807407e-08 0.0 0.0 0.0 0.0 0.0 0.0 4.708121692583919e-07 -5.231248226505691e-07 9.138596141260942e-08 5.017929394063035e-08 5.556398824408035e-08 -2.2535837766982664e-13 -0.18000009888808743 0.1999997111992886 0.30000000013246775 2.221400000026583 2.2214000000355214 -1.4868013180576755e-11 0.0 0.0 0.0 0.0 0.0 0.0
1704.9759999999999 -3.5488375054410173 -1.347457273497529 -1.8297531969842105 -1.5352330123231033 1.5708179790210215 -0.4072448522401473 0.0 0.0 0.0 0.0 0.0 0.0 0.0 0.0 0.0 0.0 0.0 0.0 -1.1038480459098545e-17 0.3499991142843476 0.766948704347012 0.2293513028109214 1.387805551208246e-06 0.0 -1.4493524842796392e-16 4.595488370553484 7.141979724620246 1.0424016712756377 6.307576230241479e-06 0.0 -3.548837486897604 -1.347457234059469 -1.8297532240497034 -1.5352328459369105 1.5708179473876953 -0.40724498430360967 0.0 0.0 0.0 0.0 0.0 0.0 -1.1038480429058839e-17 0.3499990999698639 0.7669486999511719 0.22935129702091217 1.3878055824534385e-06 0.0 -1.1038480429058839e-17 0.3499990999698639 0.7669486999511719 0.22935129702091217 1.3878055824534385e-06 0.0 -0.18000010649656395 0.199999712365214 0.30000001589716463 2.221399958473569 2.2214002930459764 -5.750839458807407e-08 0.0 0.0 0.0 0.0 0.0 0.0 4.708121692583919e-07 -5.231248226505691e-07 9.138596141260942e-08 5.017929394063035e-08 5.556398824408035e-08 -2.2535837766982664e-13 -0.18000009888808743 0.1999997111992886 0.30000000013246775 2.221400000026583 2.2214000000355214 -1.4868013180576755e-11 0.0 0.0 0.0 0.0 0.0 0.0
1704.984 -3.5488375054410173 -1.347457273497529 -1.8297531969842105 -1.5352330123231033 1.5708179790210215 -0.4072448522401473 0.0 0.0 0.0 0.0 0.0 0.0 0.0 0.0 0.0 0.0 0.0 0.0 -1.1038480459098545e-17 0.3499991142843476 0.766948704347012 0.2293513028109214 1.387805551208246e-06 0.0 -1.4493524842796392e-16 4.595488370553484 7.141979724620246 1.0424016712756377 6.307576230241479e-06 0.0 -3.548837486897604 -1.347457234059469 -1.8297532240497034 -1.5352328459369105 1.5708179473876953 -0.40724498430360967 0.0 0.0 0.0 0.0 0.0 0.0 -1.1038480429058839e-17 0.3499990999698639 0.7669486999511719 0.22935129702091217 1.3878055824534385e-06 0.0 -1.1038480429058839e-17 0.3499990999698639 0.7669486999511719 0.22935129702091217 1.3878055824534385e-06 0.0 -0.18000010649656395 0.199999712365214 0.30000001589716463 2.221399958473569 2.2214002930459764 -5.750839458807407e-08 0.0 0.0 0.0 0.0 0.0 0.0 4.708121692583919e-07 -5.231248226505691e-07 9.138596141260942e-08 5.017929394063035e-08 5.556398824408035e-08 -2.2535837766982664e-13 -0.18000009888808743 0.1999997111992886 0.30000000013246775 2.221400000026583 2.2214000000355214 -1.4868013180576755e-11 0.0 0.0 0.0 0.0 0.0 0.0
1704.992 -3.5488375054410173 -1.347457273497529 -1.8297531969842105 -1.5352330123231033 1.5708179790210215 -0.4072448522401473 0.0 0.0 0.0 0.0 0.0 0.0 0.0 0.0 0.0 0.0 0.0 0.0 -1.1038480459098545e-17 0.3499991142843476 0.766948704347012 0.2293513028109214 1.387805551208246e-06 0.0 -1.4493524842796392e-16 4.595488370553484 7.141979724620246 1.0424016712756377 6.307576230241479e-06 0.0 -3.548837486897604 -1.347457234059469 -1.8297532240497034 -1.5352328459369105 1.5708179473876953 -0.40724498430360967 0.0 0.0 0.0 0.0 0.0 0.0 -1.1038480429058839e-17 0.3499990999698639 0.7669486999511719 0.22935129702091217 1.3878055824534385e-06 0.0 -1.1038480429058839e-17 0.3499990999698639 0.7669486999511719 0.22935129702091217 1.3878055824534385e-06 0.0 -0.18000010649656395 0.199999712365214 0.30000001589716463 2.221399958473569 2.2214002930459764 -5.750839458807407e-08 0.0 0.0 0.0 0.0 0.0 0.0 4.708121692583919e-07 -5.231248226505691e-07 9.138596141260942e-08 5.017929394063035e-08 5.556398824408035e-08 -2.2535837766982664e-13 -0.18000009888808743 0.1999997111992886 0.30000000013246775 2.221400000026583 2.2214000000355214 -1.4868013180576755e-11 0.0 0.0 0.0 0.0 0.0 0.0
1705.0 -3.5488375054410173 -1.347457273497529 -1.8297531969842105 -1.5352330123231033 1.5708179790210215 -0.4072448522401473 0.0 0.0 0.0 0.0 0.0 0.0 0.0 0.0 0.0 0.0 0.0 0.0 -1.1038480459098545e-17 0.3499991142843476 0.766948704347012 0.2293513028109214 1.387805551208246e-06 0.0 -1.4493524842796392e-16 4.595488370553484 7.141979724620246 1.0424016712756377 6.307576230241479e-06 0.0 -3.548837486897604 -1.347457234059469 -1.8297532240497034 -1.5352328459369105 1.5708179473876953 -0.40724498430360967 0.0 0.0 0.0 0.0 0.0 0.0 -1.1038480429058839e-17 0.3499990999698639 0.7669486999511719 0.22935129702091217 1.3878055824534385e-06 0.0 -1.1038480429058839e-17 0.3499990999698639 0.7669486999511719 0.22935129702091217 1.3878055824534385e-06 0.0 -0.18000010649656395 0.199999712365214 0.30000001589716463 2.221399958473569 2.2214002930459764 -5.750839458807407e-08 0.0 0.0 0.0 0.0 0.0 0.0 4.708121692583919e-07 -5.231248226505691e-07 9.138596141260942e-08 5.017929394063035e-08 5.556398824408035e-08 -2.2535837766982664e-13 -0.18000009888808743 0.1999997111992886 0.30000000013246775 2.221400000026583 2.2214000000355214 -1.4868013180576755e-11 0.0 0.0 0.0 0.0 0.0 0.0
1705.0079999999998 -3.5488375054410173 -1.347457273497529 -1.8297531969842105 -1.5352330123231033 1.5708179790210215 -0.4072448522401473 0.0 0.0 0.0 0.0 0.0 0.0 0.0 0.0 0.0 0.0 0.0 0.0 -1.1038480459098545e-17 0.3499991142843476 0.766948704347012 0.2293513028109214 1.387805551208246e-06 0.0 -1.4493524842796392e-16 4.595488370553484 7.141979724620246 1.0424016712756377 6.307576230241479e-06 0.0 -3.548837486897604 -1.347457234059469 -1.8297532240497034 -1.5352328459369105 1.5708179473876953 -0.40724498430360967 0.0 0.0 0.0 0.0 0.0 0.0 -1.1038480429058839e-17 0.3499990999698639 0.7669486999511719 0.22935129702091217 1.3878055824534385e-06 0.0 -1.1038480429058839e-17 0.3499990999698639 0.7669486999511719 0.22935129702091217 1.3878055824534385e-06 0.0 -0.18000010649656395 0.199999712365214 0.30000001589716463 2.221399958473569 2.2214002930459764 -5.750839458807407e-08 0.0 0.0 0.0 0.0 0.0 0.0 4.708121692583919e-07 -5.231248226505691e-07 9.138596141260942e-08 5.017929394063035e-08 5.556398824408035e-08 -2.2535837766982664e-13 -0.18000009888808743 0.1999997111992886 0.30000000013246775 2.221400000026583 2.2214000000355214 -1.4868013180576755e-11 0.0 0.0 0.0 0.0 0.0 0.0
1705.0159999999998 -3.5488375054410173 -1.347457273497529 -1.8297531969842105 -1.5352330123231033 1.5708179790210215 -0.4072448522401473 0.0 0.0 0.0 0.0 0.0 0.0 0.0 0.0 0.0 0.0 0.0 0.0 -1.1038480459098545e-17 0.3499991142843476 0.766948704347012 0.2293513028109214 1.387805551208246e-06 0.0 -1.4493524842796392e-16 4.595488370553484 7.141979724620246 1.0424016712756377 6.307576230241479e-06 0.0 -3.548837486897604 -1.347457234059469 -1.8297532240497034 -1.5352328459369105 1.5708179473876953 -0.40724498430360967 0.0 0.0 0.0 0.0 0.0 0.0 -1.1038480429058839e-17 0.3499990999698639 0.7669486999511719 0.22935129702091217 1.3878055824534385e-06 0.0 -1.1038480429058839e-17 0.3499990999698639 0.7669486999511719 0.22935129702091217 1.3878055824534385e-06 0.0 -0.18000010649656395 0.199999712365214 0.30000001589716463 2.221399958473569 2.2214002930459764 -5.750839458807407e-08 0.0 0.0 0.0 0.0 0.0 0.0 4.708121692583919e-07 -5.231248226505691e-07 9.138596141260942e-08 5.017929394063035e-08 5.556398824408035e-08 -2.2535837766982664e-13 -0.18000009888808743 0.1999997111992886 0.30000000013246775 2.221400000026583 2.2214000000355214 -1.4868013180576755e-11 0.0 0.0 0.0 0.0 0.0 0.0
1705.024 -3.5488375054410173 -1.347457273497529 -1.8297531969842105 -1.5352330123231033 1.5708179790210215 -0.4072448522401473 0.0 0.0 0.0 0.0 0.0 0.0 0.0 0.0 0.0 0.0 0.0 0.0 -1.1038480459098545e-17 0.3499991142843476 0.766948704347012 0.2293513028109214 1.387805551208246e-06 0.0 -1.4493524842796392e-16 4.595488370553484 7.141979724620246 1.0424016712756377 6.307576230241479e-06 0.0 -3.548837486897604 -1.347457234059469 -1.8297532240497034 -1.5352328459369105 1.5708179473876953 -0.40724498430360967 0.0 0.0 0.0 0.0 0.0 0.0 -1.1038480429058839e-17 0.3499990999698639 0.7669486999511719 0.22935129702091217 1.3878055824534385e-06 0.0 -1.1038480429058839e-17 0.3499990999698639 0.7669486999511719 0.22935129702091217 1.3878055824534385e-06 0.0 -0.18000010649656395 0.199999712365214 0.30000001589716463 2.221399958473569 2.2214002930459764 -5.750839458807407e-08 0.0 0.0 0.0 0.0 0.0 0.0 4.708121692583919e-07 -5.231248226505691e-07 9.138596141260942e-08 5.017929394063035e-08 5.556398824408035e-08 -2.2535837766982664e-13 -0.18000009888808743 0.1999997111992886 0.30000000013246775 2.221400000026583 2.2214000000355214 -1.4868013180576755e-11 0.0 0.0 0.0 0.0 0.0 0.0
1705.032 -3.5488375054410173 -1.347457273497529 -1.8297531969842105 -1.5352330123231033 1.5708179790210215 -0.4072448522401473 0.0 0.0 0.0 0.0 0.0 0.0 0.0 0.0 0.0 0.0 0.0 0.0 -1.1038480459098545e-17 0.3499991142843476 0.766948704347012 0.2293513028109214 1.387805551208246e-06 0.0 -1.4493524842796392e-16 4.595488370553484 7.141979724620246 1.0424016712756377 6.307576230241479e-06 0.0 -3.548837486897604 -1.347457234059469 -1.8297532240497034 -1.5352328459369105 1.5708179473876953 -0.40724498430360967 0.0 0.0 0.0 0.0 0.0 0.0 -1.1038480429058839e-17 0.3499990999698639 0.7669486999511719 0.22935129702091217 1.3878055824534385e-06 0.0 -1.1038480429058839e-17 0.3499990999698639 0.7669486999511719 0.22935129702091217 1.3878055824534385e-06 0.0 -0.18000010649656395 0.199999712365214 0.30000001589716463 2.221399958473569 2.2214002930459764 -5.750839458807407e-08 0.0 0.0 0.0 0.0 0.0 0.0 4.708121692583919e-07 -5.231248226505691e-07 9.138596141260942e-08 5.017929394063035e-08 5.556398824408035e-08 -2.2535837766982664e-13 -0.18000009888808743 0.1999997111992886 0.30000000013246775 2.221400000026583 2.2214000000355214 -1.4868013180576755e-11 0.0 0.0 0.0 0.0 0.0 0.0
1705.04 -3.5488375054410173 -1.347457273497529 -1.8297531969842105 -1.5352330123231033 1.5708179790210215 -0.4072448522401473 0.0 0.0 0.0 0.0 0.0 0.0 0.0 0.0 0.0 0.0 0.0 0.0 -1.1038480459098545e-17 0.3499991142843476 0.766948704347012 0.2293513028109214 1.387805551208246e-06 0.0 -1.4493524842796392e-16 4.595488370553484 7.141979724620246 1.0424016712756377 6.307576230241479e-06 0.0 -3.548837486897604 -1.347457234059469 -1.8297532240497034 -1.5352328459369105 1.5708179473876953 -0.40724498430360967 0.0 0.0 0.0 0.0 0.0 0.0 -1.1038480429058839e-17 0.3499990999698639 0.7669486999511719 0.22935129702091217 1.3878055824534385e-06 0.0 -1.1038480429058839e-17 0.3499990999698639 0.7669486999511719 0.22935129702091217 1.3878055824534385e-06 0.0 -0.18000010649656395 0.199999712365214 0.30000001589716463 2.221399958473569 2.2214002930459764 -5.750839458807407e-08 0.0 0.0 0.0 0.0 0.0 0.0 4.708121692583919e-07 -5.231248226505691e-07 9.138596141260942e-08 5.017929394063035e-08 5.556398824408035e-08 -2.2535837766982664e-13 -0.18000009888808743 0.1999997111992886 0.30000000013246775 2.221400000026583 2.2214000000355214 -1.4868013180576755e-11 0.0 0.0 0.0 0.0 0.0 0.0
1705.048 -3.5488375054410173 -1.347457273497529 -1.8297531969842105 -1.5352330123231033 1.5708179790210215 -0.4072448522401473 0.0 0.0 0.0 0.0 0.0 0.0 0.0 0.0 0.0 0.0 0.0 0.0 -1.1038480459098545e-17 0.3499991142843476 0.766948704347012 0.2293513028109214 1.387805551208246e-06 0.0 -1.4493524842796392e-16 4.595488370553484 7.141979724620246 1.0424016712756377 6.307576230241479e-06 0.0 -3.548837486897604 -1.347457234059469 -1.8297532240497034 -1.5352328459369105 1.5708179473876953 -0.40724498430360967 0.0 0.0 0.0 0.0 0.0 0.0 -1.1038480429058839e-17 0.3499990999698639 0.7669486999511719 0.22935129702091217 1.3878055824534385e-06 0.0 -1.1038480429058839e-17 0.3499990999698639 0.7669486999511719 0.22935129702091217 1.3878055824534385e-06 0.0 -0.18000010649656395 0.199999712365214 0.30000001589716463 2.221399958473569 2.2214002930459764 -5.750839458807407e-08 0.0 0.0 0.0 0.0 0.0 0.0 4.708121692583919e-07 -5.231248226505691e-07 9.138596141260942e-08 5.017929394063035e-08 5.556398824408035e-08 -2.2535837766982664e-13 -0.18000009888808743 0.1999997111992886 0.30000000013246775 2.221400000026583 2.2214000000355214 -1.4868013180576755e-11 0.0 0.0 0.0 0.0 0.0 0.0
1705.0559999999998 -3.5488375054410173 -1.347457273497529 -1.8297531969842105 -1.5352330123231033 1.5708179790210215 -0.4072448522401473 0.0 0.0 0.0 0.0 0.0 0.0 0.0 0.0 0.0 0.0 0.0 0.0 -1.1038480459098545e-17 0.3499991142843476 0.766948704347012 0.2293513028109214 1.387805551208246e-06 0.0 -1.4493524842796392e-16 4.595488370553484 7.141979724620246 1.0424016712756377 6.307576230241479e-06 0.0 -3.548837486897604 -1.347457234059469 -1.8297532240497034 -1.5352328459369105 1.5708179473876953 -0.40724498430360967 0.0 0.0 0.0 0.0 0.0 0.0 -1.1038480429058839e-17 0.3499990999698639 0.7669486999511719 0.22935129702091217 1.3878055824534385e-06 0.0 -1.1038480429058839e-17 0.3499990999698639 0.7669486999511719 0.22935129702091217 1.3878055824534385e-06 0.0 -0.18000010649656395 0.199999712365214 0.30000001589716463 2.221399958473569 2.2214002930459764 -5.750839458807407e-08 0.0 0.0 0.0 0.0 0.0 0.0 4.708121692583919e-07 -5.231248226505691e-07 9.138596141260942e-08 5.017929394063035e-08 5.556398824408035e-08 -2.2535837766982664e-13 -0.18000009888808743 0.1999997111992886 0.30000000013246775 2.221400000026583 2.2214000000355214 -1.4868013180576755e-11 0.0 0.0 0.0 0.0 0.0 0.0
1705.0639999999999 -3.5488375054410173 -1.347457273497529 -1.8297531969842105 -1.5352330123231033 1.5708179790210215 -0.4072448522401473 0.0 0.0 0.0 0.0 0.0 0.0 0.0 0.0 0.0 0.0 0.0 0.0 -1.1038480459098545e-17 0.3499991142843476 0.766948704347012 0.2293513028109214 1.387805551208246e-06 0.0 -1.4493524842796392e-16 4.595488370553484 7.141979724620246 1.0424016712756377 6.307576230241479e-06 0.0 -3.548837486897604 -1.347457234059469 -1.8297532240497034 -1.5352328459369105 1.5708179473876953 -0.40724498430360967 0.0 0.0 0.0 0.0 0.0 0.0 -1.1038480429058839e-17 0.3499990999698639 0.7669486999511719 0.22935129702091217 1.3878055824534385e-06 0.0 -1.1038480429058839e-17 0.3499990999698639 0.7669486999511719 0.22935129702091217 1.3878055824534385e-06 0.0 -0.18000010649656395 0.199999712365214 0.30000001589716463 2.221399958473569 2.2214002930459764 -5.750839458807407e-08 0.0 0.0 0.0 0.0 0.0 0.0 4.708121692583919e-07 -5.231248226505691e-07 9.138596141260942e-08 5.017929394063035e-08 5.556398824408035e-08 -2.2535837766982664e-13 -0.18000009888808743 0.1999997111992886 0.30000000013246775 2.221400000026583 2.2214000000355214 -1.4868013180576755e-11 0.0 0.0 0.0 0.0 0.0 0.0
1705.072 -3.5488375054410173 -1.347457273497529 -1.8297531969842105 -1.5352330123231033 1.5708179790210215 -0.4072448522401473 0.0 0.0 0.0 0.0 0.0 0.0 0.0 0.0 0.0 0.0 0.0 0.0 -1.1038480459098545e-17 0.3499991142843476 0.766948704347012 0.2293513028109214 1.387805551208246e-06 0.0 -1.4493524842796392e-16 4.595488370553484 7.141979724620246 1.0424016712756377 6.307576230241479e-06 0.0 -3.548837486897604 -1.347457234059469 -1.8297532240497034 -1.5352328459369105 1.5708179473876953 -0.40724498430360967 0.0 0.0 0.0 0.0 0.0 0.0 -1.1038480429058839e-17 0.3499990999698639 0.7669486999511719 0.22935129702091217 1.3878055824534385e-06 0.0 -1.1038480429058839e-17 0.3499990999698639 0.7669486999511719 0.22935129702091217 1.3878055824534385e-06 0.0 -0.18000010649656395 0.199999712365214 0.30000001589716463 2.221399958473569 2.2214002930459764 -5.750839458807407e-08 0.0 0.0 0.0 0.0 0.0 0.0 4.708121692583919e-07 -5.231248226505691e-07 9.138596141260942e-08 5.017929394063035e-08 5.556398824408035e-08 -2.2535837766982664e-13 -0.18000009888808743 0.1999997111992886 0.30000000013246775 2.221400000026583 2.2214000000355214 -1.4868013180576755e-11 0.0 0.0 0.0 0.0 0.0 0.0
1705.08 -3.5488375054410173 -1.347457273497529 -1.8297531969842105 -1.5352330123231033 1.5708179790210215 -0.4072448522401473 0.0 0.0 0.0 0.0 0.0 0.0 0.0 0.0 0.0 0.0 0.0 0.0 -1.1038480459098545e-17 0.3499991142843476 0.766948704347012 0.2293513028109214 1.387805551208246e-06 0.0 -1.4493524842796392e-16 4.595488370553484 7.141979724620246 1.0424016712756377 6.307576230241479e-06 0.0 -3.548837486897604 -1.347457234059469 -1.8297532240497034 -1.5352328459369105 1.5708179473876953 -0.40724498430360967 0.0 0.0 0.0 0.0 0.0 0.0 -1.1038480429058839e-17 0.3499990999698639 0.7669486999511719 0.22935129702091217 1.3878055824534385e-06 0.0 -1.1038480429058839e-17 0.3499990999698639 0.7669486999511719 0.22935129702091217 1.3878055824534385e-06 0.0 -0.18000010649656395 0.199999712365214 0.30000001589716463 2.221399958473569 2.2214002930459764 -5.750839458807407e-08 0.0 0.0 0.0 0.0 0.0 0.0 4.708121692583919e-07 -5.231248226505691e-07 9.138596141260942e-08 5.017929394063035e-08 5.556398824408035e-08 -2.2535837766982664e-13 -0.18000009888808743 0.1999997111992886 0.30000000013246775 2.221400000026583 2.2214000000355214 -1.4868013180576755e-11 0.0 0.0 0.0 0.0 0.0 0.0
1705.088 -3.5488375054410173 -1.347457273497529 -1.8297531969842105 -1.5352330123231033 1.5708179790210215 -0.4072448522401473 0.0 0.0 0.0 0.0 0.0 0.0 0.0 0.0 0.0 0.0 0.0 0.0 -1.1038480459098545e-17 0.3499991142843476 0.766948704347012 0.2293513028109214 1.387805551208246e-06 0.0 -1.4493524842796392e-16 4.595488370553484 7.141979724620246 1.0424016712756377 6.307576230241479e-06 0.0 -3.548837486897604 -1.347457234059469 -1.8297532240497034 -1.5352328459369105 1.5708179473876953 -0.40724498430360967 0.0 0.0 0.0 0.0 0.0 0.0 -1.1038480429058839e-17 0.3499990999698639 0.7669486999511719 0.22935129702091217 1.3878055824534385e-06 0.0 -1.1038480429058839e-17 0.3499990999698639 0.7669486999511719 0.22935129702091217 1.3878055824534385e-06 0.0 -0.18000010649656395 0.199999712365214 0.30000001589716463 2.221399958473569 2.2214002930459764 -5.750839458807407e-08 0.0 0.0 0.0 0.0 0.0 0.0 4.708121692583919e-07 -5.231248226505691e-07 9.138596141260942e-08 5.017929394063035e-08 5.556398824408035e-08 -2.2535837766982664e-13 -0.18000009888808743 0.1999997111992886 0.30000000013246775 2.221400000026583 2.2214000000355214 -1.4868013180576755e-11 0.0 0.0 0.0 0.0 0.0 0.0
1705.096 -3.5488375054410173 -1.347457273497529 -1.8297531969842105 -1.5352330123231033 1.5708179790210215 -0.4072448522401473 0.0 0.0 0.0 0.0 0.0 0.0 0.0 0.0 0.0 0.0 0.0 0.0 -1.1038480459098545e-17 0.3499991142843476 0.766948704347012 0.2293513028109214 1.387805551208246e-06 0.0 -1.4493524842796392e-16 4.595488370553484 7.141979724620246 1.0424016712756377 6.307576230241479e-06 0.0 -3.548837486897604 -1.347457234059469 -1.8297532240497034 -1.5352328459369105 1.5708179473876953 -0.40724498430360967 0.0 0.0 0.0 0.0 0.0 0.0 -1.1038480429058839e-17 0.3499990999698639 0.7669486999511719 0.22935129702091217 1.3878055824534385e-06 0.0 -1.1038480429058839e-17 0.3499990999698639 0.7669486999511719 0.22935129702091217 1.3878055824534385e-06 0.0 -0.18000010649656395 0.199999712365214 0.30000001589716463 2.221399958473569 2.2214002930459764 -5.750839458807407e-08 0.0 0.0 0.0 0.0 0.0 0.0 4.708121692583919e-07 -5.231248226505691e-07 9.138596141260942e-08 5.017929394063035e-08 5.556398824408035e-08 -2.2535837766982664e-13 -0.18000009888808743 0.1999997111992886 0.30000000013246775 2.221400000026583 2.2214000000355214 -1.4868013180576755e-11 0.0 0.0 0.0 0.0 0.0 0.0
1705.1039999999998 -3.5488375054410173 -1.347457273497529 -1.8297531969842105 -1.5352330123231033 1.5708179790210215 -0.4072448522401473 0.0 0.0 0.0 0.0 0.0 0.0 0.0 0.0 0.0 0.0 0.0 0.0 -1.1038480459098545e-17 0.3499991142843476 0.766948704347012 0.2293513028109214 1.387805551208246e-06 0.0 -1.4493524842796392e-16 4.595488370553484 7.141979724620246 1.0424016712756377 6.307576230241479e-06 0.0 -3.548837486897604 -1.347457234059469 -1.8297532240497034 -1.5352328459369105 1.5708179473876953 -0.40724498430360967 0.0 0.0 0.0 0.0 0.0 0.0 -1.1038480429058839e-17 0.3499990999698639 0.7669486999511719 0.22935129702091217 1.3878055824534385e-06 0.0 -1.1038480429058839e-17 0.3499990999698639 0.7669486999511719 0.22935129702091217 1.3878055824534385e-06 0.0 -0.18000010649656395 0.199999712365214 0.30000001589716463 2.221399958473569 2.2214002930459764 -5.750839458807407e-08 0.0 0.0 0.0 0.0 0.0 0.0 4.708121692583919e-07 -5.231248226505691e-07 9.138596141260942e-08 5.017929394063035e-08 5.556398824408035e-08 -2.2535837766982664e-13 -0.18000009888808743 0.1999997111992886 0.30000000013246775 2.221400000026583 2.2214000000355214 -1.4868013180576755e-11 0.0 0.0 0.0 0.0 0.0 0.0
1705.1119999999999 -3.5488375054410173 -1.347457273497529 -1.8297531969842105 -1.5352330123231033 1.5708179790210215 -0.4072448522401473 0.0 0.0 0.0 0.0 0.0 0.0 0.0 0.0 0.0 0.0 0.0 0.0 -1.1038480459098545e-17 0.3499991142843476 0.766948704347012 0.2293513028109214 1.387805551208246e-06 0.0 -1.4493524842796392e-16 4.595488370553484 7.141979724620246 1.0424016712756377 6.307576230241479e-06 0.0 -3.548837486897604 -1.347457234059469 -1.8297532240497034 -1.5352328459369105 1.5708179473876953 -0.40724498430360967 0.0 0.0 0.0 0.0 0.0 0.0 -1.1038480429058839e-17 0.3499990999698639 0.7669486999511719 0.22935129702091217 1.3878055824534385e-06 0.0 -1.1038480429058839e-17 0.3499990999698639 0.7669486999511719 0.22935129702091217 1.3878055824534385e-06 0.0 -0.18000010649656395 0.199999712365214 0.30000001589716463 2.221399958473569 2.2214002930459764 -5.750839458807407e-08 0.0 0.0 0.0 0.0 0.0 0.0 4.708121692583919e-07 -5.231248226505691e-07 9.138596141260942e-08 5.017929394063035e-08 5.556398824408035e-08 -2.2535837766982664e-13 -0.18000009888808743 0.1999997111992886 0.30000000013246775 2.221400000026583 2.2214000000355214 -1.4868013180576755e-11 0.0 0.0 0.0 0.0 0.0 0.0
1705.12 -3.5488375054410173 -1.347457273497529 -1.8297531969842105 -1.5352330123231033 1.5708179790210215 -0.4072448522401473 0.0 0.0 0.0 0.0 0.0 0.0 0.0 0.0 0.0 0.0 0.0 0.0 -1.1038480459098545e-17 0.3499991142843476 0.766948704347012 0.2293513028109214 1.387805551208246e-06 0.0 -1.4493524842796392e-16 4.595488370553484 7.141979724620246 1.0424016712756377 6.307576230241479e-06 0.0 -3.548837486897604 -1.347457234059469 -1.8297532240497034 -1.5352328459369105 1.5708179473876953 -0.40724498430360967 0.0 0.0 0.0 0.0 0.0 0.0 -1.1038480429058839e-17 0.3499990999698639 0.7669486999511719 0.22935129702091217 1.3878055824534385e-06 0.0 -1.1038480429058839e-17 0.3499990999698639 0.7669486999511719 0.22935129702091217 1.3878055824534385e-06 0.0 -0.18000010649656395 0.199999712365214 0.30000001589716463 2.221399958473569 2.2214002930459764 -5.750839458807407e-08 0.0 0.0 0.0 0.0 0.0 0.0 4.708121692583919e-07 -5.231248226505691e-07 9.138596141260942e-08 5.017929394063035e-08 5.556398824408035e-08 -2.2535837766982664e-13 -0.18000009888808743 0.1999997111992886 0.30000000013246775 2.221400000026583 2.2214000000355214 -1.4868013180576755e-11 0.0 0.0 0.0 0.0 0.0 0.0
1705.128 -3.5488375054410173 -1.347457273497529 -1.8297531969842105 -1.5352330123231033 1.5708179790210215 -0.4072448522401473 0.0 0.0 0.0 0.0 0.0 0.0 0.0 0.0 0.0 0.0 0.0 0.0 -1.1038480459098545e-17 0.3499991142843476 0.766948704347012 0.2293513028109214 1.387805551208246e-06 0.0 -1.4493524842796392e-16 4.595488370553484 7.141979724620246 1.0424016712756377 6.307576230241479e-06 0.0 -3.548837486897604 -1.347457234059469 -1.8297532240497034 -1.5352328459369105 1.5708179473876953 -0.40724498430360967 0.0 0.0 0.0 0.0 0.0 0.0 -1.1038480429058839e-17 0.3499990999698639 0.7669486999511719 0.22935129702091217 1.3878055824534385e-06 0.0 -1.1038480429058839e-17 0.3499990999698639 0.7669486999511719 0.22935129702091217 1.3878055824534385e-06 0.0 -0.18000010649656395 0.199999712365214 0.30000001589716463 2.221399958473569 2.2214002930459764 -5.750839458807407e-08 0.0 0.0 0.0 0.0 0.0 0.0 4.708121692583919e-07 -5.231248226505691e-07 9.138596141260942e-08 5.017929394063035e-08 5.556398824408035e-08 -2.2535837766982664e-13 -0.18000009888808743 0.1999997111992886 0.30000000013246775 2.221400000026583 2.2214000000355214 -1.4868013180576755e-11 0.0 0.0 0.0 0.0 0.0 0.0
1705.136 -3.5488375054410173 -1.347457273497529 -1.8297531969842105 -1.5352330123231033 1.5708179790210215 -0.4072448522401473 0.0 0.0 0.0 0.0 0.0 0.0 0.0 0.0 0.0 0.0 0.0 0.0 -1.1038480459098545e-17 0.3499991142843476 0.766948704347012 0.2293513028109214 1.387805551208246e-06 0.0 -1.4493524842796392e-16 4.595488370553484 7.141979724620246 1.0424016712756377 6.307576230241479e-06 0.0 -3.548837486897604 -1.347457234059469 -1.8297532240497034 -1.5352328459369105 1.5708179473876953 -0.40724498430360967 0.0 0.0 0.0 0.0 0.0 0.0 -1.1038480429058839e-17 0.3499990999698639 0.7669486999511719 0.22935129702091217 1.3878055824534385e-06 0.0 -1.1038480429058839e-17 0.3499990999698639 0.7669486999511719 0.22935129702091217 1.3878055824534385e-06 0.0 -0.18000010649656395 0.199999712365214 0.30000001589716463 2.221399958473569 2.2214002930459764 -5.750839458807407e-08 0.0 0.0 0.0 0.0 0.0 0.0 4.708121692583919e-07 -5.231248226505691e-07 9.138596141260942e-08 5.017929394063035e-08 5.556398824408035e-08 -2.2535837766982664e-13 -0.18000009888808743 0.1999997111992886 0.30000000013246775 2.221400000026583 2.2214000000355214 -1.4868013180576755e-11 0.0 0.0 0.0 0.0 0.0 0.0
1705.144 -3.5488375054410173 -1.347457273497529 -1.8297531969842105 -1.5352330123231033 1.5708179790210215 -0.4072448522401473 0.0 0.0 0.0 0.0 0.0 0.0 0.0 0.0 0.0 0.0 0.0 0.0 -1.1038480459098545e-17 0.3499991142843476 0.766948704347012 0.2293513028109214 1.387805551208246e-06 0.0 -1.4493524842796392e-16 4.595488370553484 7.141979724620246 1.0424016712756377 6.307576230241479e-06 0.0 -3.548837486897604 -1.347457234059469 -1.8297532240497034 -1.5352328459369105 1.5708179473876953 -0.40724498430360967 0.0 0.0 0.0 0.0 0.0 0.0 -1.1038480429058839e-17 0.3499990999698639 0.7669486999511719 0.22935129702091217 1.3878055824534385e-06 0.0 -1.1038480429058839e-17 0.3499990999698639 0.7669486999511719 0.22935129702091217 1.3878055824534385e-06 0.0 -0.18000010649656395 0.199999712365214 0.30000001589716463 2.221399958473569 2.2214002930459764 -5.750839458807407e-08 0.0 0.0 0.0 0.0 0.0 0.0 4.708121692583919e-07 -5.231248226505691e-07 9.138596141260942e-08 5.017929394063035e-08 5.556398824408035e-08 -2.2535837766982664e-13 -0.18000009888808743 0.1999997111992886 0.30000000013246775 2.221400000026583 2.2214000000355214 -1.4868013180576755e-11 0.0 0.0 0.0 0.0 0.0 0.0
1705.1519999999998 -3.5488375054410173 -1.347457273497529 -1.8297531969842105 -1.5352330123231033 1.5708179790210215 -0.4072448522401473 0.0 0.0 0.0 0.0 0.0 0.0 0.0 0.0 0.0 0.0 0.0 0.0 -1.1038480459098545e-17 0.3499991142843476 0.766948704347012 0.2293513028109214 1.387805551208246e-06 0.0 -1.4493524842796392e-16 4.595488370553484 7.141979724620246 1.0424016712756377 6.307576230241479e-06 0.0 -3.548837486897604 -1.347457234059469 -1.8297532240497034 -1.5352328459369105 1.5708179473876953 -0.40724498430360967 0.0 0.0 0.0 0.0 0.0 0.0 -1.1038480429058839e-17 0.3499990999698639 0.7669486999511719 0.22935129702091217 1.3878055824534385e-06 0.0 -1.1038480429058839e-17 0.3499990999698639 0.7669486999511719 0.22935129702091217 1.3878055824534385e-06 0.0 -0.18000010649656395 0.199999712365214 0.30000001589716463 2.221399958473569 2.2214002930459764 -5.750839458807407e-08 0.0 0.0 0.0 0.0 0.0 0.0 4.708121692583919e-07 -5.231248226505691e-07 9.138596141260942e-08 5.017929394063035e-08 5.556398824408035e-08 -2.2535837766982664e-13 -0.18000009888808743 0.1999997111992886 0.30000000013246775 2.221400000026583 2.2214000000355214 -1.4868013180576755e-11 0.0 0.0 0.0 0.0 0.0 0.0
1705.1599999999999 -3.5488375054410173 -1.347457273497529 -1.8297531969842105 -1.5352330123231033 1.5708179790210215 -0.4072448522401473 0.0 0.0 0.0 0.0 0.0 0.0 0.0 0.0 0.0 0.0 0.0 0.0 -1.1038480459098545e-17 0.3499991142843476 0.766948704347012 0.2293513028109214 1.387805551208246e-06 0.0 -1.4493524842796392e-16 4.595488370553484 7.141979724620246 1.0424016712756377 6.307576230241479e-06 0.0 -3.548837486897604 -1.347457234059469 -1.8297532240497034 -1.5352328459369105 1.5708179473876953 -0.40724498430360967 0.0 0.0 0.0 0.0 0.0 0.0 -1.1038480429058839e-17 0.3499990999698639 0.7669486999511719 0.22935129702091217 1.3878055824534385e-06 0.0 -1.1038480429058839e-17 0.3499990999698639 0.7669486999511719 0.22935129702091217 1.3878055824534385e-06 0.0 -0.18000010649656395 0.199999712365214 0.30000001589716463 2.221399958473569 2.2214002930459764 -5.750839458807407e-08 0.0 0.0 0.0 0.0 0.0 0.0 4.708121692583919e-07 -5.231248226505691e-07 9.138596141260942e-08 5.017929394063035e-08 5.556398824408035e-08 -2.2535837766982664e-13 -0.18000009888808743 0.1999997111992886 0.30000000013246775 2.221400000026583 2.2214000000355214 -1.4868013180576755e-11 0.0 0.0 0.0 0.0 0.0 0.0
1705.168 -3.5488375054410173 -1.347457273497529 -1.8297531969842105 -1.5352330123231033 1.5708179790210215 -0.4072448522401473 0.0 0.0 0.0 0.0 0.0 0.0 0.0 0.0 0.0 0.0 0.0 0.0 -1.1038480459098545e-17 0.3499991142843476 0.766948704347012 0.2293513028109214 1.387805551208246e-06 0.0 -1.4493524842796392e-16 4.595488370553484 7.141979724620246 1.0424016712756377 6.307576230241479e-06 0.0 -3.548837486897604 -1.347457234059469 -1.8297532240497034 -1.5352328459369105 1.5708179473876953 -0.40724498430360967 0.0 0.0 0.0 0.0 0.0 0.0 -1.1038480429058839e-17 0.3499990999698639 0.7669486999511719 0.22935129702091217 1.3878055824534385e-06 0.0 -1.1038480429058839e-17 0.3499990999698639 0.7669486999511719 0.22935129702091217 1.3878055824534385e-06 0.0 -0.18000010649656395 0.199999712365214 0.30000001589716463 2.221399958473569 2.2214002930459764 -5.750839458807407e-08 0.0 0.0 0.0 0.0 0.0 0.0 4.708121692583919e-07 -5.231248226505691e-07 9.138596141260942e-08 5.017929394063035e-08 5.556398824408035e-08 -2.2535837766982664e-13 -0.18000009888808743 0.1999997111992886 0.30000000013246775 2.221400000026583 2.2214000000355214 -1.4868013180576755e-11 0.0 0.0 0.0 0.0 0.0 0.0
1705.176 -3.5488375054410173 -1.347457273497529 -1.8297531969842105 -1.5352330123231033 1.5708179790210215 -0.4072448522401473 0.0 0.0 0.0 0.0 0.0 0.0 0.0 0.0 0.0 0.0 0.0 0.0 -1.1038480459098545e-17 0.3499991142843476 0.766948704347012 0.2293513028109214 1.387805551208246e-06 0.0 -1.4493524842796392e-16 4.595488370553484 7.141979724620246 1.0424016712756377 6.307576230241479e-06 0.0 -3.548837486897604 -1.347457234059469 -1.8297532240497034 -1.5352328459369105 1.5708179473876953 -0.40724498430360967 0.0 0.0 0.0 0.0 0.0 0.0 -1.1038480429058839e-17 0.3499990999698639 0.7669486999511719 0.22935129702091217 1.3878055824534385e-06 0.0 -1.1038480429058839e-17 0.3499990999698639 0.7669486999511719 0.22935129702091217 1.3878055824534385e-06 0.0 -0.18000010649656395 0.199999712365214 0.30000001589716463 2.221399958473569 2.2214002930459764 -5.750839458807407e-08 0.0 0.0 0.0 0.0 0.0 0.0 4.708121692583919e-07 -5.231248226505691e-07 9.138596141260942e-08 5.017929394063035e-08 5.556398824408035e-08 -2.2535837766982664e-13 -0.18000009888808743 0.1999997111992886 0.30000000013246775 2.221400000026583 2.2214000000355214 -1.4868013180576755e-11 0.0 0.0 0.0 0.0 0.0 0.0
1705.184 -3.5488375054410173 -1.347457273497529 -1.8297531969842105 -1.5352330123231033 1.5708179790210215 -0.4072448522401473 0.0 0.0 0.0 0.0 0.0 0.0 0.0 0.0 0.0 0.0 0.0 0.0 -1.1038480459098545e-17 0.3499991142843476 0.766948704347012 0.2293513028109214 1.387805551208246e-06 0.0 -1.4493524842796392e-16 4.595488370553484 7.141979724620246 1.0424016712756377 6.307576230241479e-06 0.0 -3.548837486897604 -1.347457234059469 -1.8297532240497034 -1.5352328459369105 1.5708179473876953 -0.40724498430360967 0.0 0.0 0.0 0.0 0.0 0.0 -1.1038480429058839e-17 0.3499990999698639 0.7669486999511719 0.22935129702091217 1.3878055824534385e-06 0.0 -1.1038480429058839e-17 0.3499990999698639 0.7669486999511719 0.22935129702091217 1.3878055824534385e-06 0.0 -0.18000010649656395 0.199999712365214 0.30000001589716463 2.221399958473569 2.2214002930459764 -5.750839458807407e-08 0.0 0.0 0.0 0.0 0.0 0.0 4.708121692583919e-07 -5.231248226505691e-07 9.138596141260942e-08 5.017929394063035e-08 5.556398824408035e-08 -2.2535837766982664e-13 -0.18000009888808743 0.1999997111992886 0.30000000013246775 2.221400000026583 2.2214000000355214 -1.4868013180576755e-11 0.0 0.0 0.0 0.0 0.0 0.0
1705.192 -3.5488375054410173 -1.347457273497529 -1.8297531969842105 -1.5352330123231033 1.5708179790210215 -0.4072448522401473 0.0 0.0 0.0 0.0 0.0 0.0 0.0 0.0 0.0 0.0 0.0 0.0 -1.1038480459098545e-17 0.3499991142843476 0.766948704347012 0.2293513028109214 1.387805551208246e-06 0.0 -1.4493524842796392e-16 4.595488370553484 7.141979724620246 1.0424016712756377 6.307576230241479e-06 0.0 -3.548837486897604 -1.347457234059469 -1.8297532240497034 -1.5352328459369105 1.5708179473876953 -0.40724498430360967 0.0 0.0 0.0 0.0 0.0 0.0 -1.1038480429058839e-17 0.3499990999698639 0.7669486999511719 0.22935129702091217 1.3878055824534385e-06 0.0 -1.1038480429058839e-17 0.3499990999698639 0.7669486999511719 0.22935129702091217 1.3878055824534385e-06 0.0 -0.18000010649656395 0.199999712365214 0.30000001589716463 2.221399958473569 2.2214002930459764 -5.750839458807407e-08 0.0 0.0 0.0 0.0 0.0 0.0 4.708121692583919e-07 -5.231248226505691e-07 9.138596141260942e-08 5.017929394063035e-08 5.556398824408035e-08 -2.2535837766982664e-13 -0.18000009888808743 0.1999997111992886 0.30000000013246775 2.221400000026583 2.2214000000355214 -1.4868013180576755e-11 0.0 0.0 0.0 0.0 0.0 0.0
1705.1999999999998 -3.5488375054410173 -1.347457273497529 -1.8297531969842105 -1.5352330123231033 1.5708179790210215 -0.4072448522401473 0.0 0.0 0.0 0.0 0.0 0.0 0.0 0.0 0.0 0.0 0.0 0.0 -1.1038480459098545e-17 0.3499991142843476 0.766948704347012 0.2293513028109214 1.387805551208246e-06 0.0 -1.4493524842796392e-16 4.595488370553484 7.141979724620246 1.0424016712756377 6.307576230241479e-06 0.0 -3.548837486897604 -1.347457234059469 -1.8297532240497034 -1.5352328459369105 1.5708179473876953 -0.40724498430360967 0.0 0.0 0.0 0.0 0.0 0.0 -1.1038480429058839e-17 0.3499990999698639 0.7669486999511719 0.22935129702091217 1.3878055824534385e-06 0.0 -1.1038480429058839e-17 0.3499990999698639 0.7669486999511719 0.22935129702091217 1.3878055824534385e-06 0.0 -0.18000010649656395 0.199999712365214 0.30000001589716463 2.221399958473569 2.2214002930459764 -5.750839458807407e-08 0.0 0.0 0.0 0.0 0.0 0.0 4.708121692583919e-07 -5.231248226505691e-07 9.138596141260942e-08 5.017929394063035e-08 5.556398824408035e-08 -2.2535837766982664e-13 -0.18000009888808743 0.1999997111992886 0.30000000013246775 2.221400000026583 2.2214000000355214 -1.4868013180576755e-11 0.0 0.0 0.0 0.0 0.0 0.0
1705.2079999999999 -3.5488375054410173 -1.347457273497529 -1.8297531969842105 -1.5352330123231033 1.5708179790210215 -0.4072448522401473 0.0 0.0 0.0 0.0 0.0 0.0 0.0 0.0 0.0 0.0 0.0 0.0 -1.1038480459098545e-17 0.3499991142843476 0.766948704347012 0.2293513028109214 1.387805551208246e-06 0.0 -1.4493524842796392e-16 4.595488370553484 7.141979724620246 1.0424016712756377 6.307576230241479e-06 0.0 -3.548837486897604 -1.347457234059469 -1.8297532240497034 -1.5352328459369105 1.5708179473876953 -0.40724498430360967 0.0 0.0 0.0 0.0 0.0 0.0 -1.1038480429058839e-17 0.3499990999698639 0.7669486999511719 0.22935129702091217 1.3878055824534385e-06 0.0 -1.1038480429058839e-17 0.3499990999698639 0.7669486999511719 0.22935129702091217 1.3878055824534385e-06 0.0 -0.18000010649656395 0.199999712365214 0.30000001589716463 2.221399958473569 2.2214002930459764 -5.750839458807407e-08 0.0 0.0 0.0 0.0 0.0 0.0 4.708121692583919e-07 -5.231248226505691e-07 9.138596141260942e-08 5.017929394063035e-08 5.556398824408035e-08 -2.2535837766982664e-13 -0.18000009888808743 0.1999997111992886 0.30000000013246775 2.221400000026583 2.2214000000355214 -1.4868013180576755e-11 0.0 0.0 0.0 0.0 0.0 0.0
1705.216 -3.5488375054410173 -1.347457273497529 -1.8297531969842105 -1.5352330123231033 1.5708179790210215 -0.4072448522401473 0.0 0.0 0.0 0.0 0.0 0.0 0.0 0.0 0.0 0.0 0.0 0.0 -1.1038480459098545e-17 0.3499991142843476 0.766948704347012 0.2293513028109214 1.387805551208246e-06 0.0 -1.4493524842796392e-16 4.595488370553484 7.141979724620246 1.0424016712756377 6.307576230241479e-06 0.0 -3.548837486897604 -1.347457234059469 -1.8297532240497034 -1.5352328459369105 1.5708179473876953 -0.40724498430360967 0.0 0.0 0.0 0.0 0.0 0.0 -1.1038480429058839e-17 0.3499990999698639 0.7669486999511719 0.22935129702091217 1.3878055824534385e-06 0.0 -1.1038480429058839e-17 0.3499990999698639 0.7669486999511719 0.22935129702091217 1.3878055824534385e-06 0.0 -0.18000010649656395 0.199999712365214 0.30000001589716463 2.221399958473569 2.2214002930459764 -5.750839458807407e-08 0.0 0.0 0.0 0.0 0.0 0.0 4.708121692583919e-07 -5.231248226505691e-07 9.138596141260942e-08 5.017929394063035e-08 5.556398824408035e-08 -2.2535837766982664e-13 -0.18000009888808743 0.1999997111992886 0.30000000013246775 2.221400000026583 2.2214000000355214 -1.4868013180576755e-11 0.0 0.0 0.0 0.0 0.0 0.0
1705.224 -3.5488375054410173 -1.347457273497529 -1.8297531969842105 -1.5352330123231033 1.5708179790210215 -0.4072448522401473 0.0 0.0 0.0 0.0 0.0 0.0 0.0 0.0 0.0 0.0 0.0 0.0 -1.1038480459098545e-17 0.3499991142843476 0.766948704347012 0.2293513028109214 1.387805551208246e-06 0.0 -1.4493524842796392e-16 4.595488370553484 7.141979724620246 1.0424016712756377 6.307576230241479e-06 0.0 -3.548837486897604 -1.347457234059469 -1.8297532240497034 -1.5352328459369105 1.5708179473876953 -0.40724498430360967 0.0 0.0 0.0 0.0 0.0 0.0 -1.1038480429058839e-17 0.3499990999698639 0.7669486999511719 0.22935129702091217 1.3878055824534385e-06 0.0 -1.1038480429058839e-17 0.3499990999698639 0.7669486999511719 0.22935129702091217 1.3878055824534385e-06 0.0 -0.18000010649656395 0.199999712365214 0.30000001589716463 2.221399958473569 2.2214002930459764 -5.750839458807407e-08 0.0 0.0 0.0 0.0 0.0 0.0 4.708121692583919e-07 -5.231248226505691e-07 9.138596141260942e-08 5.017929394063035e-08 5.556398824408035e-08 -2.2535837766982664e-13 -0.18000009888808743 0.1999997111992886 0.30000000013246775 2.221400000026583 2.2214000000355214 -1.4868013180576755e-11 0.0 0.0 0.0 0.0 0.0 0.0
1705.232 -3.5488375054410173 -1.347457273497529 -1.8297531969842105 -1.5352330123231033 1.5708179790210215 -0.4072448522401473 0.0 0.0 0.0 0.0 0.0 0.0 0.0 0.0 0.0 0.0 0.0 0.0 -1.1038480459098545e-17 0.3499991142843476 0.766948704347012 0.2293513028109214 1.387805551208246e-06 0.0 -1.4493524842796392e-16 4.595488370553484 7.141979724620246 1.0424016712756377 6.307576230241479e-06 0.0 -3.548837486897604 -1.347457234059469 -1.8297532240497034 -1.5352328459369105 1.5708179473876953 -0.40724498430360967 0.0 0.0 0.0 0.0 0.0 0.0 -1.1038480429058839e-17 0.3499990999698639 0.7669486999511719 0.22935129702091217 1.3878055824534385e-06 0.0 -1.1038480429058839e-17 0.3499990999698639 0.7669486999511719 0.22935129702091217 1.3878055824534385e-06 0.0 -0.18000010649656395 0.199999712365214 0.30000001589716463 2.221399958473569 2.2214002930459764 -5.750839458807407e-08 0.0 0.0 0.0 0.0 0.0 0.0 4.708121692583919e-07 -5.231248226505691e-07 9.138596141260942e-08 5.017929394063035e-08 5.556398824408035e-08 -2.2535837766982664e-13 -0.18000009888808743 0.1999997111992886 0.30000000013246775 2.221400000026583 2.2214000000355214 -1.4868013180576755e-11 0.0 0.0 0.0 0.0 0.0 0.0
1705.24 -3.5488375054410173 -1.347457273497529 -1.8297531969842105 -1.5352330123231033 1.5708179790210215 -0.4072448522401473 0.0 0.0 0.0 0.0 0.0 0.0 0.0 0.0 0.0 0.0 0.0 0.0 -1.1038480459098545e-17 0.3499991142843476 0.766948704347012 0.2293513028109214 1.387805551208246e-06 0.0 -1.4493524842796392e-16 4.595488370553484 7.141979724620246 1.0424016712756377 6.307576230241479e-06 0.0 -3.548837486897604 -1.347457234059469 -1.8297532240497034 -1.5352328459369105 1.5708179473876953 -0.40724498430360967 0.0 0.0 0.0 0.0 0.0 0.0 -1.1038480429058839e-17 0.3499990999698639 0.7669486999511719 0.22935129702091217 1.3878055824534385e-06 0.0 -1.1038480429058839e-17 0.3499990999698639 0.7669486999511719 0.22935129702091217 1.3878055824534385e-06 0.0 -0.18000010649656395 0.199999712365214 0.30000001589716463 2.221399958473569 2.2214002930459764 -5.750839458807407e-08 0.0 0.0 0.0 0.0 0.0 0.0 4.708121692583919e-07 -5.231248226505691e-07 9.138596141260942e-08 5.017929394063035e-08 5.556398824408035e-08 -2.2535837766982664e-13 -0.18000009888808743 0.1999997111992886 0.30000000013246775 2.221400000026583 2.2214000000355214 -1.4868013180576755e-11 0.0 0.0 0.0 0.0 0.0 0.0
1705.2479999999998 -3.5488375054410173 -1.347457273497529 -1.8297531969842105 -1.5352330123231033 1.5708179790210215 -0.4072448522401473 0.0 0.0 0.0 0.0 0.0 0.0 0.0 0.0 0.0 0.0 0.0 0.0 -1.1038480459098545e-17 0.3499991142843476 0.766948704347012 0.2293513028109214 1.387805551208246e-06 0.0 -1.4493524842796392e-16 4.595488370553484 7.141979724620246 1.0424016712756377 6.307576230241479e-06 0.0 -3.548837486897604 -1.347457234059469 -1.8297532240497034 -1.5352328459369105 1.5708179473876953 -0.40724498430360967 0.0 0.0 0.0 0.0 0.0 0.0 -1.1038480429058839e-17 0.3499990999698639 0.7669486999511719 0.22935129702091217 1.3878055824534385e-06 0.0 -1.1038480429058839e-17 0.3499990999698639 0.7669486999511719 0.22935129702091217 1.3878055824534385e-06 0.0 -0.18000010649656395 0.199999712365214 0.30000001589716463 2.221399958473569 2.2214002930459764 -5.750839458807407e-08 0.0 0.0 0.0 0.0 0.0 0.0 4.708121692583919e-07 -5.231248226505691e-07 9.138596141260942e-08 5.017929394063035e-08 5.556398824408035e-08 -2.2535837766982664e-13 -0.18000009888808743 0.1999997111992886 0.30000000013246775 2.221400000026583 2.2214000000355214 -1.4868013180576755e-11 0.0 0.0 0.0 0.0 0.0 0.0
1705.2559999999999 -3.5488375054410173 -1.347457273497529 -1.8297531969842105 -1.5352330123231033 1.5708179790210215 -0.4072448522401473 0.0 0.0 0.0 0.0 0.0 0.0 0.0 0.0 0.0 0.0 0.0 0.0 -1.1038480459098545e-17 0.3499991142843476 0.766948704347012 0.2293513028109214 1.387805551208246e-06 0.0 -1.4493524842796392e-16 4.595488370553484 7.141979724620246 1.0424016712756377 6.307576230241479e-06 0.0 -3.548837486897604 -1.347457234059469 -1.8297532240497034 -1.5352328459369105 1.5708179473876953 -0.40724498430360967 0.0 0.0 0.0 0.0 0.0 0.0 -1.1038480429058839e-17 0.3499990999698639 0.7669486999511719 0.22935129702091217 1.3878055824534385e-06 0.0 -1.1038480429058839e-17 0.3499990999698639 0.7669486999511719 0.22935129702091217 1.3878055824534385e-06 0.0 -0.18000010649656395 0.199999712365214 0.30000001589716463 2.221399958473569 2.2214002930459764 -5.750839458807407e-08 0.0 0.0 0.0 0.0 0.0 0.0 4.708121692583919e-07 -5.231248226505691e-07 9.138596141260942e-08 5.017929394063035e-08 5.556398824408035e-08 -2.2535837766982664e-13 -0.18000009888808743 0.1999997111992886 0.30000000013246775 2.221400000026583 2.2214000000355214 -1.4868013180576755e-11 0.0 0.0 0.0 0.0 0.0 0.0
1705.264 -3.5488375054410173 -1.347457273497529 -1.8297531969842105 -1.5352330123231033 1.5708179790210215 -0.4072448522401473 0.0 0.0 0.0 0.0 0.0 0.0 0.0 0.0 0.0 0.0 0.0 0.0 -1.1038480459098545e-17 0.3499991142843476 0.766948704347012 0.2293513028109214 1.387805551208246e-06 0.0 -1.4493524842796392e-16 4.595488370553484 7.141979724620246 1.0424016712756377 6.307576230241479e-06 0.0 -3.548837486897604 -1.347457234059469 -1.8297532240497034 -1.5352328459369105 1.5708179473876953 -0.40724498430360967 0.0 0.0 0.0 0.0 0.0 0.0 -1.1038480429058839e-17 0.3499990999698639 0.7669486999511719 0.22935129702091217 1.3878055824534385e-06 0.0 -1.1038480429058839e-17 0.3499990999698639 0.7669486999511719 0.22935129702091217 1.3878055824534385e-06 0.0 -0.18000010649656395 0.199999712365214 0.30000001589716463 2.221399958473569 2.2214002930459764 -5.750839458807407e-08 0.0 0.0 0.0 0.0 0.0 0.0 4.708121692583919e-07 -5.231248226505691e-07 9.138596141260942e-08 5.017929394063035e-08 5.556398824408035e-08 -2.2535837766982664e-13 -0.18000009888808743 0.1999997111992886 0.30000000013246775 2.221400000026583 2.2214000000355214 -1.4868013180576755e-11 0.0 0.0 0.0 0.0 0.0 0.0
