mkrssg/UniversalRobots/rtde_client_3.5/examples/simulation/movet_distance-y=400_simu.csv
timestamp target_q_0 target_q_1 target_q_2 target_q_3 target_q_4 target_q_5 target_qd_0 target_qd_1 target_qd_2 target_qd_3 target_qd_4 target_qd_5 target_qdd_0 target_qdd_1 target_qdd_2 target_qdd_3 target_qdd_4 target_qdd_5 target_current_0 target_current_1 target_current_2 target_current_3 target_current_4 target_current_5 target_moment_0 target_moment_1 target_moment_2 target_moment_3 target_moment_4 target_moment_5 actual_q_0 actual_q_1 actual_q_2 actual_q_3 actual_q_4 actual_q_5 actual_qd_0 actual_qd_1 actual_qd_2 actual_qd_3 actual_qd_4 actual_qd_5 actual_current_0 actual_current_1 actual_current_2 actual_current_3 actual_current_4 actual_current_5 joint_control_output_0 joint_control_output_1 joint_control_output_2 joint_control_output_3 joint_control_output_4 joint_control_output_5 actual_TCP_pose_0 actual_TCP_pose_1 actual_TCP_pose_2 actual_TCP_pose_3 actual_TCP_pose_4 actual_TCP_pose_5 actual_TCP_speed_0 actual_TCP_speed_1 actual_TCP_speed_2 actual_TCP_speed_3 actual_TCP_speed_4 actual_TCP_speed_5 actual_TCP_force_0 actual_TCP_force_1 actual_TCP_force_2 actual_TCP_force_3 actual_TCP_force_4 actual_TCP_force_5 target_TCP_pose_0 target_TCP_pose_1 target_TCP_pose_2 target_TCP_pose_3 target_TCP_pose_4 target_TCP_pose_5 target_TCP_speed_0 target_TCP_speed_1 target_TCP_speed_2 target_TCP_speed_3 target_TCP_speed_4 target_TCP_speed_5

8410.256 0.27111101280553884 -1.3882900955917812 1.43332748913745 -1.6158048714663593 -1.570745266913244 0.27111101207323685 0.0 0.0 0.0 0.0 0.0 0.0 0.0 0.0 0.0 0.0 0.0 0.0 6.8295028694560894e-18 -0.7026930706900277 -0.7667005997401127 -0.22935294731183437 3.2726533947188757e-06 0.0 8.967137267595847e-17 -9.226360018160063 -7.139669324899879 -1.0424091455322873 1.487420967899729e-05 0.0 0.27111101150512695 -1.3882902304278772 1.4333274364471436 -1.6158049742328089 -1.5707452932940882 0.27111101150512695 0.0 0.0 0.0 0.0 0.0 0.0 6.829502990209847e-18 -0.7026930451393127 -0.7667006254196167 -0.2293529510498047 3.272653430030914e-06 0.0 6.829502990209847e-18 -0.7026930451393127 -0.7667006254196167 -0.2293529510498047 3.272653430030914e-06 0.0 -0.299999994353488 -0.19999999572561078 0.30000007068776846 2.2214001183076197 2.2214001162340264 -3.7617755730661937e-07 0.0 0.0 0.0 0.0 0.0 0.0 2.24979169869288e-06 1.49980819487105e-06 -9.269714898188203e-07 -1.3947695458821845e-07 2.441195439072518e-07 -1.5880129460435982e-11 -0.2999999999999998 -0.20000000000000026 0.29999999999999993 2.221400000287381 2.221399999822914 4.371198412664866e-10 0.0 0.0 0.0 0.0 0.0 0.0

8410.264 0.27111101280553884 -1.3882900955917812 1.43332748913745 -1.6158048714663593 -1.570745266913244 0.27111101207323685 0.0 0.0 0.0 0.0 0.0 0.0 0.0 0.0 0.0 0.0 0.0 0.0 6.8295028694560894e-18 -0.7026930706900277 -0.7667005997401127 -0.22935294731183437 3.2726533947188757e-06 0.0 8.967137267595847e-17 -9.226360018160063 -7.139669324899879 -1.0424091455322873 1.487420967899729e-05 0.0 0.27111101150512695 -1.3882902304278772 1.4333274364471436 -1.6158049742328089 -1.5707452932940882 0.27111101150512695 0.0 0.0 0.0 0.0 0.0 0.0 6.829502990209847e-18 -0.7026930451393127 -0.7667006254196167 -0.2293529510498047 3.272653430030914e-06 0.0 6.829502990209847e-18 -0.7026930451393127 -0.7667006254196167 -0.2293529510498047 3.272653430030914e-06 0.0 -0.299999994353488 -0.19999999572561078 0.30000007068776846 2.2214001183076197 2.2214001162340264 -3.7617755730661937e-07 0.0 0.0 0.0 0.0 0.0 0.0 2.24979169869288e-06 1.49980819487105e-06 -9.269714898188203e-07 -1.3947695458821845e-07 2.441195439072518e-07 -1.5880129460435982e-11 -0.2999999999999998 -0.20000000000000026 0.29999999999999993 2.221400000287381 2.221399999822914 4.371198412664866e-10 0.0 0.0 0.0 0.0 0.0 0.0

8410.271999999999 0.27111101280553884 -1.3882900955917812 1.43332748913745 -1.6158048714663593 -1.570745266913244 0.27111101207323685 0.0 0.0 0.0 0.0 0.0 0.0 0.0 0.0 0.0 0.0 0.0 0.0 6.8295028694560894e-18 -0.7026930706900277 -0.7667005997401127 -0.22935294731183437 3.2726533947188757e-06 0.0 8.967137267595847e-17 -9.226360018160063 -7.139669324899879 -1.0424091455322873 1.487420967899729e-05 0.0 0.27111101150512695 -1.3882902304278772 1.4333274364471436 -1.6158049742328089 -1.5707452932940882 0.27111101150512695 0.0 0.0 0.0 0.0 0.0 0.0 6.829502990209847e-18 -0.7026930451393127 -0.7667006254196167 -0.2293529510498047 3.272653430030914e-06 0.0 6.829502990209847e-18 -0.7026930451393127 -0.7667006254196167 -0.2293529510498047 3.272653430030914e-06 0.0 -0.299999994353488 -0.19999999572561078 0.30000007068776846 2.2214001183076197 2.2214001162340264 -3.7617755730661937e-07 0.0 0.0 0.0 0.0 0.0 0.0 2.24979169869288e-06 1.49980819487105e-06 -9.269714898188203e-07 -1.3947695458821845e-07 2.441195439072518e-07 -1.5880129460435982e-11 -0.2999999999999998 -0.20000000000000026 0.29999999999999993 2.221400000287381 2.221399999822914 4.371198412664866e-10 0.0 0.0 0.0 0.0 0.0 0.0

8410.279999999999 0.27111101280553884 -1.3882900955917812 1.43332748913745 -1.6158048714663593 -1.570745266913244 0.27111101207323685 0.0 0.0 0.0 0.0 0.0 0.0 0.0 0.0 0.0 0.0 0.0 0.0 6.8295028694560894e-18 -0.7026930706900277 -0.7667005997401127 -0.22935294731183437 3.2726533947188757e-06 0.0 8.967137267595847e-17 -9.226360018160063 -7.139669324899879 -1.0424091455322873 1.487420967899729e-05 0.0 0.27111101150512695 -1.3882902304278772 1.4333274364471436 -1.6158049742328089 -1.5707452932940882 0.27111101150512695 0.0 0.0 0.0 0.0 0.0 0.0 6.829502990209847e-18 -0.7026930451393127 -0.7667006254196167 -0.2293529510498047 3.272653430030914e-06 0.0 6.829502990209847e-18 -0.7026930451393127 -0.7667006254196167 -0.2293529510498047 3.272653430030914e-06 0.0 -0.299999994353488 -0.19999999572561078 0.30000007068776846 2.2214001183076197 2.2214001162340264 -3.7617755730661937e-07 0.0 0.0 0.0 0.0 0.0 0.0 2.24979169869288e-06 1.49980819487105e-06 -9.269714898188203e-07 -1.3947695458821845e-07 2.441195439072518e-07 -1.5880129460435982e-11 -0.2999999999999998 -0.20000000000000026 0.29999999999999993 2.221400000287381 2.221399999822914 4.371198412664866e-10 0.0 0.0 0.0 0.0 0.0 0.0

8410.288 0.27111101280553884 -1.3882900955917812 1.43332748913745 -1.6158048714663593 -1.570745266913244 0.27111101207323685 0.0 0.0 0.0 0.0 0.0 0.0 0.0 0.0 0.0 0.0 0.0 0.0 6.8295028694560894e-18 -0.7026930706900277 -0.7667005997401127 -0.22935294731183437 3.2726533947188757e-06 0.0 8.967137267595847e-17 -9.226360018160063 -7.139669324899879 -1.0424091455322873 1.487420967899729e-05 0.0 0.27111101150512695 -1.3882902304278772 1.4333274364471436 -1.6158049742328089 -1.5707452932940882 0.27111101150512695 0.0 0.0 0.0 0.0 0.0 0.0 6.829502990209847e-18 -0.7026930451393127 -0.7667006254196167 -0.2293529510498047 3.272653430030914e-06 0.0 6.829502990209847e-18 -0.7026930451393127 -0.7667006254196167 -0.2293529510498047 3.272653430030914e-06 0.0 -0.299999994353488 -0.19999999572561078 0.30000007068776846 2.2214001183076197 2.2214001162340264 -3.7617755730661937e-07 0.0 0.0 0.0 0.0 0.0 0.0 2.24979169869288e-06 1.49980819487105e-06 -9.269714898188203e-07 -1.3947695458821845e-07 2.441195439072518e-07 -1.5880129460435982e-11 -0.2999999999999998 -0.20000000000000026 0.29999999999999993 2.221400000287381 2.221399999822914 4.371198412664866e-10 0.0 0.0 0.0 0.0 0.0 0.0

8410.296 0.27111101280553884 -1.3882900955917812 1.43332748913745 -1.6158048714663593 -1.570745266913244 0.27111101207323685 0.0 0.0 0.0 0.0 0.0 0.0 0.0 0.0 0.0 0.0 0.0 0.0 6.8295028694560894e-18 -0.7026930706900277 -0.7667005997401127 -0.22935294731183437 3.2726533947188757e-06 0.0 8.967137267595847e-17 -9.226360018160063 -7.139669324899879 -1.0424091455322873 1.487420967899729e-05 0.0 0.27111101150512695 -1.3882902304278772 1.4333274364471436 -1.6158049742328089 -1.5707452932940882 0.27111101150512695 0.0 0.0 0.0 0.0 0.0 0.0 6.829502990209847e-18 -0.7026930451393127 -0.7667006254196167 -0.2293529510498047 3.272653430030914e-06 0.0 6.829502990209847e-18 -0.7026930451393127 -0.7667006254196167 -0.2293529510498047 3.272653430030914e-06 0.0 -0.299999994353488 -0.19999999572561078 0.30000007068776846 2.2214001183076197 2.2214001162340264 -3.7617755730661937e-07 0.0 0.0 0.0 0.0 0.0 0.0 2.24979169869288e-06 1.49980819487105e-06 -9.269714898188203e-07 -1.3947695458821845e-07 2.441195439072518e-07 -1.5880129460435982e-11 -0.2999999999999998 -0.20000000000000026 0.29999999999999993 2.221400000287381 2.221399999822914 4.371198412664866e-10 0.0 0.0 0.0 0.0 0.0 0.0

8410.304 0.27111101280553884 -1.3882900955917812 1.43332748913745 -1.6158048714663593 -1.570745266913244 0.27111101207323685 0.0 0.0 0.0 0.0 0.0 0.0 0.0 0.0 0.0 0.0 0.0 0.0 6.8295028694560894e-18 -0.7026930706900277 -0.7667005997401127 -0.22935294731183437 3.2726533947188757e-06 0.0 8.967137267595847e-17 -9.226360018160063 -7.139669324899879 -1.0424091455322873 1.487420967899729e-05 0.0 0.27111101150512695 -1.3882902304278772 1.4333274364471436 -1.6158049742328089 -1.5707452932940882 0.27111101150512695 0.0 0.0 0.0 0.0 0.0 0.0 6.829502990209847e-18 -0.7026930451393127 -0.7667006254196167 -0.2293529510498047 3.272653430030914e-06 0.0 6.829502990209847e-18 -0.7026930451393127 -0.7667006254196167 -0.2293529510498047 3.272653430030914e-06 0.0 -0.299999994353488 -0.19999999572561078 0.30000007068776846 2.2214001183076197 2.2214001162340264 -3.7617755730661937e-07 0.0 0.0 0.0 0.0 0.0 0.0 2.24979169869288e-06 1.49980819487105e-06 -9.269714898188203e-07 -1.3947695458821845e-07 2.441195439072518e-07 -1.5880129460435982e-11 -0.2999999999999998 -0.20000000000000026 0.29999999999999993 2.221400000287381 2.221399999822914 4.371198412664866e-10 0.0 0.0 0.0 0.0 0.0 0.0

8410.312 0.27111101280553884 -1.3882900955917812 1.43332748913745 -1.6158048714663593 -1.570745266913244 0.27111101207323685 0.0 0.0 0.0 0.0 0.0 0.0 0.0 0.0 0.0 0.0 0.0 0.0 6.8295028694560894e-18 -0.7026930706900277 -0.7667005997401127 -0.22935294731183437 3.2726533947188757e-06 0.0 8.967137267595847e-17 -9.226360018160063 -7.139669324899879 -1.0424091455322873 1.487420967899729e-05 0.0 0.27111101150512695 -1.3882902304278772 1.4333274364471436 -1.6158049742328089 -1.5707452932940882 0.27111101150512695 0.0 0.0 0.0 0.0 0.0 0.0 6.829502990209847e-18 -0.7026930451393127 -0.7667006254196167 -0.2293529510498047 3.272653430030914e-06 0.0 6.829502990209847e-18 -0.7026930451393127 -0.7667006254196167 -0.2293529510498047 3.272653430030914e-06 0.0 -0.299999994353488 -0.19999999572561078 0.30000007068776846 2.2214001183076197 2.2214001162340264 -3.7617755730661937e-07 0.0 0.0 0.0 0.0 0.0 0.0 2.24979169869288e-06 1.49980819487105e-06 -9.269714898188203e-07 -1.3947695458821845e-07 2.441195439072518e-07 -1.5880129460435982e-11 -0.2999999999999998 -0.20000000000000026 0.29999999999999993 2.221400000287381 2.221399999822914 4.371198412664866e-10 0.0 0.0 0.0 0.0 0.0 0.0

8410.32 0.27111101280553884 -1.3882900955917812 1.43332748913745 -1.6158048714663593 -1.570745266913244 0.27111101207323685 0.0 0.0 0.0 0.0 0.0 0.0 0.0 0.0 0.0 0.0 0.0 0.0 6.8295028694560894e-18 -0.7026930706900277 -0.7667005997401127 -0.22935294731183437 3.2726533947188757e-06 0.0 8.967137267595847e-17 -9.226360018160063 -7.139669324899879 -1.0424091455322873 1.487420967899729e-05 0.0 0.27111101150512695 -1.3882902304278772 1.4333274364471436 -1.6158049742328089 -1.5707452932940882 0.27111101150512695 0.0 0.0 0.0 0.0 0.0 0.0 6.829502990209847e-18 -0.7026930451393127 -0.7667006254196167 -0.2293529510498047 3.272653430030914e-06 0.0 6.829502990209847e-18 -0.7026930451393127 -0.7667006254196167 -0.2293529510498047 3.272653430030914e-06 0.0 -0.299999994353488 -0.19999999572561078 0.30000007068776846 2.2214001183076197 2.2214001162340264 -3.7617755730661937e-07 0.0 0.0 0.0 0.0 0.0 0.0 2.24979169869288e-06 1.49980819487105e-06 -9.269714898188203e-07 -1.3947695458821845e-07 2.441195439072518e-07 -1.5880129460435982e-11 -0.2999999999999998 -0.20000000000000026 0.29999999999999993 2.221400000287381 2.221399999822914 4.371198412664866e-10 0.0 0.0 0.0 0.0 0.0 0.0

8410.328 0.27111101280553884 -1.3882900955917812 1.43332748913745 -1.6158048714663593 -1.570745266913244 0.27111101207323685 0.0 0.0 0.0 0.0 0.0 0.0 0.0 0.0 0.0 0.0 0.0 0.0 6.8295028694560894e-18 -0.7026930706900277 -0.7667005997401127 -0.22935294731183437 3.2726533947188757e-06 0.0 8.967137267595847e-17 -9.226360018160063 -7.139669324899879 -1.0424091455322873 1.487420967899729e-05 0.0 0.27111101150512695 -1.3882902304278772 1.4333274364471436 -1.6158049742328089 -1.5707452932940882 0.27111101150512695 0.0 0.0 0.0 0.0 0.0 0.0 6.829502990209847e-18 -0.7026930451393127 -0.7667006254196167 -0.2293529510498047 3.272653430030914e-06 0.0 6.829502990209847e-18 -0.7026930451393127 -0.7667006254196167 -0.2293529510498047 3.272653430030914e-06 0.0 -0.299999994353488 -0.19999999572561078 0.30000007068776846 2.2214001183076197 2.2214001162340264 -3.7617755730661937e-07 0.0 0.0 0.0 0.0 0.0 0.0 2.24979169869288e-06 1.49980819487105e-06 -9.269714898188203e-07 -1.3947695458821845e-07 2.441195439072518e-07 -1.5880129460435982e-11 -0.2999999999999998 -0.20000000000000026 0.29999999999999993 2.221400000287381 2.221399999822914 4.371198412664866e-10 0.0 0.0 0.0 0.0 0.0 0.0

8410.336 0.27111101280553884 -1.3882900955917812 1.43332748913745 -1.6158048714663593 -1.570745266913244 0.27111101207323685 0.0 0.0 0.0 0.0 0.0 0.0 0.0 0.0 0.0 0.0 0.0 0.0 6.8295028694560894e-18 -0.7026930706900277 -0.7667005997401127 -0.22935294731183437 3.2726533947188757e-06 0.0 8.967137267595847e-17 -9.226360018160063 -7.139669324899879 -1.0424091455322873 1.487420967899729e-05 0.0 0.27111101150512695 -1.3882902304278772 1.4333274364471436 -1.6158049742328089 -1.5707452932940882 0.27111101150512695 0.0 0.0 0.0 0.0 0.0 0.0 6.829502990209847e-18 -0.7026930451393127 -0.7667006254196167 -0.2293529510498047 3.272653430030914e-06 0.0 6.829502990209847e-18 -0.7026930451393127 -0.7667006254196167 -0.2293529510498047 3.272653430030914e-06 0.0 -0.299999994353488 -0.19999999572561078 0.30000007068776846 2.2214001183076197 2.2214001162340264 -3.7617755730661937e-07 0.0 0.0 0.0 0.0 0.0 0.0 2.24979169869288e-06 1.49980819487105e-06 -9.269714898188203e-07 -1.3947695458821845e-07 2.441195439072518e-07 -1.5880129460435982e-11 -0.2999999999999998 -0.20000000000000026 0.29999999999999993 2.221400000287381 2.221399999822914 4.371198412664866e-10 0.0 0.0 0.0 0.0 0.0 0.0

8410.344 0.27111101280553884 -1.3882900955917812 1.43332748913745 -1.6158048714663593 -1.570745266913244 0.27111101207323685 0.0 0.0 0.0 0.0 0.0 0.0 0.0 0.0 0.0 0.0 0.0 0.0 6.8295028694560894e-18 -0.7026930706900277 -0.7667005997401127 -0.22935294731183437 3.2726533947188757e-06 0.0 8.967137267595847e-17 -9.226360018160063 -7.139669324899879 -1.0424091455322873 1.487420967899729e-05 0.0 0.27111101150512695 -1.3882902304278772 1.4333274364471436 -1.6158049742328089 -1.5707452932940882 0.27111101150512695 0.0 0.0 0.0 0.0 0.0 0.0 6.829502990209847e-18 -0.7026930451393127 -0.7667006254196167 -0.2293529510498047 3.272653430030914e-06 0.0 6.829502990209847e-18 -0.7026930451393127 -0.7667006254196167 -0.2293529510498047 3.272653430030914e-06 0.0 -0.299999994353488 -0.19999999572561078 0.30000007068776846 2.2214001183076197 2.2214001162340264 -3.7617755730661937e-07 0.0 0.0 0.0 0.0 0.0 0.0 2.24979169869288e-06 1.49980819487105e-06 -9.269714898188203e-07 -1.3947695458821845e-07 2.441195439072518e-07 -1.5880129460435982e-11 -0.2999999999999998 -0.20000000000000026 0.29999999999999993 2.221400000287381 2.221399999822914 4.371198412664866e-10 0.0 0.0 0.0 0.0 0.0 0.0

8410.351999999999 0.27111101280553884 -1.3882900955917812 1.43332748913745 -1.6158048714663593 -1.570745266913244 0.27111101207323685 0.0 0.0 0.0 0.0 0.0 0.0 0.0 0.0 0.0 0.0 0.0 0.0 6.8295028694560894e-18 -0.7026930706900277 -0.7667005997401127 -0.22935294731183437 3.2726533947188757e-06 0.0 8.967137267595847e-17 -9.226360018160063 -7.139669324899879 -1.0424091455322873 1.487420967899729e-05 0.0 0.27111101150512695 -1.3882902304278772 1.4333274364471436 -1.6158049742328089 -1.5707452932940882 0.27111101150512695 0.0 0.0 0.0 0.0 0.0 0.0 6.829502990209847e-18 -0.7026930451393127 -0.7667006254196167 -0.2293529510498047 3.272653430030914e-06 0.0 6.829502990209847e-18 -0.7026930451393127 -0.7667006254196167 -0.2293529510498047 3.272653430030914e-06 0.0 -0.299999994353488 -0.19999999572561078 0.30000007068776846 2.2214001183076197 2.2214001162340264 -3.7617755730661937e-07 0.0 0.0 0.0 0.0 0.0 0.0 2.24979169869288e-06 1.49980819487105e-06 -9.269714898188203e-07 -1.3947695458821845e-07 2.441195439072518e-07 -1.5880129460435982e-11 -0.2999999999999998 -0.20000000000000026 0.29999999999999993 2.221400000287381 2.221399999822914 4.371198412664866e-10 0.0 0.0 0.0 0.0 0.0 0.0

8410.359999999999 0.27111101280553884 -1.3882900955917812 1.43332748913745 -1.6158048714663593 -1.570745266913244 0.27111101207323685 0.0 0.0 0.0 0.0 0.0 0.0 0.0 0.0 0.0 0.0 0.0 0.0 6.8295028694560894e-18 -0.7026930706900277 -0.7667005997401127 -0.22935294731183437 3.2726533947188757e-06 0.0 8.967137267595847e-17 -9.226360018160063 -7.139669324899879 -1.0424091455322873 1.487420967899729e-05 0.0 0.27111101150512695 -1.3882902304278772 1.4333274364471436 -1.6158049742328089 -1.5707452932940882 0.27111101150512695 0.0 0.0 0.0 0.0 0.0 0.0 6.829502990209847e-18 -0.7026930451393127 -0.7667006254196167 -0.2293529510498047 3.272653430030914e-06 0.0 6.829502990209847e-18 -0.7026930451393127 -0.7667006254196167 -0.2293529510498047 3.272653430030914e-06 0.0 -0.299999994353488 -0.19999999572561078 0.30000007068776846 2.2214001183076197 2.2214001162340264 -3.7617755730661937e-07 0.0 0.0 0.0 0.0 0.0 0.0 2.24979169869288e-06 1.49980819487105e-06 -9.269714898188203e-07 -1.3947695458821845e-07 2.441195439072518e-07 -1.5880129460435982e-11 -0.2999999999999998 -0.20000000000000026 0.29999999999999993 2.221400000287381 2.221399999822914 4.371198412664866e-10 0.0 0.0 0.0 0.0 0.0 0.0

8410.368 0.27111101280553884 -1.3882900955917812 1.43332748913745 -1.6158048714663593 -1.570745266913244 0.27111101207323685 0.0 0.0 0.0 0.0 0.0 0.0 0.0 0.0 0.0 0.0 0.0 0.0 6.8295028694560894e-18 -0.7026930706900277 -0.7667005997401127 -0.22935294731183437 3.2726533947188757e-06 0.0 8.967137267595847e-17 -9.226360018160063 -7.139669324899879 -1.0424091455322873 1.487420967899729e-05 0.0 0.27111101150512695 -1.3882902304278772 1.4333274364471436 -1.6158049742328089 -1.5707452932940882 0.27111101150512695 0.0 0.0 0.0 0.0 0.0 0.0 6.829502990209847e-18 -0.7026930451393127 -0.7667006254196167 -0.2293529510498047 3.272653430030914e-06 0.0 6.829502990209847e-18 -0.7026930451393127 -0.7667006254196167 -0.2293529510498047 3.272653430030914e-06 0.0 -0.299999994353488 -0.19999999572561078 0.30000007068776846 2.2214001183076197 2.2214001162340264 -3.7617755730661937e-07 0.0 0.0 0.0 0.0 0.0 0.0 2.24979169869288e-06 1.49980819487105e-06 -9.269714898188203e-07 -1.3947695458821845e-07 2.441195439072518e-07 -1.5880129460435982e-11 -0.2999999999999998 -0.20000000000000026 0.29999999999999993 2.221400000287381 2.221399999822914 4.371198412664866e-10 0.0 0.0 0.0 0.0 0.0 0.0

8410.376 0.27111101280553884 -1.3882900955917812 1.43332748913745 -1.6158048714663593 -1.570745266913244 0.27111101207323685 0.0 0.0 0.0 0.0 0.0 0.0 0.0 0.0 0.0 0.0 0.0 0.0 6.8295028694560894e-18 -0.7026930706900277 -0.7667005997401127 -0.22935294731183437 3.2726533947188757e-06 0.0 8.967137267595847e-17 -9.226360018160063 -7.139669324899879 -1.0424091455322873 1.487420967899729e-05 0.0 0.27111101150512695 -1.3882902304278772 1.4333274364471436 -1.6158049742328089 -1.5707452932940882 0.27111101150512695 0.0 0.0 0.0 0.0 0.0 0.0 6.829502990209847e-18 -0.7026930451393127 -0.7667006254196167 -0.2293529510498047 3.272653430030914e-06 0.0 6.829502990209847e-18 -0.7026930451393127 -0.7667006254196167 -0.2293529510498047 3.272653430030914e-06 0.0 -0.299999994353488 -0.19999999572561078 0.30000007068776846 2.2214001183076197 2.2214001162340264 -3.7617755730661937e-07 0.0 0.0 0.0 0.0 0.0 0.0 2.24979169869288e-06 1.49980819487105e-06 -9.269714898188203e-07 -1.3947695458821845e-07 2.441195439072518e-07 -1.5880129460435982e-11 -0.2999999999999998 -0.20000000000000026 0.29999999999999993 2.221400000287381 2.221399999822914 4.371198412664866e-10 0.0 0.0 0.0 0.0 0.0 0.0

8410.384 0.27111101280553884 -1.3882900955917812 1.43332748913745 -1.6158048714663593 -1.570745266913244 0.27111101207323685 0.0 0.0 0.0 0.0 0.0 0.0 0.0 0.0 0.0 0.0 0.0 0.0 6.8295028694560894e-18 -0.7026930706900277 -0.7667005997401127 -0.22935294731183437 3.2726533947188757e-06 0.0 8.967137267595847e-17 -9.226360018160063 -7.139669324899879 -1.0424091455322873 1.487420967899729e-05 0.0 0.27111101150512695 -1.3882902304278772 1.4333274364471436 -1.6158049742328089 -1.5707452932940882 0.27111101150512695 0.0 0.0 0.0 0.0 0.0 0.0 6.829502990209847e-18 -0.7026930451393127 -0.7667006254196167 -0.2293529510498047 3.272653430030914e-06 0.0 6.829502990209847e-18 -0.7026930451393127 -0.7667006254196167 -0.2293529510498047 3.272653430030914e-06 0.0 -0.299999994353488 -0.19999999572561078 0.30000007068776846 2.2214001183076197 2.2214001162340264 -3.7617755730661937e-07 0.0 0.0 0.0 0.0 0.0 0.0 2.24979169869288e-06 1.49980819487105e-06 -9.269714898188203e-07 -1.3947695458821845e-07 2.441195439072518e-07 -1.5880129460435982e-11 -0.2999999999999998 -0.20000000000000026 0.29999999999999993 2.221400000287381 2.221399999822914 4.371198412664866e-10 0.0 0.0 0.0 0.0 0.0 0.0

8410.392 0.27111101280553884 -1.3882900955917812 1.43332748913745 -1.6158048714663593 -1.570745266913244 0.27111101207323685 0.0 0.0 0.0 0.0 0.0 0.0 0.0 0.0 0.0 0.0 0.0 0.0 6.8295028694560894e-18 -0.7026930706900277 -0.7667005997401127 -0.22935294731183437 3.2726533947188757e-06 0.0 8.967137267595847e-17 -9.226360018160063 -7.139669324899879 -1.0424091455322873 1.487420967899729e-05 0.0 0.27111101150512695 -1.3882902304278772 1.4333274364471436 -1.6158049742328089 -1.5707452932940882 0.27111101150512695 0.0 0.0 0.0 0.0 0.0 0.0 6.829502990209847e-18 -0.7026930451393127 -0.7667006254196167 -0.2293529510498047 3.272653430030914e-06 0.0 6.829502990209847e-18 -0.7026930451393127 -0.7667006254196167 -0.2293529510498047 3.272653430030914e-06 0.0 -0.299999994353488 -0.19999999572561078 0.30000007068776846 2.2214001183076197 2.2214001162340264 -3.7617755730661937e-07 0.0 0.0 0.0 0.0 0.0 0.0 2.24979169869288e-06 1.49980819487105e-06 -9.269714898188203e-07 -1.3947695458821845e-07 2.441195439072518e-07 -1.5880129460435982e-11 -0.2999999999999998 -0.20000000000000026 0.29999999999999993 2.221400000287381 2.221399999822914 4.371198412664866e-10 0.0 0.0 0.0 0.0 0.0 0.0

8410.4 0.27111101280553884 -1.3882900955917812 1.43332748913745 -1.6158048714663593 -1.570745266913244 0.27111101207323685 0.0 0.0 0.0 0.0 0.0 0.0 0.0 0.0 0.0 0.0 0.0 0.0 6.8295028694560894e-18 -0.7026930706900277 -0.7667005997401127 -0.22935294731183437 3.2726533947188757e-06 0.0 8.967137267595847e-17 -9.226360018160063 -7.139669324899879 -1.0424091455322873 1.487420967899729e-05 0.0 0.27111101150512695 -1.3882902304278772 1.4333274364471436 -1.6158049742328089 -1.5707452932940882 0.27111101150512695 0.0 0.0 0.0 0.0 0.0 0.0 6.829502990209847e-18 -0.7026930451393127 -0.7667006254196167 -0.2293529510498047 3.272653430030914e-06 0.0 6.829502990209847e-18 -0.7026930451393127 -0.7667006254196167 -0.2293529510498047 3.272653430030914e-06 0.0 -0.299999994353488 -0.19999999572561078 0.30000007068776846 2.2214001183076197 2.2214001162340264 -3.7617755730661937e-07 0.0 0.0 0.0 0.0 0.0 0.0 2.24979169869288e-06 1.49980819487105e-06 -9.269714898188203e-07 -1.3947695458821845e-07 2.441195439072518e-07 -1.5880129460435982e-11 -0.2999999999999998 -0.20000000000000026 0.29999999999999993 2.221400000287381 2.221399999822914 4.371198412664866e-10 0.0 0.0 0.0 0.0 0.0 0.0

8410.408 0.27111101280553884 -1.3882900955917812 1.43332748913745 -1.6158048714663593 -1.570745266913244 0.27111101207323685 0.0 0.0 0.0 0.0 0.0 0.0 0.0 0.0 0.0 0.0 0.0 0.0 6.8295028694560894e-18 -0.7026930706900277 -0.7667005997401127 -0.22935294731183437 3.2726533947188757e-06 0.0 8.967137267595847e-17 -9.226360018160063 -7.139669324899879 -1.0424091455322873 1.487420967899729e-05 0.0 0.27111101150512695 -1.3882902304278772 1.4333274364471436 -1.6158049742328089 -1.5707452932940882 0.27111101150512695 0.0 0.0 0.0 0.0 0.0 0.0 6.829502990209847e-18 -0.7026930451393127 -0.7667006254196167 -0.2293529510498047 3.272653430030914e-06 0.0 6.829502990209847e-18 -0.7026930451393127 -0.7667006254196167 -0.2293529510498047 3.272653430030914e-06 0.0 -0.299999994353488 -0.19999999572561078 0.30000007068776846 2.2214001183076197 2.2214001162340264 -3.7617755730661937e-07 0.0 0.0 0.0 0.0 0.0 0.0 2.24979169869288e-06 1.49980819487105e-06 -9.269714898188203e-07 -1.3947695458821845e-07 2.441195439072518e-07 -1.5880129460435982e-11 -0.2999999999999998 -0.20000000000000026 0.29999999999999993 2.221400000287381 2.221399999822914 4.371198412664866e-10 0.0 0.0 0.0 0.0 0.0 0.0

8410.416 0.27111101280553884 -1.3882900955917812 1.43332748913745 -1.6158048714663593 -1.570745266913244 0.27111101207323685 0.0 0.0 0.0 0.0 0.0 0.0 0.0 0.0 0.0 0.0 0.0 0.0 6.8295028694560894e-18 -0.7026930706900277 -0.7667005997401127 -0.22935294731183437 3.2726533947188757e-06 0.0 8.967137267595847e-17 -9.226360018160063 -7.139669324899879 -1.0424091455322873 1.487420967899729e-05 0.0 0.27111101150512695 -1.3882902304278772 1.4333274364471436 -1.6158049742328089 -1.5707452932940882 0.27111101150512695 0.0 0.0 0.0 0.0 0.0 0.0 6.829502990209847e-18 -0.7026930451393127 -0.7667006254196167 -0.2293529510498047 3.272653430030914e-06 0.0 6.829502990209847e-18 -0.7026930451393127 -0.7667006254196167 -0.2293529510498047 3.272653430030914e-06 0.0 -0.299999994353488 -0.19999999572561078 0.30000007068776846 2.2214001183076197 2.2214001162340264 -3.7617755730661937e-07 0.0 0.0 0.0 0.0 0.0 0.0 2.24979169869288e-06 1.49980819487105e-06 -9.269714898188203e-07 -1.3947695458821845e-07 2.441195439072518e-07 -1.5880129460435982e-11 -0.2999999999999998 -0.20000000000000026 0.29999999999999993 2.221400000287381 2.221399999822914 4.371198412664866e-10 0.0 0.0 0.0 0.0 0.0 0.0

8410.423999999999 0.27111101280553884 -1.3882900955917812 1.43332748913745 -1.6158048714663593 -1.570745266913244 0.27111101207323685 0.0 0.0 0.0 0.0 0.0 0.0 0.0 0.0 0.0 0.0 0.0 0.0 6.8295028694560894e-18 -0.7026930706900277 -0.7667005997401127 -0.22935294731183437 3.2726533947188757e-06 0.0 8.967137267595847e-17 -9.226360018160063 -7.139669324899879 -1.0424091455322873 1.487420967899729e-05 0.0 0.27111101150512695 -1.3882902304278772 1.4333274364471436 -1.6158049742328089 -1.5707452932940882 0.27111101150512695 0.0 0.0 0.0 0.0 0.0 0.0 6.829502990209847e-18 -0.7026930451393127 -0.7667006254196167 -0.2293529510498047 3.272653430030914e-06 0.0 6.829502990209847e-18 -0.7026930451393127 -0.7667006254196167 -0.2293529510498047 3.272653430030914e-06 0.0 -0.299999994353488 -0.19999999572561078 0.30000007068776846 2.2214001183076197 2.2214001162340264 -3.7617755730661937e-07 0.0 0.0 0.0 0.0 0.0 0.0 2.24979169869288e-06 1.49980819487105e-06 -9.269714898188203e-07 -1.3947695458821845e-07 2.441195439072518e-07 -1.5880129460435982e-11 -0.2999999999999998 -0.20000000000000026 0.29999999999999993 2.221400000287381 2.221399999822914 4.371198412664866e-10 0.0 0.0 0.0 0.0 0.0 0.0

8410.431999999999 0.27111101280553884 -1.3882900955917812 1.43332748913745 -1.6158048714663593 -1.570745266913244 0.27111101207323685 0.0 0.0 0.0 0.0 0.0 0.0 0.0 0.0 0.0 0.0 0.0 0.0 6.8295028694560894e-18 -0.7026930706900277 -0.7667005997401127 -0.22935294731183437 3.2726533947188757e-06 0.0 8.967137267595847e-17 -9.226360018160063 -7.139669324899879 -1.0424091455322873 1.487420967899729e-05 0.0 0.27111101150512695 -1.3882902304278772 1.4333274364471436 -1.6158049742328089 -1.5707452932940882 0.27111101150512695 0.0 0.0 0.0 0.0 0.0 0.0 6.829502990209847e-18 -0.7026930451393127 -0.7667006254196167 -0.2293529510498047 3.272653430030914e-06 0.0 6.829502990209847e-18 -0.7026930451393127 -0.7667006254196167 -0.2293529510498047 3.272653430030914e-06 0.0 -0.299999994353488 -0.19999999572561078 0.30000007068776846 2.2214001183076197 2.2214001162340264 -3.7617755730661937e-07 0.0 0.0 0.0 0.0 0.0 0.0 2.24979169869288e-06 1.49980819487105e-06 -9.269714898188203e-07 -1.3947695458821845e-07 2.441195439072518e-07 -1.5880129460435982e-11 -0.2999999999999998 -0.20000000000000026 0.29999999999999993 2.221400000287381 2.221399999822914 4.371198412664866e-10 0.0 0.0 0.0 0.0 0.0 0.0

8410.44 0.27111078782944675 -1.388290288890449 1.433327722556112 -1.615804911574866 -1.5707452669197348 0.2711107870971446 -0.00011248805722191618 -9.66493196375776e-05 0.00011670930322066555 -2.0054239979998724e-05 -3.2451781746709744e-09 -0.00011248805732174099 -0.014061007152739523 -0.0120811649546972 0.014588662902583193 -0.0025067799974998403 -4.056472718338718e-07 -0.014061007165217625 -0.0009008591477094348 -0.7033520328617595 -0.7663619632744902 -0.22938359107047984 -2.8176441908695816e-05 -0.00022091404590686358 -0.011828280609424879 -9.235012191474903 -7.136515874404708 -1.0425484214153309 -0.00012806192847502248 -0.001004054338646695 0.27111077308654785 -1.3882902304278772 1.4333276748657227 -1.6158049742328089 -1.5707452932940882 0.27111077308654785 -0.00011248805822106078 -9.664931712904945e-05 0.00011670929961837828 -2.0054239939781837e-05 -3.245178126221049e-09 -0.00011248805822106078 -0.000900859129615128 -0.7033520340919495 -0.7663619518280029 -0.22938358783721924 -2.8176442356198095e-05 -0.00022091405116952956 -0.000900859129615128 -0.7033520340919495 -0.7663619518280029 -0.22938358783721924 -2.8176442356198095e-05 -0.00022091405116952956 -0.30000002101793594 -0.19999991835763828 0.2999999995480957 2.2214000353835273 2.2214000332949912 -5.013478913350071e-08 -7.916480415684112e-13 4.000000209085026e-05 1.567899805405621e-12 6.135633379939181e-12 -2.803168688029656e-13 -9.967358199563584e-14 -5.141878564369995e-07 -3.4206647633913857e-07 4.0491660704603775e-07 3.333478558977194e-08 -6.125144066763144e-08 -1.9999031147779602e-11 -0.29999999999999993 -0.19999992000000022 0.2999999999999997 2.2214000002877703 2.2213999998225247 4.4009344562998253e-10 -4.037395194511755e-20 4.000000000000003e-05 -2.1898501353683003e-21 -1.6297526826619595e-20 -6.404275125131764e-20 -3.707754377707691e-20

8410.448 0.2711089880190996 -1.3882918352777214 1.4333295899013971 -1.615805232440982 -1.5707452669716568 0.27110898728679883 -0.0005061970627386817 -0.0004349209022664058 0.0005251898582224747 -9.024310983526562e-05 -1.4603310553312899e-08 -0.0005061970625188322 -0.04921362568959568 -0.04228394782860352 0.05106006937522614 -0.00877360873190836 -1.4197665473302406e-06 -0.049213625649636404 -0.0031530062753409916 -0.7049985107105432 -0.7655153682433123 -0.2294601975208695 -0.00010679886865987944 -0.0007732007407620653 -0.041398972395227225 -9.256630445629433 -7.128632212155375 -1.0428965977323519 -0.000485400858059152 -0.0035141973667635867 0.2711089849472046 -1.3882916609393519 1.4333295822143555 -1.615805451069967 -1.5707452932940882 0.2711089849472046 -0.000506197044160217 -0.0004349208902567625 0.000525189854670316 -9.024311293615028e-05 -1.460331056080122e-08 -0.000506197044160217 -0.003153006313368678 -0.7049984931945801 -0.7655153870582581 -0.2294601947069168 -0.00010679887054720894 -0.0007732007652521133 -0.003153006313368678 -0.7049984931945801 -0.7655153870582581 -0.2294601947069168 -0.00010679887054720894 -0.0007732007652521133 -0.3000000439980574 -0.19999928889949714 0.2999999612243195 2.22140003538405 2.2214000332944686 -5.0307400946197957e-08 -3.1171172559828023e-12 0.00018000001571603547 1.5522095185973314e-11 3.026581148770807e-11 -1.0865664984745903e-11 -4.4853220491961304e-13 1.6105245833336677e-06 1.0715995821546432e-06 -7.996135532201626e-07 -1.0947775508821784e-07 2.0997784465767322e-07 -1.2454610386820544e-10 -0.29999999999999993 -0.19999928000000028 0.2999999999999998 2.2214000002876046 2.22139999982269 4.400934456273447e-10 8.328404948134734e-17 0.0001799999999999791 1.6649300072011158e-16 -8.762983051391246e-14 8.76297989261903e-14 -6.690610843019604e-13

8410.456 0.27110291363804107 -1.3882970543075661 1.4333358921390664 -1.6158063153386522 -1.5707452671468989 0.27110291290574023 -0.0013498660809601762 -0.001159779747320136 0.0014004882312346608 -0.0002406395605872756 -3.8942905125884944e-08 -0.001349866081265972 -0.10545862727768682 -0.09060735563171628 0.10941229662652327 -0.01879955634400125 -3.042449321571506e-06 -0.10545862734339247 -0.006756454938424452 -0.707630437606009 -0.7641608310142163 -0.22958274812665297 -0.0002325934368956463 -0.0016568722118172996 -0.08871225334151306 -9.291187645766898 -7.1160184905705846 -1.0434535902356377 -0.0010571371706907125 -0.007530484202709626 0.2711029052734375 -1.388296906148092 1.4333359003067017 -1.6158064047442835 -1.5707452932940882 0.2711029052734375 -0.001349866040982306 -0.0011597797274589539 0.0014004881959408522 -0.000240639565163292 -3.894290401262879e-08 -0.001349866040982306 -0.006756454706192017 -0.707630455493927 -0.7641608119010925 -0.229582741856575 -0.00023259343288373202 -0.001656872220337391 -0.006756454706192017 -0.707630455493927 -0.7641608119010925 -0.229582741856575 -0.00023259343288373202 -0.001656872220337391 -0.30000002972238016 -0.1999971230642236 0.29999995443380606 2.2213999939211706 2.2213999918270018 1.1215682918891262e-07 -1.4166162609083877e-12 0.0004800000242287426 4.565064616631797e-11 -8.300854168286029e-11 -3.885412373201622e-11 -1.1960778676304006e-12 -1.6111911673051756e-06 -1.0640425034873184e-06 6.189035060791107e-07 9.368030230866783e-08 -1.5539137054882341e-07 -2.8396383173553087e-11 -0.3 -0.19999712000000028 0.2999999999999998 2.221400000288016 2.2213999998222786 4.3711984126860327e-10 1.1079113959575683e-16 0.0004800000000000278 1.1114275978521865e-16 -6.714643225253799e-14 6.727974734202751e-14 -8.920810980642154e-13

8410.464 0.2710885149748944 -1.3883094251736479 1.433350830451924 -1.6158088820502456 -1.5707452675622973 0.271088514242582 -0.0028122567895954857 -0.0024161617559262044 0.0029175946450668774 -0.0005012892983372592 -8.113408398764958e-08 -0.0028122567920909765 -0.1827988385794137 -0.15704775107575855 0.18963830172902707 -0.03258121721874795 -5.273897357720579e-06 -0.18279883885312556 -0.011711285147449601 -0.7112445835807616 -0.7622984584848836 -0.229751181282295 -0.00040555765665656524 -0.0028719728682035507 -0.15376917398601328 -9.3386413824154 -7.098675705102933 -1.0442191189280308 -0.001843259549504089 -0.013053116685985137 0.27108851075172424 -1.3883093039142054 1.4333508014678955 -1.6158087889300745 -1.5707452932940882 0.27108851075172424 -0.0028122568037360907 -0.002416161820292473 0.0029175947420299053 -0.000501289323437959 -8.11340825634943e-08 -0.0028122568037360907 -0.011711285449564457 -0.7112445831298828 -0.7622984647750854 -0.22975118458271027 -0.00040555765735916793 -0.0028719729743897915 -0.011711285449564457 -0.7112445831298828 -0.7622984647750854 -0.22975118458271027 -0.00040555765735916793 -0.0028719729743897915 -0.3000000139186693 -0.1999920001794157 0.2999999591573661 2.2213999524586803 2.2213999503563877 2.7386288109278813e-07 1.0097825264945051e-11 0.0010000000445589089 6.590869143571166e-11 -4.811941250009606e-10 -2.1632086364921435e-10 -2.4918452084746477e-12 2.700224646592103e-07 1.651713381920536e-07 -1.9082665954146584e-07 -1.3875989118635439e-08 2.3353743282063906e-08 -4.841609886228288e-10 -0.29999999999999993 -0.19999200000000025 0.3000000000000001 2.221400000288018 2.221399999822277 4.4306704999537026e-10 2.0702636783264368e-16 0.001000000000000035 1.3925011897310897e-16 -2.38142951193169e-13 2.3831262723389325e-13 -4.180107594699972e-19

8410.472 0.27106039205751303 -1.3883335863414876 1.4333800055275907 -1.615813894522157 -1.5707452683736687 0.27106039132519055 -0.005062188035763665 -0.004348929261550546 0.005251356880769544 -0.000902169153281336 -1.460523483714125e-07 -0.005062188037578994 -0.2812414057710224 -0.24159593820304265 0.2917202794628333 -0.05010998186800959 -8.114783047970365e-06 -0.2812414056860022 -0.018017737303206747 -0.7158363785471328 -0.7599285667256331 -0.2299653490744531 -0.0006256875730242435 -0.004418614973777857 -0.2365728907911046 -9.398931650323853 -7.076606799062442 -1.0451925115433893 -0.0028437500193951868 -0.02008260505582036 0.27106037735939026 -1.3883336226092737 1.4333800077438354 -1.6158140341388147 -1.5707452932940882 0.27106037735939026 -0.005062188021838665 -0.004348929040133953 0.005251356866210699 -0.0009021691512316465 -1.460523435525829e-07 -0.005062188021838665 -0.018017737194895744 -0.7158364057540894 -0.7599285840988159 -0.22996534407138824 -0.0006256875931285322 -0.004418614786118269 -0.018017737194895744 -0.7158364057540894 -0.7599285840988159 -0.22996534407138824 -0.0006256875931285322 -0.004418614786118269 -0.3000000091327331 -0.19998199519337448 0.3000000236796192 2.221400076850201 2.221400074769309 -2.178010716058535e-07 -1.0564395075155989e-12 0.0018000000181955414 -1.0977714388368232e-10 9.364639066265026e-10 -8.714773792927632e-11 -4.485210312844893e-12 -5.713736026140822e-07 -3.7330417541191005e-07 -8.954820186892567e-07 3.93029440663317e-09 4.872290584003835e-08 8.510535555381661e-10 -0.29999999999999993 -0.19998200000000027 0.29999999999999993 2.221400000286434 2.221399999821183 4.4009344563026946e-10 1.6678595601534902e-16 0.0017999999999999995 -2.5093701160842264e-16 -2.867694556730511e-13 2.8676723450050256e-13 -2.6762444113232245e-12

8410.48 0.2710117940088292 -1.388375334719533 1.4334304159536166 -1.6158225540888473 -1.570745269775867 0.2710117932764761 -0.008268595550981203 -0.007102794178823696 0.00857633151517593 -0.001473115168950261 -2.3858397897844756e-07 -0.0082685955567554 -0.4008009394021923 -0.3442331146591438 0.41562182930079816 -0.07136825195861562 -1.1566453825879382e-05 -0.4008009398970508 -0.025676348162089194 -0.721399666831319 -0.757051848638337 -0.23022495840290672 -0.000892977864791287 -0.006297028100160332 -0.3371304513682311 -9.471977625495217 -7.049818224889922 -1.046372435941211 -0.004058584395476399 -0.028619992715228706 0.2710117995738983 -1.3883751074420374 1.4334304332733154 -1.6158226172076624 -1.5707452932940882 0.2710117995738983 -0.008268595673143864 -0.007102794013917446 0.008576331660151482 -0.0014731151750311255 -2.38583965028738e-07 -0.008268595673143864 -0.025676347315311432 -0.7213996648788452 -0.7570518255233765 -0.23022495210170746 -0.0008929778705351055 -0.006297028157860041 -0.025676347315311432 -0.7213996648788452 -0.7570518255233765 -0.23022495210170746 -0.0008929778705351055 -0.006297028157860041 -0.3000000352879157 -0.19996472978427374 0.29999992235788675 2.2213999524475976 2.2213999503460786 2.667879953590677e-07 -1.1387878093631653e-10 0.002940000335965739 2.9103477550648853e-10 -1.311934096852288e-09 -8.808799584884049e-10 -7.325547467247455e-12 -8.361072565404922e-07 -5.210973896193713e-07 8.333651872246945e-07 5.40307000489057e-08 -1.0942153587717613e-07 -2.5546567098336146e-10 -0.2999999999999998 -0.19996472000000023 0.3 2.2214000002869616 2.221399999820656 4.371198413102178e-10 1.928244743719963e-16 0.0029399999999999995 5.299628787145552e-19 4.970676958996999e-13 9.08804582108382e-13 -1.5611415129983893e-12

8410.488 0.2709346178189983 -1.388441624078947 1.4335104551586066 -1.6158362999941467 -1.5707452720028767 0.2709346170865789 -0.012600623862073142 -0.01082219969570281 0.013066555001111584 -0.002243711987000558 -3.63630485714208e-07 -0.012600623873248713 -0.5415035388864923 -0.4649256896098893 0.5612779357419568 -0.09632460225628711 -1.5630813341970056e-05 -0.5415035395616641 -0.034688128857333016 -0.7279263932080905 -0.7536695905926932 -0.23052949653160226 -0.0012074222044982446 -0.008507622277113255 -0.4554551318967825 -9.55767354282223 -7.018321961517278 -1.0477565617361322 -0.005487733919444521 -0.03866714324947974 0.2709346115589142 -1.3884413878070276 1.433510422706604 -1.6158364454852503 -1.5707452932940882 0.2709346115589142 -0.01260062400251627 -0.010822199285030365 0.013066555373370647 -0.002243712078779936 -3.636304768406262e-07 -0.01260062400251627 -0.034688130021095276 -0.7279263734817505 -0.7536696195602417 -0.23052950203418732 -0.0012074222322553396 -0.00850762240588665 -0.034688130021095276 -0.7279263734817505 -0.7536696195602417 -0.23052950203418732 -0.0012074222322553396 -0.00850762240588665 -0.30000004977646305 -0.19993728979068878 0.2999999411615676 2.2213999939134537 2.221399991818658 9.665214889009464e-08 -1.950488672682921e-10 0.004480000640247912 3.731530086308327e-10 -4.5115515040190113e-10 -1.1197818164742612e-09 -1.1161895191999017e-11 2.11300727992034e-06 1.355294561960252e-06 -1.0406666985771339e-06 -1.2820332272251305e-07 2.3450758238561574e-07 -6.003143293891582e-10 -0.2999999999999999 -0.19993728000000022 0.29999999999999977 2.221400000287198 2.221399999823097 4.4009344573261424e-10 -4.8517028685421775e-18 0.004479999999999941 -1.1204505563261475e-16 2.5153193756663504e-13 1.3549099589726215e-12 2.3259524731603087e-18

8410.496 0.2708194062522002 -1.38854056235935 1.4336299061983966 -1.615856806871646 -1.5707452753280018 0.2708194055196905 -0.01822775741917755 -0.015651151426654183 0.018895217187422958 -0.0032431352106006422 -5.261254815656512e-07 -0.018227757433330504 -0.7033916946380511 -0.6036189663689215 0.7285827732889217 -0.12492790295001054 -2.0311874481430396e-05 -0.7033916950102239 -0.045054784969077596 -0.7354062206859587 -0.7497839378687788 -0.23087814129880296 -0.001569013910881787 -0.011051065074938405 -0.5915693266439889 -9.655883677606639 -6.982137986221643 -1.0493411522030596 -0.007131168224957721 -0.050227090765595055 0.27081939578056335 -1.3885405699359339 1.4336298704147339 -1.615856949483053 -1.5707452932940882 0.27081939578056335 -0.01822775788605213 -0.015651151537895203 0.018895216286182404 -0.0032431352883577347 -5.261254614197242e-07 -0.01822775788605213 -0.045054785907268524 -0.735406219959259 -0.7497839331626892 -0.23087814450263977 -0.0015690139262005687 -0.011051065288484097 -0.045054785907268524 -0.735406219959259 -0.7497839331626892 -0.23087814450263977 -0.0015690139262005687 -0.011051065288484097 -0.3000000158155541 -0.19989631914129724 0.30000002544393223 2.221400076875323 2.2214000747951452 -2.3995936371385915e-07 -1.6065453263214734e-10 0.006480000364207534 2.8387497737166103e-10 3.0623249127982275e-09 1.6417013607177445e-09 -1.614373938417274e-11 -1.5776764258848425e-07 -1.494108070349196e-07 2.6540499375852265e-07 2.2126176367151436e-08 -4.8796731816831406e-08 -9.676265594371978e-10 -0.29999999999999966 -0.1998963200000001 0.29999999999999916 2.221400000287975 2.22139999982232 4.371198413751384e-10 1.2101571296183162e-16 0.006479999999999875 3.717731671900428e-16 1.2350610051287774e-13 -1.2351195435736942e-13 -2.0071859721992793e-12

8410.503999999999 0.2706553445503169 -1.3886814074250236 1.433799933547629 -1.6158859807800399 -1.570745280064159 0.27065534381766454 -0.025319997947734596 -0.02173298893326604 0.026234220032929394 -0.004499938602287196 -7.31047343853798e-07 -0.025319997970170267 -0.8865300660696306 -0.760229688326482 0.9173753556883045 -0.15710042396081922 -2.5615232786018348e-05 -0.8865300671049704 -0.0567789787296747 -0.7438260803210895 -0.7453982085981435 -0.23126965635230662 -0.0019777468352939523 -0.013928372387626977 -0.7455079907206289 -9.766436434615905 -6.941297198107632 -1.0511205881212335 -0.008988859366411013 -0.06330445250176461 0.2706553339958191 -1.3886812368976038 1.4337999820709229 -1.6158860365497034 -1.5707452932940882 0.2706553339958191 -0.02531999722123146 -0.021732989698648453 0.026234220713377 -0.004499938804656267 -7.310473506549897e-07 -0.02531999722123146 -0.05677897855639458 -0.7438260912895203 -0.745398223400116 -0.23126965761184692 -0.0019777468405663967 -0.013928372412919998 -0.05677897855639458 -0.7438260912895203 -0.745398223400116 -0.23126965761184692 -0.0019777468405663967 -0.013928372412919998 -0.3000000268567698 -0.1998380025757417 0.2999999318743251 2.2213999524085337 2.2213999503075974 2.339144886824415e-07 2.9288135092214626e-10 0.009000000463622941 9.739439325307322e-10 -3.971431839386846e-09 -1.1508780615387176e-09 -2.2418895499119696e-11 7.513172672515016e-08 5.7238471531540135e-08 -6.161993814217039e-07 -1.7243835944273308e-08 5.130680976912594e-08 -1.177992612084458e-10 -0.29999999999999927 -0.19983799999999985 0.2999999999999981 2.221400000287945 2.22139999982235 4.400934457416559e-10 -4.224876719548761e-16 0.00899999999999958 1.9419268506479236e-15 -4.4564573851178385e-13 4.4563827736333813e-13 9.925532075925891e-18

8410.511999999999 0.27043025553981115 -1.38887456076319 1.434033070919717 -1.6159259533246857 -1.5707452865642964 0.27043025480697425 -0.034048094989487465 -0.029210088476746474 0.03525360447512367 -0.0060417781833130724 -9.834391255377117e-07 -0.03404809501718113 -1.0910121302191087 -0.9346374429350544 1.1274230552742845 -0.19272994762823456 -3.154897271048921e-05 -1.091012130876358 -0.06986463335102319 -0.7531696531926704 -0.7405172558379168 -0.23170227186407172 -0.0024336165353160337 -0.01714101281176856 -0.9173226358989347 -9.889117546419762 -6.895844789813849 -1.053086825622206 -0.011060787153011373 -0.0779059032294881 0.2704302668571472 -1.388874355946676 1.4340330362319946 -1.6159260908709925 -1.5707452932940882 0.2704302668571472 -0.03404809534549713 -0.029210088774561882 0.035253603011369705 -0.00604177825152874 -9.834391221374972e-07 -0.03404809534549713 -0.06986463069915771 -0.7531696557998657 -0.740517258644104 -0.2317022681236267 -0.0024336164351552725 -0.017141012474894524 -0.06986463069915771 -0.7531696557998657 -0.740517258644104 -0.2317022681236267 -0.0024336164351552725 -0.017141012474894524 -0.3000000410329054 -0.19975801482516584 0.29999995194759993 2.221399993897049 2.2213999918029437 5.019166759239704e-08 -7.322741384515678e-10 0.012100001543428966 1.9881077355946544e-09 -1.4971417562292439e-09 1.246588297600072e-09 -3.013522263556356e-11 -2.5365756291502745e-08 1.0427021635411717e-07 -2.0231296773373616e-07 -1.7256267920214584e-08 3.106577558482635e-08 1.529088590306263e-09 -0.29999999999999816 -0.19975799999999924 0.29999999999999627 2.2214000002879017 2.2213999998223932 4.3711984137769376e-10 -1.5241954440075641e-15 0.012099999999998858 5.047389366907312e-15 -4.652960278302572e-13 4.653166163029709e-13 -2.453227484572546e-12

8410.52 0.27013059269257017 -1.3891315585428767 1.4343432040034574 -1.6159790733352404 -1.5707452952219967 0.2701305919594713 -0.044583836546481063 -0.03822348784919548 0.046120828835189205 -0.007895065812409343 -1.2884335531187867e-06 -0.04458383658591713 -1.3169676946241997 -1.1266749215561256 1.3584030450081919 -0.23166095363703376 -3.812430344763438e-05 -1.3169676960919996 -0.08431727949812207 -0.7634167848900926 -0.7351478768448301 -0.23217355177574836 -0.002936621706710047 -0.020691025803045417 -1.107085879810343 -10.023662385606917 -6.845844058754428 -1.0552287928207762 -0.013346945656997164 -0.09404071227484141 0.27013060450553894 -1.3891313711749476 1.4343432188034058 -1.615979019795553 -1.5707452932940882 0.27013060450553894 -0.04458383470773697 -0.03822348639369011 0.04612082988023758 -0.00789506547152996 -1.288433509216702e-06 -0.04458383843302727 -0.08431728184223175 -0.7634167671203613 -0.7351478934288025 -0.23217354714870453 -0.0029366216622292995 -0.020691026002168655 -0.08431728184223175 -0.7634167671203613 -0.7351478934288025 -0.23217354714870453 -0.0029366216622292995 -0.020691026002168655 -0.3000000188105919 -0.19965152956941568 0.29999992685986443 2.2213999108227864 2.221399908714501 3.4845549065048767e-07 -1.5328711339076183e-10 0.01584000037427197 8.924392144010728e-10 -1.025226822692368e-08 -5.6973079264016706e-09 3.6858483830841783e-09 1.5621714402301594e-06 9.339797574802475e-07 -7.442566890093808e-07 -9.88651500769566e-08 2.0948348751845538e-07 -9.17812526088517e-10 -0.29999999999999644 -0.19965151999999825 0.29999999999999205 2.2214000002877836 2.221399999822511 4.4009344573721135e-10 -5.009538514852948e-15 0.015839999999996916 1.1002792115349437e-14 -4.688366208094149e-13 4.688376526413352e-13 2.358139725155972e-18

8410.528 0.2697414306364503 -1.3894650593793063 1.4347455468729702 -1.6160478955110449 -1.5707453064723023 0.2697414299030253 -0.05710040666047517 -0.04891242403899722 0.05899988259298358 -0.010084545285012538 -1.6512853930728667e-06 -0.057100406708017803 -1.5645712642492628 -1.3361170237252173 1.6098817197242972 -0.27368493407539946 -4.5356479994259994e-05 -1.5645712652625843 -0.10014444391982921 -0.7745428324117244 -0.7292992686908528 -0.23268024855531738 -0.003486765878023576 -0.024581152989792156 -1.3148965486673576 -10.169747389565941 -6.791380649902959 -1.0575317296839175 -0.01584735091561715 -0.11172134033860535 0.269741415977478 -1.3894651571856897 1.4347455501556396 -1.6160476843463343 -1.5707452932940882 0.269741415977478 -0.057100407779216766 -0.048912424594163895 0.05899988114833832 -0.010084545239806175 -1.6512854017491918e-06 -0.057100407779216766 -0.10014444589614868 -0.7745428085327148 -0.7292992472648621 -0.23268024623394012 -0.003486765781417489 -0.024581152945756912 -0.10014444589614868 -0.7745428085327148 -0.7292992472648621 -0.23268024623394012 -0.003486765781417489 -0.024581152945756912 -0.2999999717164951 -0.19951326809366787 0.3000000144791052 2.2213999523284493 2.221399950227243 1.4961933027356858e-07 4.649993249241008e-10 0.020279998543162835 -5.384127475374828e-10 -7.14123208565246e-09 8.348004040477663e-10 -5.048064981164665e-11 2.9215747305314585e-07 1.0847466313977382e-07 9.011329045126848e-07 9.226006217283403e-09 -3.991289615369317e-08 2.021782575057189e-10 -0.29999999999999305 -0.19951327999999624 0.29999999999998506 2.221400000288973 2.2213999998239986 4.4604065447072917e-10 -1.1015426295486677e-14 0.020279999999993508 2.5628571565588248e-14 -3.927097276587565e-13 3.931461671486238e-13 -2.8992309211207674e-12

8410.536 0.26924645255698304 -1.3898888280745147 1.4352566107010254 -1.616135165393592 -1.5707453207928017 0.26924645182318296 -0.07177281664580962 -0.061413774406325006 0.07405022011619436 -0.01263278487950031 -2.0774072065372674e-06 -0.07177281669974127 -1.8340512481668063 -1.5626687959159735 1.881292190401347 -0.3185299493109715 -5.326522668305009e-05 -1.834051248965433 -0.11735608018086717 -0.7865179435094332 -0.722983528584519 -0.2332181472865739 -0.004084059349056627 -0.028814982955968026 -1.540885332774786 -10.326980598278858 -6.732567214884758 -1.0599764794174782 -0.018562049741462368 -0.13096409753487467 0.2692464590072632 -1.3898890654193323 1.4352566003799438 -1.6161349455462855 -1.5707452932940882 0.2692464590072632 -0.07177281379699707 -0.06141377612948418 0.07405021786689758 -0.012632784433662891 -2.0774073163920548e-06 -0.07177281379699707 -0.117356076836586 -0.7865179181098938 -0.7229835391044617 -0.23321814835071564 -0.004084059502929449 -0.028814982622861862 -0.117356076836586 -0.7865179181098938 -0.7229835391044617 -0.23321814835071564 -0.004084059502929449 -0.028814982622861862 -0.299999947784553 -0.19933751021750856 0.3000000655394819 2.2213999938990554 2.221399991803614 -5.8879033320617576e-08 1.3004282852712554e-09 0.025479995505419982 -2.3009891321322036e-09 4.601360580178106e-10 5.8319933791446245e-09 -6.339921628320273e-11 1.5993419603909602e-06 1.2140747343441283e-06 -3.5250095919917964e-07 -1.0682581888111449e-07 1.5514303941253033e-07 1.5031007581093364e-09 -0.2999999999999875 -0.19933751999999308 0.2999999999999724 2.221400000287786 2.221399999822509 4.400934456498685e-10 -2.3711591267146444e-14 0.025479999999985913 5.205671902580965e-14 -1.6716723328079913e-12 -1.1386790931976403e-12 -9.366834226114638e-12

8410.544 0.26862793387854883 -1.3904177145298489 1.4358941632856062 -1.6162437999803423 -1.570745338705101 0.2686279331442371 -0.08877841652591657 -0.07586139189225018 0.09142549984216841 -0.015559581326812165 -2.5724231391497875e-06 -0.08877841660070519 -2.1256999850133695 -1.8059521857406464 2.1719099657467567 -0.3658495559139818 -6.187699157656501e-05 -2.1256999876204907 -0.13596504132999215 -0.799306268068837 -0.7162161969719143 -0.23378190125974654 -0.004728521399627423 -0.033397108694393045 -1.7852209926627973 -10.49489129974383 -6.66954846944186 -1.062538741225548 -0.021491129761306637 -0.15178985901601638 0.26862794160842896 -1.3904178778277796 1.4358941316604614 -1.6162436644183558 -1.5707452932940882 0.26862794160842896 -0.08877841383218765 -0.07586139440536499 0.09142550081014633 -0.015559581108391285 -2.5724232273205416e-06 -0.08877841383218765 -0.135965034365654 -0.7993062734603882 -0.7162162065505981 -0.23378190398216248 -0.004728521220386028 -0.03339710831642151 -0.135965034365654 -0.7993062734603882 -0.7162162065505981 -0.23378190398216248 -0.004728521220386028 -0.03339710831642151 -0.2999999662448541 -0.1991179973079988 0.3000000537288031 2.221399993922627 2.2213999918282217 -1.1586725068435808e-07 1.0982130137531755e-09 0.03149999643102293 -2.4464644763814946e-09 3.6586020313337505e-09 6.565130142663847e-09 -7.833976472219764e-11 5.1715366964161875e-08 3.448495967138668e-07 -3.541977036521084e-07 -3.219860171479077e-08 2.1667781328421404e-08 1.7156470103883475e-09 -0.2999999999999782 -0.1991179999999878 0.2999999999999512 2.2214000002892655 2.221399999823706 4.3117263254321136e-10 -4.6217128183408044e-14 0.031499999999973036 1.0325335307705347e-13 -4.556482446061856e-13 4.55625824207175e-13 -3.3453248241758875e-12

8410.552 0.26786672156162794 -1.3910676269493614 1.436677177787603 -1.6163768632586182 -1.5707453607765727 0.26786672082660695 -0.10829749300870302 -0.09238532456946472 0.11127211558563137 -0.018881271546045967 -3.142203800006419e-06 -0.10829749311090872 -2.4398845603483057 -2.0654915846518174 2.4808269679328694 -0.4152112774042252 -7.12225826070789e-05 -2.439884563775441 -0.1559875943369838 -0.8128651007327077 -0.7090168409217843 -0.2343648618756823 -0.0054201826554953 -0.038333297479760824 -2.0481171136445977 -10.672918772620452 -6.60250662603184 -1.065188297224976 -0.024634730169226137 -0.17422483704551292 0.26786673069000244 -1.3910678068744105 1.4366772174835205 -1.6163767019854944 -1.5707452932940882 0.26786673069000244 -0.10829748958349228 -0.09238532185554504 0.11127211898565292 -0.01888127066195011 -3.142203695460921e-06 -0.10829748958349228 -0.15598759055137634 -0.8128650784492493 -0.7090168595314026 -0.23436486721038818 -0.005420182831585407 -0.03833329677581787 -0.15598759055137634 -0.8128650784492493 -0.7090168595314026 -0.23436486721038818 -0.005420182831585407 -0.03833329677581787 -0.2999999547803223 -0.19884799655677882 0.3000000359136337 2.221399952276275 2.2213999501751327 -2.32767282506045e-08 1.1367027433867798e-09 0.038399994309316794 -6.028296369122981e-09 -2.28204097064708e-09 -3.052350406969277e-10 -9.544181150424307e-11 1.7607162389045257e-06 1.3433580782198016e-06 -6.059507539691315e-07 -1.1806736883988998e-07 1.7048561201581416e-07 3.1874400748832765e-09 -0.29999999999996313 -0.19884799999997968 0.2999999999999171 2.221400000287422 2.221399999822873 4.4306704988526797e-10 -8.661266968319397e-14 0.03839999999995016 1.9497673505978597e-13 -2.2616995579398685e-12 -9.501016826083187e-13 7.136620057391317e-12

8410.56 0.26694220830330573 -1.39185549837463 1.4376257689763008 -1.6165375359158833 -1.5707453876227095 0.26694220756751247 -0.1305139599963977 -0.11111090954147182 0.13372750815390982 -0.022609950366188743 -3.792955657181409e-06 -0.13051396010302976 -2.777058373461835 -2.3406981215008877 2.806924071034807 -0.466084852517847 -8.134398214687377e-05 -2.7770583740151302 -0.17744397557293712 -0.8271439534727263 -0.7014096745074766 -0.2349589067015067 -0.006159087807757036 -0.04363067267619327 -2.3298393992726645 -10.860400109096897 -6.531667170948524 -1.067888230958348 -0.02799305408625573 -0.1983014073132984 0.26694220304489136 -1.391855541859762 1.437625765800476 -1.6165373961078089 -1.5707452932940882 0.26694220304489136 -0.1305139660835266 -0.11111091077327728 0.13372750580310822 -0.022609950974583626 -3.7929555674054427e-06 -0.1305139660835266 -0.1774439811706543 -0.8271439671516418 -0.7014096975326538 -0.23495890200138092 -0.006159087643027306 -0.04363067448139191 -0.1774439811706543 -0.8271439671516418 -0.7014096975326538 -0.23495890200138092 -0.006159087643027306 -0.04363067448139191 -0.299999982029645 -0.1985203212318351 0.300000003876205 2.2213999105359794 2.221399908426982 5.4099565690405986e-08 -1.4267097768791352e-09 0.046239999318549815 5.9389527809634535e-12 -1.6079814344957363e-08 1.2711194307223808e-08 -1.1484298502949762e-10 3.6377618434538946e-07 -3.1642135285771406e-08 -1.0911069583986601e-06 -2.689005730658031e-08 1.4042104513404158e-07 -8.211578433864212e-09 -0.29999999999994004 -0.19852031999996766 0.2999999999998638 2.2214000002882734 2.2213999998220215 4.4009344549859285e-10 -1.5593517046151578e-13 0.04623999999991248 3.5201835439236536e-13 -5.267883529264094e-14 5.266729425738995e-14 -7.582632628342842e-12

8410.568 0.2658323008814625 -1.3927992455099272 1.438761115190625 -1.616729078475295 -1.570745419909855 0.26583230014473513 -0.15561614723819667 -0.13215773073374368 0.15891824716527264 -0.026752594531605237 -4.5312620907139095e-06 -0.15561614736985271 -3.1377734052248707 -2.630852649033982 3.148842376420352 -0.5178305206770617 -9.228830419156256e-05 -3.1377734083528686 -0.2003589868614069 -0.8420835557542443 -0.693424212592975 -0.2355542699423958 -0.006945298322159488 -0.04929790666012173 -2.6307134974902726 -11.056557087053228 -6.457304952508302 -1.070594156888189 -0.03156638087421487 -0.22405898577025327 0.2658323049545288 -1.392799202595846 1.4387611150741577 -1.6167290846454065 -1.5707452932940882 0.2658323049545288 -0.1556161493062973 -0.13215772807598114 0.15891824662685394 -0.026752594858407974 -4.53126222055289e-06 -0.1556161493062973 -0.20035898685455322 -0.8420835733413696 -0.6934242248535156 -0.2355542629957199 -0.00694529851898551 -0.04929790645837784 -0.20035898685455322 -0.8420835733413696 -0.6934242248535156 -0.2355542629957199 -0.00694529851898551 -0.04929790645837784 -0.30000000309886815 -0.19812729303270815 0.29999998590596066 2.221399910533334 2.221399908424285 -4.837004823602187e-08 -2.9262186447246286e-09 0.05508000110453677 6.52702655200368e-10 -1.0206200118005439e-08 1.5785684291370213e-08 -1.366747034287335e-10 -3.176973592403295e-07 -2.0646835856679148e-07 -7.007641638185169e-07 -7.962983289654903e-09 6.191527854461721e-08 9.140207053854145e-10 -0.29999999999990523 -0.19812727999995033 0.29999999999978333 2.2214000002869145 2.2213999998207035 4.4009344550725974e-10 -2.690499720227567e-13 0.055079999999853364 6.125314394497357e-13 -1.2050104996375012e-12 1.205017675827189e-12 -4.014273180356909e-12

8410.576 0.2645133818405897 -1.3939177187108145 1.4401053641508759 -1.6169547871182344 -1.5707454583586848 0.2645133811027472 -0.18379769209413183 -0.15563842947936107 0.18695787508402376 -0.03131009614404823 -5.364196256893662e-06 -0.18379769224941495 -3.5226931069918948 -2.9350873432021745 3.5049534898438894 -0.5696877015553738 -0.0001041167707724691 -3.522693109945279 -0.2247626302843729 -0.8576147788714871 -0.6850959534399914 -0.2361393811416897 -0.007778895542652917 -0.055345422860695825 -2.9511333356338163 -11.260482046582625 -6.379750537623888 -1.0732534872889796 -0.03535508024135751 -0.2515449469018625 0.26451337337493896 -1.3939178625689905 1.4401053190231323 -1.6169546286212366 -1.5707452932940882 0.26451337337493896 -0.183797687292099 -0.1556384265422821 0.18695788085460663 -0.03131009638309479 -5.364196113077924e-06 -0.183797687292099 -0.22476263344287872 -0.8576147556304932 -0.6850959658622742 -0.23613938689231873 -0.007778895553201437 -0.05534542351961136 -0.22476263344287872 -0.8576147556304932 -0.6850959658622742 -0.23613938689231873 -0.007778895553201437 -0.05534542351961136 -0.29999996904103104 -0.19766072262740095 0.3000000490282771 2.2213999105969506 2.221399908488889 -1.7012622895548358e-07 3.3086646225255246e-10 0.06497999250231408 -8.131142758382756e-09 -3.080277579835216e-10 2.2577198474573788e-08 -1.6106631608688634e-10 1.629468426475717e-06 9.253571638806038e-07 -3.364642621199037e-07 -7.65099459492556e-08 1.3593502959696267e-07 -3.003604769284366e-09 -0.29999999999985455 -0.19766071999992693 0.2999999999996636 2.2214000002868963 2.2213999998207217 4.4306704999627003e-10 -4.4933992625611373e-13 0.06497999999976285 1.0288791446641237e-12 6.644778739911191e-13 3.1501769401947146e-12 -4.2373313923404696e-12

8410.583999999999 0.2629602636798446 -1.3952306419173297 1.4416815207000242 -1.6172179414917487 -1.5707455037482827 0.26296026294071984 -0.21525853863567498 -0.18165735588818158 0.21794450783126923 -0.03627621189547862 -6.299390056312679e-06 -0.21525853881258636 -3.932605817692895 -3.2523658011025627 3.873329093405684 -0.6207644689287988 -0.00011689922492737713 -3.9326058203964265 -0.25069078007334117 -0.8736574792599369 -0.6764670852206905 -0.23670071863913242 -0.00865998369924152 -0.06178560700045053 -3.2915699423629694 -11.47112270268297 -6.299396790992115 -1.0758047662148569 -0.039359625913052705 -0.28081558381704763 0.2629602551460266 -1.3952305952655237 1.4416815042495728 -1.6172178427325647 -1.5707452932940882 0.2629602551460266 -0.21525853872299194 -0.1816573590040207 0.21794450283050537 -0.036276210099458694 -6.299389951891499e-06 -0.21525853872299194 -0.2506907880306244 -0.8736574649810791 -0.6764670610427856 -0.23670071363449097 -0.008659983985126019 -0.061785608530044556 -0.2506907880306244 -0.8736574649810791 -0.6764670610427856 -0.23670071363449097 -0.008659983985126019 -0.061785608530044556 -0.2999999975208853 -0.19711201416942173 0.29999998057503535 2.2213998266491326 2.221399824526929 1.1027308515167783e-08 -2.9489611408536035e-09 0.07599999913594305 4.446692938546059e-09 -4.0223774372173007e-08 4.2635458111665285e-08 -1.8814111061454548e-10 -1.9918273914668548e-07 -5.022905962010679e-07 9.351516858854842e-07 5.472106940471586e-08 -7.175569230352342e-08 -6.9467380193863195e-09 -0.29999999999978233 -0.19711199999989656 0.2999999999994905 2.2214000002879524 2.2213999998223426 4.460406545197298e-10 -7.263843526154345e-13 0.07599999999963335 1.681738635846841e-12 7.267132043627409e-13 3.2887166237192084e-12 -8.92079608154437e-12

8410.591999999999 0.2611461346742755 -1.3967585412121757 1.4435133145176555 -1.6175217438635592 -1.5707455569210813 0.2611461339336906 -0.23829147349459728 -0.20029433111719322 0.23996017992626126 -0.03965375083094855 -6.9953891909293755e-06 -0.23829147368564538 -2.8791168573652874 -2.3296219036264554 2.7519590118740034 -0.42219236693374124 -8.699989182708702e-05 -2.8791168591323775 -0.18314603121632847 -0.8220254403539289 -0.70251151491398 -0.23425101516180016 -0.006288720449225741 -0.04523412487570202 -2.404707389870393 -10.793194031847086 -6.541927729181966 -1.0646708639103817 -0.028582234441730994 -0.2055890975600657 0.2611461281776428 -1.3967583815204065 1.44351327419281 -1.6175215880023401 -1.5707457701312464 0.2611461281776428 -0.23829147219657898 -0.20029433071613312 0.239960178732872 -0.039653751999139786 -6.995389412622899e-06 -0.23829147219657898 -0.18314602971076965 -0.8220254182815552 -0.7025114893913269 -0.2342510223388672 -0.006288720294833183 -0.04523412510752678 -0.18314602971076965 -0.8220254182815552 -0.7025114893913269 -0.2342510223388672 -0.006288720294833183 -0.04523412510752678 -0.3000000198794198 -0.1964719849478517 0.2999999443436346 2.2214000342116886 2.221400032092806 5.423335882178916e-07 3.337193364274773e-09 0.08400000388682322 8.044821465081467e-09 -5.075007919232975e-08 -6.412179958061406e-08 -2.0186426751629856e-10 -1.9277583807311666e-08 4.977958879702483e-08 1.2686046163711093e-06 3.298272910907926e-08 -1.3751141545497828e-07 -1.0466044764036697e-09 -0.2999999999996822 -0.1964719999998591 0.29999999999924454 2.2214000002881535 2.2213999998221414 4.400934458191542e-10 -1.0873967638417867e-12 0.08399999999948149 2.5471827611745275e-12 -8.573647497829134e-13 8.574126425345286e-13 -1.3381182609444736e-11

8410.6 0.25914730198248925 -1.3984349622816392 1.445520149680631 -1.617852056535721 -1.5707456157010729 0.2591473012402431 -0.26143620173355425 -0.21878545375174083 0.26170064813251726 -0.04290193672005644 -7.701351057140229e-06 -0.2614362019518193 -2.893091029869621 -2.311390329318451 2.7175585257819996 -0.4060232361384865 -8.824523327635671e-05 -2.893091033271743 -0.1837948759195122 -0.8194861246882602 -0.7032611297875907 -0.23400501405405524 -0.006290669100476566 -0.04545367467829161 -2.4132267208231952 -10.759852817156856 -6.548908292808003 -1.063552788875681 -0.02859109106166599 -0.20658695141283537 0.2591473162174225 -1.3984349409686487 1.4455201625823975 -1.617852036152975 -1.5707457701312464 0.2591472864151001 -0.26143619418144226 -0.21878544986248016 0.26170065999031067 -0.042901936918497086 -7.701351023570169e-06 -0.26143619418144226 -0.18379487097263336 -0.819486141204834 -0.703261137008667 -0.23400501906871796 -0.006290669087320566 -0.04545367509126663 -0.18379487097263336 -0.819486141204834 -0.703261137008667 -0.23400501906871796 -0.006290669087320566 -0.04545367509126663 -0.3000000007447454 -0.19576799212190105 0.2999999871597345 2.221400043042349 2.221400107131505 1.9643489753154186e-07 3.938656345318413e-09 0.09199999881486362 -3.705929207951302e-09 5.324211238387568e-10 -5.771185670760552e-08 -2.2068162417896928e-10 -5.610026903742512e-07 -1.5582753272372137e-07 -2.361170245537983e-07 1.3495977470225306e-08 -4.848393608334828e-08 -1.8744089772156984e-09 -0.29999999999957744 -0.19576799999982644 0.2999999999989823 2.2214000002880674 2.2213999998222276 4.400934458243994e-10 -1.5882095835716667e-12 0.0919999999992942 3.776967026193966e-12 -1.1591486844591524e-12 1.1589940363840045e-12 -4.460504421334097e-12

8410.608 0.256962829550172 -1.4002586819141403 1.4476997242336527 -1.6182078007500866 -1.5707456801718997 0.25696282880610766 -0.28470313861567603 -0.23711661416663446 0.28314087948768746 -0.04600984612817279 -8.418263781135679e-06 -0.2847031388519027 -2.9083671102652224 -2.291395051861704 2.680028919396275 -0.388488676014544 -8.961409049943119e-05 -2.9083671125104194 -0.18450720239740248 -0.8167136043478158 -0.7040806422824362 -0.23373882680183164 -0.006292918086260927 -0.04569367885655259 -2.4225795674778947 -10.723449625086822 -6.556539757062502 -1.0623429678143248 -0.028601312702055914 -0.2076777704030315 0.2569628357887268 -1.4002588430987757 1.4476996660232544 -1.6182077566729944 -1.5707457701312464 0.2569628357887268 -0.2847031354904175 -0.23711661994457245 0.2831408679485321 -0.0460098460316658 -8.418263860221487e-06 -0.2847031354904175 -0.18450720608234406 -0.8167136311531067 -0.7040806412696838 -0.23373882472515106 -0.0062929182313382626 -0.04569368064403534 -0.18450720608234406 -0.8167136311531067 -0.7040806412696838 -0.23373882472515106 -0.0062929182313382626 -0.04569368064403534 -0.29999997925663946 -0.1949999891226073 0.3000000683596887 2.221400118544562 2.221400116437422 -1.6613593863276806e-07 2.8694574648250223e-09 0.09999999330695733 -3.8769110081199725e-09 5.04064629146579e-08 4.570548230002936e-09 -2.3939536713656756e-10 -1.2760678080499962e-06 -1.0177788466298395e-06 -7.090987610610244e-08 7.878243729489547e-08 -8.969927585743944e-08 -8.117141319403157e-09 -0.2999999999994698 -0.19499999999980075 0.2999999999987038 2.221400000288221 2.221399999822074 4.4604065454917996e-10 -2.1120062686937574e-12 0.09999999999913105 5.088112106740634e-12 -1.0298420467435058e-12 1.0297825513577402e-12 -4.460330000309598e-12

8410.616 0.25459169829262895 -1.4022283637171284 1.4500495371350737 -1.6185878118424606 -1.5707457504251607 0.2545916975466636 -0.3081026246359261 -0.25527362445568497 0.3042561382198134 -0.048966931116594406 -9.147127121224741e-06 -0.3081026248808226 -2.924935752531256 -2.2696262861313135 2.6394073415157426 -0.36963562355270174 -9.11079175111328e-05 -2.9249357536149865 -0.18528281025137439 -0.813708364113215 -0.7049693709044269 -0.23345320655452412 -0.006295463368239279 -0.045953990617906566 -2.432763298600546 -10.683990820806514 -6.5648157757362045 -1.061044823790312 -0.02861288100864752 -0.20886088735838534 0.254591703414917 -1.4022281805621546 1.4500495195388794 -1.6185877958880823 -1.5707457701312464 0.254591703414917 -0.30810263752937317 -0.25527361035346985 0.3042561411857605 -0.04896692931652069 -9.1471274572541e-06 -0.30810263752937317 -0.18528281152248383 -0.8137083649635315 -0.7049693465232849 -0.2334531992673874 -0.006295463535934687 -0.045953989028930664 -0.18528281152248383 -0.8137083649635315 -0.7049693465232849 -0.2334531992673874 -0.006295463535934687 -0.045953989028930664 -0.3000000259658687 -0.19416800688510794 0.29999994175468125 2.221399948163212 2.2213999460310148 2.6199382340538206e-07 -6.499153654419894e-09 0.10800001170753433 5.497250900450397e-09 -4.7842398453678205e-08 -3.82186090162388e-08 -2.579759310361064e-10 -9.988290974356056e-07 -6.780023774798361e-07 8.55972626928973e-07 6.485241327348194e-08 -1.206458973942802e-07 7.2295911652859234e-09 -0.29999999999936006 -0.19416799999978387 0.2999999999984103 2.2214000002885546 2.2213999998217404 4.3711984146415797e-10 -2.650208766684835e-12 0.10799999999900249 6.480672175212856e-12 -1.260237502001288e-12 1.260275558132817e-12 -1.3381313987642987e-11

8410.624 0.25203280673872763 -1.404342557433635 1.4525668907001348 -1.6189908423694508 -1.570745826560497 0.2520328059906449 -0.3316449138545785 -0.2732422038452204 0.3250220018301828 -0.05176304990923619 -9.888952627198262e-06 -0.3316449141300395 -2.942786152331553 -2.2460724236919303 2.5957329512961773 -0.34951484908022323 -9.272818824669003e-05 -2.9427861561521147 -0.18612145178051345 -0.8104708832420661 -0.7059265997579653 -0.23314896722635572 -0.006298300475813674 -0.04623444027554544 -2.443774661878142 -10.641482696968328 -6.573729682266125 -1.0596620560437868 -0.028625775662573148 -0.21013553105235405 0.2520328164100647 -1.4043424765216272 1.4525668621063232 -1.618990723286764 -1.5707457701312464 0.2520328164100647 -0.3316449224948883 -0.27324220538139343 0.32502201199531555 -0.05176305025815964 -9.88895226328168e-06 -0.3316449224948883 -0.18612144887447357 -0.8104708790779114 -0.7059265971183777 -0.2331489622592926 -0.006298300344496965 -0.04623444005846977 -0.18612144887447357 -0.8104708790779114 -0.7059265971183777 -0.2331489622592926 -0.006298300344496965 -0.04623444005846977 -0.30000000168957597 -0.19327200859011234 0.2999999709594323 2.221399905144612 2.221399903005219 1.8720708035077777e-07 -3.886893219834955e-09 0.11600000397615066 2.8656347232411957e-09 -5.765290842135913e-08 -4.068615775708054e-09 -2.7641129660203705e-10 7.983298442677965e-08 1.8190148176189338e-07 1.533374610698282e-08 -1.9623116181706137e-08 2.7282207364054647e-08 9.846599470372214e-10 -0.29999999999924926 -0.19327199999977818 0.29999999999810223 2.2214000002886136 2.221399999821682 4.3414623709433076e-10 -3.198797633779013e-12 0.11599999999891811 7.948127989337775e-12 -1.7605549522521295e-12 1.760647253657385e-12 1.8461252491996927e-16

8410.632 0.24928497177356035 -1.4065996981351105 1.4552488931644645 -1.619415565479323 -1.570745908685696 0.24928497102317695 -0.3553401608613455 -0.2910079623343181 0.34541437506422323 -0.054388497225995515 -1.0644763965517785e-05 -0.35534016115800277 -2.9619058758458756 -2.220719811137209 2.549046654255052 -0.3281809145949154 -9.447641728994044e-05 -2.961905878495409 -0.18702282444607393 -0.8070016261250061 -0.7069515844630372 -0.2328269828345643 -0.006301424499511927 -0.04653483235769453 -2.4556096849769506 -10.595931351021331 -6.583274544836695 -1.0581986369830947 -0.028639974350281712 -0.21150081306572166 0.24928496778011322 -1.4065998236285608 1.4552489519119263 -1.619415585194723 -1.5707457701312464 0.24928496778011322 -0.3553401529788971 -0.29100796580314636 0.3454143702983856 -0.05438849702477455 -1.0644764188327827e-05 -0.3553401529788971 -0.18702282011508942 -0.8070016503334045 -0.7069515585899353 -0.23282697796821594 -0.006301424466073513 -0.04653483256697655 -0.18702282011508942 -0.8070016503334045 -0.7069515585899353 -0.23282697796821594 -0.006301424466073513 -0.04653483256697655 -0.29999997626805247 -0.19231200427433023 0.3000000265923873 2.2213999481236564 2.2213999459903593 -2.2748735478974823e-07 8.101577655728864e-10 0.12399998911895842 -6.2289862809648665e-09 1.5643722462942762e-08 6.307853514129142e-08 -2.9468377027832074e-10 -2.2363740854699066e-06 -1.2471743936348957e-06 9.06826784001605e-07 1.1593375498918438e-07 -2.366959274559518e-07 -9.365324967697365e-10 -0.2999999999991379 -0.1923119999997856 0.29999999999778104 2.2214000002886136 2.2213999998216813 4.3711984146067797e-10 -3.752873175893447e-12 0.1239999999988897 9.488590198124691e-12 -1.849255691013903e-12 1.8485248236209957e-12 4.4604487475525395e-12

8410.64 0.24634692949133358 -1.4089981052760123 1.4580924613507222 -1.6198605785242695 -1.5707459969167754 0.24634692873854133 -0.3791984062303096 -0.3085563824836793 0.36540950171912717 -0.05683403430589275 -1.1415596199121578e-05 -0.37919840653875436 -2.98228067112051 -2.19355251867015 2.4993908318629923 -0.30569213498715403 -9.63540292004741e-05 -2.9822806725939497 -0.1879865625167504 -0.8033010326378105 -0.7080435581986364 -0.23248818688279665 -0.006304830080690257 -0.04685494301164272 -2.4682635658449326 -10.547342558534451 -6.593443222657342 -1.0566588093823108 -0.02865545271673722 -0.21295571598791616 0.24634693562984467 -1.4089983145343226 1.458092451095581 -1.6198604742633265 -1.5707457701312464 0.24634693562984467 -0.3791984021663666 -0.30855637788772583 0.3654094934463501 -0.056834034621715546 -1.1415596418373752e-05 -0.3791984021663666 -0.1879865676164627 -0.8033010363578796 -0.7080435752868652 -0.23248818516731262 -0.006304830312728882 -0.04685494303703308 -0.1879865676164627 -0.8033010363578796 -0.7080435752868652 -0.23248818516731262 -0.006304830312728882 -0.04685494303703308 -0.29999995687703945 -0.19128801044535348 0.3000000648032014 2.2213999053376425 2.2213999031968026 -3.3777948329514797e-07 -4.846385690049648e-09 0.13199998248434874 -1.4702913063438542e-08 2.043763180937011e-08 9.793195059159739e-08 -3.1278522922228123e-10 5.655439385212272e-07 1.370035920340884e-07 -7.55125234393739e-07 -2.986462177782112e-08 1.1612541444758609e-07 -1.2148036713269286e-10 -0.2999999999990278 -0.19128799999980867 0.29999999999744664 2.221400000288094 2.2213999998222005 4.4306705018871996e-10 -4.309629405098017e-12 0.13199999999892675 1.1094408997827373e-11 -1.8491584469331722e-12 1.849212315972069e-12 7.209944447028604e-18

8410.648 0.24321733617114724 -1.4115359815950876 1.4610943234209155 -1.6203244069116751 -1.570746091378088 0.2432173354158837 -0.4032295603179783 -0.32587279928691304 0.3849839742541638 -0.05909091864621434 -1.220249755121899e-05 -0.4032295606332191 -3.003894260958588 -2.1645521004042196 2.446809066879579 -0.28211054254019885 -9.83626690121765e-05 -3.003894261808089 -0.18901222783825722 -0.7993695082773883 -0.7092017378245767 -0.23213357179684752 -0.006308511406737408 -0.047194516513295974 -2.4817305515163173 -10.495721643682108 -6.604228422970023 -1.055047083816672 -0.028672184343621517 -0.21449907755293018 0.243217334151268 -1.4115360418902796 1.4610943794250488 -1.620324436818258 -1.5707462469684046 0.243217334151268 -0.40322956442832947 -0.3258728086948395 0.38498398661613464 -0.05909091979265213 -1.2202497600810602e-05 -0.40322956442832947 -0.18901222944259644 -0.7993695139884949 -0.7092017531394958 -0.23213356733322144 -0.0063085113652050495 -0.04719451814889908 -0.18901222944259644 -0.7993695139884949 -0.7092017531394958 -0.23213356733322144 -0.0063085113652050495 -0.04719451814889908 -0.29999999213625356 -0.1901999842183355 0.30000000615889294 2.221400107842642 2.22140010570638 8.05391891329033e-08 8.670346397783965e-09 0.1399999986648098 -5.136531324035357e-09 2.892691225067163e-08 -5.9324392336586635e-08 -3.2101492454918515e-10 3.771744570205068e-07 1.441127571336134e-07 -7.449659314598513e-07 -3.182030293917956e-08 1.1233615470115918e-07 -7.439775846415086e-09 -0.29999999999891946 -0.1901999999998496 0.29999999999710025 2.221400000288471 2.221399999821824 4.3711984146446273e-10 -4.859970814024994e-12 0.139999999999042 1.2766530978710882e-11 -1.069806674791901e-12 1.0705348192567786e-12 -8.920738496856484e-12

8410.655999999999 0.23989476938951823 -1.4142114118477878 1.4642510216968347 -1.620805508192408 -1.5707461922024084 0.23989476863161233 -0.4274433852522003 -0.34294237807835726 0.40411474120624985 -0.061150933517603145 -1.300652679584009e-05 -0.4274433855915023 -3.0267281167777536 -2.1336973489305273 2.391345869010755 -0.2575018589236009 -0.00010050365557763746 -3.0267281197854032 -0.19009929969018902 -0.7952074142231481 -0.7104253299661784 -0.2317641884776024 -0.006312462191631949 -0.04755326179307289 -2.4960038049321818 -10.441073348749935 -6.615622757711047 -1.053368236630703 -0.028690140660967204 -0.21612957484951628 0.23989476263523102 -1.4142115751849573 1.4642510414123535 -1.620805565510885 -1.5707462469684046 0.23989476263523102 -0.42744338512420654 -0.34294238686561584 0.4041147530078888 -0.0611509345471859 -1.300652638747124e-05 -0.42744338512420654 -0.19009929895401 -0.7952074408531189 -0.7104253172874451 -0.23176418244838715 -0.006312462035566568 -0.04755326360464096 -0.19009929895401 -0.7952074408531189 -0.7104253172874451 -0.23176418244838715 -0.006312462035566568 -0.04755326360464096 -0.2999999816312241 -0.18904798855091642 0.30000005394142715 2.2214001079493184 2.2214001058117416 -2.247471087810183e-07 7.538951599265958e-09 0.1479999921736769 -1.4038172090360676e-08 8.946253004078126e-08 -4.257804210128411e-09 -3.3813743463757297e-10 -1.780397645539986e-06 -1.1171276594540145e-06 3.257827151041724e-07 9.228002909393294e-08 -1.4604110916093422e-07 -8.223713963050967e-09 -0.2999999999988142 -0.189047999999911 0.2999999999967425 2.2214000002874297 2.221399999820188 4.3711984146188803e-10 -5.401795191527399e-12 0.1479999999992468 1.4498378691541932e-11 -1.6354114493495059e-12 1.635368442795128e-12 1.3370923292177483e-16

8410.663999999999 0.23637772928478384 -1.4170223613539408 1.467558915530982 -1.6213022763843385 -1.5707462995310681 0.23637772852410505 -0.45184947494739686 -0.35975009043463024 0.4227791124085119 -0.06300641727765123 -1.3828760393018355e-05 -0.45184947530121455 -3.0507612118995664 -2.1009640445341233 2.3330464002827567 -0.2319354700060106 -0.00010277919964728323 -3.0507612137140314 -0.19124716364521066 -0.7908150573523098 -0.7117135370845338 -0.23138114589899303 -0.0063166756824782596 -0.04793084840212934 -2.511075258661616 -10.383401703035828 -6.627618800038596 -1.0516273081109233 -0.02870929097686369 -0.21784570598767783 0.23637773096561432 -1.4170225302325647 1.4675588607788086 -1.6213024298297327 -1.5707462469684046 0.23637773096561432 -0.45184946060180664 -0.35975009202957153 0.4227791130542755 -0.06300641596317291 -1.3828760529577266e-05 -0.45184946060180664 -0.19124716520309448 -0.7908150553703308 -0.7117135524749756 -0.2313811480998993 -0.006316675804555416 -0.047930847853422165 -0.19124716520309448 -0.7908150553703308 -0.7117135524749756 -0.2313811480998993 -0.006316675804555416 -0.047930847853422165 -0.2999999915105862 -0.18783200296367977 0.3000000861099551 2.221400108562365 2.2214001064253033 -5.478966314616871e-07 9.92681059430951e-10 0.15599999192551633 -1.453387529201009e-08 1.6016808872188995e-07 6.263877183835435e-08 -3.5503841449365144e-10 7.22320423755465e-07 3.923598413423675e-07 -5.857949226613128e-07 -4.204224404413672e-08 9.791044631941133e-08 2.488071678385843e-09 -0.2999999999987132 -0.18783199999999523 0.2999999999963738 2.221400000288434 2.2213999998218608 4.4306705033470736e-10 -5.928124478754609e-12 0.15599999999955388 1.628726278462022e-11 -7.33189557836187e-14 4.089510712682088e-12 3.4775784682472555e-17

8410.672 0.23266463998979184 -1.4199666743445762 1.4710141842106474 -1.6218130465298515 -1.5707464135139908 0.23266463922628614 -0.4764572329853826 -0.3762806880574558 0.44095476206163836 -0.06465029256009278 -1.4670277217081996e-05 -0.476457233344121 -3.07596975474822 -2.0663247028531937 2.271956206640807 -0.20548441030519315 -0.00010518960300795506 -3.0759697553633045 -0.19245509945413997 -0.7861926804154639 -0.7130655633662106 -0.23098561085592487 -0.006321144602388583 -0.048326902600930144 -2.526935455832858 -10.322709893855041 -6.640209139178827 -1.0498296013401784 -0.028729602217856108 -0.21964577232122748 0.23266464471817017 -1.4199665228473108 1.471014142036438 -1.6218131224261683 -1.5707462469684046 0.23266464471817017 -0.47645723819732666 -0.37628069519996643 0.4409547746181488 -0.0646502897143364 -1.467027686885558e-05 -0.47645723819732666 -0.19245509803295135 -0.7861926555633545 -0.7130655646324158 -0.2309856116771698 -0.0063211447559297085 -0.04832690209150314 -0.19245509803295135 -0.7861926555633545 -0.7130655646324158 -0.2309856116771698 -0.0063211447559297085 -0.04832690209150314 -0.3000000276599783 -0.18655202219994196 0.2999999683146288 2.221399888503225 2.2213998863319087 -9.221968180499458e-08 -9.831324224783906e-09 0.16400001559553415 1.2230138719050205e-08 -3.1891190350171704e-08 6.550607929060108e-08 -3.716265868441374e-10 1.2381873674328144e-06 8.398503897281828e-07 3.361192579406244e-08 -6.794151339193004e-08 9.482685413596736e-08 2.3085764261136457e-09 -0.2999999999986174 -0.1865520000001048 0.2999999999959955 2.2214000002885763 2.2213999998217187 4.4306705036596367e-10 -6.433287485810079e-12 0.1639999999999749 1.8130699738406393e-11 -1.5800435278542588e-12 1.579966016430084e-12 -8.920752347539238e-12

8410.68 0.2287538512507491 -1.4230420720917092 1.4746128298781804 -1.6223360994867289 -1.5707465343098654 0.2287538504843205 -0.5012758481710681 -0.39251867463096257 0.45861972971532605 -0.06607609541915828 -1.5532181061180358e-05 -0.5012758485429204 -3.102326898210682 -2.0297483216883476 2.208120956710961 -0.17822535738318787 -0.00010773798051229523 -3.1023268998499263 -0.19372226772172915 -0.7813404524263744 -0.714480620406964 -0.23057880786665036 -0.006325861208488439 -0.04874100262653106 -2.5435733751863037 -10.259000140358296 -6.653386433353731 -1.047980681753926 -0.02875103919257995 -0.22152785693758367 0.22875384986400604 -1.423042122517721 1.474612832069397 -1.622336212788717 -1.5707467238055628 0.22875384986400604 -0.5012758374214172 -0.39251866936683655 0.45861974358558655 -0.06607609242200851 -1.553218135086354e-05 -0.5012758374214172 -0.19372226297855377 -0.781340479850769 -0.7144806385040283 -0.23057880997657776 -0.006325861439108849 -0.04874100163578987 -0.19372226297855377 -0.781340479850769 -0.7144806385040283 -0.23057880997657776 -0.006325861439108849 -0.04874100163578987 -0.30000000534086674 -0.1852079848334699 0.30000002586274194 2.221400175245972 2.2214001730923743 -5.77251182102591e-08 1.0381217222693818e-08 0.1719999995028883 -1.0937846072782437e-08 1.0542289138746766e-07 -9.570661652356418e-08 -3.76058810231273e-10 -6.544797653490654e-07 -1.8144700726607051e-07 -7.813114808765201e-07 8.901081668525443e-10 1.7639758583606413e-09 4.50288256313111e-09 -0.2999999999985279 -0.18520800000024232 0.2999999999956083 2.2214000002868115 2.221399999820806 4.341462372747308e-10 -6.912376328024851e-12 0.1720000000005228 2.0021973893743685e-11 -1.7932080189097542e-12 1.7929215361525984e-12 -8.920776389722412e-12

8410.688 0.22464364025143166 -1.4262461508048618 1.478350680450789 -1.6228696669517362 -1.5707466620862256 0.2246436394818892 -0.526314267598665 -0.40844827565539155 0.47575241919777506 -0.06727800440844973 -1.64155825837215e-05 -0.5263142679962296 -3.12980242844961 -1.9912001280536218 2.1415861853061253 -0.15023862366143198 -0.00011042519031764279 -3.1298024316636504 -0.19504769560312943 -0.7762584593147192 -0.7159579327685022 -0.2301620190354632 -0.006330817196785353 -0.04917267375969335 -2.5609762432690895 -10.192273570802262 -6.667143461526846 -1.0460863765161803 -0.028773564159389427 -0.22348980223780626 0.22464364767074585 -1.4262459913836878 1.4783506393432617 -1.6228697935687464 -1.5707467238055628 0.22464363276958466 -0.5263142585754395 -0.4084482789039612 0.47575241327285767 -0.06727800518274307 -1.64155826496426e-05 -0.5263142585754395 -0.19504769146442413 -0.7762584686279297 -0.7159579396247864 -0.23016202449798584 -0.0063308170065283775 -0.049172673374414444 -0.19504769146442413 -0.7762584686279297 -0.7159579396247864 -0.23016202449798584 -0.0063308170065283775 -0.049172673374414444 -0.3000000366148141 -0.1838000057195611 0.2999999699122603 2.221400024671736 2.2214000555988935 4.095638241131992e-08 -2.2277557032055962e-09 0.18000001712264033 1.8726967903046107e-08 9.281773885755787e-09 -2.099345464754569e-08 -3.9149157017321495e-10 -2.300942453635388e-07 4.6006758576014464e-08 -1.943898883859072e-07 -1.0909081256418578e-09 -2.6682369611769294e-08 1.752152345968975e-09 -0.29999999999844595 -0.1838000000004104 0.2999999999952127 2.221400000288749 2.2213999998215455 4.3711984177902416e-10 -7.359707720589069e-12 0.18000000000121047 2.1958220298385002e-11 8.540685217552332e-13 3.162264761031115e-12 4.4607657953728286e-12

8410.696 0.22033221366351569 -1.429576379278327 1.4822233925240895 -1.6234119367172761 -1.5707467970194688 0.2203322128907759 -0.5515811670248979 -0.42405340630053884 0.49233159562603457 -0.06825086974974061 -1.732159332849364e-05 -0.551581167429491 -3.1583624282791183 -1.9506413306434114 2.072397053532439 -0.12160816766135923 -0.00011325134309651732 -3.1583624291576795 -0.19643026117462276 -0.7709466951444734 -0.717496743084514 -0.2297365842152256 -0.006336003707447618 -0.0496213830536551 -2.579129329222797 -10.122530107246938 -6.681473170951612 -1.0441527752582003 -0.028797136850349424 -0.22552918597886243 0.22033222019672394 -1.4295762220965784 1.482223391532898 -1.6234119574176233 -1.5707467238055628 0.22033222019672394 -0.5515811443328857 -0.4240534007549286 0.4923315942287445 -0.068250872194767 -1.732159398670774e-05 -0.5515811443328857 -0.1964302659034729 -0.7709466814994812 -0.7174967527389526 -0.2297365814447403 -0.006336003541946411 -0.04962138459086418 -0.1964302659034729 -0.7709466814994812 -0.7174967527389526 -0.2297365814447403 -0.006336003541946411 -0.04962138459086418 -0.30000002195703956 -0.18232801329017637 0.299999949779488 2.221399906127525 2.221399903934806 1.1860400214975113e-07 -4.485783219395209e-09 0.1880000057086571 1.5003297192127508e-08 -8.13812858354297e-08 2.1412891766318562e-08 -4.065998188097428e-10 1.1052649042277299e-06 4.41455626515888e-07 -4.1938518078283027e-07 -4.599812789367827e-08 1.379039326562278e-07 -6.9942540981855566e-09 -0.29999999999837296 -0.18232800000061172 0.2999999999948101 2.221400000288155 2.2213999998221405 4.4009344617322776e-10 -7.76949444534883e-12 0.1880000000020509 2.3936184937450148e-11 -2.0523670575461134e-12 2.052884400028053e-12 5.355958732078392e-17

8410.704 0.21581770994539515 -1.4330300962734155 1.4862264542442563 -1.6239610581617105 -1.5707469392950486 0.21581770916940538 -0.5770849183461615 -0.4393176373111843 0.5083363805710307 -0.06899024259826866 -1.8251353669536947e-05 -0.5770849187568801 -3.1879689151579487 -1.9080288763306807 2.0005981181245165 -0.09242160606600693 -0.00011622004263041349 -3.1879689159236277 -0.19786867650995776 -0.7654050538225217 -0.7190963169191539 -0.2293039011814213 -0.006341411370854968 -0.05008653385684455 -2.5980157225757456 -10.049768356689711 -6.696368722414546 -1.0421862308695597 -0.02882171468053583 -0.22764329637935848 0.21581770479679108 -1.4330299536334437 1.4862264394760132 -1.6239612738238733 -1.5707467238055628 0.21581770479679108 -0.5770848989486694 -0.43931764364242554 0.5083363652229309 -0.06899024546146393 -1.8251354049425572e-05 -0.5770848989486694 -0.19786867499351501 -0.7654050588607788 -0.719096302986145 -0.22930389642715454 -0.006341411266475916 -0.05008653551340103 -0.19786867499351501 -0.7654050588607788 -0.719096302986145 -0.22930389642715454 -0.006341411266475916 -0.05008653551340103 -0.30000003638329037 -0.18079202429668614 0.29999997548505913 2.2213999063099847 2.2213999041182726 -2.9822761230841747e-07 -1.1327826894350277e-08 0.19600001444141282 2.217204624479527e-08 1.7601273539501844e-08 1.5629367584555498e-07 -4.213359982630817e-10 -7.99828222924639e-07 -4.4071860257955874e-07 4.61191590163255e-07 4.036263472614932e-08 -8.27477091259189e-08 -7.52392659283159e-09 -0.2999999999983097 -0.18079200000084877 0.2999999999944015 2.221400000288491 2.221399999821804 4.4009344617163286e-10 -8.134471659108591e-12 0.1960000000030576 2.5949275459807798e-11 -1.1610796873487624e-12 1.160358192001531e-12 -4.460306581542672e-12

8410.712 0.21111396226750992 -1.4365926324789635 1.4903414954220628 -1.6245133311793385 -1.5707470886053665 0.21111396148820635 -0.5910061335087764 -0.4453277054539178 0.5134941195566579 -0.06813731415391508 -1.882872349968222e-05 -0.5910061339208075 -1.7401518953268635 -0.7512585178416908 0.6447173732034017 0.10661605554419806 -7.217122876815909e-05 -1.7401518954909267 -0.1061103501378834 -0.7002443998426138 -0.7507527267598268 -0.22695924143218987 -0.003176754627413086 -0.027339719780268557 -1.3932288973104092 -9.19420896993352 -6.99115954213286 -1.031529752309303 -0.014438349781592474 -0.1242590264013206 0.21111395955085754 -1.4365924040423792 1.4903415441513062 -1.6245134512530726 -1.570747200642721 0.21111395955085754 -0.5910061597824097 -0.4453276991844177 0.5134941339492798 -0.06813731044530869 -1.882872311398387e-05 -0.5910061597824097 -0.1061103492975235 -0.7002444267272949 -0.7507527470588684 -0.2269592434167862 -0.0031767545733600855 -0.027339719235897064 -0.1061103492975235 -0.7002444267272949 -0.7507527470588684 -0.2269592434167862 -0.0031767545733600855 -0.027339719235897064 -0.300000040606553 -0.17919733176581248 0.2999999201017174 2.2214000073269093 2.2214000051236567 3.0320705767458603e-07 -2.320664003635121e-09 0.20000003192633875 1.812421931225148e-08 -7.18021084691514e-08 -1.0802672208085758e-07 -4.1324226592726054e-10 -5.170549545218412e-07 -2.638244483834727e-07 -8.755162968384196e-07 8.07621714695586e-09 2.1946723485288878e-08 2.473597424092237e-09 -0.2999999999489096 -0.17919733335611396 0.2999999999770153 2.221400000288881 2.221399999821414 4.371198417539661e-10 -8.450707575529288e-12 0.20000000000424273 2.7992146378477937e-11 -1.6653480989146022e-12 1.6652876721185038e-12 -4.460367405284549e-12

8410.72 0.2063776039161467 -1.4401431603910755 1.4944283625102097 -1.625049437504872 -1.57074724005159 0.20637760313354653 -0.5931080683339547 -0.4423222865017192 0.5082492692697071 -0.0658978691487922 -1.903379359399813e-05 -0.5931080687430953 -0.2627418531472858 0.3756773690248294 -0.6556062858688455 0.2799306256403601 -2.563376178948869e-05 -0.2627418527859776 -0.012741038895706859 -0.636970002453576 -0.7810988513828339 -0.22496747786432222 1.2020750032847762e-05 -0.004127966442659693 -0.16728984070063105 -8.363416132215454 -7.273748723847226 -1.0224771868933444 5.463430889929308e-05 -0.018761607481888303 0.20637761056423187 -1.4401429335223597 1.4944283962249756 -1.6250494162188929 -1.570747200642721 0.20637761056423187 -0.593108057975769 -0.4423222839832306 0.5082492828369141 -0.0658978670835495 -1.9033794160350226e-05 -0.593108057975769 -0.01274103857576847 -0.6369699835777283 -0.7810988426208496 -0.22496747970581055 1.2020749636576511e-05 -0.0041279662400484085 -0.01274103857576847 -0.6369699835777283 -0.7810988426208496 -0.22496747970581055 1.2020749636576511e-05 -0.0041279662400484085 -0.3000000262038783 -0.17759743327974614 0.2999999132320752 2.221399868777858 2.221399866556235 3.371503211195478e-07 -3.6026108462431633e-09 0.19998668025955554 1.9501678623593046e-08 -1.6470292427491696e-07 -2.9143747077849357e-08 -4.103120494194576e-10 5.678486065607589e-07 3.532309836239352e-07 4.566229623164821e-07 -1.9229026137019125e-08 1.7197405610945879e-10 9.20058288383635e-10 -0.2999999999506308 -0.1775974222442351 0.29999999997783455 2.2214000002883316 2.2213999998219633 4.40093446123545e-10 -2.554514240773745e-10 0.19998666678056867 1.1492311643387485e-10 -2.250097721804901e-12 2.250103495548738e-12 -1.5943192946399343e-16

8410.728 0.20162419845449983 -1.4436698055233368 1.498473595861373 -1.6255677927590018 -1.570747393150011 0.20162419766868603 -0.5952407186752435 -0.43933644801021365 0.5030619571862336 -0.06369638200183622 -1.9240904533967105e-05 -0.5952407190724625 -0.26658129266110553 0.3732298114381902 -0.6484140104341951 0.2751858933694971 -2.5888867496122015e-05 -0.2665812911708948 -0.01302415716719325 -0.634022773417237 -0.7809198110777466 -0.22503950979328227 9.962999922841313e-07 -0.0041882882857293925 -0.1710071836052474 -8.324719014968322 -7.272081464718191 -1.022804572010468 4.5281834649313765e-06 -0.019035770258640086 0.20162419974803925 -1.44366962114443 1.4984736442565918 -1.6255677382098597 -1.570747200642721 0.20162419974803925 -0.5952407121658325 -0.4393364489078522 0.5030619502067566 -0.06369638442993164 -1.9240904293837957e-05 -0.5952407121658325 -0.013024156913161278 -0.6340227723121643 -0.7809197902679443 -0.2250395119190216 9.96299945654755e-07 -0.00418828846886754 -0.013024156913161278 -0.6340227723121643 -0.7809197902679443 -0.2250395119190216 9.96299945654755e-07 -0.00418828846886754 -0.3000000145064459 -0.17599754544880594 0.2999999201970276 2.2213997756105455 2.2213997733757376 2.1034454726203858e-07 -1.0798043721763617e-08 0.1999871180544223 2.2446452340886173e-08 -1.925745911229059e-07 8.811454404245135e-08 -4.073221536535915e-10 -7.83394065520301e-07 -4.512128409171691e-07 9.084000865690172e-07 5.4419158138419355e-08 -1.495863622866138e-07 -8.23865969372129e-10 -0.2999999999526249 -0.17599752594705098 0.2999999999787431 2.2214000002887975 2.221399999821497 4.400934461276873e-10 -2.4684521624595493e-10 0.19998711122117446 1.1082686949275659e-10 -1.4262292513841975e-12 1.4264253248985142e-12 -4.460455388290846e-12

8410.735999999999 0.19685377163566267 -1.447172518886516 1.5024774185016558 -1.6260686689714188 -1.5707475479082396 0.19685377084670144 -0.5973631850997256 -0.43633916148330176 0.49789638509181744 -0.06152808502243482 -1.9448736074516772e-05 -0.5973631854893439 -0.2653083030602632 0.37466081586398636 -0.6456965118020186 0.271037122425175 -2.59789425687084e-05 -0.265308302110176 -0.012985274286606624 -0.6308887453939167 -0.7808456620157055 -0.22510462580009363 8.707782229236931e-07 -0.0041682882131532095 -0.17049665138314496 -8.283569227022127 -7.271390973822653 -1.0231005242614255 3.957687023188185e-06 -0.018944869928781336 0.19685377180576324 -1.4471724669085901 1.5024774074554443 -1.6260688940631312 -1.5707476774798792 0.19685377180576324 -0.5973631739616394 -0.4363391697406769 0.49789637327194214 -0.06152808666229248 -1.9448736566118896e-05 -0.5973631739616394 -0.012985274195671082 -0.6308887600898743 -0.7808456420898438 -0.22510462999343872 8.707782512828999e-07 -0.004168288316577673 -0.012985274195671082 -0.6308887600898743 -0.7808456420898438 -0.22510462999343872 8.707782512828999e-07 -0.004168288316577673 -0.3000000286441867 -0.17439762055832703 0.30000000541968275 2.221400149656801 2.2214001474515004 -1.2718153461677523e-07 4.553056920975811e-09 0.19998764351761628 1.1996074663653743e-08 1.1877557014259876e-07 -3.3090666066880796e-08 -3.903179213757095e-10 -1.529469181117961e-06 -8.866637618974349e-07 8.683256089928069e-07 9.084445685532135e-08 -2.166360226059865e-07 -4.5735173027067803e-10 -0.29999999995454124 -0.17439762560051883 0.2999999999796157 2.2214000002877206 2.221399999819897 4.371198417556134e-10 -2.3687477668185893e-10 0.19998762973525372 1.0628419583470685e-10 -2.1249494406918148e-12 2.1257460283784827e-12 -4.4602807233208586e-12

8410.743999999999 0.192066408546414 -1.4506512056396508 1.5064400006326886 -1.6265523312020749 -1.5707477043318807 0.19206640775433695 -0.5994747495662519 -0.4333297534141811 0.49275178559396654 -0.059392884368436615 -1.9657251554441755e-05 -0.5994747499525898 -0.26394555831578403 0.3761760086400806 -0.6430749372313623 0.2669000817497758 -2.606443499062282e-05 -0.26394555790573704 -0.012941697669016053 -0.6277703109293086 -0.7807741718555878 -0.22516957529042556 8.199763541133202e-07 -0.004146877987541247 -0.16992449039418078 -8.242624182501823 -7.270725243153605 -1.023395719694984 3.7267925294450404e-06 -0.018847560453374965 0.19206640124320984 -1.450650993977682 1.5064400434494019 -1.6265524069415491 -1.5707476774798792 0.19206640124320984 -0.5994747281074524 -0.4333297610282898 0.4927517771720886 -0.059392884373664856 -1.9657250959426165e-05 -0.5994747281074524 -0.012941697612404823 -0.6277703046798706 -0.7807741761207581 -0.2251695692539215 8.19976378352294e-07 -0.004146878141909838 -0.012941697612404823 -0.6277703046798706 -0.7807741761207581 -0.2251695692539215 8.19976378352294e-07 -0.004146878141909838 -0.30000003371639583 -0.1727977276099492 0.29999992436133466 2.221399914765301 2.2213999125274935 2.096215909999202e-07 6.725378057759165e-10 0.19998814121443617 2.7474238147897718e-08 -1.1131435384461298e-07 1.109730573707972e-08 -3.8713033077624956e-10 4.927288072546222e-07 2.8392982504713365e-07 -2.8535995169027435e-07 -3.314131778940178e-08 9.119406362773734e-08 -7.067665788849291e-10 -0.2999999999563804 -0.1727977212408522 0.29999999998045374 2.221400000288362 2.221399999821933 4.400934462686217e-10 -2.2729284454401693e-10 0.19998812800259308 1.019212351475821e-10 -5.096436878884776e-13 4.525676017875161e-12 -1.0993810029003015e-16

8410.752 0.18726219816983028 -1.4541057669904882 1.5103615079851413 -1.6270190439914618 -1.570747862426236 0.1872621973747237 -0.6015749693759372 -0.4303077698976481 0.4876276477474073 -0.057290723023768704 -1.9866412526719804e-05 -0.601574969749935 -0.26252747621066663 0.37774793956663055 -0.640517230819905 0.2627701680834888 -2.6145121534756188e-05 -0.2625274746681505 -0.012895602208918664 -0.6246690857613062 -0.7807045999658684 -0.22523441400038735 7.686881306114085e-07 -0.0041245983242307206 -0.16931925700310207 -8.20190509604595 -7.270077375802159 -1.0236904116317604 3.4936875536288514e-06 -0.018746299383628623 0.18726219236850739 -1.4541056791888636 1.5103615522384644 -1.62701923051943 -1.5707476774798792 0.18726219236850739 -0.6015749573707581 -0.4303077757358551 0.48762765526771545 -0.05729072168469429 -1.9866412912961096e-05 -0.6015749573707581 -0.01289560180157423 -0.624669075012207 -0.7807046175003052 -0.22523441910743713 7.68688153129915e-07 -0.004124598111957312 -0.01289560180157423 -0.624669075012207 -0.7807046175003052 -0.22523441910743713 7.68688153129915e-07 -0.004124598111957312 -0.3000000218351228 -0.17119783066215713 0.2999999740242645 2.2213999147905503 2.2213999125530033 -2.3385963366836074e-07 -6.476076471886721e-09 0.19998861557923192 8.880595334076093e-09 1.2045519615289133e-08 1.1244739990960763e-07 -3.8386134917391124e-10 1.2146149573090897e-06 7.14149280350044e-07 -5.831949671589981e-07 -6.343687970018262e-08 1.2557840956664253e-07 9.569214960503783e-10 -0.2999999999581457 -0.1711978130288179 0.2999999999812579 2.221400000290049 2.2213999998229226 4.400934462957728e-10 -2.1809737875086894e-10 0.19998860620425965 9.77309455611438e-11 -1.471442579026934e-12 1.4714428293218612e-12 -4.46021171385258e-12

