mkrssg/UniversalRobots/rtde_client_3.5/examples/simulation/movel_distance-y=400_singularity_simulation.csv
timestamp target_q_0 target_q_1 target_q_2 target_q_3 target_q_4 target_q_5 target_qd_0 target_qd_1 target_qd_2 target_qd_3 target_qd_4 target_qd_5 target_qdd_0 target_qdd_1 target_qdd_2 target_qdd_3 target_qdd_4 target_qdd_5 target_current_0 target_current_1 target_current_2 target_current_3 target_current_4 target_current_5 target_moment_0 target_moment_1 target_moment_2 target_moment_3 target_moment_4 target_moment_5 actual_q_0 actual_q_1 actual_q_2 actual_q_3 actual_q_4 actual_q_5 actual_qd_0 actual_qd_1 actual_qd_2 actual_qd_3 actual_qd_4 actual_qd_5 actual_current_0 actual_current_1 actual_current_2 actual_current_3 actual_current_4 actual_current_5 joint_control_output_0 joint_control_output_1 joint_control_output_2 joint_control_output_3 joint_control_output_4 joint_control_output_5 actual_TCP_pose_0 actual_TCP_pose_1 actual_TCP_pose_2 actual_TCP_pose_3 actual_TCP_pose_4 actual_TCP_pose_5 actual_TCP_speed_0 actual_TCP_speed_1 actual_TCP_speed_2 actual_TCP_speed_3 actual_TCP_speed_4 actual_TCP_speed_5 actual_TCP_force_0 actual_TCP_force_1 actual_TCP_force_2 actual_TCP_force_3 actual_TCP_force_4 actual_TCP_force_5 target_TCP_pose_0 target_TCP_pose_1 target_TCP_pose_2 target_TCP_pose_3 target_TCP_pose_4 target_TCP_pose_5 target_TCP_speed_0 target_TCP_speed_1 target_TCP_speed_2 target_TCP_speed_3 target_TCP_speed_4 target_TCP_speed_5

6533.016 1.6859930100659828 -1.8112120316154332 2.2434041872278065 -3.082737572612414 -0.6867137913316546 -0.9028835835801328 0.0 0.0 0.0 0.0 0.0 0.0 0.0 0.0 0.0 0.0 0.0 0.0 -2.809682649266324e-17 -0.26344899448883347 -0.6654339807748542 -0.14398658301589148 0.023373097702036435 0.0 -3.689113318486684e-16 -3.4590852976383832 -6.196654315771598 -0.6544190198072267 0.1062307290557556 0.0 1.685992956161499 -1.811211887990133 2.2434041500091553 -3.0827375094043177 -0.686713997517721 -0.9028833548175257 0.0 0.0 0.0 0.0 0.0 0.0 -2.809682732297644e-17 -0.2634489834308624 -0.6654340028762817 -0.14398658275604248 0.02337309718132019 0.0 -2.809682732297644e-17 -0.2634489834308624 -0.6654340028762817 -0.14398658275604248 0.02337309718132019 0.0 0.19999998371177274 -0.200000056328117 0.3499999669766873 -1.6275984000564965 1.6275992523036356 -1.6275984987733068 0.0 0.0 0.0 0.0 0.0 0.0 -1.3199318637478946e-06 1.2333740081347704e-06 -4.3381450337005617e-07 2.7276258550179936e-08 3.758082826727451e-08 1.7311665561377394e-08 0.19999999999999998 -0.19999999999999984 0.35000000000000014 -1.627598728468436 1.627598728468436 -1.6275987284684361 0.0 0.0 0.0 0.0 0.0 0.0

6533.023999999999 1.6859930100659828 -1.8112120316154332 2.2434041872278065 -3.082737572612414 -0.6867137913316546 -0.9028835835801328 0.0 0.0 0.0 0.0 0.0 0.0 0.0 0.0 0.0 0.0 0.0 0.0 -2.809682649266324e-17 -0.26344899448883347 -0.6654339807748542 -0.14398658301589148 0.023373097702036435 0.0 -3.689113318486684e-16 -3.4590852976383832 -6.196654315771598 -0.6544190198072267 0.1062307290557556 0.0 1.685992956161499 -1.811211887990133 2.2434041500091553 -3.0827375094043177 -0.686713997517721 -0.9028833548175257 0.0 0.0 0.0 0.0 0.0 0.0 -2.809682732297644e-17 -0.2634489834308624 -0.6654340028762817 -0.14398658275604248 0.02337309718132019 0.0 -2.809682732297644e-17 -0.2634489834308624 -0.6654340028762817 -0.14398658275604248 0.02337309718132019 0.0 0.19999998371177274 -0.200000056328117 0.3499999669766873 -1.6275984000564965 1.6275992523036356 -1.6275984987733068 0.0 0.0 0.0 0.0 0.0 0.0 -1.3199318637478946e-06 1.2333740081347704e-06 -4.3381450337005617e-07 2.7276258550179936e-08 3.758082826727451e-08 1.7311665561377394e-08 0.19999999999999998 -0.19999999999999984 0.35000000000000014 -1.627598728468436 1.627598728468436 -1.6275987284684361 0.0 0.0 0.0 0.0 0.0 0.0

6533.032 1.6859930100659828 -1.8112120316154332 2.2434041872278065 -3.082737572612414 -0.6867137913316546 -0.9028835835801328 0.0 0.0 0.0 0.0 0.0 0.0 0.0 0.0 0.0 0.0 0.0 0.0 -2.809682649266324e-17 -0.26344899448883347 -0.6654339807748542 -0.14398658301589148 0.023373097702036435 0.0 -3.689113318486684e-16 -3.4590852976383832 -6.196654315771598 -0.6544190198072267 0.1062307290557556 0.0 1.685992956161499 -1.811211887990133 2.2434041500091553 -3.0827375094043177 -0.686713997517721 -0.9028833548175257 0.0 0.0 0.0 0.0 0.0 0.0 -2.809682732297644e-17 -0.2634489834308624 -0.6654340028762817 -0.14398658275604248 0.02337309718132019 0.0 -2.809682732297644e-17 -0.2634489834308624 -0.6654340028762817 -0.14398658275604248 0.02337309718132019 0.0 0.19999998371177274 -0.200000056328117 0.3499999669766873 -1.6275984000564965 1.6275992523036356 -1.6275984987733068 0.0 0.0 0.0 0.0 0.0 0.0 -1.3199318637478946e-06 1.2333740081347704e-06 -4.3381450337005617e-07 2.7276258550179936e-08 3.758082826727451e-08 1.7311665561377394e-08 0.19999999999999998 -0.19999999999999984 0.35000000000000014 -1.627598728468436 1.627598728468436 -1.6275987284684361 0.0 0.0 0.0 0.0 0.0 0.0

6533.04 1.6859930100659828 -1.8112120316154332 2.2434041872278065 -3.082737572612414 -0.6867137913316546 -0.9028835835801328 0.0 0.0 0.0 0.0 0.0 0.0 0.0 0.0 0.0 0.0 0.0 0.0 -2.809682649266324e-17 -0.26344899448883347 -0.6654339807748542 -0.14398658301589148 0.023373097702036435 0.0 -3.689113318486684e-16 -3.4590852976383832 -6.196654315771598 -0.6544190198072267 0.1062307290557556 0.0 1.685992956161499 -1.811211887990133 2.2434041500091553 -3.0827375094043177 -0.686713997517721 -0.9028833548175257 0.0 0.0 0.0 0.0 0.0 0.0 -2.809682732297644e-17 -0.2634489834308624 -0.6654340028762817 -0.14398658275604248 0.02337309718132019 0.0 -2.809682732297644e-17 -0.2634489834308624 -0.6654340028762817 -0.14398658275604248 0.02337309718132019 0.0 0.19999998371177274 -0.200000056328117 0.3499999669766873 -1.6275984000564965 1.6275992523036356 -1.6275984987733068 0.0 0.0 0.0 0.0 0.0 0.0 -1.3199318637478946e-06 1.2333740081347704e-06 -4.3381450337005617e-07 2.7276258550179936e-08 3.758082826727451e-08 1.7311665561377394e-08 0.19999999999999998 -0.19999999999999984 0.35000000000000014 -1.627598728468436 1.627598728468436 -1.6275987284684361 0.0 0.0 0.0 0.0 0.0 0.0

6533.048 1.6859930100659828 -1.8112120316154332 2.2434041872278065 -3.082737572612414 -0.6867137913316546 -0.9028835835801328 0.0 0.0 0.0 0.0 0.0 0.0 0.0 0.0 0.0 0.0 0.0 0.0 -2.809682649266324e-17 -0.26344899448883347 -0.6654339807748542 -0.14398658301589148 0.023373097702036435 0.0 -3.689113318486684e-16 -3.4590852976383832 -6.196654315771598 -0.6544190198072267 0.1062307290557556 0.0 1.685992956161499 -1.811211887990133 2.2434041500091553 -3.0827375094043177 -0.686713997517721 -0.9028833548175257 0.0 0.0 0.0 0.0 0.0 0.0 -2.809682732297644e-17 -0.2634489834308624 -0.6654340028762817 -0.14398658275604248 0.02337309718132019 0.0 -2.809682732297644e-17 -0.2634489834308624 -0.6654340028762817 -0.14398658275604248 0.02337309718132019 0.0 0.19999998371177274 -0.200000056328117 0.3499999669766873 -1.6275984000564965 1.6275992523036356 -1.6275984987733068 0.0 0.0 0.0 0.0 0.0 0.0 -1.3199318637478946e-06 1.2333740081347704e-06 -4.3381450337005617e-07 2.7276258550179936e-08 3.758082826727451e-08 1.7311665561377394e-08 0.19999999999999998 -0.19999999999999984 0.35000000000000014 -1.627598728468436 1.627598728468436 -1.6275987284684361 0.0 0.0 0.0 0.0 0.0 0.0

6533.056 1.6859930100659828 -1.8112120316154332 2.2434041872278065 -3.082737572612414 -0.6867137913316546 -0.9028835835801328 0.0 0.0 0.0 0.0 0.0 0.0 0.0 0.0 0.0 0.0 0.0 0.0 -2.809682649266324e-17 -0.26344899448883347 -0.6654339807748542 -0.14398658301589148 0.023373097702036435 0.0 -3.689113318486684e-16 -3.4590852976383832 -6.196654315771598 -0.6544190198072267 0.1062307290557556 0.0 1.685992956161499 -1.811211887990133 2.2434041500091553 -3.0827375094043177 -0.686713997517721 -0.9028833548175257 0.0 0.0 0.0 0.0 0.0 0.0 -2.809682732297644e-17 -0.2634489834308624 -0.6654340028762817 -0.14398658275604248 0.02337309718132019 0.0 -2.809682732297644e-17 -0.2634489834308624 -0.6654340028762817 -0.14398658275604248 0.02337309718132019 0.0 0.19999998371177274 -0.200000056328117 0.3499999669766873 -1.6275984000564965 1.6275992523036356 -1.6275984987733068 0.0 0.0 0.0 0.0 0.0 0.0 -1.3199318637478946e-06 1.2333740081347704e-06 -4.3381450337005617e-07 2.7276258550179936e-08 3.758082826727451e-08 1.7311665561377394e-08 0.19999999999999998 -0.19999999999999984 0.35000000000000014 -1.627598728468436 1.627598728468436 -1.6275987284684361 0.0 0.0 0.0 0.0 0.0 0.0

6533.063999999999 1.6859930100659828 -1.8112120316154332 2.2434041872278065 -3.082737572612414 -0.6867137913316546 -0.9028835835801328 0.0 0.0 0.0 0.0 0.0 0.0 0.0 0.0 0.0 0.0 0.0 0.0 -2.809682649266324e-17 -0.26344899448883347 -0.6654339807748542 -0.14398658301589148 0.023373097702036435 0.0 -3.689113318486684e-16 -3.4590852976383832 -6.196654315771598 -0.6544190198072267 0.1062307290557556 0.0 1.685992956161499 -1.811211887990133 2.2434041500091553 -3.0827375094043177 -0.686713997517721 -0.9028833548175257 0.0 0.0 0.0 0.0 0.0 0.0 -2.809682732297644e-17 -0.2634489834308624 -0.6654340028762817 -0.14398658275604248 0.02337309718132019 0.0 -2.809682732297644e-17 -0.2634489834308624 -0.6654340028762817 -0.14398658275604248 0.02337309718132019 0.0 0.19999998371177274 -0.200000056328117 0.3499999669766873 -1.6275984000564965 1.6275992523036356 -1.6275984987733068 0.0 0.0 0.0 0.0 0.0 0.0 -1.3199318637478946e-06 1.2333740081347704e-06 -4.3381450337005617e-07 2.7276258550179936e-08 3.758082826727451e-08 1.7311665561377394e-08 0.19999999999999998 -0.19999999999999984 0.35000000000000014 -1.627598728468436 1.627598728468436 -1.6275987284684361 0.0 0.0 0.0 0.0 0.0 0.0

6533.072 1.6859930100659828 -1.8112120316154332 2.2434041872278065 -3.082737572612414 -0.6867137913316546 -0.9028835835801328 0.0 0.0 0.0 0.0 0.0 0.0 0.0 0.0 0.0 0.0 0.0 0.0 -2.809682649266324e-17 -0.26344899448883347 -0.6654339807748542 -0.14398658301589148 0.023373097702036435 0.0 -3.689113318486684e-16 -3.4590852976383832 -6.196654315771598 -0.6544190198072267 0.1062307290557556 0.0 1.685992956161499 -1.811211887990133 2.2434041500091553 -3.0827375094043177 -0.686713997517721 -0.9028833548175257 0.0 0.0 0.0 0.0 0.0 0.0 -2.809682732297644e-17 -0.2634489834308624 -0.6654340028762817 -0.14398658275604248 0.02337309718132019 0.0 -2.809682732297644e-17 -0.2634489834308624 -0.6654340028762817 -0.14398658275604248 0.02337309718132019 0.0 0.19999998371177274 -0.200000056328117 0.3499999669766873 -1.6275984000564965 1.6275992523036356 -1.6275984987733068 0.0 0.0 0.0 0.0 0.0 0.0 -1.3199318637478946e-06 1.2333740081347704e-06 -4.3381450337005617e-07 2.7276258550179936e-08 3.758082826727451e-08 1.7311665561377394e-08 0.19999999999999998 -0.19999999999999984 0.35000000000000014 -1.627598728468436 1.627598728468436 -1.6275987284684361 0.0 0.0 0.0 0.0 0.0 0.0

6533.08 1.6859930100659828 -1.8112120316154332 2.2434041872278065 -3.082737572612414 -0.6867137913316546 -0.9028835835801328 0.0 0.0 0.0 0.0 0.0 0.0 0.0 0.0 0.0 0.0 0.0 0.0 -2.809682649266324e-17 -0.26344899448883347 -0.6654339807748542 -0.14398658301589148 0.023373097702036435 0.0 -3.689113318486684e-16 -3.4590852976383832 -6.196654315771598 -0.6544190198072267 0.1062307290557556 0.0 1.685992956161499 -1.811211887990133 2.2434041500091553 -3.0827375094043177 -0.686713997517721 -0.9028833548175257 0.0 0.0 0.0 0.0 0.0 0.0 -2.809682732297644e-17 -0.2634489834308624 -0.6654340028762817 -0.14398658275604248 0.02337309718132019 0.0 -2.809682732297644e-17 -0.2634489834308624 -0.6654340028762817 -0.14398658275604248 0.02337309718132019 0.0 0.19999998371177274 -0.200000056328117 0.3499999669766873 -1.6275984000564965 1.6275992523036356 -1.6275984987733068 0.0 0.0 0.0 0.0 0.0 0.0 -1.3199318637478946e-06 1.2333740081347704e-06 -4.3381450337005617e-07 2.7276258550179936e-08 3.758082826727451e-08 1.7311665561377394e-08 0.19999999999999998 -0.19999999999999984 0.35000000000000014 -1.627598728468436 1.627598728468436 -1.6275987284684361 0.0 0.0 0.0 0.0 0.0 0.0

6533.088 1.6859930100659828 -1.8112120316154332 2.2434041872278065 -3.082737572612414 -0.6867137913316546 -0.9028835835801328 0.0 0.0 0.0 0.0 0.0 0.0 0.0 0.0 0.0 0.0 0.0 0.0 -2.809682649266324e-17 -0.26344899448883347 -0.6654339807748542 -0.14398658301589148 0.023373097702036435 0.0 -3.689113318486684e-16 -3.4590852976383832 -6.196654315771598 -0.6544190198072267 0.1062307290557556 0.0 1.685992956161499 -1.811211887990133 2.2434041500091553 -3.0827375094043177 -0.686713997517721 -0.9028833548175257 0.0 0.0 0.0 0.0 0.0 0.0 -2.809682732297644e-17 -0.2634489834308624 -0.6654340028762817 -0.14398658275604248 0.02337309718132019 0.0 -2.809682732297644e-17 -0.2634489834308624 -0.6654340028762817 -0.14398658275604248 0.02337309718132019 0.0 0.19999998371177274 -0.200000056328117 0.3499999669766873 -1.6275984000564965 1.6275992523036356 -1.6275984987733068 0.0 0.0 0.0 0.0 0.0 0.0 -1.3199318637478946e-06 1.2333740081347704e-06 -4.3381450337005617e-07 2.7276258550179936e-08 3.758082826727451e-08 1.7311665561377394e-08 0.19999999999999998 -0.19999999999999984 0.35000000000000014 -1.627598728468436 1.627598728468436 -1.6275987284684361 0.0 0.0 0.0 0.0 0.0 0.0

6533.096 1.6859930100659828 -1.8112120316154332 2.2434041872278065 -3.082737572612414 -0.6867137913316546 -0.9028835835801328 0.0 0.0 0.0 0.0 0.0 0.0 0.0 0.0 0.0 0.0 0.0 0.0 -2.809682649266324e-17 -0.26344899448883347 -0.6654339807748542 -0.14398658301589148 0.023373097702036435 0.0 -3.689113318486684e-16 -3.4590852976383832 -6.196654315771598 -0.6544190198072267 0.1062307290557556 0.0 1.685992956161499 -1.811211887990133 2.2434041500091553 -3.0827375094043177 -0.686713997517721 -0.9028833548175257 0.0 0.0 0.0 0.0 0.0 0.0 -2.809682732297644e-17 -0.2634489834308624 -0.6654340028762817 -0.14398658275604248 0.02337309718132019 0.0 -2.809682732297644e-17 -0.2634489834308624 -0.6654340028762817 -0.14398658275604248 0.02337309718132019 0.0 0.19999998371177274 -0.200000056328117 0.3499999669766873 -1.6275984000564965 1.6275992523036356 -1.6275984987733068 0.0 0.0 0.0 0.0 0.0 0.0 -1.3199318637478946e-06 1.2333740081347704e-06 -4.3381450337005617e-07 2.7276258550179936e-08 3.758082826727451e-08 1.7311665561377394e-08 0.19999999999999998 -0.19999999999999984 0.35000000000000014 -1.627598728468436 1.627598728468436 -1.6275987284684361 0.0 0.0 0.0 0.0 0.0 0.0

6533.103999999999 1.6859930100659828 -1.8112120316154332 2.2434041872278065 -3.082737572612414 -0.6867137913316546 -0.9028835835801328 0.0 0.0 0.0 0.0 0.0 0.0 0.0 0.0 0.0 0.0 0.0 0.0 -2.809682649266324e-17 -0.26344899448883347 -0.6654339807748542 -0.14398658301589148 0.023373097702036435 0.0 -3.689113318486684e-16 -3.4590852976383832 -6.196654315771598 -0.6544190198072267 0.1062307290557556 0.0 1.685992956161499 -1.811211887990133 2.2434041500091553 -3.0827375094043177 -0.686713997517721 -0.9028833548175257 0.0 0.0 0.0 0.0 0.0 0.0 -2.809682732297644e-17 -0.2634489834308624 -0.6654340028762817 -0.14398658275604248 0.02337309718132019 0.0 -2.809682732297644e-17 -0.2634489834308624 -0.6654340028762817 -0.14398658275604248 0.02337309718132019 0.0 0.19999998371177274 -0.200000056328117 0.3499999669766873 -1.6275984000564965 1.6275992523036356 -1.6275984987733068 0.0 0.0 0.0 0.0 0.0 0.0 -1.3199318637478946e-06 1.2333740081347704e-06 -4.3381450337005617e-07 2.7276258550179936e-08 3.758082826727451e-08 1.7311665561377394e-08 0.19999999999999998 -0.19999999999999984 0.35000000000000014 -1.627598728468436 1.627598728468436 -1.6275987284684361 0.0 0.0 0.0 0.0 0.0 0.0

6533.112 1.6859930100659828 -1.8112120316154332 2.2434041872278065 -3.082737572612414 -0.6867137913316546 -0.9028835835801328 0.0 0.0 0.0 0.0 0.0 0.0 0.0 0.0 0.0 0.0 0.0 0.0 -2.809682649266324e-17 -0.26344899448883347 -0.6654339807748542 -0.14398658301589148 0.023373097702036435 0.0 -3.689113318486684e-16 -3.4590852976383832 -6.196654315771598 -0.6544190198072267 0.1062307290557556 0.0 1.685992956161499 -1.811211887990133 2.2434041500091553 -3.0827375094043177 -0.686713997517721 -0.9028833548175257 0.0 0.0 0.0 0.0 0.0 0.0 -2.809682732297644e-17 -0.2634489834308624 -0.6654340028762817 -0.14398658275604248 0.02337309718132019 0.0 -2.809682732297644e-17 -0.2634489834308624 -0.6654340028762817 -0.14398658275604248 0.02337309718132019 0.0 0.19999998371177274 -0.200000056328117 0.3499999669766873 -1.6275984000564965 1.6275992523036356 -1.6275984987733068 0.0 0.0 0.0 0.0 0.0 0.0 -1.3199318637478946e-06 1.2333740081347704e-06 -4.3381450337005617e-07 2.7276258550179936e-08 3.758082826727451e-08 1.7311665561377394e-08 0.19999999999999998 -0.19999999999999984 0.35000000000000014 -1.627598728468436 1.627598728468436 -1.6275987284684361 0.0 0.0 0.0 0.0 0.0 0.0

6533.12 1.6859930100659828 -1.8112120316154332 2.2434041872278065 -3.082737572612414 -0.6867137913316546 -0.9028835835801328 0.0 0.0 0.0 0.0 0.0 0.0 0.0 0.0 0.0 0.0 0.0 0.0 -2.809682649266324e-17 -0.26344899448883347 -0.6654339807748542 -0.14398658301589148 0.023373097702036435 0.0 -3.689113318486684e-16 -3.4590852976383832 -6.196654315771598 -0.6544190198072267 0.1062307290557556 0.0 1.685992956161499 -1.811211887990133 2.2434041500091553 -3.0827375094043177 -0.686713997517721 -0.9028833548175257 0.0 0.0 0.0 0.0 0.0 0.0 -2.809682732297644e-17 -0.2634489834308624 -0.6654340028762817 -0.14398658275604248 0.02337309718132019 0.0 -2.809682732297644e-17 -0.2634489834308624 -0.6654340028762817 -0.14398658275604248 0.02337309718132019 0.0 0.19999998371177274 -0.200000056328117 0.3499999669766873 -1.6275984000564965 1.6275992523036356 -1.6275984987733068 0.0 0.0 0.0 0.0 0.0 0.0 -1.3199318637478946e-06 1.2333740081347704e-06 -4.3381450337005617e-07 2.7276258550179936e-08 3.758082826727451e-08 1.7311665561377394e-08 0.19999999999999998 -0.19999999999999984 0.35000000000000014 -1.627598728468436 1.627598728468436 -1.6275987284684361 0.0 0.0 0.0 0.0 0.0 0.0

6533.128 1.6859930100659828 -1.8112120316154332 2.2434041872278065 -3.082737572612414 -0.6867137913316546 -0.9028835835801328 0.0 0.0 0.0 0.0 0.0 0.0 0.0 0.0 0.0 0.0 0.0 0.0 -2.809682649266324e-17 -0.26344899448883347 -0.6654339807748542 -0.14398658301589148 0.023373097702036435 0.0 -3.689113318486684e-16 -3.4590852976383832 -6.196654315771598 -0.6544190198072267 0.1062307290557556 0.0 1.685992956161499 -1.811211887990133 2.2434041500091553 -3.0827375094043177 -0.686713997517721 -0.9028833548175257 0.0 0.0 0.0 0.0 0.0 0.0 -2.809682732297644e-17 -0.2634489834308624 -0.6654340028762817 -0.14398658275604248 0.02337309718132019 0.0 -2.809682732297644e-17 -0.2634489834308624 -0.6654340028762817 -0.14398658275604248 0.02337309718132019 0.0 0.19999998371177274 -0.200000056328117 0.3499999669766873 -1.6275984000564965 1.6275992523036356 -1.6275984987733068 0.0 0.0 0.0 0.0 0.0 0.0 -1.3199318637478946e-06 1.2333740081347704e-06 -4.3381450337005617e-07 2.7276258550179936e-08 3.758082826727451e-08 1.7311665561377394e-08 0.19999999999999998 -0.19999999999999984 0.35000000000000014 -1.627598728468436 1.627598728468436 -1.6275987284684361 0.0 0.0 0.0 0.0 0.0 0.0

6533.1359999999995 1.6859930100659828 -1.8112120316154332 2.2434041872278065 -3.082737572612414 -0.6867137913316546 -0.9028835835801328 0.0 0.0 0.0 0.0 0.0 0.0 0.0 0.0 0.0 0.0 0.0 0.0 -2.809682649266324e-17 -0.26344899448883347 -0.6654339807748542 -0.14398658301589148 0.023373097702036435 0.0 -3.689113318486684e-16 -3.4590852976383832 -6.196654315771598 -0.6544190198072267 0.1062307290557556 0.0 1.685992956161499 -1.811211887990133 2.2434041500091553 -3.0827375094043177 -0.686713997517721 -0.9028833548175257 0.0 0.0 0.0 0.0 0.0 0.0 -2.809682732297644e-17 -0.2634489834308624 -0.6654340028762817 -0.14398658275604248 0.02337309718132019 0.0 -2.809682732297644e-17 -0.2634489834308624 -0.6654340028762817 -0.14398658275604248 0.02337309718132019 0.0 0.19999998371177274 -0.200000056328117 0.3499999669766873 -1.6275984000564965 1.6275992523036356 -1.6275984987733068 0.0 0.0 0.0 0.0 0.0 0.0 -1.3199318637478946e-06 1.2333740081347704e-06 -4.3381450337005617e-07 2.7276258550179936e-08 3.758082826727451e-08 1.7311665561377394e-08 0.19999999999999998 -0.19999999999999984 0.35000000000000014 -1.627598728468436 1.627598728468436 -1.6275987284684361 0.0 0.0 0.0 0.0 0.0 0.0

6533.143999999999 1.6859930100659828 -1.8112120316154332 2.2434041872278065 -3.082737572612414 -0.6867137913316546 -0.9028835835801328 0.0 0.0 0.0 0.0 0.0 0.0 0.0 0.0 0.0 0.0 0.0 0.0 -2.809682649266324e-17 -0.26344899448883347 -0.6654339807748542 -0.14398658301589148 0.023373097702036435 0.0 -3.689113318486684e-16 -3.4590852976383832 -6.196654315771598 -0.6544190198072267 0.1062307290557556 0.0 1.685992956161499 -1.811211887990133 2.2434041500091553 -3.0827375094043177 -0.686713997517721 -0.9028833548175257 0.0 0.0 0.0 0.0 0.0 0.0 -2.809682732297644e-17 -0.2634489834308624 -0.6654340028762817 -0.14398658275604248 0.02337309718132019 0.0 -2.809682732297644e-17 -0.2634489834308624 -0.6654340028762817 -0.14398658275604248 0.02337309718132019 0.0 0.19999998371177274 -0.200000056328117 0.3499999669766873 -1.6275984000564965 1.6275992523036356 -1.6275984987733068 0.0 0.0 0.0 0.0 0.0 0.0 -1.3199318637478946e-06 1.2333740081347704e-06 -4.3381450337005617e-07 2.7276258550179936e-08 3.758082826727451e-08 1.7311665561377394e-08 0.19999999999999998 -0.19999999999999984 0.35000000000000014 -1.627598728468436 1.627598728468436 -1.6275987284684361 0.0 0.0 0.0 0.0 0.0 0.0

6533.152 1.6859930100659828 -1.8112120316154332 2.2434041872278065 -3.082737572612414 -0.6867137913316546 -0.9028835835801328 0.0 0.0 0.0 0.0 0.0 0.0 0.0 0.0 0.0 0.0 0.0 0.0 -2.809682649266324e-17 -0.26344899448883347 -0.6654339807748542 -0.14398658301589148 0.023373097702036435 0.0 -3.689113318486684e-16 -3.4590852976383832 -6.196654315771598 -0.6544190198072267 0.1062307290557556 0.0 1.685992956161499 -1.811211887990133 2.2434041500091553 -3.0827375094043177 -0.686713997517721 -0.9028833548175257 0.0 0.0 0.0 0.0 0.0 0.0 -2.809682732297644e-17 -0.2634489834308624 -0.6654340028762817 -0.14398658275604248 0.02337309718132019 0.0 -2.809682732297644e-17 -0.2634489834308624 -0.6654340028762817 -0.14398658275604248 0.02337309718132019 0.0 0.19999998371177274 -0.200000056328117 0.3499999669766873 -1.6275984000564965 1.6275992523036356 -1.6275984987733068 0.0 0.0 0.0 0.0 0.0 0.0 -1.3199318637478946e-06 1.2333740081347704e-06 -4.3381450337005617e-07 2.7276258550179936e-08 3.758082826727451e-08 1.7311665561377394e-08 0.19999999999999998 -0.19999999999999984 0.35000000000000014 -1.627598728468436 1.627598728468436 -1.6275987284684361 0.0 0.0 0.0 0.0 0.0 0.0

6533.16 1.6859930100659828 -1.8112120316154332 2.2434041872278065 -3.082737572612414 -0.6867137913316546 -0.9028835835801328 0.0 0.0 0.0 0.0 0.0 0.0 0.0 0.0 0.0 0.0 0.0 0.0 -2.809682649266324e-17 -0.26344899448883347 -0.6654339807748542 -0.14398658301589148 0.023373097702036435 0.0 -3.689113318486684e-16 -3.4590852976383832 -6.196654315771598 -0.6544190198072267 0.1062307290557556 0.0 1.685992956161499 -1.811211887990133 2.2434041500091553 -3.0827375094043177 -0.686713997517721 -0.9028833548175257 0.0 0.0 0.0 0.0 0.0 0.0 -2.809682732297644e-17 -0.2634489834308624 -0.6654340028762817 -0.14398658275604248 0.02337309718132019 0.0 -2.809682732297644e-17 -0.2634489834308624 -0.6654340028762817 -0.14398658275604248 0.02337309718132019 0.0 0.19999998371177274 -0.200000056328117 0.3499999669766873 -1.6275984000564965 1.6275992523036356 -1.6275984987733068 0.0 0.0 0.0 0.0 0.0 0.0 -1.3199318637478946e-06 1.2333740081347704e-06 -4.3381450337005617e-07 2.7276258550179936e-08 3.758082826727451e-08 1.7311665561377394e-08 0.19999999999999998 -0.19999999999999984 0.35000000000000014 -1.627598728468436 1.627598728468436 -1.6275987284684361 0.0 0.0 0.0 0.0 0.0 0.0

6533.168 1.6859930100659828 -1.8112120316154332 2.2434041872278065 -3.082737572612414 -0.6867137913316546 -0.9028835835801328 0.0 0.0 0.0 0.0 0.0 0.0 0.0 0.0 0.0 0.0 0.0 0.0 -2.809682649266324e-17 -0.26344899448883347 -0.6654339807748542 -0.14398658301589148 0.023373097702036435 0.0 -3.689113318486684e-16 -3.4590852976383832 -6.196654315771598 -0.6544190198072267 0.1062307290557556 0.0 1.685992956161499 -1.811211887990133 2.2434041500091553 -3.0827375094043177 -0.686713997517721 -0.9028833548175257 0.0 0.0 0.0 0.0 0.0 0.0 -2.809682732297644e-17 -0.2634489834308624 -0.6654340028762817 -0.14398658275604248 0.02337309718132019 0.0 -2.809682732297644e-17 -0.2634489834308624 -0.6654340028762817 -0.14398658275604248 0.02337309718132019 0.0 0.19999998371177274 -0.200000056328117 0.3499999669766873 -1.6275984000564965 1.6275992523036356 -1.6275984987733068 0.0 0.0 0.0 0.0 0.0 0.0 -1.3199318637478946e-06 1.2333740081347704e-06 -4.3381450337005617e-07 2.7276258550179936e-08 3.758082826727451e-08 1.7311665561377394e-08 0.19999999999999998 -0.19999999999999984 0.35000000000000014 -1.627598728468436 1.627598728468436 -1.6275987284684361 0.0 0.0 0.0 0.0 0.0 0.0

6533.1759999999995 1.6859930100659828 -1.8112120316154332 2.2434041872278065 -3.082737572612414 -0.6867137913316546 -0.9028835835801328 0.0 0.0 0.0 0.0 0.0 0.0 0.0 0.0 0.0 0.0 0.0 0.0 -2.809682649266324e-17 -0.26344899448883347 -0.6654339807748542 -0.14398658301589148 0.023373097702036435 0.0 -3.689113318486684e-16 -3.4590852976383832 -6.196654315771598 -0.6544190198072267 0.1062307290557556 0.0 1.685992956161499 -1.811211887990133 2.2434041500091553 -3.0827375094043177 -0.686713997517721 -0.9028833548175257 0.0 0.0 0.0 0.0 0.0 0.0 -2.809682732297644e-17 -0.2634489834308624 -0.6654340028762817 -0.14398658275604248 0.02337309718132019 0.0 -2.809682732297644e-17 -0.2634489834308624 -0.6654340028762817 -0.14398658275604248 0.02337309718132019 0.0 0.19999998371177274 -0.200000056328117 0.3499999669766873 -1.6275984000564965 1.6275992523036356 -1.6275984987733068 0.0 0.0 0.0 0.0 0.0 0.0 -1.3199318637478946e-06 1.2333740081347704e-06 -4.3381450337005617e-07 2.7276258550179936e-08 3.758082826727451e-08 1.7311665561377394e-08 0.19999999999999998 -0.19999999999999984 0.35000000000000014 -1.627598728468436 1.627598728468436 -1.6275987284684361 0.0 0.0 0.0 0.0 0.0 0.0

6533.183999999999 1.6859930100659828 -1.8112120316154332 2.2434041872278065 -3.082737572612414 -0.6867137913316546 -0.9028835835801328 0.0 0.0 0.0 0.0 0.0 0.0 0.0 0.0 0.0 0.0 0.0 0.0 -2.809682649266324e-17 -0.26344899448883347 -0.6654339807748542 -0.14398658301589148 0.023373097702036435 0.0 -3.689113318486684e-16 -3.4590852976383832 -6.196654315771598 -0.6544190198072267 0.1062307290557556 0.0 1.685992956161499 -1.811211887990133 2.2434041500091553 -3.0827375094043177 -0.686713997517721 -0.9028833548175257 0.0 0.0 0.0 0.0 0.0 0.0 -2.809682732297644e-17 -0.2634489834308624 -0.6654340028762817 -0.14398658275604248 0.02337309718132019 0.0 -2.809682732297644e-17 -0.2634489834308624 -0.6654340028762817 -0.14398658275604248 0.02337309718132019 0.0 0.19999998371177274 -0.200000056328117 0.3499999669766873 -1.6275984000564965 1.6275992523036356 -1.6275984987733068 0.0 0.0 0.0 0.0 0.0 0.0 -1.3199318637478946e-06 1.2333740081347704e-06 -4.3381450337005617e-07 2.7276258550179936e-08 3.758082826727451e-08 1.7311665561377394e-08 0.19999999999999998 -0.19999999999999984 0.35000000000000014 -1.627598728468436 1.627598728468436 -1.6275987284684361 0.0 0.0 0.0 0.0 0.0 0.0

6533.192 1.6859930100659828 -1.8112120316154332 2.2434041872278065 -3.082737572612414 -0.6867137913316546 -0.9028835835801328 0.0 0.0 0.0 0.0 0.0 0.0 0.0 0.0 0.0 0.0 0.0 0.0 -2.809682649266324e-17 -0.26344899448883347 -0.6654339807748542 -0.14398658301589148 0.023373097702036435 0.0 -3.689113318486684e-16 -3.4590852976383832 -6.196654315771598 -0.6544190198072267 0.1062307290557556 0.0 1.685992956161499 -1.811211887990133 2.2434041500091553 -3.0827375094043177 -0.686713997517721 -0.9028833548175257 0.0 0.0 0.0 0.0 0.0 0.0 -2.809682732297644e-17 -0.2634489834308624 -0.6654340028762817 -0.14398658275604248 0.02337309718132019 0.0 -2.809682732297644e-17 -0.2634489834308624 -0.6654340028762817 -0.14398658275604248 0.02337309718132019 0.0 0.19999998371177274 -0.200000056328117 0.3499999669766873 -1.6275984000564965 1.6275992523036356 -1.6275984987733068 0.0 0.0 0.0 0.0 0.0 0.0 -1.3199318637478946e-06 1.2333740081347704e-06 -4.3381450337005617e-07 2.7276258550179936e-08 3.758082826727451e-08 1.7311665561377394e-08 0.19999999999999998 -0.19999999999999984 0.35000000000000014 -1.627598728468436 1.627598728468436 -1.6275987284684361 0.0 0.0 0.0 0.0 0.0 0.0

6533.2 1.6859930100659828 -1.8112120316154332 2.2434041872278065 -3.082737572612414 -0.6867137913316546 -0.9028835835801328 0.0 0.0 0.0 0.0 0.0 0.0 0.0 0.0 0.0 0.0 0.0 0.0 -2.809682649266324e-17 -0.26344899448883347 -0.6654339807748542 -0.14398658301589148 0.023373097702036435 0.0 -3.689113318486684e-16 -3.4590852976383832 -6.196654315771598 -0.6544190198072267 0.1062307290557556 0.0 1.685992956161499 -1.811211887990133 2.2434041500091553 -3.0827375094043177 -0.686713997517721 -0.9028833548175257 0.0 0.0 0.0 0.0 0.0 0.0 -2.809682732297644e-17 -0.2634489834308624 -0.6654340028762817 -0.14398658275604248 0.02337309718132019 0.0 -2.809682732297644e-17 -0.2634489834308624 -0.6654340028762817 -0.14398658275604248 0.02337309718132019 0.0 0.19999998371177274 -0.200000056328117 0.3499999669766873 -1.6275984000564965 1.6275992523036356 -1.6275984987733068 0.0 0.0 0.0 0.0 0.0 0.0 -1.3199318637478946e-06 1.2333740081347704e-06 -4.3381450337005617e-07 2.7276258550179936e-08 3.758082826727451e-08 1.7311665561377394e-08 0.19999999999999998 -0.19999999999999984 0.35000000000000014 -1.627598728468436 1.627598728468436 -1.6275987284684361 0.0 0.0 0.0 0.0 0.0 0.0

6533.208 1.6859930100659828 -1.8112120316154332 2.2434041872278065 -3.082737572612414 -0.6867137913316546 -0.9028835835801328 0.0 0.0 0.0 0.0 0.0 0.0 0.0 0.0 0.0 0.0 0.0 0.0 -2.809682649266324e-17 -0.26344899448883347 -0.6654339807748542 -0.14398658301589148 0.023373097702036435 0.0 -3.689113318486684e-16 -3.4590852976383832 -6.196654315771598 -0.6544190198072267 0.1062307290557556 0.0 1.685992956161499 -1.811211887990133 2.2434041500091553 -3.0827375094043177 -0.686713997517721 -0.9028833548175257 0.0 0.0 0.0 0.0 0.0 0.0 -2.809682732297644e-17 -0.2634489834308624 -0.6654340028762817 -0.14398658275604248 0.02337309718132019 0.0 -2.809682732297644e-17 -0.2634489834308624 -0.6654340028762817 -0.14398658275604248 0.02337309718132019 0.0 0.19999998371177274 -0.200000056328117 0.3499999669766873 -1.6275984000564965 1.6275992523036356 -1.6275984987733068 0.0 0.0 0.0 0.0 0.0 0.0 -1.3199318637478946e-06 1.2333740081347704e-06 -4.3381450337005617e-07 2.7276258550179936e-08 3.758082826727451e-08 1.7311665561377394e-08 0.19999999999999998 -0.19999999999999984 0.35000000000000014 -1.627598728468436 1.627598728468436 -1.6275987284684361 0.0 0.0 0.0 0.0 0.0 0.0

6533.215999999999 1.6859930100659828 -1.8112120316154332 2.2434041872278065 -3.082737572612414 -0.6867137913316546 -0.9028835835801328 0.0 0.0 0.0 0.0 0.0 0.0 0.0 0.0 0.0 0.0 0.0 0.0 -2.809682649266324e-17 -0.26344899448883347 -0.6654339807748542 -0.14398658301589148 0.023373097702036435 0.0 -3.689113318486684e-16 -3.4590852976383832 -6.196654315771598 -0.6544190198072267 0.1062307290557556 0.0 1.685992956161499 -1.811211887990133 2.2434041500091553 -3.0827375094043177 -0.686713997517721 -0.9028833548175257 0.0 0.0 0.0 0.0 0.0 0.0 -2.809682732297644e-17 -0.2634489834308624 -0.6654340028762817 -0.14398658275604248 0.02337309718132019 0.0 -2.809682732297644e-17 -0.2634489834308624 -0.6654340028762817 -0.14398658275604248 0.02337309718132019 0.0 0.19999998371177274 -0.200000056328117 0.3499999669766873 -1.6275984000564965 1.6275992523036356 -1.6275984987733068 0.0 0.0 0.0 0.0 0.0 0.0 -1.3199318637478946e-06 1.2333740081347704e-06 -4.3381450337005617e-07 2.7276258550179936e-08 3.758082826727451e-08 1.7311665561377394e-08 0.19999999999999998 -0.19999999999999984 0.35000000000000014 -1.627598728468436 1.627598728468436 -1.6275987284684361 0.0 0.0 0.0 0.0 0.0 0.0

6533.223999999999 1.6859930100659828 -1.8112120316154332 2.2434041872278065 -3.082737572612414 -0.6867137913316546 -0.9028835835801328 0.0 0.0 0.0 0.0 0.0 0.0 0.0 0.0 0.0 0.0 0.0 0.0 -2.809682649266324e-17 -0.26344899448883347 -0.6654339807748542 -0.14398658301589148 0.023373097702036435 0.0 -3.689113318486684e-16 -3.4590852976383832 -6.196654315771598 -0.6544190198072267 0.1062307290557556 0.0 1.685992956161499 -1.811211887990133 2.2434041500091553 -3.0827375094043177 -0.686713997517721 -0.9028833548175257 0.0 0.0 0.0 0.0 0.0 0.0 -2.809682732297644e-17 -0.2634489834308624 -0.6654340028762817 -0.14398658275604248 0.02337309718132019 0.0 -2.809682732297644e-17 -0.2634489834308624 -0.6654340028762817 -0.14398658275604248 0.02337309718132019 0.0 0.19999998371177274 -0.200000056328117 0.3499999669766873 -1.6275984000564965 1.6275992523036356 -1.6275984987733068 0.0 0.0 0.0 0.0 0.0 0.0 -1.3199318637478946e-06 1.2333740081347704e-06 -4.3381450337005617e-07 2.7276258550179936e-08 3.758082826727451e-08 1.7311665561377394e-08 0.19999999999999998 -0.19999999999999984 0.35000000000000014 -1.627598728468436 1.627598728468436 -1.6275987284684361 0.0 0.0 0.0 0.0 0.0 0.0

6533.232 1.6859930100659828 -1.8112120316154332 2.2434041872278065 -3.082737572612414 -0.6867137913316546 -0.9028835835801328 0.0 0.0 0.0 0.0 0.0 0.0 0.0 0.0 0.0 0.0 0.0 0.0 -2.809682649266324e-17 -0.26344899448883347 -0.6654339807748542 -0.14398658301589148 0.023373097702036435 0.0 -3.689113318486684e-16 -3.4590852976383832 -6.196654315771598 -0.6544190198072267 0.1062307290557556 0.0 1.685992956161499 -1.811211887990133 2.2434041500091553 -3.0827375094043177 -0.686713997517721 -0.9028833548175257 0.0 0.0 0.0 0.0 0.0 0.0 -2.809682732297644e-17 -0.2634489834308624 -0.6654340028762817 -0.14398658275604248 0.02337309718132019 0.0 -2.809682732297644e-17 -0.2634489834308624 -0.6654340028762817 -0.14398658275604248 0.02337309718132019 0.0 0.19999998371177274 -0.200000056328117 0.3499999669766873 -1.6275984000564965 1.6275992523036356 -1.6275984987733068 0.0 0.0 0.0 0.0 0.0 0.0 -1.3199318637478946e-06 1.2333740081347704e-06 -4.3381450337005617e-07 2.7276258550179936e-08 3.758082826727451e-08 1.7311665561377394e-08 0.19999999999999998 -0.19999999999999984 0.35000000000000014 -1.627598728468436 1.627598728468436 -1.6275987284684361 0.0 0.0 0.0 0.0 0.0 0.0

6533.24 1.6859930100659828 -1.8112120316154332 2.2434041872278065 -3.082737572612414 -0.6867137913316546 -0.9028835835801328 0.0 0.0 0.0 0.0 0.0 0.0 0.0 0.0 0.0 0.0 0.0 0.0 -2.809682649266324e-17 -0.26344899448883347 -0.6654339807748542 -0.14398658301589148 0.023373097702036435 0.0 -3.689113318486684e-16 -3.4590852976383832 -6.196654315771598 -0.6544190198072267 0.1062307290557556 0.0 1.685992956161499 -1.811211887990133 2.2434041500091553 -3.0827375094043177 -0.686713997517721 -0.9028833548175257 0.0 0.0 0.0 0.0 0.0 0.0 -2.809682732297644e-17 -0.2634489834308624 -0.6654340028762817 -0.14398658275604248 0.02337309718132019 0.0 -2.809682732297644e-17 -0.2634489834308624 -0.6654340028762817 -0.14398658275604248 0.02337309718132019 0.0 0.19999998371177274 -0.200000056328117 0.3499999669766873 -1.6275984000564965 1.6275992523036356 -1.6275984987733068 0.0 0.0 0.0 0.0 0.0 0.0 -1.3199318637478946e-06 1.2333740081347704e-06 -4.3381450337005617e-07 2.7276258550179936e-08 3.758082826727451e-08 1.7311665561377394e-08 0.19999999999999998 -0.19999999999999984 0.35000000000000014 -1.627598728468436 1.627598728468436 -1.6275987284684361 0.0 0.0 0.0 0.0 0.0 0.0

6533.248 1.6859930100659828 -1.8112120316154332 2.2434041872278065 -3.082737572612414 -0.6867137913316546 -0.9028835835801328 0.0 0.0 0.0 0.0 0.0 0.0 0.0 0.0 0.0 0.0 0.0 0.0 -2.809682649266324e-17 -0.26344899448883347 -0.6654339807748542 -0.14398658301589148 0.023373097702036435 0.0 -3.689113318486684e-16 -3.4590852976383832 -6.196654315771598 -0.6544190198072267 0.1062307290557556 0.0 1.685992956161499 -1.811211887990133 2.2434041500091553 -3.0827375094043177 -0.686713997517721 -0.9028833548175257 0.0 0.0 0.0 0.0 0.0 0.0 -2.809682732297644e-17 -0.2634489834308624 -0.6654340028762817 -0.14398658275604248 0.02337309718132019 0.0 -2.809682732297644e-17 -0.2634489834308624 -0.6654340028762817 -0.14398658275604248 0.02337309718132019 0.0 0.19999998371177274 -0.200000056328117 0.3499999669766873 -1.6275984000564965 1.6275992523036356 -1.6275984987733068 0.0 0.0 0.0 0.0 0.0 0.0 -1.3199318637478946e-06 1.2333740081347704e-06 -4.3381450337005617e-07 2.7276258550179936e-08 3.758082826727451e-08 1.7311665561377394e-08 0.19999999999999998 -0.19999999999999984 0.35000000000000014 -1.627598728468436 1.627598728468436 -1.6275987284684361 0.0 0.0 0.0 0.0 0.0 0.0

6533.255999999999 1.6859930100659828 -1.8112120316154332 2.2434041872278065 -3.082737572612414 -0.6867137913316546 -0.9028835835801328 0.0 0.0 0.0 0.0 0.0 0.0 0.0 0.0 0.0 0.0 0.0 0.0 -2.809682649266324e-17 -0.26344899448883347 -0.6654339807748542 -0.14398658301589148 0.023373097702036435 0.0 -3.689113318486684e-16 -3.4590852976383832 -6.196654315771598 -0.6544190198072267 0.1062307290557556 0.0 1.685992956161499 -1.811211887990133 2.2434041500091553 -3.0827375094043177 -0.686713997517721 -0.9028833548175257 0.0 0.0 0.0 0.0 0.0 0.0 -2.809682732297644e-17 -0.2634489834308624 -0.6654340028762817 -0.14398658275604248 0.02337309718132019 0.0 -2.809682732297644e-17 -0.2634489834308624 -0.6654340028762817 -0.14398658275604248 0.02337309718132019 0.0 0.19999998371177274 -0.200000056328117 0.3499999669766873 -1.6275984000564965 1.6275992523036356 -1.6275984987733068 0.0 0.0 0.0 0.0 0.0 0.0 -1.3199318637478946e-06 1.2333740081347704e-06 -4.3381450337005617e-07 2.7276258550179936e-08 3.758082826727451e-08 1.7311665561377394e-08 0.19999999999999998 -0.19999999999999984 0.35000000000000014 -1.627598728468436 1.627598728468436 -1.6275987284684361 0.0 0.0 0.0 0.0 0.0 0.0

6533.264 1.6859930100659828 -1.8112120316154332 2.2434041872278065 -3.082737572612414 -0.6867137913316546 -0.9028835835801328 0.0 0.0 0.0 0.0 0.0 0.0 0.0 0.0 0.0 0.0 0.0 0.0 -2.809682649266324e-17 -0.26344899448883347 -0.6654339807748542 -0.14398658301589148 0.023373097702036435 0.0 -3.689113318486684e-16 -3.4590852976383832 -6.196654315771598 -0.6544190198072267 0.1062307290557556 0.0 1.685992956161499 -1.811211887990133 2.2434041500091553 -3.0827375094043177 -0.686713997517721 -0.9028833548175257 0.0 0.0 0.0 0.0 0.0 0.0 -2.809682732297644e-17 -0.2634489834308624 -0.6654340028762817 -0.14398658275604248 0.02337309718132019 0.0 -2.809682732297644e-17 -0.2634489834308624 -0.6654340028762817 -0.14398658275604248 0.02337309718132019 0.0 0.19999998371177274 -0.200000056328117 0.3499999669766873 -1.6275984000564965 1.6275992523036356 -1.6275984987733068 0.0 0.0 0.0 0.0 0.0 0.0 -1.3199318637478946e-06 1.2333740081347704e-06 -4.3381450337005617e-07 2.7276258550179936e-08 3.758082826727451e-08 1.7311665561377394e-08 0.19999999999999998 -0.19999999999999984 0.35000000000000014 -1.627598728468436 1.627598728468436 -1.6275987284684361 0.0 0.0 0.0 0.0 0.0 0.0

6533.272 1.6859930100659828 -1.8112120316154332 2.2434041872278065 -3.082737572612414 -0.6867137913316546 -0.9028835835801328 0.0 0.0 0.0 0.0 0.0 0.0 0.0 0.0 0.0 0.0 0.0 0.0 -2.809682649266324e-17 -0.26344899448883347 -0.6654339807748542 -0.14398658301589148 0.023373097702036435 0.0 -3.689113318486684e-16 -3.4590852976383832 -6.196654315771598 -0.6544190198072267 0.1062307290557556 0.0 1.685992956161499 -1.811211887990133 2.2434041500091553 -3.0827375094043177 -0.686713997517721 -0.9028833548175257 0.0 0.0 0.0 0.0 0.0 0.0 -2.809682732297644e-17 -0.2634489834308624 -0.6654340028762817 -0.14398658275604248 0.02337309718132019 0.0 -2.809682732297644e-17 -0.2634489834308624 -0.6654340028762817 -0.14398658275604248 0.02337309718132019 0.0 0.19999998371177274 -0.200000056328117 0.3499999669766873 -1.6275984000564965 1.6275992523036356 -1.6275984987733068 0.0 0.0 0.0 0.0 0.0 0.0 -1.3199318637478946e-06 1.2333740081347704e-06 -4.3381450337005617e-07 2.7276258550179936e-08 3.758082826727451e-08 1.7311665561377394e-08 0.19999999999999998 -0.19999999999999984 0.35000000000000014 -1.627598728468436 1.627598728468436 -1.6275987284684361 0.0 0.0 0.0 0.0 0.0 0.0

6533.28 1.6859930100659828 -1.8112120316154332 2.2434041872278065 -3.082737572612414 -0.6867137913316546 -0.9028835835801328 0.0 0.0 0.0 0.0 0.0 0.0 0.0 0.0 0.0 0.0 0.0 0.0 -2.809682649266324e-17 -0.26344899448883347 -0.6654339807748542 -0.14398658301589148 0.023373097702036435 0.0 -3.689113318486684e-16 -3.4590852976383832 -6.196654315771598 -0.6544190198072267 0.1062307290557556 0.0 1.685992956161499 -1.811211887990133 2.2434041500091553 -3.0827375094043177 -0.686713997517721 -0.9028833548175257 0.0 0.0 0.0 0.0 0.0 0.0 -2.809682732297644e-17 -0.2634489834308624 -0.6654340028762817 -0.14398658275604248 0.02337309718132019 0.0 -2.809682732297644e-17 -0.2634489834308624 -0.6654340028762817 -0.14398658275604248 0.02337309718132019 0.0 0.19999998371177274 -0.200000056328117 0.3499999669766873 -1.6275984000564965 1.6275992523036356 -1.6275984987733068 0.0 0.0 0.0 0.0 0.0 0.0 -1.3199318637478946e-06 1.2333740081347704e-06 -4.3381450337005617e-07 2.7276258550179936e-08 3.758082826727451e-08 1.7311665561377394e-08 0.19999999999999998 -0.19999999999999984 0.35000000000000014 -1.627598728468436 1.627598728468436 -1.6275987284684361 0.0 0.0 0.0 0.0 0.0 0.0

6533.288 1.6859930100659828 -1.8112120316154332 2.2434041872278065 -3.082737572612414 -0.6867137913316546 -0.9028835835801328 0.0 0.0 0.0 0.0 0.0 0.0 0.0 0.0 0.0 0.0 0.0 0.0 -2.809682649266324e-17 -0.26344899448883347 -0.6654339807748542 -0.14398658301589148 0.023373097702036435 0.0 -3.689113318486684e-16 -3.4590852976383832 -6.196654315771598 -0.6544190198072267 0.1062307290557556 0.0 1.685992956161499 -1.811211887990133 2.2434041500091553 -3.0827375094043177 -0.686713997517721 -0.9028833548175257 0.0 0.0 0.0 0.0 0.0 0.0 -2.809682732297644e-17 -0.2634489834308624 -0.6654340028762817 -0.14398658275604248 0.02337309718132019 0.0 -2.809682732297644e-17 -0.2634489834308624 -0.6654340028762817 -0.14398658275604248 0.02337309718132019 0.0 0.19999998371177274 -0.200000056328117 0.3499999669766873 -1.6275984000564965 1.6275992523036356 -1.6275984987733068 0.0 0.0 0.0 0.0 0.0 0.0 -1.3199318637478946e-06 1.2333740081347704e-06 -4.3381450337005617e-07 2.7276258550179936e-08 3.758082826727451e-08 1.7311665561377394e-08 0.19999999999999998 -0.19999999999999984 0.35000000000000014 -1.627598728468436 1.627598728468436 -1.6275987284684361 0.0 0.0 0.0 0.0 0.0 0.0

6533.295999999999 1.6859930100659828 -1.8112120316154332 2.2434041872278065 -3.082737572612414 -0.6867137913316546 -0.9028835835801328 0.0 0.0 0.0 0.0 0.0 0.0 0.0 0.0 0.0 0.0 0.0 0.0 -2.809682649266324e-17 -0.26344899448883347 -0.6654339807748542 -0.14398658301589148 0.023373097702036435 0.0 -3.689113318486684e-16 -3.4590852976383832 -6.196654315771598 -0.6544190198072267 0.1062307290557556 0.0 1.685992956161499 -1.811211887990133 2.2434041500091553 -3.0827375094043177 -0.686713997517721 -0.9028833548175257 0.0 0.0 0.0 0.0 0.0 0.0 -2.809682732297644e-17 -0.2634489834308624 -0.6654340028762817 -0.14398658275604248 0.02337309718132019 0.0 -2.809682732297644e-17 -0.2634489834308624 -0.6654340028762817 -0.14398658275604248 0.02337309718132019 0.0 0.19999998371177274 -0.200000056328117 0.3499999669766873 -1.6275984000564965 1.6275992523036356 -1.6275984987733068 0.0 0.0 0.0 0.0 0.0 0.0 -1.3199318637478946e-06 1.2333740081347704e-06 -4.3381450337005617e-07 2.7276258550179936e-08 3.758082826727451e-08 1.7311665561377394e-08 0.19999999999999998 -0.19999999999999984 0.35000000000000014 -1.627598728468436 1.627598728468436 -1.6275987284684361 0.0 0.0 0.0 0.0 0.0 0.0

6533.304 1.6859930100659828 -1.8112120316154332 2.2434041872278065 -3.082737572612414 -0.6867137913316546 -0.9028835835801328 0.0 0.0 0.0 0.0 0.0 0.0 0.0 0.0 0.0 0.0 0.0 0.0 -2.809682649266324e-17 -0.26344899448883347 -0.6654339807748542 -0.14398658301589148 0.023373097702036435 0.0 -3.689113318486684e-16 -3.4590852976383832 -6.196654315771598 -0.6544190198072267 0.1062307290557556 0.0 1.685992956161499 -1.811211887990133 2.2434041500091553 -3.0827375094043177 -0.686713997517721 -0.9028833548175257 0.0 0.0 0.0 0.0 0.0 0.0 -2.809682732297644e-17 -0.2634489834308624 -0.6654340028762817 -0.14398658275604248 0.02337309718132019 0.0 -2.809682732297644e-17 -0.2634489834308624 -0.6654340028762817 -0.14398658275604248 0.02337309718132019 0.0 0.19999998371177274 -0.200000056328117 0.3499999669766873 -1.6275984000564965 1.6275992523036356 -1.6275984987733068 0.0 0.0 0.0 0.0 0.0 0.0 -1.3199318637478946e-06 1.2333740081347704e-06 -4.3381450337005617e-07 2.7276258550179936e-08 3.758082826727451e-08 1.7311665561377394e-08 0.19999999999999998 -0.19999999999999984 0.35000000000000014 -1.627598728468436 1.627598728468436 -1.6275987284684361 0.0 0.0 0.0 0.0 0.0 0.0

6533.312 1.6859930100659828 -1.8112120316154332 2.2434041872278065 -3.082737572612414 -0.6867137913316546 -0.9028835835801328 0.0 0.0 0.0 0.0 0.0 0.0 0.0 0.0 0.0 0.0 0.0 0.0 -2.809682649266324e-17 -0.26344899448883347 -0.6654339807748542 -0.14398658301589148 0.023373097702036435 0.0 -3.689113318486684e-16 -3.4590852976383832 -6.196654315771598 -0.6544190198072267 0.1062307290557556 0.0 1.685992956161499 -1.811211887990133 2.2434041500091553 -3.0827375094043177 -0.686713997517721 -0.9028833548175257 0.0 0.0 0.0 0.0 0.0 0.0 -2.809682732297644e-17 -0.2634489834308624 -0.6654340028762817 -0.14398658275604248 0.02337309718132019 0.0 -2.809682732297644e-17 -0.2634489834308624 -0.6654340028762817 -0.14398658275604248 0.02337309718132019 0.0 0.19999998371177274 -0.200000056328117 0.3499999669766873 -1.6275984000564965 1.6275992523036356 -1.6275984987733068 0.0 0.0 0.0 0.0 0.0 0.0 -1.3199318637478946e-06 1.2333740081347704e-06 -4.3381450337005617e-07 2.7276258550179936e-08 3.758082826727451e-08 1.7311665561377394e-08 0.19999999999999998 -0.19999999999999984 0.35000000000000014 -1.627598728468436 1.627598728468436 -1.6275987284684361 0.0 0.0 0.0 0.0 0.0 0.0

6533.32 1.6859930100659828 -1.8112120316154332 2.2434041872278065 -3.082737572612414 -0.6867137913316546 -0.9028835835801328 0.0 0.0 0.0 0.0 0.0 0.0 0.0 0.0 0.0 0.0 0.0 0.0 -2.809682649266324e-17 -0.26344899448883347 -0.6654339807748542 -0.14398658301589148 0.023373097702036435 0.0 -3.689113318486684e-16 -3.4590852976383832 -6.196654315771598 -0.6544190198072267 0.1062307290557556 0.0 1.685992956161499 -1.811211887990133 2.2434041500091553 -3.0827375094043177 -0.686713997517721 -0.9028833548175257 0.0 0.0 0.0 0.0 0.0 0.0 -2.809682732297644e-17 -0.2634489834308624 -0.6654340028762817 -0.14398658275604248 0.02337309718132019 0.0 -2.809682732297644e-17 -0.2634489834308624 -0.6654340028762817 -0.14398658275604248 0.02337309718132019 0.0 0.19999998371177274 -0.200000056328117 0.3499999669766873 -1.6275984000564965 1.6275992523036356 -1.6275984987733068 0.0 0.0 0.0 0.0 0.0 0.0 -1.3199318637478946e-06 1.2333740081347704e-06 -4.3381450337005617e-07 2.7276258550179936e-08 3.758082826727451e-08 1.7311665561377394e-08 0.19999999999999998 -0.19999999999999984 0.35000000000000014 -1.627598728468436 1.627598728468436 -1.6275987284684361 0.0 0.0 0.0 0.0 0.0 0.0

6533.3279999999995 1.6859930100659828 -1.8112120316154332 2.2434041872278065 -3.082737572612414 -0.6867137913316546 -0.9028835835801328 0.0 0.0 0.0 0.0 0.0 0.0 0.0 0.0 0.0 0.0 0.0 0.0 -2.809682649266324e-17 -0.26344899448883347 -0.6654339807748542 -0.14398658301589148 0.023373097702036435 0.0 -3.689113318486684e-16 -3.4590852976383832 -6.196654315771598 -0.6544190198072267 0.1062307290557556 0.0 1.685992956161499 -1.811211887990133 2.2434041500091553 -3.0827375094043177 -0.686713997517721 -0.9028833548175257 0.0 0.0 0.0 0.0 0.0 0.0 -2.809682732297644e-17 -0.2634489834308624 -0.6654340028762817 -0.14398658275604248 0.02337309718132019 0.0 -2.809682732297644e-17 -0.2634489834308624 -0.6654340028762817 -0.14398658275604248 0.02337309718132019 0.0 0.19999998371177274 -0.200000056328117 0.3499999669766873 -1.6275984000564965 1.6275992523036356 -1.6275984987733068 0.0 0.0 0.0 0.0 0.0 0.0 -1.3199318637478946e-06 1.2333740081347704e-06 -4.3381450337005617e-07 2.7276258550179936e-08 3.758082826727451e-08 1.7311665561377394e-08 0.19999999999999998 -0.19999999999999984 0.35000000000000014 -1.627598728468436 1.627598728468436 -1.6275987284684361 0.0 0.0 0.0 0.0 0.0 0.0

6533.335999999999 1.6859930100659828 -1.8112120316154332 2.2434041872278065 -3.082737572612414 -0.6867137913316546 -0.9028835835801328 0.0 0.0 0.0 0.0 0.0 0.0 0.0 0.0 0.0 0.0 0.0 0.0 -2.809682649266324e-17 -0.26344899448883347 -0.6654339807748542 -0.14398658301589148 0.023373097702036435 0.0 -3.689113318486684e-16 -3.4590852976383832 -6.196654315771598 -0.6544190198072267 0.1062307290557556 0.0 1.685992956161499 -1.811211887990133 2.2434041500091553 -3.0827375094043177 -0.686713997517721 -0.9028833548175257 0.0 0.0 0.0 0.0 0.0 0.0 -2.809682732297644e-17 -0.2634489834308624 -0.6654340028762817 -0.14398658275604248 0.02337309718132019 0.0 -2.809682732297644e-17 -0.2634489834308624 -0.6654340028762817 -0.14398658275604248 0.02337309718132019 0.0 0.19999998371177274 -0.200000056328117 0.3499999669766873 -1.6275984000564965 1.6275992523036356 -1.6275984987733068 0.0 0.0 0.0 0.0 0.0 0.0 -1.3199318637478946e-06 1.2333740081347704e-06 -4.3381450337005617e-07 2.7276258550179936e-08 3.758082826727451e-08 1.7311665561377394e-08 0.19999999999999998 -0.19999999999999984 0.35000000000000014 -1.627598728468436 1.627598728468436 -1.6275987284684361 0.0 0.0 0.0 0.0 0.0 0.0

6533.344 1.6859930100659828 -1.8112120316154332 2.2434041872278065 -3.082737572612414 -0.6867137913316546 -0.9028835835801328 0.0 0.0 0.0 0.0 0.0 0.0 0.0 0.0 0.0 0.0 0.0 0.0 -2.809682649266324e-17 -0.26344899448883347 -0.6654339807748542 -0.14398658301589148 0.023373097702036435 0.0 -3.689113318486684e-16 -3.4590852976383832 -6.196654315771598 -0.6544190198072267 0.1062307290557556 0.0 1.685992956161499 -1.811211887990133 2.2434041500091553 -3.0827375094043177 -0.686713997517721 -0.9028833548175257 0.0 0.0 0.0 0.0 0.0 0.0 -2.809682732297644e-17 -0.2634489834308624 -0.6654340028762817 -0.14398658275604248 0.02337309718132019 0.0 -2.809682732297644e-17 -0.2634489834308624 -0.6654340028762817 -0.14398658275604248 0.02337309718132019 0.0 0.19999998371177274 -0.200000056328117 0.3499999669766873 -1.6275984000564965 1.6275992523036356 -1.6275984987733068 0.0 0.0 0.0 0.0 0.0 0.0 -1.3199318637478946e-06 1.2333740081347704e-06 -4.3381450337005617e-07 2.7276258550179936e-08 3.758082826727451e-08 1.7311665561377394e-08 0.19999999999999998 -0.19999999999999984 0.35000000000000014 -1.627598728468436 1.627598728468436 -1.6275987284684361 0.0 0.0 0.0 0.0 0.0 0.0

6533.352 1.6859930100659828 -1.8112120316154332 2.2434041872278065 -3.082737572612414 -0.6867137913316546 -0.9028835835801328 0.0 0.0 0.0 0.0 0.0 0.0 0.0 0.0 0.0 0.0 0.0 0.0 -2.809682649266324e-17 -0.26344899448883347 -0.6654339807748542 -0.14398658301589148 0.023373097702036435 0.0 -3.689113318486684e-16 -3.4590852976383832 -6.196654315771598 -0.6544190198072267 0.1062307290557556 0.0 1.685992956161499 -1.811211887990133 2.2434041500091553 -3.0827375094043177 -0.686713997517721 -0.9028833548175257 0.0 0.0 0.0 0.0 0.0 0.0 -2.809682732297644e-17 -0.2634489834308624 -0.6654340028762817 -0.14398658275604248 0.02337309718132019 0.0 -2.809682732297644e-17 -0.2634489834308624 -0.6654340028762817 -0.14398658275604248 0.02337309718132019 0.0 0.19999998371177274 -0.200000056328117 0.3499999669766873 -1.6275984000564965 1.6275992523036356 -1.6275984987733068 0.0 0.0 0.0 0.0 0.0 0.0 -1.3199318637478946e-06 1.2333740081347704e-06 -4.3381450337005617e-07 2.7276258550179936e-08 3.758082826727451e-08 1.7311665561377394e-08 0.19999999999999998 -0.19999999999999984 0.35000000000000014 -1.627598728468436 1.627598728468436 -1.6275987284684361 0.0 0.0 0.0 0.0 0.0 0.0

6533.36 1.6859930100659828 -1.8112120316154332 2.2434041872278065 -3.082737572612414 -0.6867137913316546 -0.9028835835801328 0.0 0.0 0.0 0.0 0.0 0.0 0.0 0.0 0.0 0.0 0.0 0.0 -2.809682649266324e-17 -0.26344899448883347 -0.6654339807748542 -0.14398658301589148 0.023373097702036435 0.0 -3.689113318486684e-16 -3.4590852976383832 -6.196654315771598 -0.6544190198072267 0.1062307290557556 0.0 1.685992956161499 -1.811211887990133 2.2434041500091553 -3.0827375094043177 -0.686713997517721 -0.9028833548175257 0.0 0.0 0.0 0.0 0.0 0.0 -2.809682732297644e-17 -0.2634489834308624 -0.6654340028762817 -0.14398658275604248 0.02337309718132019 0.0 -2.809682732297644e-17 -0.2634489834308624 -0.6654340028762817 -0.14398658275604248 0.02337309718132019 0.0 0.19999998371177274 -0.200000056328117 0.3499999669766873 -1.6275984000564965 1.6275992523036356 -1.6275984987733068 0.0 0.0 0.0 0.0 0.0 0.0 -1.3199318637478946e-06 1.2333740081347704e-06 -4.3381450337005617e-07 2.7276258550179936e-08 3.758082826727451e-08 1.7311665561377394e-08 0.19999999999999998 -0.19999999999999984 0.35000000000000014 -1.627598728468436 1.627598728468436 -1.6275987284684361 0.0 0.0 0.0 0.0 0.0 0.0

6533.3679999999995 1.6859930100659828 -1.8112120316154332 2.2434041872278065 -3.082737572612414 -0.6867137913316546 -0.9028835835801328 0.0 0.0 0.0 0.0 0.0 0.0 0.0 0.0 0.0 0.0 0.0 0.0 -2.809682649266324e-17 -0.26344899448883347 -0.6654339807748542 -0.14398658301589148 0.023373097702036435 0.0 -3.689113318486684e-16 -3.4590852976383832 -6.196654315771598 -0.6544190198072267 0.1062307290557556 0.0 1.685992956161499 -1.811211887990133 2.2434041500091553 -3.0827375094043177 -0.686713997517721 -0.9028833548175257 0.0 0.0 0.0 0.0 0.0 0.0 -2.809682732297644e-17 -0.2634489834308624 -0.6654340028762817 -0.14398658275604248 0.02337309718132019 0.0 -2.809682732297644e-17 -0.2634489834308624 -0.6654340028762817 -0.14398658275604248 0.02337309718132019 0.0 0.19999998371177274 -0.200000056328117 0.3499999669766873 -1.6275984000564965 1.6275992523036356 -1.6275984987733068 0.0 0.0 0.0 0.0 0.0 0.0 -1.3199318637478946e-06 1.2333740081347704e-06 -4.3381450337005617e-07 2.7276258550179936e-08 3.758082826727451e-08 1.7311665561377394e-08 0.19999999999999998 -0.19999999999999984 0.35000000000000014 -1.627598728468436 1.627598728468436 -1.6275987284684361 0.0 0.0 0.0 0.0 0.0 0.0

6533.375999999999 1.6859930100659828 -1.8112120316154332 2.2434041872278065 -3.082737572612414 -0.6867137913316546 -0.9028835835801328 0.0 0.0 0.0 0.0 0.0 0.0 0.0 0.0 0.0 0.0 0.0 0.0 -2.809682649266324e-17 -0.26344899448883347 -0.6654339807748542 -0.14398658301589148 0.023373097702036435 0.0 -3.689113318486684e-16 -3.4590852976383832 -6.196654315771598 -0.6544190198072267 0.1062307290557556 0.0 1.685992956161499 -1.811211887990133 2.2434041500091553 -3.0827375094043177 -0.686713997517721 -0.9028833548175257 0.0 0.0 0.0 0.0 0.0 0.0 -2.809682732297644e-17 -0.2634489834308624 -0.6654340028762817 -0.14398658275604248 0.02337309718132019 0.0 -2.809682732297644e-17 -0.2634489834308624 -0.6654340028762817 -0.14398658275604248 0.02337309718132019 0.0 0.19999998371177274 -0.200000056328117 0.3499999669766873 -1.6275984000564965 1.6275992523036356 -1.6275984987733068 0.0 0.0 0.0 0.0 0.0 0.0 -1.3199318637478946e-06 1.2333740081347704e-06 -4.3381450337005617e-07 2.7276258550179936e-08 3.758082826727451e-08 1.7311665561377394e-08 0.19999999999999998 -0.19999999999999984 0.35000000000000014 -1.627598728468436 1.627598728468436 -1.6275987284684361 0.0 0.0 0.0 0.0 0.0 0.0

6533.384 1.6859930100659828 -1.8112120316154332 2.2434041872278065 -3.082737572612414 -0.6867137913316546 -0.9028835835801328 0.0 0.0 0.0 0.0 0.0 0.0 0.0 0.0 0.0 0.0 0.0 0.0 -2.809682649266324e-17 -0.26344899448883347 -0.6654339807748542 -0.14398658301589148 0.023373097702036435 0.0 -3.689113318486684e-16 -3.4590852976383832 -6.196654315771598 -0.6544190198072267 0.1062307290557556 0.0 1.685992956161499 -1.811211887990133 2.2434041500091553 -3.0827375094043177 -0.686713997517721 -0.9028833548175257 0.0 0.0 0.0 0.0 0.0 0.0 -2.809682732297644e-17 -0.2634489834308624 -0.6654340028762817 -0.14398658275604248 0.02337309718132019 0.0 -2.809682732297644e-17 -0.2634489834308624 -0.6654340028762817 -0.14398658275604248 0.02337309718132019 0.0 0.19999998371177274 -0.200000056328117 0.3499999669766873 -1.6275984000564965 1.6275992523036356 -1.6275984987733068 0.0 0.0 0.0 0.0 0.0 0.0 -1.3199318637478946e-06 1.2333740081347704e-06 -4.3381450337005617e-07 2.7276258550179936e-08 3.758082826727451e-08 1.7311665561377394e-08 0.19999999999999998 -0.19999999999999984 0.35000000000000014 -1.627598728468436 1.627598728468436 -1.6275987284684361 0.0 0.0 0.0 0.0 0.0 0.0

6533.392 1.6859930100659828 -1.8112120316154332 2.2434041872278065 -3.082737572612414 -0.6867137913316546 -0.9028835835801328 0.0 0.0 0.0 0.0 0.0 0.0 0.0 0.0 0.0 0.0 0.0 0.0 -2.809682649266324e-17 -0.26344899448883347 -0.6654339807748542 -0.14398658301589148 0.023373097702036435 0.0 -3.689113318486684e-16 -3.4590852976383832 -6.196654315771598 -0.6544190198072267 0.1062307290557556 0.0 1.685992956161499 -1.811211887990133 2.2434041500091553 -3.0827375094043177 -0.686713997517721 -0.9028833548175257 0.0 0.0 0.0 0.0 0.0 0.0 -2.809682732297644e-17 -0.2634489834308624 -0.6654340028762817 -0.14398658275604248 0.02337309718132019 0.0 -2.809682732297644e-17 -0.2634489834308624 -0.6654340028762817 -0.14398658275604248 0.02337309718132019 0.0 0.19999998371177274 -0.200000056328117 0.3499999669766873 -1.6275984000564965 1.6275992523036356 -1.6275984987733068 0.0 0.0 0.0 0.0 0.0 0.0 -1.3199318637478946e-06 1.2333740081347704e-06 -4.3381450337005617e-07 2.7276258550179936e-08 3.758082826727451e-08 1.7311665561377394e-08 0.19999999999999998 -0.19999999999999984 0.35000000000000014 -1.627598728468436 1.627598728468436 -1.6275987284684361 0.0 0.0 0.0 0.0 0.0 0.0

6533.4 1.6859930100659828 -1.8112120316154332 2.2434041872278065 -3.082737572612414 -0.6867137913316546 -0.9028835835801328 0.0 0.0 0.0 0.0 0.0 0.0 0.0 0.0 0.0 0.0 0.0 0.0 -2.809682649266324e-17 -0.26344899448883347 -0.6654339807748542 -0.14398658301589148 0.023373097702036435 0.0 -3.689113318486684e-16 -3.4590852976383832 -6.196654315771598 -0.6544190198072267 0.1062307290557556 0.0 1.685992956161499 -1.811211887990133 2.2434041500091553 -3.0827375094043177 -0.686713997517721 -0.9028833548175257 0.0 0.0 0.0 0.0 0.0 0.0 -2.809682732297644e-17 -0.2634489834308624 -0.6654340028762817 -0.14398658275604248 0.02337309718132019 0.0 -2.809682732297644e-17 -0.2634489834308624 -0.6654340028762817 -0.14398658275604248 0.02337309718132019 0.0 0.19999998371177274 -0.200000056328117 0.3499999669766873 -1.6275984000564965 1.6275992523036356 -1.6275984987733068 0.0 0.0 0.0 0.0 0.0 0.0 -1.3199318637478946e-06 1.2333740081347704e-06 -4.3381450337005617e-07 2.7276258550179936e-08 3.758082826727451e-08 1.7311665561377394e-08 0.19999999999999998 -0.19999999999999984 0.35000000000000014 -1.627598728468436 1.627598728468436 -1.6275987284684361 0.0 0.0 0.0 0.0 0.0 0.0

6533.407999999999 1.6859930100659828 -1.8112120316154332 2.2434041872278065 -3.082737572612414 -0.6867137913316546 -0.9028835835801328 0.0 0.0 0.0 0.0 0.0 0.0 0.0 0.0 0.0 0.0 0.0 0.0 -2.809682649266324e-17 -0.26344899448883347 -0.6654339807748542 -0.14398658301589148 0.023373097702036435 0.0 -3.689113318486684e-16 -3.4590852976383832 -6.196654315771598 -0.6544190198072267 0.1062307290557556 0.0 1.685992956161499 -1.811211887990133 2.2434041500091553 -3.0827375094043177 -0.686713997517721 -0.9028833548175257 0.0 0.0 0.0 0.0 0.0 0.0 -2.809682732297644e-17 -0.2634489834308624 -0.6654340028762817 -0.14398658275604248 0.02337309718132019 0.0 -2.809682732297644e-17 -0.2634489834308624 -0.6654340028762817 -0.14398658275604248 0.02337309718132019 0.0 0.19999998371177274 -0.200000056328117 0.3499999669766873 -1.6275984000564965 1.6275992523036356 -1.6275984987733068 0.0 0.0 0.0 0.0 0.0 0.0 -1.3199318637478946e-06 1.2333740081347704e-06 -4.3381450337005617e-07 2.7276258550179936e-08 3.758082826727451e-08 1.7311665561377394e-08 0.19999999999999998 -0.19999999999999984 0.35000000000000014 -1.627598728468436 1.627598728468436 -1.6275987284684361 0.0 0.0 0.0 0.0 0.0 0.0

6533.415999999999 1.6859930100659828 -1.8112120316154332 2.2434041872278065 -3.082737572612414 -0.6867137913316546 -0.9028835835801328 0.0 0.0 0.0 0.0 0.0 0.0 0.0 0.0 0.0 0.0 0.0 0.0 -2.809682649266324e-17 -0.26344899448883347 -0.6654339807748542 -0.14398658301589148 0.023373097702036435 0.0 -3.689113318486684e-16 -3.4590852976383832 -6.196654315771598 -0.6544190198072267 0.1062307290557556 0.0 1.685992956161499 -1.811211887990133 2.2434041500091553 -3.0827375094043177 -0.686713997517721 -0.9028833548175257 0.0 0.0 0.0 0.0 0.0 0.0 -2.809682732297644e-17 -0.2634489834308624 -0.6654340028762817 -0.14398658275604248 0.02337309718132019 0.0 -2.809682732297644e-17 -0.2634489834308624 -0.6654340028762817 -0.14398658275604248 0.02337309718132019 0.0 0.19999998371177274 -0.200000056328117 0.3499999669766873 -1.6275984000564965 1.6275992523036356 -1.6275984987733068 0.0 0.0 0.0 0.0 0.0 0.0 -1.3199318637478946e-06 1.2333740081347704e-06 -4.3381450337005617e-07 2.7276258550179936e-08 3.758082826727451e-08 1.7311665561377394e-08 0.19999999999999998 -0.19999999999999984 0.35000000000000014 -1.627598728468436 1.627598728468436 -1.6275987284684361 0.0 0.0 0.0 0.0 0.0 0.0

6533.424 1.6859930100659828 -1.8112120316154332 2.2434041872278065 -3.082737572612414 -0.6867137913316546 -0.9028835835801328 0.0 0.0 0.0 0.0 0.0 0.0 0.0 0.0 0.0 0.0 0.0 0.0 -2.809682649266324e-17 -0.26344899448883347 -0.6654339807748542 -0.14398658301589148 0.023373097702036435 0.0 -3.689113318486684e-16 -3.4590852976383832 -6.196654315771598 -0.6544190198072267 0.1062307290557556 0.0 1.685992956161499 -1.811211887990133 2.2434041500091553 -3.0827375094043177 -0.686713997517721 -0.9028833548175257 0.0 0.0 0.0 0.0 0.0 0.0 -2.809682732297644e-17 -0.2634489834308624 -0.6654340028762817 -0.14398658275604248 0.02337309718132019 0.0 -2.809682732297644e-17 -0.2634489834308624 -0.6654340028762817 -0.14398658275604248 0.02337309718132019 0.0 0.19999998371177274 -0.200000056328117 0.3499999669766873 -1.6275984000564965 1.6275992523036356 -1.6275984987733068 0.0 0.0 0.0 0.0 0.0 0.0 -1.3199318637478946e-06 1.2333740081347704e-06 -4.3381450337005617e-07 2.7276258550179936e-08 3.758082826727451e-08 1.7311665561377394e-08 0.19999999999999998 -0.19999999999999984 0.35000000000000014 -1.627598728468436 1.627598728468436 -1.6275987284684361 0.0 0.0 0.0 0.0 0.0 0.0

6533.432 1.6859930100659828 -1.8112120316154332 2.2434041872278065 -3.082737572612414 -0.6867137913316546 -0.9028835835801328 0.0 0.0 0.0 0.0 0.0 0.0 0.0 0.0 0.0 0.0 0.0 0.0 -2.809682649266324e-17 -0.26344899448883347 -0.6654339807748542 -0.14398658301589148 0.023373097702036435 0.0 -3.689113318486684e-16 -3.4590852976383832 -6.196654315771598 -0.6544190198072267 0.1062307290557556 0.0 1.685992956161499 -1.811211887990133 2.2434041500091553 -3.0827375094043177 -0.686713997517721 -0.9028833548175257 0.0 0.0 0.0 0.0 0.0 0.0 -2.809682732297644e-17 -0.2634489834308624 -0.6654340028762817 -0.14398658275604248 0.02337309718132019 0.0 -2.809682732297644e-17 -0.2634489834308624 -0.6654340028762817 -0.14398658275604248 0.02337309718132019 0.0 0.19999998371177274 -0.200000056328117 0.3499999669766873 -1.6275984000564965 1.6275992523036356 -1.6275984987733068 0.0 0.0 0.0 0.0 0.0 0.0 -1.3199318637478946e-06 1.2333740081347704e-06 -4.3381450337005617e-07 2.7276258550179936e-08 3.758082826727451e-08 1.7311665561377394e-08 0.19999999999999998 -0.19999999999999984 0.35000000000000014 -1.627598728468436 1.627598728468436 -1.6275987284684361 0.0 0.0 0.0 0.0 0.0 0.0

6533.44 1.6859930100659828 -1.8112120316154332 2.2434041872278065 -3.082737572612414 -0.6867137913316546 -0.9028835835801328 0.0 0.0 0.0 0.0 0.0 0.0 0.0 0.0 0.0 0.0 0.0 0.0 -2.809682649266324e-17 -0.26344899448883347 -0.6654339807748542 -0.14398658301589148 0.023373097702036435 0.0 -3.689113318486684e-16 -3.4590852976383832 -6.196654315771598 -0.6544190198072267 0.1062307290557556 0.0 1.685992956161499 -1.811211887990133 2.2434041500091553 -3.0827375094043177 -0.686713997517721 -0.9028833548175257 0.0 0.0 0.0 0.0 0.0 0.0 -2.809682732297644e-17 -0.2634489834308624 -0.6654340028762817 -0.14398658275604248 0.02337309718132019 0.0 -2.809682732297644e-17 -0.2634489834308624 -0.6654340028762817 -0.14398658275604248 0.02337309718132019 0.0 0.19999998371177274 -0.200000056328117 0.3499999669766873 -1.6275984000564965 1.6275992523036356 -1.6275984987733068 0.0 0.0 0.0 0.0 0.0 0.0 -1.3199318637478946e-06 1.2333740081347704e-06 -4.3381450337005617e-07 2.7276258550179936e-08 3.758082826727451e-08 1.7311665561377394e-08 0.19999999999999998 -0.19999999999999984 0.35000000000000014 -1.627598728468436 1.627598728468436 -1.6275987284684361 0.0 0.0 0.0 0.0 0.0 0.0

6533.447999999999 1.6859930623499084 -1.8112123688244122 2.24340442965998 -3.0827375079083983 -0.6867138374376864 -0.9028835446929193 2.614197420749188e-05 -0.00016860450064600007 0.00012121606177782159 3.2352038627904516e-05 -2.305302631028774e-05 1.9443614004742933e-05 0.003267746775936485 -0.021075562580750006 0.015152007722227698 0.004044004828488064 -0.0028816282887859676 0.0024304517505928666 0.00035184764277274857 -0.2647241771182788 -0.6649913046504573 -0.14401540060230417 0.02335230806633238 3.818509750375904e-05 0.004619759549606189 -3.4758284455630006 -6.1925320271659885 -0.6545499957374724 0.10613624016148065 0.00017355126815458483 1.6859930753707886 -1.8112123648272913 2.2434043884277344 -3.0827375094043177 -0.686713997517721 -0.9028833548175257 2.6141973648918793e-05 -0.00016860449977684766 0.00012121606414439157 3.235203985241242e-05 -2.3053025870467536e-05 1.944361429195851e-05 0.00035184764419682324 -0.26472416520118713 -0.6649913191795349 -0.14401540160179138 0.023352308198809624 3.818509867414832e-05 0.00035184764419682324 -0.26472416520118713 -0.6649913191795349 -0.14401540160179138 0.023352308198809624 3.818509867414832e-05 0.19999999563980764 -0.19999992952257556 0.3500000059934587 -1.6275985522501717 1.6275989794480386 -1.627598709660071 -5.690195512058489e-13 4.000000006217306e-05 -3.845682723506308e-13 3.0936970225916927e-12 -3.168497095596028e-12 -1.391621526413664e-12 -1.1925203650076573e-06 1.0735572086083678e-06 -1.2008982438493294e-07 4.762238154461795e-08 6.975915774116919e-08 2.3773853814577842e-08 0.2 -0.19999991999999983 0.35000000000000003 -1.6275987284684357 1.6275987284684352 -1.6275987284684361 1.1393793335492261e-20 3.9999999999999996e-05 1.1470707384974131e-20 -9.599761880922907e-20 -2.9190376636383794e-20 2.477405934596318e-21

6533.456 1.685993480622952 -1.8112150664978364 2.243406369113777 -3.082736990271868 -0.6867142062874159 -0.9028832335941521 0.00011763970300056494 -0.0007587210479082011 0.0005454704827895341 0.00014558637427188834 -0.00010373935402774944 8.749679348669333e-05 0.011437216099134132 -0.07376456840777514 0.053031802626464064 0.014154291955497979 -0.010085790964682711 0.0085066474352438 0.0012314703774907539 -0.2679106521335941 -0.6638847475003239 -0.14408741936030442 0.023300320037988154 0.00013364888303816371 0.016169206056453597 -3.517666862514091 -6.182227545672516 -0.6548773209925836 0.10589995457265615 0.0006074341734084541 1.6859934329986572 -1.8112152258502405 2.243406295776367 -3.0827370325671595 -0.686713997517721 -0.9028833548175257 0.00011763970542233437 -0.0007587210275232792 0.0005454705096781254 0.00014558636758010834 -0.00010373935219831765 8.749679545871913e-05 0.0012314703781157732 -0.2679106593132019 -0.6638847589492798 -0.14408741891384125 0.02330031991004944 0.00013364887854550034 0.0012314703781157732 -0.2679106593132019 -0.6638847589492798 -0.14408741891384125 0.02330031991004944 0.00013364887854550034 0.19999999635289822 -0.19999924601172286 0.35000006570727055 -1.62759892302434 1.627598306098821 -1.6275990734751422 5.370260509325459e-12 0.00018000000155657056 -3.625779599097733e-11 5.584427872077772e-11 -1.5541260457321648e-11 1.0106692971734878e-11 1.7858725293283765e-07 -7.623847702333866e-08 -6.054601687458962e-07 -5.049015987132468e-08 -7.702156972778155e-08 -2.0477827311326352e-08 0.19999999999999998 -0.19999927999999978 0.35000000000000003 -1.6275987284684361 1.6275987284684363 -1.6275987284684361 -2.0774859688135532e-17 0.00017999999999999998 8.322503199167526e-17 -5.0041495531367286e-17 1.4974172365489397e-16 3.3572283213322202e-19

6533.464 1.6859948923159744 -1.8112241711665096 2.2434129147232174 -3.082735243190818 -0.6867154511745603 -0.9028821836218883 0.0003137132464320392 -0.0020232632827191874 0.0014545717971216063 0.0003882501353857622 -0.0002766448982376013 0.00023332955691266638 0.02450919292893428 -0.15806777935137328 0.11363766429150902 0.030332970139234233 -0.021613193026231485 0.018229095428246626 0.0026389014548824476 -0.27300520606748385 -0.6621146172322864 -0.14420255723404518 0.02321709449922677 0.00028639934372823035 0.03464877610260654 -3.584558355666063 -6.165743738590497 -0.6554006226287353 0.10552169449898566 0.0013016850172448068 1.6859948635101318 -1.8112242857562464 2.243412971496582 -3.0827351252185267 -0.6867154280291956 -0.9028824011432093 0.00031371324439533055 -0.002023263368755579 0.0014545718440786004 0.0003882501332554966 -0.00027664488879963756 0.00023332955606747419 0.00263890135101974 -0.2730052173137665 -0.6621146202087402 -0.1442025601863861 0.02321709506213665 0.0002863993577193469 0.00263890135101974 -0.2730052173137665 -0.6621146202087402 -0.1442025601863861 0.02321709506213665 0.0002863993577193469 0.1999999931119944 -0.1999971055664007 0.35000000006315124 -1.6275989228258272 1.6275986483885883 -1.62759877516854 6.617503203007963e-12 0.0004800000110632086 -4.6292408373885007e-11 -4.0319792920311746e-11 1.4035054580001195e-11 8.50811320218041e-12 6.103309248012095e-07 -5.252401099889644e-07 -3.468753519001219e-07 -3.975942751762729e-08 -6.0784394452499e-08 -1.5652682668534365e-08 0.20000000000000004 -0.19999711999999983 0.3500000000000001 -1.6275987284684366 1.627598728468435 -1.6275987284684357 -1.8393440269699687e-19 0.00047999999999994445 1.1084620483760494e-16 6.641369610717215e-17 -1.3310295585488777e-16 -3.9384385069364796e-19

6533.472 1.6859982386838008 -1.8112457527319776 2.2434284299514613 -3.0827311016056793 -0.6867184021371795 -0.9028796947129232 0.0006536056692401476 -0.004215167171611447 0.0030302781219351746 0.0008089522460533113 -0.0005763762353432732 0.00048612682141486026 0.04248655285101355 -0.2739879861115324 0.19696329060169604 0.05258776383344364 -0.03746641713820898 0.03159965806277423 0.0045742712599590295 -0.2800030863557973 -0.6596814426106477 -0.14436061354783594 0.023102547475632892 0.0004964657388973642 0.06006018164326206 -3.676440523851618 -6.143085529878873 -0.6561189885749144 0.1050010782767515 0.0022564367832885197 1.6859982013702393 -1.8112457434283655 2.2434284687042236 -3.082731072102682 -0.6867182890521448 -0.9028795401202601 0.0006536056753247976 -0.004215167369693518 0.0030302780214697123 0.0008089522598311305 -0.0005763762164860964 0.00048612680984660983 0.004574271384626627 -0.2800031006336212 -0.6596814393997192 -0.14436061680316925 0.023102547973394394 0.0004964657127857208 0.004574271384626627 -0.2800031006336212 -0.6596814393997192 -0.14436061680316925 0.023102547973394394 0.0004964657127857208 0.1999999978569586 -0.1999920023489959 0.349999987938545 -1.6275985100909458 1.6275987726380967 -1.6275985584431014 3.7493307807771544e-11 0.0010000000292035983 7.058953442809535e-11 -2.670039406469981e-10 5.543482120954201e-11 4.621878334203448e-11 9.490153484964039e-07 -8.685554237186381e-07 -2.1747830849931752e-07 -4.5510367439567804e-08 -7.011217251639296e-08 -1.7721282477550738e-08 0.19999999999999998 -0.1999919999999997 0.35000000000000014 -1.6275987284684366 1.627598728468435 -1.6275987284684372 -6.928579717633391e-17 0.0009999999999999994 6.940639889884724e-17 2.4934071810633397e-16 3.3278267489418394e-16 -1.6641870719920013e-16

6533.48 1.6860047750960518 -1.8112879047487294 2.2434587319534756 -3.0827230111281696 -0.6867241662188732 -0.9028748332144376 0.001176618209024079 -0.007587425121110029 0.005454220103733132 0.0014564578603412503 -0.0010375921890294448 0.000875111177840506 0.06537656747299142 -0.4215322436873228 0.3029927477247447 0.08093820178599237 -0.057651994210771454 0.04862304455320572 0.007037920266122996 -0.28889810262297655 -0.6565860775747204 -0.14456116768180793 0.022956516751005324 0.000763922055535921 0.09240789309419493 -3.793232087439682 -6.114260871591312 -0.657030507113817 0.10433736863331919 0.003472025742410761 1.6860047578811646 -1.8112877050982874 2.2434587478637695 -3.0827229658709925 -0.6867240110980433 -0.902874771748678 0.0011766181560233235 -0.007587424945086241 0.005454219877719879 0.0014564578887075186 -0.0010375921847298741 0.0008751112036406994 0.0070379204116761684 -0.2888981103897095 -0.6565860509872437 -0.14456117153167725 0.022956516593694687 0.0007639220566488802 0.0070379204116761684 -0.2888981103897095 -0.6565860509872437 -0.14456117153167725 0.022956516593694687 0.0007639220566488802 0.20000000830288536 -0.19998203487310645 0.3499999520372855 -1.6275985534970854 1.6275987628840203 -1.6275983778044354 7.429857766246357e-11 0.0017999999475429565 3.2332352856087296e-10 3.980701577967494e-11 3.9016743571474315e-10 -7.42041135937655e-12 1.1069260122448428e-06 -1.1675855357249092e-06 7.752637666670425e-07 1.63475756191742e-08 2.2620691229651668e-08 1.0240687297577656e-08 0.20000000000000004 -0.19998199999999988 0.35 -1.6275987284684355 1.6275987284684357 -1.627598728468437 7.549433827573217e-19 0.0017999999999997911 -5.957311557458913e-19 3.0061098712892633e-16 3.9779645053267135e-16 5.011508284214898e-16

6533.487999999999 1.686016071692757 -1.811360745060111 2.2435110901396613 -3.082709026280966 -0.68673412805762 -0.9028664314594312 0.001922171097957476 -0.012393144920613572 0.008907767731950395 0.0023798515556092232 -0.0016950584574050693 0.001429582275008096 0.09319411111667462 -0.6007149749379428 0.4316934535271578 0.11542421190849662 -0.08218328354695306 0.06930888714594874 0.010030557672278442 -0.2996827713692573 -0.652829852044357 -0.1448034400042638 0.02277871582644753 0.0010889196269374612 0.13170122223701597 -3.9348347880783483 -6.0792821482074615 -0.658131634819379 0.10352926343120403 0.004949139704430761 1.6860160827636719 -1.8113606611834925 2.243511199951172 -3.0827091375934046 -0.6867340246783655 -0.9028666655169886 0.0019221710972487926 -0.012393144890666008 0.008907767944037914 0.0023798516485840082 -0.0016950584249570966 0.0014295822475105524 0.01003055740147829 -0.29968276619911194 -0.6528298258781433 -0.14480343461036682 0.022778715938329697 0.0010889195837080479 0.01003055740147829 -0.29968276619911194 -0.6528298258781433 -0.14480343461036682 0.022778715938329697 0.0010889195837080479 0.20000000765640008 -0.19996471812041872 0.34999996336232286 -1.6275989517918459 1.6275985184115318 -1.6275987206365472 -1.0228638579144023e-11 0.002939999932987609 9.885352756651271e-11 3.7494544102092636e-10 3.043219779382103e-10 9.001795593269593e-11 5.082775907151415e-07 -4.6924508925054564e-07 8.897623389507918e-07 2.0971825834367205e-08 3.97165843515905e-08 -4.2329577235578205e-09 0.20000000000000012 -0.19996471999999965 0.35000000000000014 -1.6275987284684363 1.6275987284684355 -1.6275987284684368 -9.679133861500494e-17 0.002940000000000049 2.925267830881019e-16 -2.372407995152471e-16 1.1484369160405343e-16 4.669455998383319e-16

6533.496 1.6860340146349135 -1.8114764170103 2.2435942234373294 -3.082686807142156 -0.6867499510089683 -0.9028530869569273 0.002929897324465584 -0.018885640438125392 0.013571825244717485 0.003628788528167144 -0.0025837318272961436 0.002178977521410971 0.12596577831351352 -0.8115619396889776 0.5830071890958862 0.1561171215697401 -0.1110841712363843 0.0936744058003594 0.013553466148441145 -0.31234850398783154 -0.6484147695298338 -0.14508611505347627 0.022568675075278655 0.0014717289977967578 0.17795701052903223 -4.101135857360228 -6.038168016815718 -0.6594163929180497 0.10257462821714149 0.006689008294986264 1.6860339641571045 -1.8114765326129358 2.243594169616699 -3.082686726246969 -0.6867497603045862 -0.9028533140765589 0.002929897280409932 -0.018885640427470207 0.013571824878454208 0.0036287885159254074 -0.002583731897175312 0.0021789774764329195 0.013553465716540813 -0.31234851479530334 -0.6484147906303406 -0.1450861096382141 0.022568674758076668 0.0014717290177941322 0.013553465716540813 -0.31234851479530334 -0.6484147906303406 -0.1450861096382141 0.022568674758076668 0.0014717290177941322 0.19999999659746442 -0.19993726176797857 0.350000039406477 -1.6275989683782346 1.6275983843758568 -1.627598920171792 1.5930664942303494e-10 0.004480000034896844 -3.619771687296795e-10 -1.4768411259458182e-10 6.55493821416411e-11 5.92904931672324e-11 3.1267729436074985e-07 -2.0039447235129565e-08 -1.167545551174565e-06 -1.0997931457731388e-07 -1.6220528568864185e-07 -5.2837101320450346e-08 0.20000000000000034 -0.19993727999999947 0.3500000000000003 -1.627598728468436 1.6275987284684346 -1.6275987284684366 -2.774002953501702e-16 0.004479999999999609 -9.785086185425603e-19 2.6258116656089877e-16 2.674841108969619e-16 4.025706723305314e-16

6533.504 1.6860608082389414 -1.8116490915100156 2.2437182956204156 -3.082653613624501 -0.6867735790631349 -0.9028331610100508 0.004239776773451541 -0.027318560952391956 0.01962653826648235 0.0052538530209520675 -0.0037388806606528926 0.0031529588973877843 0.16373493112324466 -1.0541150642833204 0.756839127720608 0.20313306159811542 -0.14439360416959363 0.12174767199710164 0.017608753550563246 -0.32688583793172876 -0.6433437520572981 -0.1454071269672752 0.022325669804626278 0.0019127912022655746 0.23120293411889545 -4.292011052043598 -5.990945687907971 -0.6608753920662658 0.10147016926202643 0.008693636014297037 1.6860607862472534 -1.8116491476642054 2.243718385696411 -3.082653586064474 -0.6867736021624964 -0.9028332869159144 0.004239776637405157 -0.02731856144964695 0.019626537337899208 0.0052538528107106686 -0.0037388806231319904 0.0031529588159173727 0.017608754336833954 -0.326885849237442 -0.6433437466621399 -0.14540712535381317 0.0223256703466177 0.001912791165523231 0.017608754336833954 -0.326885849237442 -0.6433437466621399 -0.14540712535381317 0.0223256703466177 0.001912791165523231 0.19999999304332555 -0.19989631271133262 0.3499999841878528 -1.6275988297560087 1.6275987457216126 -1.6275987362647906 7.007477042929404e-11 0.006479999894046184 2.8523470403391823e-12 -1.7611494502968194e-09 3.65591468057956e-11 -1.0515722056555341e-10 8.836236417024075e-07 -7.891807225550045e-07 -1.867905518660506e-07 -5.880174177693567e-08 -8.662906007963516e-08 -2.9120703179449513e-08 0.20000000000000082 -0.199896319999999 0.35000000000000037 -1.627598728468437 1.6275987284684352 -1.6275987284684363 -8.114690095190444e-16 0.0064799999999991245 -3.7825427179546453e-16 5.8390216218975194e-18 9.027113874926409e-16 2.99754319181897e-16

6533.512 1.6860989783443776 -1.8118949702884128 2.2438949079504633 -3.082606296465816 -0.6868072398698466 -0.9028047765361737 0.00589231845313868 -0.037946065931309204 0.02725089716651372 0.007307043187135544 -0.005196248584127358 0.004381530820843391 0.20656770996089233 -1.328438122364656 0.9530448625039213 0.2566487707729346 -0.18217099043430818 0.15357149043195087 0.02219965313972611 -0.34328471066780597 -0.637620933197542 -0.14576340717292222 0.022048634719700762 0.002412778749675317 0.2914814457246038 -4.507328251068293 -5.93765365412215 -0.6624946856009315 0.10021104480103996 0.010966079417274316 1.6860989332199097 -1.8118951956378382 2.2438948154449463 -3.082606379185812 -0.6868074576007288 -0.9028046766864222 0.005892318673431873 -0.03794606775045395 0.027250897139310837 0.007307043299078941 -0.005196248646825552 0.0043815309181809425 0.02219965308904648 -0.3432846963405609 -0.6376209259033203 -0.14576341211795807 0.02204863540828228 0.002412778791040182 0.02219965308904648 -0.3432846963405609 -0.6376209259033203 -0.14576341211795807 0.02204863540828228 0.002412778791040182 0.1999999759402024 -0.1998379774251058 0.3500000764085564 -1.6275987485490357 1.6275988369753012 -1.627599202783855 1.2103397663190983e-10 0.009000000538264746 -1.2043800465677401e-09 -1.899749384692692e-09 -3.27604865021719e-09 -2.1191998359429843e-10 -8.566476978772817e-07 6.078726719225495e-07 7.906356058454288e-07 1.0831209409316592e-07 1.6146545980064222e-07 5.028164710063753e-08 0.20000000000000198 -0.1998379999999978 0.35000000000000087 -1.6275987284684377 1.6275987284684363 -1.6275987284684348 -2.0821893623815483e-15 0.008999999999997847 -5.591669807665571e-16 8.406956585011805e-16 5.027337477114509e-16 1.6669047242637075e-16

6533.5199999999995 1.6861513773272865 -1.8122322907177102 2.2441370882429896 -3.08254128385326 -0.6868534492415632 -0.9027658148230344 0.007928798954632735 -0.05102305194428012 0.03662222038320794 0.009842401548621817 -0.0069922687129897396 0.005895194253346184 0.25456006268675685 -1.6346232516213643 1.1714154020867777 0.3169197951857841 -0.22450251610779767 0.18920792906284906 0.027330874814274347 -0.36153477578243565 -0.6312520003635966 -0.14615059437718264 0.021736063979399173 0.0029726667966096508 0.3588543863114222 -4.74695160602338 -5.878344877785884 -0.6642544514442951 0.09879041078636923 0.013510770590590863 1.686151385307312 -1.8122323195086878 2.2441370487213135 -3.082541290913717 -0.6868532339679163 -0.9027660528766077 0.007928798906505108 -0.051023051142692566 0.036622218787670135 0.00984240137040615 -0.006992268841713667 0.005895194131880999 0.027330875396728516 -0.3615347743034363 -0.6312519907951355 -0.1461505889892578 0.021736063063144684 0.002972666872665286 0.027330875396728516 -0.3615347743034363 -0.6312519907951355 -0.1461505889892578 0.021736063063144684 0.002972666872665286 0.20000001079317498 -0.19975798066342343 0.3500000244652575 -1.6275990070064996 1.62759829565838 -1.6275988766622533 -1.427651604527273e-10 0.01209999993522963 -5.914149420326131e-11 -3.0524197518445536e-10 3.636788061782047e-10 3.3732286275524365e-10 2.2337262952060434e-07 -2.1530162534325742e-07 2.232112298131869e-07 -1.5194561562843855e-08 -2.0473226628790806e-08 -9.207761244932283e-09 0.20000000000000434 -0.19975799999999538 0.35000000000000164 -1.62759872846844 1.6275987284684363 -1.6275987284684321 -5.496885832805734e-15 0.012099999999994343 -1.9981263835928455e-15 1.4963828041795503e-15 -3.6014019796416254e-16 -1.1070351102490466e-15

6533.527999999999 1.686221191239291 -1.812681332649949 2.2444592753420523 -3.0824545624513355 -0.686915017566406 -0.9027139109119151 0.010391565959542038 -0.06680543820286745 0.047915501087679536 0.012916810132148302 -0.009164336351875368 0.007725142605367368 0.3078458756136629 -1.9727982823234167 1.4116600880589494 0.38430107294081056 -0.2715084548607035 0.22874354400264804 0.03300901120199158 -0.3816257601971229 -0.6242445880428232 -0.1465627069465385 0.02138589561177858 0.003593815235774937 0.43340831708214944 -5.010746231388223 -5.813090452772379 -0.6661275030720175 0.09719889555553365 0.016333890246597087 1.6862212419509888 -1.8126815001117151 2.244459390640259 -3.082454506550924 -0.6869152227984827 -0.9027140776263636 0.010391565971076488 -0.06680543720722198 0.0479154996573925 0.012916809879243374 -0.009164336137473583 0.007725142408162355 0.033009011298418045 -0.381625771522522 -0.6242445707321167 -0.14656271040439606 0.02138589508831501 0.0035938152577728033 0.033009011298418045 -0.381625771522522 -0.6242445707321167 -0.14656271040439606 0.02138589508831501 0.0035938152577728033 0.19999999685208644 -0.19965148793265614 0.34999999388103503 -1.6275989413951122 1.627598817918864 -1.6275988270594408 -1.0622628326398206e-09 0.01583999921535346 -2.2369339424130044e-09 -1.7141863259335378e-09 -1.2387220768421402e-09 -3.183511620092317e-10 1.102239655642413e-06 -1.1042222789283137e-06 3.495508252628901e-07 -1.3697070169838205e-08 -2.391748307389e-08 -4.854144705090624e-10 0.2000000000000089 -0.19965151999999067 0.35000000000000336 -1.6275987284684441 1.627598728468439 -1.6275987284684286 -1.3062188016955608e-14 0.015839999999986604 -4.503460711373073e-15 3.6153903052490565e-15 -3.934340985054137e-16 -3.591951633049109e-15

6533.536 1.6863119496259786 -1.8132644277562218 2.2448772978509948 -3.0823416514511477 -0.6869950586287237 -0.9026464472527049 0.01332441658728655 -0.08555051692874473 0.0613026000218351 0.01659096923854612 -0.011751149006874883 0.009903505540982103 0.36660632846806396 -2.3431348407346593 1.6733873667694457 0.45926988829972737 -0.32335158187493945 0.2722953669518418 0.03924300424120627 -0.40354786086561506 -0.6166087242725901 -0.1469917778556869 0.02099537850102072 0.004278062765221159 0.5152606456870383 -5.298583413165526 -5.7419837621712135 -0.668077630354097 0.09542399528713917 0.019443795267930167 1.686311960220337 -1.8132641951190394 2.244877338409424 -3.082341734563009 -0.6869948546039026 -0.9026463667498987 0.013324416242539883 -0.08555051684379578 0.06130259856581688 0.016590969637036324 -0.011751148849725723 0.009903505444526672 0.039243005216121674 -0.40354785323143005 -0.616608738899231 -0.1469917744398117 0.020995378494262695 0.004278062842786312 0.039243005216121674 -0.40354785323143005 -0.616608738899231 -0.1469917744398117 0.020995378494262695 0.004278062842786312 0.20000001597303171 -0.19951330537925394 0.34999995042784987 -1.6275985723573438 1.6275986448282023 -1.627598423660829 2.790816620672318e-10 0.02027999981147717 4.278499144874782e-09 -2.156349953248872e-10 3.891455552681058e-09 5.590826758518816e-10 -8.821007197293738e-07 8.132702120273133e-07 -3.644567310288377e-07 -6.165035617284216e-10 -6.880552372876556e-10 5.361356025329025e-10 0.2000000000000173 -0.1995132799999821 0.3500000000000065 -1.6275987284684519 1.627598728468442 -1.627598728468422 -2.895549768647109e-14 0.020279999999970228 -1.0483423267597024e-14 8.042067920345335e-15 -3.0250134232104927e-15 -7.365951822286849e-15

6533.544 1.686427538661482 -1.8140059719068242 2.245408345827443 -3.082197568107534 -0.6870970014101934 -0.9025605452242287 0.016773061749431623 -0.10751737430603489 0.07695126659412471 0.020930578591431746 -0.014793123800726227 0.01246364754354412 0.43108064526813417 -2.7458571721612706 1.9560833215362012 0.5424511691107031 -0.38024684923141794 0.32001775032025226 0.04604468020111389 -0.4272921784754664 -0.6083573334829923 -0.14742745253216674 0.020560919434238042 0.005027834432809296 0.6045666510406253 -5.610346303382874 -5.6651451608603205 -0.6700577717586979 0.0934493788286119 0.022851507497118253 1.6864275932312012 -1.8140061537372034 2.245408296585083 -3.0821974913226526 -0.6870968977557581 -0.9025605360614222 0.016773061826825142 -0.10751737654209137 0.07695126533508301 0.0209305789321661 -0.014793124049901962 0.012463647872209549 0.04604468122124672 -0.4272921681404114 -0.608357310295105 -0.14742745459079742 0.020560920238494873 0.005027834326028824 0.04604468122124672 -0.4272921681404114 -0.608357310295105 -0.14742745459079742 0.020560920238494873 0.005027834326028824 0.20000001207093226 -0.1993374726862101 0.35000005046156096 -1.6275988007102202 1.6275984628024074 -1.6275988480323869 -1.9716948239492595e-09 0.02548000064496617 -3.224923153722769e-09 -1.8623018782032042e-09 -2.0016658083952708e-09 2.3010528301091945e-10 -1.7784637433407352e-07 -7.828794252085736e-08 1.1366460277780602e-06 8.935861341407035e-08 1.3425293778643157e-07 3.771469214626313e-08 0.20000000000003199 -0.19933751999996704 0.35000000000001197 -1.6275987284684652 1.6275987284684468 -1.6275987284684097 -6.061004232155346e-14 0.025479999999937924 -2.2171877255770195e-14 1.682138823578313e-14 -6.284166234799861e-15 -1.490261466476333e-14

6533.552 1.6865722183318799 -1.8149324411745775 2.246070934003771 -3.0820167830818637 -0.687224605531048 -0.9024530540547575 0.02078568956646905 -0.13296738712155665 0.09502396929662223 0.026007739268305668 -0.01833290410893079 0.01544052914511592 0.5015784771296781 -3.1812516019402195 2.2590878378121895 0.6346450846092403 -0.4424725385255702 0.372110200196475 0.05342936407274659 -0.45285118444335526 -0.599506799840948 -0.147856550177357 0.020077906769363975 0.005846264700864618 0.7015275502751627 -5.9459360517412545 -5.582727221478876 -0.6720080205560875 0.09125408626675927 0.02657127306542969 1.6865721940994263 -1.814932648335592 2.2460708618164062 -3.0820167700396937 -0.6872246901141565 -0.9024532477008265 0.02078568935394287 -0.13296738266944885 0.09502396732568741 0.026007739827036858 -0.01833290420472622 0.015440529212355614 0.053429365158081055 -0.45285117626190186 -0.5995067954063416 -0.14785654842853546 0.020077906548976898 0.005846264772117138 0.053429365158081055 -0.45285117626190186 -0.5995067954063416 -0.14785654842853546 0.020077906548976898 0.005846264772117138 0.19999998701071448 -0.19911797268769535 0.3500000623105235 -1.627599021068009 1.6275985808678006 -1.6275991539084378 -4.819177832277019e-12 0.03149999938713095 -5.8453364881233235e-09 2.98965904938338e-09 -6.11385024063982e-09 -7.929080446510867e-10 -4.69541399647039e-07 3.121681244417285e-07 3.3971541803153687e-07 3.4142754814978724e-08 5.085001179926355e-08 1.6810069190588106e-08 0.2000000000000568 -0.19911799999994223 0.3500000000000207 -1.6275987284684885 1.6275987284684559 -1.6275987284683884 -1.199936312723891e-13 0.031499999999876974 -4.436088427314145e-14 3.3065013604178205e-14 -1.2209016858209711e-14 -2.973050365940341e-14

6533.5599999999995 1.6867506445132865 -1.8160724120811533 2.246884854938097 -3.0817931637629665 -0.6873819810935782 -0.9023205366095528 0.025413643443457496 -0.16216479923690982 0.11567651515645112 0.03190259426016108 -0.022415969558637894 0.018871140117505677 0.578494234623556 -3.649676514419147 2.5815682324786122 0.7368568739819265 -0.5103831812133881 0.4288263715487195 0.06141658806444725 -0.48021921570036497 -0.5900775964759073 -0.14826258955536165 0.019540506104383938 0.006737338770776548 0.8063998012861924 -6.305278302145792 -5.494920593902944 -0.6738534695291186 0.08881160024442498 0.030621204713179414 1.6867506504058838 -1.8160722891436976 2.246884822845459 -3.0817931334124964 -0.6873820463763636 -0.902320686970846 0.025413643568754196 -0.16216479241847992 0.11567651480436325 0.03190259262919426 -0.022415969520807266 0.018871139734983444 0.061416588723659515 -0.4802192151546478 -0.5900775790214539 -0.14826259016990662 0.01954050548374653 0.006737338844686747 0.061416588723659515 -0.4802192151546478 -0.5900775790214539 -0.14826259016990662 0.01954050548374653 0.006737338844686747 0.20000000136181562 -0.19884802977572938 0.3499999772949305 -1.6275988516027975 1.6275987868069728 -1.6275986767979187 6.049786224766407e-10 0.03839999907509286 3.098476424539351e-09 3.450970574346644e-09 2.854796250854243e-09 -1.7567387496403674e-10 3.457408982770652e-07 -4.6459544798413314e-07 6.227835688392663e-07 2.6653597484846773e-08 3.834203656837882e-08 1.5513736714003714e-08 0.20000000000009696 -0.1988479999999024 0.3500000000000343 -1.6275987284685252 1.6275987284684699 -1.627598728468355 -2.2726878922180558e-13 0.03839999999976954 -8.217653657523023e-14 6.311756638990775e-14 -2.398833559634321e-14 -5.727627683729396e-14

6533.567999999999 1.686967896926965 -1.8174565867345134 2.24787112033246 -3.081519903598936 -0.6875736138139086 -0.9021592514315557 0.030712233771693583 -0.1953773806314853 0.13905643617949845 0.038705224608999195 -0.02709136661667346 0.02279501576339744 0.6623237910295108 -4.151572674321934 2.922490127880916 0.8503287936047643 -0.5844246322544459 0.4904844557364705 0.07003091377087449 -0.5093929891388663 -0.5800949874865522 -0.1486252809044792 0.01894142182763169 0.007706055782348548 0.9195058978115821 -6.688329947393316 -5.401960542472271 -0.675501901710858 0.08608876220658603 0.03502402353077415 1.6869678497314453 -1.8174565474139612 2.247871160507202 -3.081519905720846 -0.6875737349139612 -0.9021590391742151 0.03071223385632038 -0.195377379655838 0.13905642926692963 0.03870522603392601 -0.027091367170214653 0.022795015946030617 0.07003091275691986 -0.5093929767608643 -0.5800949931144714 -0.14862528443336487 0.018941421061754227 0.007706055883318186 0.07003091275691986 -0.5093929767608643 -0.5800949931144714 -0.14862528443336487 0.018941421061754227 0.007706055883318186 0.19999998587493278 -0.19852034299041915 0.349999976664238 -1.6275984515508692 1.627599082605687 -1.6275985883987185 2.488932427917168e-09 0.046239998910278676 3.14866995506399e-09 -6.157145727516509e-09 -6.109196408506773e-11 -1.4632441724203091e-09 -1.0063839205361466e-06 8.643158794068948e-07 2.6004418192925895e-07 7.568631870412563e-08 1.1026129019477258e-07 4.023774168543964e-08 0.20000000000016022 -0.19852031999984107 0.3500000000000544 -1.6275987284685836 1.6275987284684956 -1.6275987284683018 -4.1214372150096323e-13 0.04623999999958587 -1.4513282645281807e-13 1.138070350849632e-13 -4.3298658149832584e-14 -1.0337171834731468e-13

6533.576 1.687229514120927 -1.8191178235204823 2.249051888570667 -3.0811894353418143 -0.6878043964799438 -0.9019651303238305 0.036741706650206735 -0.23287716970392652 0.16530111849898296 0.04651781664623423 -0.03241258104656898 0.02725484984686842 0.753684109814144 -4.687473634055153 3.2805852899355643 0.9765740046543793 -0.6651518037369399 0.5574792604338724 0.07930289374099049 -0.5403721237619485 -0.5695898114730196 -0.1489199866692769 0.018271616518881012 0.008758618602816617 1.0412469948192051 -7.095085984994384 -5.304134242399053 -0.6768413394118634 0.0830444970783142 0.03980792154980153 1.6872295141220093 -1.819117848073141 2.249051809310913 -3.0811894575702112 -0.6878045240985315 -0.9019649664508265 0.0367417074739933 -0.23287716507911682 0.165301114320755 0.04651781544089317 -0.0324125811457634 0.027254849672317505 0.07930289208889008 -0.5403721332550049 -0.5695897936820984 -0.1489199846982956 0.018271615728735924 0.008758618496358395 0.07930289208889008 -0.5403721332550049 -0.5695897936820984 -0.1489199846982956 0.018271615728735924 0.008758618496358395 0.1999999938920109 -0.19812728489102427 0.35000002569723265 -1.6275986028075737 1.6275988885675348 -1.6275988199565932 5.216822083106507e-11 0.05508000012136526 -1.2986495572119394e-10 -2.2839391484021174e-09 -7.1712432688225155e-09 -4.772868938868031e-10 1.2631049845212506e-06 -1.0191628707493634e-06 2.7701368779993055e-07 -3.808776936423806e-08 -5.315677310233326e-08 -2.4730914744271953e-08 0.20000000000025725 -0.1981272799997489 0.3500000000000832 -1.6275987284686744 1.6275987284685338 -1.627598728468218 -7.210422769469418e-13 0.05507999999928557 -2.4409826606864043e-13 1.9942935208783468e-13 -8.061499025561938e-14 -1.8135030881372615e-13

6533.584 1.687541536834763 -1.821091174006602 2.2504503763240864 -3.080793325990695 -0.6880796679620698 -0.901733750643257 0.043568398796797886 -0.27494129652730676 0.19453564710611415 0.05545711361076694 -0.0384385788076678 0.032297220809650945 0.8533365183238939 -5.258015852922529 3.6543160758913986 1.1174121205665888 -0.7532497201373526 0.6302963703478156 0.08927020604163008 -0.5731596529761859 -0.5585993575699342 -0.14911715537067197 0.017519977729080743 0.00990265630746457 1.172117805326603 -7.52558624357732 -5.201788937562741 -0.6777374711597041 0.07962829877867197 0.04500757291742647 1.6875414848327637 -1.8210910002337855 2.250450372695923 -3.0807934443103235 -0.6880796591388147 -0.901733700429098 0.04356839880347252 -0.2749412953853607 0.19453564286231995 0.055457115173339844 -0.0384385772049427 0.03229722008109093 0.0892702043056488 -0.5731596350669861 -0.5585993528366089 -0.14911715686321259 0.017519976943731308 0.009902656078338623 0.0892702043056488 -0.5731596350669861 -0.5585993528366089 -0.14911715686321259 0.017519976943731308 0.009902656078338623 0.19999999344553102 -0.19766075821270623 0.34999997329959015 -1.6275986268655087 1.627598833639813 -1.627598668858719 4.719207927519236e-09 0.06497999996855769 1.0847820062946624e-08 -2.152965440972246e-09 1.8675903758381493e-09 1.7418216991370796e-09 -9.97722930185674e-07 8.824693764325075e-07 7.168082363926748e-07 1.0193428924209335e-07 1.5178839578743887e-07 4.351023551028239e-08 0.2000000000004028 -0.1976607199996141 0.3500000000001226 -1.6275987284688143 1.6275987284685904 -1.6275987284680908 -1.221983195964214e-12 0.06497999999880806 -3.944817261283628e-13 3.398597524825568e-13 -1.3958649045794436e-13 -3.10656457799634e-13

6533.592 1.6879105613640237 -1.8234139266829414 2.2520907518442708 -3.0803221511245265 -0.6884052612398186 -0.9014603013277869 0.05126611532831378 -0.3218528803989013 0.22687033550019933 0.06565716143782806 -0.045235048858099064 0.037973451920852656 0.9622145664394868 -5.863947983949319 4.041836049260648 1.2750059783826397 -0.8495587563039078 0.7095288889002139 0.09997900553609163 -0.6077625013263472 -0.5471683476445443 -0.14918173540330892 0.016672918526344272 0.011147487210054471 1.312724342688883 -7.97992164241494 -5.095341086935525 -0.678030987408039 0.07577841470223472 0.05066532936969757 1.687910556793213 -1.823414150868551 2.2520906925201416 -3.0803220907794397 -0.6884053389178675 -0.9014604727374476 0.05126611515879631 -0.3218528926372528 0.2268703281879425 0.06565716117620468 -0.0452350489795208 0.03797345235943794 0.09997900575399399 -0.6077625155448914 -0.5471683740615845 -0.14918173849582672 0.01667291857302189 0.011147486977279186 0.09997900575399399 -0.6077625155448914 -0.5471683740615845 -0.14918173849582672 0.01667291857302189 0.011147486977279186 0.19999999102336885 -0.1971119668582761 0.35000005823256 -1.6275989920673841 1.6275985904573116 -1.6275990835355565 -2.0511440487694436e-09 0.07600000284015951 -9.443908794490768e-09 -1.960697117592088e-08 -1.6040644977177002e-08 -1.4802423699467369e-09 1.6996795877960482e-07 -4.539936985945432e-08 -1.2255578926260877e-06 -8.03157527813041e-08 -1.2810863880941524e-07 -2.7283903117405473e-08 0.2000000000006168 -0.1971119999994223 0.3500000000001739 -1.6275987284690216 1.6275987284686784 -1.6275987284678985 -2.0140527723819017e-12 0.07599999999807132 -6.122983191129241e-13 5.675170145565296e-13 -2.3181547217292035e-13 -5.179187614667629e-13

6533.599999999999 1.6883438048680297 -1.826125658089345 2.2539980073006225 -3.0797653462560857 -0.6887875622067385 -0.9011395414964198 0.0570645493763527 -0.35609713209760335 0.24990276687664886 0.07359271728630976 -0.05035799074411205 0.042229172521298784 0.7248042560048648 -4.2805314623377555 2.8790539220561913 0.9919444810602123 -0.640367735751623 0.531965075055766 0.07390534086102027 -0.5097648518796488 -0.5812615820892093 -0.14665027911216721 0.01809811339527094 0.008357762401431702 0.9703771255051963 -6.6932125051797895 -5.412824104731135 -0.6665255185647999 0.08225592538150642 0.03798603011450708 1.6883437633514404 -1.826125446950094 2.253998041152954 -3.0797653833972376 -0.6887877623187464 -0.9011395613299769 0.05706454813480377 -0.35609713196754456 0.24990276992321014 0.07359271496534348 -0.050357989966869354 0.042229171842336655 0.0739053413271904 -0.5097648501396179 -0.5812615752220154 -0.1466502845287323 0.01809811405837536 0.008357762359082699 0.0739053413271904 -0.5097648501396179 -0.5812615752220154 -0.1466502845287323 0.01809811405837536 0.008357762359082699 0.19999998734285895 -0.19647205901005124 0.3499999416147352 -1.6275986594340863 1.627599117058022 -1.627598569331385 5.561804018637354e-09 0.08399999924915516 1.513454304028051e-08 -5.721658232247335e-09 5.485263707230795e-09 -3.4220998486944596e-09 -9.310765499651906e-08 -7.408340056149061e-08 4.2789775723798685e-07 5.018784670600224e-08 7.185284747081891e-08 2.698891805086032e-08 0.20000000000092608 -0.19647199999915566 0.3500000000002369 -1.6275987284693294 1.6275987284688072 -1.627598728467615 -3.0840398977246986e-12 0.08399999999711237 -8.688118423104554e-13 8.788160730545651e-13 -3.6365079716482555e-13 -8.063976148005195e-13

