mkrssg/UniversalRobots/rtde_client_3.5/examples/simulation/movej_0-30q1_simulation.csv
timestamp target_q_0 target_q_1 target_q_2 target_q_3 target_q_4 target_q_5 target_qd_0 target_qd_1 target_qd_2 target_qd_3 target_qd_4 target_qd_5 target_qdd_0 target_qdd_1 target_qdd_2 target_qdd_3 target_qdd_4 target_qdd_5 target_current_0 target_current_1 target_current_2 target_current_3 target_current_4 target_current_5 target_moment_0 target_moment_1 target_moment_2 target_moment_3 target_moment_4 target_moment_5 actual_q_0 actual_q_1 actual_q_2 actual_q_3 actual_q_4 actual_q_5 actual_qd_0 actual_qd_1 actual_qd_2 actual_qd_3 actual_qd_4 actual_qd_5 actual_current_0 actual_current_1 actual_current_2 actual_current_3 actual_current_4 actual_current_5 joint_control_output_0 joint_control_output_1 joint_control_output_2 joint_control_output_3 joint_control_output_4 joint_control_output_5 actual_TCP_pose_0 actual_TCP_pose_1 actual_TCP_pose_2 actual_TCP_pose_3 actual_TCP_pose_4 actual_TCP_pose_5 actual_TCP_speed_0 actual_TCP_speed_1 actual_TCP_speed_2 actual_TCP_speed_3 actual_TCP_speed_4 actual_TCP_speed_5 actual_TCP_force_0 actual_TCP_force_1 actual_TCP_force_2 actual_TCP_force_3 actual_TCP_force_4 actual_TCP_force_5 target_TCP_pose_0 target_TCP_pose_1 target_TCP_pose_2 target_TCP_pose_3 target_TCP_pose_4 target_TCP_pose_5 target_TCP_speed_0 target_TCP_speed_1 target_TCP_speed_2 target_TCP_speed_3 target_TCP_speed_4 target_TCP_speed_5

9579.0 0.0 -1.5707963267948966 1.5707963267948966 -1.5707963267948966 -1.5707963267948966 0.0 0.0 0.0 0.0 0.0 0.0 0.0 0.0 0.0 0.0 0.0 0.0 0.0 -1.1512442590619146e-26 -0.5442396572688689 -0.7673661111166267 -0.229354796466502 -1.3146049461972196e-11 0.0 -1.511583712148294e-25 -7.14586669994025 -7.145866699940251 -1.0424175499402515 -5.974879480466362e-11 0.0 0.0 -1.570796314870016 1.5707963705062866 -1.570796314870016 -1.570796314870016 0.0 0.0 0.0 0.0 0.0 0.0 0.0 -1.151244268742903e-26 -0.5442396402359009 -0.7673661112785339 -0.22935479879379272 -1.3146049353263134e-11 0.0 -1.151244268742903e-26 -0.5442396402359009 -0.7673661112785339 -0.22935479879379272 -1.3146049353263134e-11 0.0 -0.2985999973554403 -0.11235000099231761 0.3136499823461779 2.2214412195942916 2.2214412191386654 6.515886891884208e-08 0.0 0.0 0.0 0.0 0.0 0.0 9.240738067961096e-07 3.4768818278582924e-07 4.253146293222068e-08 -2.8475662131755493e-08 6.147405365792544e-08 -2.650151154611292e-15 -0.29859999998320197 -0.1123500000156699 0.31364999997695675 2.221441469306996 2.22144146885137 4.556249894594308e-10 0.0 0.0 0.0 0.0 0.0 0.0

9579.008 0.0 -1.5707963267948966 1.5707963267948966 -1.5707963267948966 -1.5707963267948966 0.0 0.0 0.0 0.0 0.0 0.0 0.0 0.0 0.0 0.0 0.0 0.0 0.0 -1.1512442590619146e-26 -0.5442396572688689 -0.7673661111166267 -0.229354796466502 -1.3146049461972196e-11 0.0 -1.511583712148294e-25 -7.14586669994025 -7.145866699940251 -1.0424175499402515 -5.974879480466362e-11 0.0 0.0 -1.570796314870016 1.5707963705062866 -1.570796314870016 -1.570796314870016 0.0 0.0 0.0 0.0 0.0 0.0 0.0 -1.151244268742903e-26 -0.5442396402359009 -0.7673661112785339 -0.22935479879379272 -1.3146049353263134e-11 0.0 -1.151244268742903e-26 -0.5442396402359009 -0.7673661112785339 -0.22935479879379272 -1.3146049353263134e-11 0.0 -0.2985999973554403 -0.11235000099231761 0.3136499823461779 2.2214412195942916 2.2214412191386654 6.515886891884208e-08 0.0 0.0 0.0 0.0 0.0 0.0 9.240738067961096e-07 3.4768818278582924e-07 4.253146293222068e-08 -2.8475662131755493e-08 6.147405365792544e-08 -2.650151154611292e-15 -0.29859999998320197 -0.1123500000156699 0.31364999997695675 2.221441469306996 2.22144146885137 4.556249894594308e-10 0.0 0.0 0.0 0.0 0.0 0.0

9579.016 0.0 -1.5707963267948966 1.5707963267948966 -1.5707963267948966 -1.5707963267948966 0.0 0.0 0.0 0.0 0.0 0.0 0.0 0.0 0.0 0.0 0.0 0.0 0.0 -1.1512442590619146e-26 -0.5442396572688689 -0.7673661111166267 -0.229354796466502 -1.3146049461972196e-11 0.0 -1.511583712148294e-25 -7.14586669994025 -7.145866699940251 -1.0424175499402515 -5.974879480466362e-11 0.0 0.0 -1.570796314870016 1.5707963705062866 -1.570796314870016 -1.570796314870016 0.0 0.0 0.0 0.0 0.0 0.0 0.0 -1.151244268742903e-26 -0.5442396402359009 -0.7673661112785339 -0.22935479879379272 -1.3146049353263134e-11 0.0 -1.151244268742903e-26 -0.5442396402359009 -0.7673661112785339 -0.22935479879379272 -1.3146049353263134e-11 0.0 -0.2985999973554403 -0.11235000099231761 0.3136499823461779 2.2214412195942916 2.2214412191386654 6.515886891884208e-08 0.0 0.0 0.0 0.0 0.0 0.0 9.240738067961096e-07 3.4768818278582924e-07 4.253146293222068e-08 -2.8475662131755493e-08 6.147405365792544e-08 -2.650151154611292e-15 -0.29859999998320197 -0.1123500000156699 0.31364999997695675 2.221441469306996 2.22144146885137 4.556249894594308e-10 0.0 0.0 0.0 0.0 0.0 0.0

9579.024 0.0 -1.5707963267948966 1.5707963267948966 -1.5707963267948966 -1.5707963267948966 0.0 0.0 0.0 0.0 0.0 0.0 0.0 0.0 0.0 0.0 0.0 0.0 0.0 -1.1512442590619146e-26 -0.5442396572688689 -0.7673661111166267 -0.229354796466502 -1.3146049461972196e-11 0.0 -1.511583712148294e-25 -7.14586669994025 -7.145866699940251 -1.0424175499402515 -5.974879480466362e-11 0.0 0.0 -1.570796314870016 1.5707963705062866 -1.570796314870016 -1.570796314870016 0.0 0.0 0.0 0.0 0.0 0.0 0.0 -1.151244268742903e-26 -0.5442396402359009 -0.7673661112785339 -0.22935479879379272 -1.3146049353263134e-11 0.0 -1.151244268742903e-26 -0.5442396402359009 -0.7673661112785339 -0.22935479879379272 -1.3146049353263134e-11 0.0 -0.2985999973554403 -0.11235000099231761 0.3136499823461779 2.2214412195942916 2.2214412191386654 6.515886891884208e-08 0.0 0.0 0.0 0.0 0.0 0.0 9.240738067961096e-07 3.4768818278582924e-07 4.253146293222068e-08 -2.8475662131755493e-08 6.147405365792544e-08 -2.650151154611292e-15 -0.29859999998320197 -0.1123500000156699 0.31364999997695675 2.221441469306996 2.22144146885137 4.556249894594308e-10 0.0 0.0 0.0 0.0 0.0 0.0

9579.032 0.0 -1.5707963267948966 1.5707963267948966 -1.5707963267948966 -1.5707963267948966 0.0 0.0 0.0 0.0 0.0 0.0 0.0 0.0 0.0 0.0 0.0 0.0 0.0 -1.1512442590619146e-26 -0.5442396572688689 -0.7673661111166267 -0.229354796466502 -1.3146049461972196e-11 0.0 -1.511583712148294e-25 -7.14586669994025 -7.145866699940251 -1.0424175499402515 -5.974879480466362e-11 0.0 0.0 -1.570796314870016 1.5707963705062866 -1.570796314870016 -1.570796314870016 0.0 0.0 0.0 0.0 0.0 0.0 0.0 -1.151244268742903e-26 -0.5442396402359009 -0.7673661112785339 -0.22935479879379272 -1.3146049353263134e-11 0.0 -1.151244268742903e-26 -0.5442396402359009 -0.7673661112785339 -0.22935479879379272 -1.3146049353263134e-11 0.0 -0.2985999973554403 -0.11235000099231761 0.3136499823461779 2.2214412195942916 2.2214412191386654 6.515886891884208e-08 0.0 0.0 0.0 0.0 0.0 0.0 9.240738067961096e-07 3.4768818278582924e-07 4.253146293222068e-08 -2.8475662131755493e-08 6.147405365792544e-08 -2.650151154611292e-15 -0.29859999998320197 -0.1123500000156699 0.31364999997695675 2.221441469306996 2.22144146885137 4.556249894594308e-10 0.0 0.0 0.0 0.0 0.0 0.0

9579.039999999999 0.0 -1.5707963267948966 1.5707963267948966 -1.5707963267948966 -1.5707963267948966 0.0 0.0 0.0 0.0 0.0 0.0 0.0 0.0 0.0 0.0 0.0 0.0 0.0 -1.1512442590619146e-26 -0.5442396572688689 -0.7673661111166267 -0.229354796466502 -1.3146049461972196e-11 0.0 -1.511583712148294e-25 -7.14586669994025 -7.145866699940251 -1.0424175499402515 -5.974879480466362e-11 0.0 0.0 -1.570796314870016 1.5707963705062866 -1.570796314870016 -1.570796314870016 0.0 0.0 0.0 0.0 0.0 0.0 0.0 -1.151244268742903e-26 -0.5442396402359009 -0.7673661112785339 -0.22935479879379272 -1.3146049353263134e-11 0.0 -1.151244268742903e-26 -0.5442396402359009 -0.7673661112785339 -0.22935479879379272 -1.3146049353263134e-11 0.0 -0.2985999973554403 -0.11235000099231761 0.3136499823461779 2.2214412195942916 2.2214412191386654 6.515886891884208e-08 0.0 0.0 0.0 0.0 0.0 0.0 9.240738067961096e-07 3.4768818278582924e-07 4.253146293222068e-08 -2.8475662131755493e-08 6.147405365792544e-08 -2.650151154611292e-15 -0.29859999998320197 -0.1123500000156699 0.31364999997695675 2.221441469306996 2.22144146885137 4.556249894594308e-10 0.0 0.0 0.0 0.0 0.0 0.0

9579.047999999999 0.0 -1.5707963267948966 1.5707963267948966 -1.5707963267948966 -1.5707963267948966 0.0 0.0 0.0 0.0 0.0 0.0 0.0 0.0 0.0 0.0 0.0 0.0 0.0 -1.1512442590619146e-26 -0.5442396572688689 -0.7673661111166267 -0.229354796466502 -1.3146049461972196e-11 0.0 -1.511583712148294e-25 -7.14586669994025 -7.145866699940251 -1.0424175499402515 -5.974879480466362e-11 0.0 0.0 -1.570796314870016 1.5707963705062866 -1.570796314870016 -1.570796314870016 0.0 0.0 0.0 0.0 0.0 0.0 0.0 -1.151244268742903e-26 -0.5442396402359009 -0.7673661112785339 -0.22935479879379272 -1.3146049353263134e-11 0.0 -1.151244268742903e-26 -0.5442396402359009 -0.7673661112785339 -0.22935479879379272 -1.3146049353263134e-11 0.0 -0.2985999973554403 -0.11235000099231761 0.3136499823461779 2.2214412195942916 2.2214412191386654 6.515886891884208e-08 0.0 0.0 0.0 0.0 0.0 0.0 9.240738067961096e-07 3.4768818278582924e-07 4.253146293222068e-08 -2.8475662131755493e-08 6.147405365792544e-08 -2.650151154611292e-15 -0.29859999998320197 -0.1123500000156699 0.31364999997695675 2.221441469306996 2.22144146885137 4.556249894594308e-10 0.0 0.0 0.0 0.0 0.0 0.0

9579.055999999999 0.0 -1.5707963267948966 1.5707963267948966 -1.5707963267948966 -1.5707963267948966 0.0 0.0 0.0 0.0 0.0 0.0 0.0 0.0 0.0 0.0 0.0 0.0 0.0 -1.1512442590619146e-26 -0.5442396572688689 -0.7673661111166267 -0.229354796466502 -1.3146049461972196e-11 0.0 -1.511583712148294e-25 -7.14586669994025 -7.145866699940251 -1.0424175499402515 -5.974879480466362e-11 0.0 0.0 -1.570796314870016 1.5707963705062866 -1.570796314870016 -1.570796314870016 0.0 0.0 0.0 0.0 0.0 0.0 0.0 -1.151244268742903e-26 -0.5442396402359009 -0.7673661112785339 -0.22935479879379272 -1.3146049353263134e-11 0.0 -1.151244268742903e-26 -0.5442396402359009 -0.7673661112785339 -0.22935479879379272 -1.3146049353263134e-11 0.0 -0.2985999973554403 -0.11235000099231761 0.3136499823461779 2.2214412195942916 2.2214412191386654 6.515886891884208e-08 0.0 0.0 0.0 0.0 0.0 0.0 9.240738067961096e-07 3.4768818278582924e-07 4.253146293222068e-08 -2.8475662131755493e-08 6.147405365792544e-08 -2.650151154611292e-15 -0.29859999998320197 -0.1123500000156699 0.31364999997695675 2.221441469306996 2.22144146885137 4.556249894594308e-10 0.0 0.0 0.0 0.0 0.0 0.0

9579.064 0.0 -1.5707963267948966 1.5707963267948966 -1.5707963267948966 -1.5707963267948966 0.0 0.0 0.0 0.0 0.0 0.0 0.0 0.0 0.0 0.0 0.0 0.0 0.0 -1.1512442590619146e-26 -0.5442396572688689 -0.7673661111166267 -0.229354796466502 -1.3146049461972196e-11 0.0 -1.511583712148294e-25 -7.14586669994025 -7.145866699940251 -1.0424175499402515 -5.974879480466362e-11 0.0 0.0 -1.570796314870016 1.5707963705062866 -1.570796314870016 -1.570796314870016 0.0 0.0 0.0 0.0 0.0 0.0 0.0 -1.151244268742903e-26 -0.5442396402359009 -0.7673661112785339 -0.22935479879379272 -1.3146049353263134e-11 0.0 -1.151244268742903e-26 -0.5442396402359009 -0.7673661112785339 -0.22935479879379272 -1.3146049353263134e-11 0.0 -0.2985999973554403 -0.11235000099231761 0.3136499823461779 2.2214412195942916 2.2214412191386654 6.515886891884208e-08 0.0 0.0 0.0 0.0 0.0 0.0 9.240738067961096e-07 3.4768818278582924e-07 4.253146293222068e-08 -2.8475662131755493e-08 6.147405365792544e-08 -2.650151154611292e-15 -0.29859999998320197 -0.1123500000156699 0.31364999997695675 2.221441469306996 2.22144146885137 4.556249894594308e-10 0.0 0.0 0.0 0.0 0.0 0.0

9579.072 0.0 -1.5707963267948966 1.5707963267948966 -1.5707963267948966 -1.5707963267948966 0.0 0.0 0.0 0.0 0.0 0.0 0.0 0.0 0.0 0.0 0.0 0.0 0.0 -1.1512442590619146e-26 -0.5442396572688689 -0.7673661111166267 -0.229354796466502 -1.3146049461972196e-11 0.0 -1.511583712148294e-25 -7.14586669994025 -7.145866699940251 -1.0424175499402515 -5.974879480466362e-11 0.0 0.0 -1.570796314870016 1.5707963705062866 -1.570796314870016 -1.570796314870016 0.0 0.0 0.0 0.0 0.0 0.0 0.0 -1.151244268742903e-26 -0.5442396402359009 -0.7673661112785339 -0.22935479879379272 -1.3146049353263134e-11 0.0 -1.151244268742903e-26 -0.5442396402359009 -0.7673661112785339 -0.22935479879379272 -1.3146049353263134e-11 0.0 -0.2985999973554403 -0.11235000099231761 0.3136499823461779 2.2214412195942916 2.2214412191386654 6.515886891884208e-08 0.0 0.0 0.0 0.0 0.0 0.0 9.240738067961096e-07 3.4768818278582924e-07 4.253146293222068e-08 -2.8475662131755493e-08 6.147405365792544e-08 -2.650151154611292e-15 -0.29859999998320197 -0.1123500000156699 0.31364999997695675 2.221441469306996 2.22144146885137 4.556249894594308e-10 0.0 0.0 0.0 0.0 0.0 0.0

9579.08 0.0 -1.5707963267948966 1.5707963267948966 -1.5707963267948966 -1.5707963267948966 0.0 0.0 0.0 0.0 0.0 0.0 0.0 0.0 0.0 0.0 0.0 0.0 0.0 -1.1512442590619146e-26 -0.5442396572688689 -0.7673661111166267 -0.229354796466502 -1.3146049461972196e-11 0.0 -1.511583712148294e-25 -7.14586669994025 -7.145866699940251 -1.0424175499402515 -5.974879480466362e-11 0.0 0.0 -1.570796314870016 1.5707963705062866 -1.570796314870016 -1.570796314870016 0.0 0.0 0.0 0.0 0.0 0.0 0.0 -1.151244268742903e-26 -0.5442396402359009 -0.7673661112785339 -0.22935479879379272 -1.3146049353263134e-11 0.0 -1.151244268742903e-26 -0.5442396402359009 -0.7673661112785339 -0.22935479879379272 -1.3146049353263134e-11 0.0 -0.2985999973554403 -0.11235000099231761 0.3136499823461779 2.2214412195942916 2.2214412191386654 6.515886891884208e-08 0.0 0.0 0.0 0.0 0.0 0.0 9.240738067961096e-07 3.4768818278582924e-07 4.253146293222068e-08 -2.8475662131755493e-08 6.147405365792544e-08 -2.650151154611292e-15 -0.29859999998320197 -0.1123500000156699 0.31364999997695675 2.221441469306996 2.22144146885137 4.556249894594308e-10 0.0 0.0 0.0 0.0 0.0 0.0

9579.088 0.0 -1.5707963267948966 1.5707963267948966 -1.5707963267948966 -1.5707963267948966 0.0 0.0 0.0 0.0 0.0 0.0 0.0 0.0 0.0 0.0 0.0 0.0 0.0 -1.1512442590619146e-26 -0.5442396572688689 -0.7673661111166267 -0.229354796466502 -1.3146049461972196e-11 0.0 -1.511583712148294e-25 -7.14586669994025 -7.145866699940251 -1.0424175499402515 -5.974879480466362e-11 0.0 0.0 -1.570796314870016 1.5707963705062866 -1.570796314870016 -1.570796314870016 0.0 0.0 0.0 0.0 0.0 0.0 0.0 -1.151244268742903e-26 -0.5442396402359009 -0.7673661112785339 -0.22935479879379272 -1.3146049353263134e-11 0.0 -1.151244268742903e-26 -0.5442396402359009 -0.7673661112785339 -0.22935479879379272 -1.3146049353263134e-11 0.0 -0.2985999973554403 -0.11235000099231761 0.3136499823461779 2.2214412195942916 2.2214412191386654 6.515886891884208e-08 0.0 0.0 0.0 0.0 0.0 0.0 9.240738067961096e-07 3.4768818278582924e-07 4.253146293222068e-08 -2.8475662131755493e-08 6.147405365792544e-08 -2.650151154611292e-15 -0.29859999998320197 -0.1123500000156699 0.31364999997695675 2.221441469306996 2.22144146885137 4.556249894594308e-10 0.0 0.0 0.0 0.0 0.0 0.0

9579.096 0.0 -1.5707963267948966 1.5707963267948966 -1.5707963267948966 -1.5707963267948966 0.0 0.0 0.0 0.0 0.0 0.0 0.0 0.0 0.0 0.0 0.0 0.0 0.0 -1.1512442590619146e-26 -0.5442396572688689 -0.7673661111166267 -0.229354796466502 -1.3146049461972196e-11 0.0 -1.511583712148294e-25 -7.14586669994025 -7.145866699940251 -1.0424175499402515 -5.974879480466362e-11 0.0 0.0 -1.570796314870016 1.5707963705062866 -1.570796314870016 -1.570796314870016 0.0 0.0 0.0 0.0 0.0 0.0 0.0 -1.151244268742903e-26 -0.5442396402359009 -0.7673661112785339 -0.22935479879379272 -1.3146049353263134e-11 0.0 -1.151244268742903e-26 -0.5442396402359009 -0.7673661112785339 -0.22935479879379272 -1.3146049353263134e-11 0.0 -0.2985999973554403 -0.11235000099231761 0.3136499823461779 2.2214412195942916 2.2214412191386654 6.515886891884208e-08 0.0 0.0 0.0 0.0 0.0 0.0 9.240738067961096e-07 3.4768818278582924e-07 4.253146293222068e-08 -2.8475662131755493e-08 6.147405365792544e-08 -2.650151154611292e-15 -0.29859999998320197 -0.1123500000156699 0.31364999997695675 2.221441469306996 2.22144146885137 4.556249894594308e-10 0.0 0.0 0.0 0.0 0.0 0.0

9579.104 0.0 -1.5707963267948966 1.5707963267948966 -1.5707963267948966 -1.5707963267948966 0.0 0.0 0.0 0.0 0.0 0.0 0.0 0.0 0.0 0.0 0.0 0.0 0.0 -1.1512442590619146e-26 -0.5442396572688689 -0.7673661111166267 -0.229354796466502 -1.3146049461972196e-11 0.0 -1.511583712148294e-25 -7.14586669994025 -7.145866699940251 -1.0424175499402515 -5.974879480466362e-11 0.0 0.0 -1.570796314870016 1.5707963705062866 -1.570796314870016 -1.570796314870016 0.0 0.0 0.0 0.0 0.0 0.0 0.0 -1.151244268742903e-26 -0.5442396402359009 -0.7673661112785339 -0.22935479879379272 -1.3146049353263134e-11 0.0 -1.151244268742903e-26 -0.5442396402359009 -0.7673661112785339 -0.22935479879379272 -1.3146049353263134e-11 0.0 -0.2985999973554403 -0.11235000099231761 0.3136499823461779 2.2214412195942916 2.2214412191386654 6.515886891884208e-08 0.0 0.0 0.0 0.0 0.0 0.0 9.240738067961096e-07 3.4768818278582924e-07 4.253146293222068e-08 -2.8475662131755493e-08 6.147405365792544e-08 -2.650151154611292e-15 -0.29859999998320197 -0.1123500000156699 0.31364999997695675 2.221441469306996 2.22144146885137 4.556249894594308e-10 0.0 0.0 0.0 0.0 0.0 0.0

9579.112 0.0 -1.5707963267948966 1.5707963267948966 -1.5707963267948966 -1.5707963267948966 0.0 0.0 0.0 0.0 0.0 0.0 0.0 0.0 0.0 0.0 0.0 0.0 0.0 -1.1512442590619146e-26 -0.5442396572688689 -0.7673661111166267 -0.229354796466502 -1.3146049461972196e-11 0.0 -1.511583712148294e-25 -7.14586669994025 -7.145866699940251 -1.0424175499402515 -5.974879480466362e-11 0.0 0.0 -1.570796314870016 1.5707963705062866 -1.570796314870016 -1.570796314870016 0.0 0.0 0.0 0.0 0.0 0.0 0.0 -1.151244268742903e-26 -0.5442396402359009 -0.7673661112785339 -0.22935479879379272 -1.3146049353263134e-11 0.0 -1.151244268742903e-26 -0.5442396402359009 -0.7673661112785339 -0.22935479879379272 -1.3146049353263134e-11 0.0 -0.2985999973554403 -0.11235000099231761 0.3136499823461779 2.2214412195942916 2.2214412191386654 6.515886891884208e-08 0.0 0.0 0.0 0.0 0.0 0.0 9.240738067961096e-07 3.4768818278582924e-07 4.253146293222068e-08 -2.8475662131755493e-08 6.147405365792544e-08 -2.650151154611292e-15 -0.29859999998320197 -0.1123500000156699 0.31364999997695675 2.221441469306996 2.22144146885137 4.556249894594308e-10 0.0 0.0 0.0 0.0 0.0 0.0

9579.119999999999 0.0 -1.5707963267948966 1.5707963267948966 -1.5707963267948966 -1.5707963267948966 0.0 0.0 0.0 0.0 0.0 0.0 0.0 0.0 0.0 0.0 0.0 0.0 0.0 -1.1512442590619146e-26 -0.5442396572688689 -0.7673661111166267 -0.229354796466502 -1.3146049461972196e-11 0.0 -1.511583712148294e-25 -7.14586669994025 -7.145866699940251 -1.0424175499402515 -5.974879480466362e-11 0.0 0.0 -1.570796314870016 1.5707963705062866 -1.570796314870016 -1.570796314870016 0.0 0.0 0.0 0.0 0.0 0.0 0.0 -1.151244268742903e-26 -0.5442396402359009 -0.7673661112785339 -0.22935479879379272 -1.3146049353263134e-11 0.0 -1.151244268742903e-26 -0.5442396402359009 -0.7673661112785339 -0.22935479879379272 -1.3146049353263134e-11 0.0 -0.2985999973554403 -0.11235000099231761 0.3136499823461779 2.2214412195942916 2.2214412191386654 6.515886891884208e-08 0.0 0.0 0.0 0.0 0.0 0.0 9.240738067961096e-07 3.4768818278582924e-07 4.253146293222068e-08 -2.8475662131755493e-08 6.147405365792544e-08 -2.650151154611292e-15 -0.29859999998320197 -0.1123500000156699 0.31364999997695675 2.221441469306996 2.22144146885137 4.556249894594308e-10 0.0 0.0 0.0 0.0 0.0 0.0

9579.127999999999 0.0 -1.5707963267948966 1.5707963267948966 -1.5707963267948966 -1.5707963267948966 0.0 0.0 0.0 0.0 0.0 0.0 0.0 0.0 0.0 0.0 0.0 0.0 0.0 -1.1512442590619146e-26 -0.5442396572688689 -0.7673661111166267 -0.229354796466502 -1.3146049461972196e-11 0.0 -1.511583712148294e-25 -7.14586669994025 -7.145866699940251 -1.0424175499402515 -5.974879480466362e-11 0.0 0.0 -1.570796314870016 1.5707963705062866 -1.570796314870016 -1.570796314870016 0.0 0.0 0.0 0.0 0.0 0.0 0.0 -1.151244268742903e-26 -0.5442396402359009 -0.7673661112785339 -0.22935479879379272 -1.3146049353263134e-11 0.0 -1.151244268742903e-26 -0.5442396402359009 -0.7673661112785339 -0.22935479879379272 -1.3146049353263134e-11 0.0 -0.2985999973554403 -0.11235000099231761 0.3136499823461779 2.2214412195942916 2.2214412191386654 6.515886891884208e-08 0.0 0.0 0.0 0.0 0.0 0.0 9.240738067961096e-07 3.4768818278582924e-07 4.253146293222068e-08 -2.8475662131755493e-08 6.147405365792544e-08 -2.650151154611292e-15 -0.29859999998320197 -0.1123500000156699 0.31364999997695675 2.221441469306996 2.22144146885137 4.556249894594308e-10 0.0 0.0 0.0 0.0 0.0 0.0

9579.136 0.0 -1.5707963267948966 1.5707963267948966 -1.5707963267948966 -1.5707963267948966 0.0 0.0 0.0 0.0 0.0 0.0 0.0 0.0 0.0 0.0 0.0 0.0 0.0 -1.1512442590619146e-26 -0.5442396572688689 -0.7673661111166267 -0.229354796466502 -1.3146049461972196e-11 0.0 -1.511583712148294e-25 -7.14586669994025 -7.145866699940251 -1.0424175499402515 -5.974879480466362e-11 0.0 0.0 -1.570796314870016 1.5707963705062866 -1.570796314870016 -1.570796314870016 0.0 0.0 0.0 0.0 0.0 0.0 0.0 -1.151244268742903e-26 -0.5442396402359009 -0.7673661112785339 -0.22935479879379272 -1.3146049353263134e-11 0.0 -1.151244268742903e-26 -0.5442396402359009 -0.7673661112785339 -0.22935479879379272 -1.3146049353263134e-11 0.0 -0.2985999973554403 -0.11235000099231761 0.3136499823461779 2.2214412195942916 2.2214412191386654 6.515886891884208e-08 0.0 0.0 0.0 0.0 0.0 0.0 9.240738067961096e-07 3.4768818278582924e-07 4.253146293222068e-08 -2.8475662131755493e-08 6.147405365792544e-08 -2.650151154611292e-15 -0.29859999998320197 -0.1123500000156699 0.31364999997695675 2.221441469306996 2.22144146885137 4.556249894594308e-10 0.0 0.0 0.0 0.0 0.0 0.0

9579.144 0.0 -1.5707963267948966 1.5707963267948966 -1.5707963267948966 -1.5707963267948966 0.0 0.0 0.0 0.0 0.0 0.0 0.0 0.0 0.0 0.0 0.0 0.0 0.0 -1.1512442590619146e-26 -0.5442396572688689 -0.7673661111166267 -0.229354796466502 -1.3146049461972196e-11 0.0 -1.511583712148294e-25 -7.14586669994025 -7.145866699940251 -1.0424175499402515 -5.974879480466362e-11 0.0 0.0 -1.570796314870016 1.5707963705062866 -1.570796314870016 -1.570796314870016 0.0 0.0 0.0 0.0 0.0 0.0 0.0 -1.151244268742903e-26 -0.5442396402359009 -0.7673661112785339 -0.22935479879379272 -1.3146049353263134e-11 0.0 -1.151244268742903e-26 -0.5442396402359009 -0.7673661112785339 -0.22935479879379272 -1.3146049353263134e-11 0.0 -0.2985999973554403 -0.11235000099231761 0.3136499823461779 2.2214412195942916 2.2214412191386654 6.515886891884208e-08 0.0 0.0 0.0 0.0 0.0 0.0 9.240738067961096e-07 3.4768818278582924e-07 4.253146293222068e-08 -2.8475662131755493e-08 6.147405365792544e-08 -2.650151154611292e-15 -0.29859999998320197 -0.1123500000156699 0.31364999997695675 2.221441469306996 2.22144146885137 4.556249894594308e-10 0.0 0.0 0.0 0.0 0.0 0.0

9579.152 0.0 -1.5707963267948966 1.5707963267948966 -1.5707963267948966 -1.5707963267948966 0.0 0.0 0.0 0.0 0.0 0.0 0.0 0.0 0.0 0.0 0.0 0.0 0.0 -1.1512442590619146e-26 -0.5442396572688689 -0.7673661111166267 -0.229354796466502 -1.3146049461972196e-11 0.0 -1.511583712148294e-25 -7.14586669994025 -7.145866699940251 -1.0424175499402515 -5.974879480466362e-11 0.0 0.0 -1.570796314870016 1.5707963705062866 -1.570796314870016 -1.570796314870016 0.0 0.0 0.0 0.0 0.0 0.0 0.0 -1.151244268742903e-26 -0.5442396402359009 -0.7673661112785339 -0.22935479879379272 -1.3146049353263134e-11 0.0 -1.151244268742903e-26 -0.5442396402359009 -0.7673661112785339 -0.22935479879379272 -1.3146049353263134e-11 0.0 -0.2985999973554403 -0.11235000099231761 0.3136499823461779 2.2214412195942916 2.2214412191386654 6.515886891884208e-08 0.0 0.0 0.0 0.0 0.0 0.0 9.240738067961096e-07 3.4768818278582924e-07 4.253146293222068e-08 -2.8475662131755493e-08 6.147405365792544e-08 -2.650151154611292e-15 -0.29859999998320197 -0.1123500000156699 0.31364999997695675 2.221441469306996 2.22144146885137 4.556249894594308e-10 0.0 0.0 0.0 0.0 0.0 0.0

9579.16 0.0 -1.5707963267948966 1.5707963267948966 -1.5707963267948966 -1.5707963267948966 0.0 0.0 0.0 0.0 0.0 0.0 0.0 0.0 0.0 0.0 0.0 0.0 0.0 -1.1512442590619146e-26 -0.5442396572688689 -0.7673661111166267 -0.229354796466502 -1.3146049461972196e-11 0.0 -1.511583712148294e-25 -7.14586669994025 -7.145866699940251 -1.0424175499402515 -5.974879480466362e-11 0.0 0.0 -1.570796314870016 1.5707963705062866 -1.570796314870016 -1.570796314870016 0.0 0.0 0.0 0.0 0.0 0.0 0.0 -1.151244268742903e-26 -0.5442396402359009 -0.7673661112785339 -0.22935479879379272 -1.3146049353263134e-11 0.0 -1.151244268742903e-26 -0.5442396402359009 -0.7673661112785339 -0.22935479879379272 -1.3146049353263134e-11 0.0 -0.2985999973554403 -0.11235000099231761 0.3136499823461779 2.2214412195942916 2.2214412191386654 6.515886891884208e-08 0.0 0.0 0.0 0.0 0.0 0.0 9.240738067961096e-07 3.4768818278582924e-07 4.253146293222068e-08 -2.8475662131755493e-08 6.147405365792544e-08 -2.650151154611292e-15 -0.29859999998320197 -0.1123500000156699 0.31364999997695675 2.221441469306996 2.22144146885137 4.556249894594308e-10 0.0 0.0 0.0 0.0 0.0 0.0

9579.168 0.0 -1.5707963267948966 1.5707963267948966 -1.5707963267948966 -1.5707963267948966 0.0 0.0 0.0 0.0 0.0 0.0 0.0 0.0 0.0 0.0 0.0 0.0 0.0 -1.1512442590619146e-26 -0.5442396572688689 -0.7673661111166267 -0.229354796466502 -1.3146049461972196e-11 0.0 -1.511583712148294e-25 -7.14586669994025 -7.145866699940251 -1.0424175499402515 -5.974879480466362e-11 0.0 0.0 -1.570796314870016 1.5707963705062866 -1.570796314870016 -1.570796314870016 0.0 0.0 0.0 0.0 0.0 0.0 0.0 -1.151244268742903e-26 -0.5442396402359009 -0.7673661112785339 -0.22935479879379272 -1.3146049353263134e-11 0.0 -1.151244268742903e-26 -0.5442396402359009 -0.7673661112785339 -0.22935479879379272 -1.3146049353263134e-11 0.0 -0.2985999973554403 -0.11235000099231761 0.3136499823461779 2.2214412195942916 2.2214412191386654 6.515886891884208e-08 0.0 0.0 0.0 0.0 0.0 0.0 9.240738067961096e-07 3.4768818278582924e-07 4.253146293222068e-08 -2.8475662131755493e-08 6.147405365792544e-08 -2.650151154611292e-15 -0.29859999998320197 -0.1123500000156699 0.31364999997695675 2.221441469306996 2.22144146885137 4.556249894594308e-10 0.0 0.0 0.0 0.0 0.0 0.0

9579.176 0.0 -1.5707963267948966 1.5707963267948966 -1.5707963267948966 -1.5707963267948966 0.0 0.0 0.0 0.0 0.0 0.0 0.0 0.0 0.0 0.0 0.0 0.0 0.0 -1.1512442590619146e-26 -0.5442396572688689 -0.7673661111166267 -0.229354796466502 -1.3146049461972196e-11 0.0 -1.511583712148294e-25 -7.14586669994025 -7.145866699940251 -1.0424175499402515 -5.974879480466362e-11 0.0 0.0 -1.570796314870016 1.5707963705062866 -1.570796314870016 -1.570796314870016 0.0 0.0 0.0 0.0 0.0 0.0 0.0 -1.151244268742903e-26 -0.5442396402359009 -0.7673661112785339 -0.22935479879379272 -1.3146049353263134e-11 0.0 -1.151244268742903e-26 -0.5442396402359009 -0.7673661112785339 -0.22935479879379272 -1.3146049353263134e-11 0.0 -0.2985999973554403 -0.11235000099231761 0.3136499823461779 2.2214412195942916 2.2214412191386654 6.515886891884208e-08 0.0 0.0 0.0 0.0 0.0 0.0 9.240738067961096e-07 3.4768818278582924e-07 4.253146293222068e-08 -2.8475662131755493e-08 6.147405365792544e-08 -2.650151154611292e-15 -0.29859999998320197 -0.1123500000156699 0.31364999997695675 2.221441469306996 2.22144146885137 4.556249894594308e-10 0.0 0.0 0.0 0.0 0.0 0.0

9579.184 0.0 -1.5707963267948966 1.5707963267948966 -1.5707963267948966 -1.5707963267948966 0.0 0.0 0.0 0.0 0.0 0.0 0.0 0.0 0.0 0.0 0.0 0.0 0.0 -1.1512442590619146e-26 -0.5442396572688689 -0.7673661111166267 -0.229354796466502 -1.3146049461972196e-11 0.0 -1.511583712148294e-25 -7.14586669994025 -7.145866699940251 -1.0424175499402515 -5.974879480466362e-11 0.0 0.0 -1.570796314870016 1.5707963705062866 -1.570796314870016 -1.570796314870016 0.0 0.0 0.0 0.0 0.0 0.0 0.0 -1.151244268742903e-26 -0.5442396402359009 -0.7673661112785339 -0.22935479879379272 -1.3146049353263134e-11 0.0 -1.151244268742903e-26 -0.5442396402359009 -0.7673661112785339 -0.22935479879379272 -1.3146049353263134e-11 0.0 -0.2985999973554403 -0.11235000099231761 0.3136499823461779 2.2214412195942916 2.2214412191386654 6.515886891884208e-08 0.0 0.0 0.0 0.0 0.0 0.0 9.240738067961096e-07 3.4768818278582924e-07 4.253146293222068e-08 -2.8475662131755493e-08 6.147405365792544e-08 -2.650151154611292e-15 -0.29859999998320197 -0.1123500000156699 0.31364999997695675 2.221441469306996 2.22144146885137 4.556249894594308e-10 0.0 0.0 0.0 0.0 0.0 0.0

9579.192 0.0 -1.5707963267948966 1.5707963267948966 -1.5707963267948966 -1.5707963267948966 0.0 0.0 0.0 0.0 0.0 0.0 0.0 0.0 0.0 0.0 0.0 0.0 0.0 -1.1512442590619146e-26 -0.5442396572688689 -0.7673661111166267 -0.229354796466502 -1.3146049461972196e-11 0.0 -1.511583712148294e-25 -7.14586669994025 -7.145866699940251 -1.0424175499402515 -5.974879480466362e-11 0.0 0.0 -1.570796314870016 1.5707963705062866 -1.570796314870016 -1.570796314870016 0.0 0.0 0.0 0.0 0.0 0.0 0.0 -1.151244268742903e-26 -0.5442396402359009 -0.7673661112785339 -0.22935479879379272 -1.3146049353263134e-11 0.0 -1.151244268742903e-26 -0.5442396402359009 -0.7673661112785339 -0.22935479879379272 -1.3146049353263134e-11 0.0 -0.2985999973554403 -0.11235000099231761 0.3136499823461779 2.2214412195942916 2.2214412191386654 6.515886891884208e-08 0.0 0.0 0.0 0.0 0.0 0.0 9.240738067961096e-07 3.4768818278582924e-07 4.253146293222068e-08 -2.8475662131755493e-08 6.147405365792544e-08 -2.650151154611292e-15 -0.29859999998320197 -0.1123500000156699 0.31364999997695675 2.221441469306996 2.22144146885137 4.556249894594308e-10 0.0 0.0 0.0 0.0 0.0 0.0

9579.199999999999 0.0 -1.5707963267948966 1.5707963267948966 -1.5707963267948966 -1.5707963267948966 0.0 0.0 0.0 0.0 0.0 0.0 0.0 0.0 0.0 0.0 0.0 0.0 0.0 -1.1512442590619146e-26 -0.5442396572688689 -0.7673661111166267 -0.229354796466502 -1.3146049461972196e-11 0.0 -1.511583712148294e-25 -7.14586669994025 -7.145866699940251 -1.0424175499402515 -5.974879480466362e-11 0.0 0.0 -1.570796314870016 1.5707963705062866 -1.570796314870016 -1.570796314870016 0.0 0.0 0.0 0.0 0.0 0.0 0.0 -1.151244268742903e-26 -0.5442396402359009 -0.7673661112785339 -0.22935479879379272 -1.3146049353263134e-11 0.0 -1.151244268742903e-26 -0.5442396402359009 -0.7673661112785339 -0.22935479879379272 -1.3146049353263134e-11 0.0 -0.2985999973554403 -0.11235000099231761 0.3136499823461779 2.2214412195942916 2.2214412191386654 6.515886891884208e-08 0.0 0.0 0.0 0.0 0.0 0.0 9.240738067961096e-07 3.4768818278582924e-07 4.253146293222068e-08 -2.8475662131755493e-08 6.147405365792544e-08 -2.650151154611292e-15 -0.29859999998320197 -0.1123500000156699 0.31364999997695675 2.221441469306996 2.22144146885137 4.556249894594308e-10 0.0 0.0 0.0 0.0 0.0 0.0

9579.207999999999 0.0 -1.5707963267948966 1.5707963267948966 -1.5707963267948966 -1.5707963267948966 0.0 0.0 0.0 0.0 0.0 0.0 0.0 0.0 0.0 0.0 0.0 0.0 0.0 -1.1512442590619146e-26 -0.5442396572688689 -0.7673661111166267 -0.229354796466502 -1.3146049461972196e-11 0.0 -1.511583712148294e-25 -7.14586669994025 -7.145866699940251 -1.0424175499402515 -5.974879480466362e-11 0.0 0.0 -1.570796314870016 1.5707963705062866 -1.570796314870016 -1.570796314870016 0.0 0.0 0.0 0.0 0.0 0.0 0.0 -1.151244268742903e-26 -0.5442396402359009 -0.7673661112785339 -0.22935479879379272 -1.3146049353263134e-11 0.0 -1.151244268742903e-26 -0.5442396402359009 -0.7673661112785339 -0.22935479879379272 -1.3146049353263134e-11 0.0 -0.2985999973554403 -0.11235000099231761 0.3136499823461779 2.2214412195942916 2.2214412191386654 6.515886891884208e-08 0.0 0.0 0.0 0.0 0.0 0.0 9.240738067961096e-07 3.4768818278582924e-07 4.253146293222068e-08 -2.8475662131755493e-08 6.147405365792544e-08 -2.650151154611292e-15 -0.29859999998320197 -0.1123500000156699 0.31364999997695675 2.221441469306996 2.22144146885137 4.556249894594308e-10 0.0 0.0 0.0 0.0 0.0 0.0

9579.216 0.0 -1.5707963267948966 1.5707963267948966 -1.5707963267948966 -1.5707963267948966 0.0 0.0 0.0 0.0 0.0 0.0 0.0 0.0 0.0 0.0 0.0 0.0 0.0 -1.1512442590619146e-26 -0.5442396572688689 -0.7673661111166267 -0.229354796466502 -1.3146049461972196e-11 0.0 -1.511583712148294e-25 -7.14586669994025 -7.145866699940251 -1.0424175499402515 -5.974879480466362e-11 0.0 0.0 -1.570796314870016 1.5707963705062866 -1.570796314870016 -1.570796314870016 0.0 0.0 0.0 0.0 0.0 0.0 0.0 -1.151244268742903e-26 -0.5442396402359009 -0.7673661112785339 -0.22935479879379272 -1.3146049353263134e-11 0.0 -1.151244268742903e-26 -0.5442396402359009 -0.7673661112785339 -0.22935479879379272 -1.3146049353263134e-11 0.0 -0.2985999973554403 -0.11235000099231761 0.3136499823461779 2.2214412195942916 2.2214412191386654 6.515886891884208e-08 0.0 0.0 0.0 0.0 0.0 0.0 9.240738067961096e-07 3.4768818278582924e-07 4.253146293222068e-08 -2.8475662131755493e-08 6.147405365792544e-08 -2.650151154611292e-15 -0.29859999998320197 -0.1123500000156699 0.31364999997695675 2.221441469306996 2.22144146885137 4.556249894594308e-10 0.0 0.0 0.0 0.0 0.0 0.0

9579.224 0.0 -1.5707963267948966 1.5707963267948966 -1.5707963267948966 -1.5707963267948966 0.0 0.0 0.0 0.0 0.0 0.0 0.0 0.0 0.0 0.0 0.0 0.0 0.0 -1.1512442590619146e-26 -0.5442396572688689 -0.7673661111166267 -0.229354796466502 -1.3146049461972196e-11 0.0 -1.511583712148294e-25 -7.14586669994025 -7.145866699940251 -1.0424175499402515 -5.974879480466362e-11 0.0 0.0 -1.570796314870016 1.5707963705062866 -1.570796314870016 -1.570796314870016 0.0 0.0 0.0 0.0 0.0 0.0 0.0 -1.151244268742903e-26 -0.5442396402359009 -0.7673661112785339 -0.22935479879379272 -1.3146049353263134e-11 0.0 -1.151244268742903e-26 -0.5442396402359009 -0.7673661112785339 -0.22935479879379272 -1.3146049353263134e-11 0.0 -0.2985999973554403 -0.11235000099231761 0.3136499823461779 2.2214412195942916 2.2214412191386654 6.515886891884208e-08 0.0 0.0 0.0 0.0 0.0 0.0 9.240738067961096e-07 3.4768818278582924e-07 4.253146293222068e-08 -2.8475662131755493e-08 6.147405365792544e-08 -2.650151154611292e-15 -0.29859999998320197 -0.1123500000156699 0.31364999997695675 2.221441469306996 2.22144146885137 4.556249894594308e-10 0.0 0.0 0.0 0.0 0.0 0.0

9579.232 0.0 -1.5707963267948966 1.5707963267948966 -1.5707963267948966 -1.5707963267948966 0.0 0.0 0.0 0.0 0.0 0.0 0.0 0.0 0.0 0.0 0.0 0.0 0.0 -1.1512442590619146e-26 -0.5442396572688689 -0.7673661111166267 -0.229354796466502 -1.3146049461972196e-11 0.0 -1.511583712148294e-25 -7.14586669994025 -7.145866699940251 -1.0424175499402515 -5.974879480466362e-11 0.0 0.0 -1.570796314870016 1.5707963705062866 -1.570796314870016 -1.570796314870016 0.0 0.0 0.0 0.0 0.0 0.0 0.0 -1.151244268742903e-26 -0.5442396402359009 -0.7673661112785339 -0.22935479879379272 -1.3146049353263134e-11 0.0 -1.151244268742903e-26 -0.5442396402359009 -0.7673661112785339 -0.22935479879379272 -1.3146049353263134e-11 0.0 -0.2985999973554403 -0.11235000099231761 0.3136499823461779 2.2214412195942916 2.2214412191386654 6.515886891884208e-08 0.0 0.0 0.0 0.0 0.0 0.0 9.240738067961096e-07 3.4768818278582924e-07 4.253146293222068e-08 -2.8475662131755493e-08 6.147405365792544e-08 -2.650151154611292e-15 -0.29859999998320197 -0.1123500000156699 0.31364999997695675 2.221441469306996 2.22144146885137 4.556249894594308e-10 0.0 0.0 0.0 0.0 0.0 0.0

9579.24 0.0 -1.5707963267948966 1.5707963267948966 -1.5707963267948966 -1.5707963267948966 0.0 0.0 0.0 0.0 0.0 0.0 0.0 0.0 0.0 0.0 0.0 0.0 0.0 -1.1512442590619146e-26 -0.5442396572688689 -0.7673661111166267 -0.229354796466502 -1.3146049461972196e-11 0.0 -1.511583712148294e-25 -7.14586669994025 -7.145866699940251 -1.0424175499402515 -5.974879480466362e-11 0.0 0.0 -1.570796314870016 1.5707963705062866 -1.570796314870016 -1.570796314870016 0.0 0.0 0.0 0.0 0.0 0.0 0.0 -1.151244268742903e-26 -0.5442396402359009 -0.7673661112785339 -0.22935479879379272 -1.3146049353263134e-11 0.0 -1.151244268742903e-26 -0.5442396402359009 -0.7673661112785339 -0.22935479879379272 -1.3146049353263134e-11 0.0 -0.2985999973554403 -0.11235000099231761 0.3136499823461779 2.2214412195942916 2.2214412191386654 6.515886891884208e-08 0.0 0.0 0.0 0.0 0.0 0.0 9.240738067961096e-07 3.4768818278582924e-07 4.253146293222068e-08 -2.8475662131755493e-08 6.147405365792544e-08 -2.650151154611292e-15 -0.29859999998320197 -0.1123500000156699 0.31364999997695675 2.221441469306996 2.22144146885137 4.556249894594308e-10 0.0 0.0 0.0 0.0 0.0 0.0

9579.248 0.0 -1.5707963267948966 1.5707963267948966 -1.5707963267948966 -1.5707963267948966 0.0 0.0 0.0 0.0 0.0 0.0 0.0 0.0 0.0 0.0 0.0 0.0 0.0 -1.1512442590619146e-26 -0.5442396572688689 -0.7673661111166267 -0.229354796466502 -1.3146049461972196e-11 0.0 -1.511583712148294e-25 -7.14586669994025 -7.145866699940251 -1.0424175499402515 -5.974879480466362e-11 0.0 0.0 -1.570796314870016 1.5707963705062866 -1.570796314870016 -1.570796314870016 0.0 0.0 0.0 0.0 0.0 0.0 0.0 -1.151244268742903e-26 -0.5442396402359009 -0.7673661112785339 -0.22935479879379272 -1.3146049353263134e-11 0.0 -1.151244268742903e-26 -0.5442396402359009 -0.7673661112785339 -0.22935479879379272 -1.3146049353263134e-11 0.0 -0.2985999973554403 -0.11235000099231761 0.3136499823461779 2.2214412195942916 2.2214412191386654 6.515886891884208e-08 0.0 0.0 0.0 0.0 0.0 0.0 9.240738067961096e-07 3.4768818278582924e-07 4.253146293222068e-08 -2.8475662131755493e-08 6.147405365792544e-08 -2.650151154611292e-15 -0.29859999998320197 -0.1123500000156699 0.31364999997695675 2.221441469306996 2.22144146885137 4.556249894594308e-10 0.0 0.0 0.0 0.0 0.0 0.0

9579.256 0.0 -1.5707963267948966 1.5707963267948966 -1.5707963267948966 -1.5707963267948966 0.0 0.0 0.0 0.0 0.0 0.0 0.0 0.0 0.0 0.0 0.0 0.0 0.0 -1.1512442590619146e-26 -0.5442396572688689 -0.7673661111166267 -0.229354796466502 -1.3146049461972196e-11 0.0 -1.511583712148294e-25 -7.14586669994025 -7.145866699940251 -1.0424175499402515 -5.974879480466362e-11 0.0 0.0 -1.570796314870016 1.5707963705062866 -1.570796314870016 -1.570796314870016 0.0 0.0 0.0 0.0 0.0 0.0 0.0 -1.151244268742903e-26 -0.5442396402359009 -0.7673661112785339 -0.22935479879379272 -1.3146049353263134e-11 0.0 -1.151244268742903e-26 -0.5442396402359009 -0.7673661112785339 -0.22935479879379272 -1.3146049353263134e-11 0.0 -0.2985999973554403 -0.11235000099231761 0.3136499823461779 2.2214412195942916 2.2214412191386654 6.515886891884208e-08 0.0 0.0 0.0 0.0 0.0 0.0 9.240738067961096e-07 3.4768818278582924e-07 4.253146293222068e-08 -2.8475662131755493e-08 6.147405365792544e-08 -2.650151154611292e-15 -0.29859999998320197 -0.1123500000156699 0.31364999997695675 2.221441469306996 2.22144146885137 4.556249894594308e-10 0.0 0.0 0.0 0.0 0.0 0.0

9579.264 0.0 -1.5707963267948966 1.5707963267948966 -1.5707963267948966 -1.5707963267948966 0.0 0.0 0.0 0.0 0.0 0.0 0.0 0.0 0.0 0.0 0.0 0.0 0.0 -1.1512442590619146e-26 -0.5442396572688689 -0.7673661111166267 -0.229354796466502 -1.3146049461972196e-11 0.0 -1.511583712148294e-25 -7.14586669994025 -7.145866699940251 -1.0424175499402515 -5.974879480466362e-11 0.0 0.0 -1.570796314870016 1.5707963705062866 -1.570796314870016 -1.570796314870016 0.0 0.0 0.0 0.0 0.0 0.0 0.0 -1.151244268742903e-26 -0.5442396402359009 -0.7673661112785339 -0.22935479879379272 -1.3146049353263134e-11 0.0 -1.151244268742903e-26 -0.5442396402359009 -0.7673661112785339 -0.22935479879379272 -1.3146049353263134e-11 0.0 -0.2985999973554403 -0.11235000099231761 0.3136499823461779 2.2214412195942916 2.2214412191386654 6.515886891884208e-08 0.0 0.0 0.0 0.0 0.0 0.0 9.240738067961096e-07 3.4768818278582924e-07 4.253146293222068e-08 -2.8475662131755493e-08 6.147405365792544e-08 -2.650151154611292e-15 -0.29859999998320197 -0.1123500000156699 0.31364999997695675 2.221441469306996 2.22144146885137 4.556249894594308e-10 0.0 0.0 0.0 0.0 0.0 0.0

9579.271999999999 0.0 -1.5707963267948966 1.5707963267948966 -1.5707963267948966 -1.5707963267948966 0.0 0.0 0.0 0.0 0.0 0.0 0.0 0.0 0.0 0.0 0.0 0.0 0.0 -1.1512442590619146e-26 -0.5442396572688689 -0.7673661111166267 -0.229354796466502 -1.3146049461972196e-11 0.0 -1.511583712148294e-25 -7.14586669994025 -7.145866699940251 -1.0424175499402515 -5.974879480466362e-11 0.0 0.0 -1.570796314870016 1.5707963705062866 -1.570796314870016 -1.570796314870016 0.0 0.0 0.0 0.0 0.0 0.0 0.0 -1.151244268742903e-26 -0.5442396402359009 -0.7673661112785339 -0.22935479879379272 -1.3146049353263134e-11 0.0 -1.151244268742903e-26 -0.5442396402359009 -0.7673661112785339 -0.22935479879379272 -1.3146049353263134e-11 0.0 -0.2985999973554403 -0.11235000099231761 0.3136499823461779 2.2214412195942916 2.2214412191386654 6.515886891884208e-08 0.0 0.0 0.0 0.0 0.0 0.0 9.240738067961096e-07 3.4768818278582924e-07 4.253146293222068e-08 -2.8475662131755493e-08 6.147405365792544e-08 -2.650151154611292e-15 -0.29859999998320197 -0.1123500000156699 0.31364999997695675 2.221441469306996 2.22144146885137 4.556249894594308e-10 0.0 0.0 0.0 0.0 0.0 0.0

9579.279999999999 0.0 -1.5707963267948966 1.5707963267948966 -1.5707963267948966 -1.5707963267948966 0.0 0.0 0.0 0.0 0.0 0.0 0.0 0.0 0.0 0.0 0.0 0.0 0.0 -1.1512442590619146e-26 -0.5442396572688689 -0.7673661111166267 -0.229354796466502 -1.3146049461972196e-11 0.0 -1.511583712148294e-25 -7.14586669994025 -7.145866699940251 -1.0424175499402515 -5.974879480466362e-11 0.0 0.0 -1.570796314870016 1.5707963705062866 -1.570796314870016 -1.570796314870016 0.0 0.0 0.0 0.0 0.0 0.0 0.0 -1.151244268742903e-26 -0.5442396402359009 -0.7673661112785339 -0.22935479879379272 -1.3146049353263134e-11 0.0 -1.151244268742903e-26 -0.5442396402359009 -0.7673661112785339 -0.22935479879379272 -1.3146049353263134e-11 0.0 -0.2985999973554403 -0.11235000099231761 0.3136499823461779 2.2214412195942916 2.2214412191386654 6.515886891884208e-08 0.0 0.0 0.0 0.0 0.0 0.0 9.240738067961096e-07 3.4768818278582924e-07 4.253146293222068e-08 -2.8475662131755493e-08 6.147405365792544e-08 -2.650151154611292e-15 -0.29859999998320197 -0.1123500000156699 0.31364999997695675 2.221441469306996 2.22144146885137 4.556249894594308e-10 0.0 0.0 0.0 0.0 0.0 0.0

9579.288 0.0 -1.5707963267948966 1.5707963267948966 -1.5707963267948966 -1.5707963267948966 0.0 0.0 0.0 0.0 0.0 0.0 0.0 0.0 0.0 0.0 0.0 0.0 0.0 -1.1512442590619146e-26 -0.5442396572688689 -0.7673661111166267 -0.229354796466502 -1.3146049461972196e-11 0.0 -1.511583712148294e-25 -7.14586669994025 -7.145866699940251 -1.0424175499402515 -5.974879480466362e-11 0.0 0.0 -1.570796314870016 1.5707963705062866 -1.570796314870016 -1.570796314870016 0.0 0.0 0.0 0.0 0.0 0.0 0.0 -1.151244268742903e-26 -0.5442396402359009 -0.7673661112785339 -0.22935479879379272 -1.3146049353263134e-11 0.0 -1.151244268742903e-26 -0.5442396402359009 -0.7673661112785339 -0.22935479879379272 -1.3146049353263134e-11 0.0 -0.2985999973554403 -0.11235000099231761 0.3136499823461779 2.2214412195942916 2.2214412191386654 6.515886891884208e-08 0.0 0.0 0.0 0.0 0.0 0.0 9.240738067961096e-07 3.4768818278582924e-07 4.253146293222068e-08 -2.8475662131755493e-08 6.147405365792544e-08 -2.650151154611292e-15 -0.29859999998320197 -0.1123500000156699 0.31364999997695675 2.221441469306996 2.22144146885137 4.556249894594308e-10 0.0 0.0 0.0 0.0 0.0 0.0

9579.296 0.0 -1.5707963267948966 1.5707963267948966 -1.5707963267948966 -1.5707963267948966 0.0 0.0 0.0 0.0 0.0 0.0 0.0 0.0 0.0 0.0 0.0 0.0 0.0 -1.1512442590619146e-26 -0.5442396572688689 -0.7673661111166267 -0.229354796466502 -1.3146049461972196e-11 0.0 -1.511583712148294e-25 -7.14586669994025 -7.145866699940251 -1.0424175499402515 -5.974879480466362e-11 0.0 0.0 -1.570796314870016 1.5707963705062866 -1.570796314870016 -1.570796314870016 0.0 0.0 0.0 0.0 0.0 0.0 0.0 -1.151244268742903e-26 -0.5442396402359009 -0.7673661112785339 -0.22935479879379272 -1.3146049353263134e-11 0.0 -1.151244268742903e-26 -0.5442396402359009 -0.7673661112785339 -0.22935479879379272 -1.3146049353263134e-11 0.0 -0.2985999973554403 -0.11235000099231761 0.3136499823461779 2.2214412195942916 2.2214412191386654 6.515886891884208e-08 0.0 0.0 0.0 0.0 0.0 0.0 9.240738067961096e-07 3.4768818278582924e-07 4.253146293222068e-08 -2.8475662131755493e-08 6.147405365792544e-08 -2.650151154611292e-15 -0.29859999998320197 -0.1123500000156699 0.31364999997695675 2.221441469306996 2.22144146885137 4.556249894594308e-10 0.0 0.0 0.0 0.0 0.0 0.0

9579.304 0.0 -1.5707963267948966 1.5707963267948966 -1.5707963267948966 -1.5707963267948966 0.0 0.0 0.0 0.0 0.0 0.0 0.0 0.0 0.0 0.0 0.0 0.0 0.0 -1.1512442590619146e-26 -0.5442396572688689 -0.7673661111166267 -0.229354796466502 -1.3146049461972196e-11 0.0 -1.511583712148294e-25 -7.14586669994025 -7.145866699940251 -1.0424175499402515 -5.974879480466362e-11 0.0 0.0 -1.570796314870016 1.5707963705062866 -1.570796314870016 -1.570796314870016 0.0 0.0 0.0 0.0 0.0 0.0 0.0 -1.151244268742903e-26 -0.5442396402359009 -0.7673661112785339 -0.22935479879379272 -1.3146049353263134e-11 0.0 -1.151244268742903e-26 -0.5442396402359009 -0.7673661112785339 -0.22935479879379272 -1.3146049353263134e-11 0.0 -0.2985999973554403 -0.11235000099231761 0.3136499823461779 2.2214412195942916 2.2214412191386654 6.515886891884208e-08 0.0 0.0 0.0 0.0 0.0 0.0 9.240738067961096e-07 3.4768818278582924e-07 4.253146293222068e-08 -2.8475662131755493e-08 6.147405365792544e-08 -2.650151154611292e-15 -0.29859999998320197 -0.1123500000156699 0.31364999997695675 2.221441469306996 2.22144146885137 4.556249894594308e-10 0.0 0.0 0.0 0.0 0.0 0.0

9579.312 0.0 -1.5707963267948966 1.5707963267948966 -1.5707963267948966 -1.5707963267948966 0.0 0.0 0.0 0.0 0.0 0.0 0.0 0.0 0.0 0.0 0.0 0.0 0.0 -1.1512442590619146e-26 -0.5442396572688689 -0.7673661111166267 -0.229354796466502 -1.3146049461972196e-11 0.0 -1.511583712148294e-25 -7.14586669994025 -7.145866699940251 -1.0424175499402515 -5.974879480466362e-11 0.0 0.0 -1.570796314870016 1.5707963705062866 -1.570796314870016 -1.570796314870016 0.0 0.0 0.0 0.0 0.0 0.0 0.0 -1.151244268742903e-26 -0.5442396402359009 -0.7673661112785339 -0.22935479879379272 -1.3146049353263134e-11 0.0 -1.151244268742903e-26 -0.5442396402359009 -0.7673661112785339 -0.22935479879379272 -1.3146049353263134e-11 0.0 -0.2985999973554403 -0.11235000099231761 0.3136499823461779 2.2214412195942916 2.2214412191386654 6.515886891884208e-08 0.0 0.0 0.0 0.0 0.0 0.0 9.240738067961096e-07 3.4768818278582924e-07 4.253146293222068e-08 -2.8475662131755493e-08 6.147405365792544e-08 -2.650151154611292e-15 -0.29859999998320197 -0.1123500000156699 0.31364999997695675 2.221441469306996 2.22144146885137 4.556249894594308e-10 0.0 0.0 0.0 0.0 0.0 0.0

9579.32 0.0 -1.5707963267948966 1.5707963267948966 -1.5707963267948966 -1.5707963267948966 0.0 0.0 0.0 0.0 0.0 0.0 0.0 0.0 0.0 0.0 0.0 0.0 0.0 -1.1512442590619146e-26 -0.5442396572688689 -0.7673661111166267 -0.229354796466502 -1.3146049461972196e-11 0.0 -1.511583712148294e-25 -7.14586669994025 -7.145866699940251 -1.0424175499402515 -5.974879480466362e-11 0.0 0.0 -1.570796314870016 1.5707963705062866 -1.570796314870016 -1.570796314870016 0.0 0.0 0.0 0.0 0.0 0.0 0.0 -1.151244268742903e-26 -0.5442396402359009 -0.7673661112785339 -0.22935479879379272 -1.3146049353263134e-11 0.0 -1.151244268742903e-26 -0.5442396402359009 -0.7673661112785339 -0.22935479879379272 -1.3146049353263134e-11 0.0 -0.2985999973554403 -0.11235000099231761 0.3136499823461779 2.2214412195942916 2.2214412191386654 6.515886891884208e-08 0.0 0.0 0.0 0.0 0.0 0.0 9.240738067961096e-07 3.4768818278582924e-07 4.253146293222068e-08 -2.8475662131755493e-08 6.147405365792544e-08 -2.650151154611292e-15 -0.29859999998320197 -0.1123500000156699 0.31364999997695675 2.221441469306996 2.22144146885137 4.556249894594308e-10 0.0 0.0 0.0 0.0 0.0 0.0

9579.328 0.0 -1.5707963267948966 1.5707963267948966 -1.5707963267948966 -1.5707963267948966 0.0 0.0 0.0 0.0 0.0 0.0 0.0 0.0 0.0 0.0 0.0 0.0 0.0 -1.1512442590619146e-26 -0.5442396572688689 -0.7673661111166267 -0.229354796466502 -1.3146049461972196e-11 0.0 -1.511583712148294e-25 -7.14586669994025 -7.145866699940251 -1.0424175499402515 -5.974879480466362e-11 0.0 0.0 -1.570796314870016 1.5707963705062866 -1.570796314870016 -1.570796314870016 0.0 0.0 0.0 0.0 0.0 0.0 0.0 -1.151244268742903e-26 -0.5442396402359009 -0.7673661112785339 -0.22935479879379272 -1.3146049353263134e-11 0.0 -1.151244268742903e-26 -0.5442396402359009 -0.7673661112785339 -0.22935479879379272 -1.3146049353263134e-11 0.0 -0.2985999973554403 -0.11235000099231761 0.3136499823461779 2.2214412195942916 2.2214412191386654 6.515886891884208e-08 0.0 0.0 0.0 0.0 0.0 0.0 9.240738067961096e-07 3.4768818278582924e-07 4.253146293222068e-08 -2.8475662131755493e-08 6.147405365792544e-08 -2.650151154611292e-15 -0.29859999998320197 -0.1123500000156699 0.31364999997695675 2.221441469306996 2.22144146885137 4.556249894594308e-10 0.0 0.0 0.0 0.0 0.0 0.0

9579.336 0.0 -1.5707963267948966 1.5707963267948966 -1.5707963267948966 -1.5707963267948966 0.0 0.0 0.0 0.0 0.0 0.0 0.0 0.0 0.0 0.0 0.0 0.0 0.0 -1.1512442590619146e-26 -0.5442396572688689 -0.7673661111166267 -0.229354796466502 -1.3146049461972196e-11 0.0 -1.511583712148294e-25 -7.14586669994025 -7.145866699940251 -1.0424175499402515 -5.974879480466362e-11 0.0 0.0 -1.570796314870016 1.5707963705062866 -1.570796314870016 -1.570796314870016 0.0 0.0 0.0 0.0 0.0 0.0 0.0 -1.151244268742903e-26 -0.5442396402359009 -0.7673661112785339 -0.22935479879379272 -1.3146049353263134e-11 0.0 -1.151244268742903e-26 -0.5442396402359009 -0.7673661112785339 -0.22935479879379272 -1.3146049353263134e-11 0.0 -0.2985999973554403 -0.11235000099231761 0.3136499823461779 2.2214412195942916 2.2214412191386654 6.515886891884208e-08 0.0 0.0 0.0 0.0 0.0 0.0 9.240738067961096e-07 3.4768818278582924e-07 4.253146293222068e-08 -2.8475662131755493e-08 6.147405365792544e-08 -2.650151154611292e-15 -0.29859999998320197 -0.1123500000156699 0.31364999997695675 2.221441469306996 2.22144146885137 4.556249894594308e-10 0.0 0.0 0.0 0.0 0.0 0.0

9579.344 0.0 -1.5707963267948966 1.5707963267948966 -1.5707963267948966 -1.5707963267948966 0.0 0.0 0.0 0.0 0.0 0.0 0.0 0.0 0.0 0.0 0.0 0.0 0.0 -1.1512442590619146e-26 -0.5442396572688689 -0.7673661111166267 -0.229354796466502 -1.3146049461972196e-11 0.0 -1.511583712148294e-25 -7.14586669994025 -7.145866699940251 -1.0424175499402515 -5.974879480466362e-11 0.0 0.0 -1.570796314870016 1.5707963705062866 -1.570796314870016 -1.570796314870016 0.0 0.0 0.0 0.0 0.0 0.0 0.0 -1.151244268742903e-26 -0.5442396402359009 -0.7673661112785339 -0.22935479879379272 -1.3146049353263134e-11 0.0 -1.151244268742903e-26 -0.5442396402359009 -0.7673661112785339 -0.22935479879379272 -1.3146049353263134e-11 0.0 -0.2985999973554403 -0.11235000099231761 0.3136499823461779 2.2214412195942916 2.2214412191386654 6.515886891884208e-08 0.0 0.0 0.0 0.0 0.0 0.0 9.240738067961096e-07 3.4768818278582924e-07 4.253146293222068e-08 -2.8475662131755493e-08 6.147405365792544e-08 -2.650151154611292e-15 -0.29859999998320197 -0.1123500000156699 0.31364999997695675 2.221441469306996 2.22144146885137 4.556249894594308e-10 0.0 0.0 0.0 0.0 0.0 0.0

9579.351999999999 0.0 -1.5707963267948966 1.5707963267948966 -1.5707963267948966 -1.5707963267948966 0.0 0.0 0.0 0.0 0.0 0.0 0.0 0.0 0.0 0.0 0.0 0.0 0.0 -1.1512442590619146e-26 -0.5442396572688689 -0.7673661111166267 -0.229354796466502 -1.3146049461972196e-11 0.0 -1.511583712148294e-25 -7.14586669994025 -7.145866699940251 -1.0424175499402515 -5.974879480466362e-11 0.0 0.0 -1.570796314870016 1.5707963705062866 -1.570796314870016 -1.570796314870016 0.0 0.0 0.0 0.0 0.0 0.0 0.0 -1.151244268742903e-26 -0.5442396402359009 -0.7673661112785339 -0.22935479879379272 -1.3146049353263134e-11 0.0 -1.151244268742903e-26 -0.5442396402359009 -0.7673661112785339 -0.22935479879379272 -1.3146049353263134e-11 0.0 -0.2985999973554403 -0.11235000099231761 0.3136499823461779 2.2214412195942916 2.2214412191386654 6.515886891884208e-08 0.0 0.0 0.0 0.0 0.0 0.0 9.240738067961096e-07 3.4768818278582924e-07 4.253146293222068e-08 -2.8475662131755493e-08 6.147405365792544e-08 -2.650151154611292e-15 -0.29859999998320197 -0.1123500000156699 0.31364999997695675 2.221441469306996 2.22144146885137 4.556249894594308e-10 0.0 0.0 0.0 0.0 0.0 0.0

9579.359999999999 0.0 -1.5707963267948966 1.5707963267948966 -1.5707963267948966 -1.5707963267948966 0.0 0.0 0.0 0.0 0.0 0.0 0.0 0.0 0.0 0.0 0.0 0.0 0.0 -1.1512442590619146e-26 -0.5442396572688689 -0.7673661111166267 -0.229354796466502 -1.3146049461972196e-11 0.0 -1.511583712148294e-25 -7.14586669994025 -7.145866699940251 -1.0424175499402515 -5.974879480466362e-11 0.0 0.0 -1.570796314870016 1.5707963705062866 -1.570796314870016 -1.570796314870016 0.0 0.0 0.0 0.0 0.0 0.0 0.0 -1.151244268742903e-26 -0.5442396402359009 -0.7673661112785339 -0.22935479879379272 -1.3146049353263134e-11 0.0 -1.151244268742903e-26 -0.5442396402359009 -0.7673661112785339 -0.22935479879379272 -1.3146049353263134e-11 0.0 -0.2985999973554403 -0.11235000099231761 0.3136499823461779 2.2214412195942916 2.2214412191386654 6.515886891884208e-08 0.0 0.0 0.0 0.0 0.0 0.0 9.240738067961096e-07 3.4768818278582924e-07 4.253146293222068e-08 -2.8475662131755493e-08 6.147405365792544e-08 -2.650151154611292e-15 -0.29859999998320197 -0.1123500000156699 0.31364999997695675 2.221441469306996 2.22144146885137 4.556249894594308e-10 0.0 0.0 0.0 0.0 0.0 0.0

9579.368 0.0 -1.5707963267948966 1.5707963267948966 -1.5707963267948966 -1.5707963267948966 0.0 0.0 0.0 0.0 0.0 0.0 0.0 0.0 0.0 0.0 0.0 0.0 0.0 -1.1512442590619146e-26 -0.5442396572688689 -0.7673661111166267 -0.229354796466502 -1.3146049461972196e-11 0.0 -1.511583712148294e-25 -7.14586669994025 -7.145866699940251 -1.0424175499402515 -5.974879480466362e-11 0.0 0.0 -1.570796314870016 1.5707963705062866 -1.570796314870016 -1.570796314870016 0.0 0.0 0.0 0.0 0.0 0.0 0.0 -1.151244268742903e-26 -0.5442396402359009 -0.7673661112785339 -0.22935479879379272 -1.3146049353263134e-11 0.0 -1.151244268742903e-26 -0.5442396402359009 -0.7673661112785339 -0.22935479879379272 -1.3146049353263134e-11 0.0 -0.2985999973554403 -0.11235000099231761 0.3136499823461779 2.2214412195942916 2.2214412191386654 6.515886891884208e-08 0.0 0.0 0.0 0.0 0.0 0.0 9.240738067961096e-07 3.4768818278582924e-07 4.253146293222068e-08 -2.8475662131755493e-08 6.147405365792544e-08 -2.650151154611292e-15 -0.29859999998320197 -0.1123500000156699 0.31364999997695675 2.221441469306996 2.22144146885137 4.556249894594308e-10 0.0 0.0 0.0 0.0 0.0 0.0

9579.376 0.0 -1.5707963267948966 1.5707963267948966 -1.5707963267948966 -1.5707963267948966 0.0 0.0 0.0 0.0 0.0 0.0 0.0 0.0 0.0 0.0 0.0 0.0 0.0 -1.1512442590619146e-26 -0.5442396572688689 -0.7673661111166267 -0.229354796466502 -1.3146049461972196e-11 0.0 -1.511583712148294e-25 -7.14586669994025 -7.145866699940251 -1.0424175499402515 -5.974879480466362e-11 0.0 0.0 -1.570796314870016 1.5707963705062866 -1.570796314870016 -1.570796314870016 0.0 0.0 0.0 0.0 0.0 0.0 0.0 -1.151244268742903e-26 -0.5442396402359009 -0.7673661112785339 -0.22935479879379272 -1.3146049353263134e-11 0.0 -1.151244268742903e-26 -0.5442396402359009 -0.7673661112785339 -0.22935479879379272 -1.3146049353263134e-11 0.0 -0.2985999973554403 -0.11235000099231761 0.3136499823461779 2.2214412195942916 2.2214412191386654 6.515886891884208e-08 0.0 0.0 0.0 0.0 0.0 0.0 9.240738067961096e-07 3.4768818278582924e-07 4.253146293222068e-08 -2.8475662131755493e-08 6.147405365792544e-08 -2.650151154611292e-15 -0.29859999998320197 -0.1123500000156699 0.31364999997695675 2.221441469306996 2.22144146885137 4.556249894594308e-10 0.0 0.0 0.0 0.0 0.0 0.0

9579.384 0.0 -1.5707963267948966 1.5707963267948966 -1.5707963267948966 -1.5707963267948966 0.0 0.0 0.0 0.0 0.0 0.0 0.0 0.0 0.0 0.0 0.0 0.0 0.0 -1.1512442590619146e-26 -0.5442396572688689 -0.7673661111166267 -0.229354796466502 -1.3146049461972196e-11 0.0 -1.511583712148294e-25 -7.14586669994025 -7.145866699940251 -1.0424175499402515 -5.974879480466362e-11 0.0 0.0 -1.570796314870016 1.5707963705062866 -1.570796314870016 -1.570796314870016 0.0 0.0 0.0 0.0 0.0 0.0 0.0 -1.151244268742903e-26 -0.5442396402359009 -0.7673661112785339 -0.22935479879379272 -1.3146049353263134e-11 0.0 -1.151244268742903e-26 -0.5442396402359009 -0.7673661112785339 -0.22935479879379272 -1.3146049353263134e-11 0.0 -0.2985999973554403 -0.11235000099231761 0.3136499823461779 2.2214412195942916 2.2214412191386654 6.515886891884208e-08 0.0 0.0 0.0 0.0 0.0 0.0 9.240738067961096e-07 3.4768818278582924e-07 4.253146293222068e-08 -2.8475662131755493e-08 6.147405365792544e-08 -2.650151154611292e-15 -0.29859999998320197 -0.1123500000156699 0.31364999997695675 2.221441469306996 2.22144146885137 4.556249894594308e-10 0.0 0.0 0.0 0.0 0.0 0.0

9579.392 0.0 -1.5707963267948966 1.5707963267948966 -1.5707963267948966 -1.5707963267948966 0.0 0.0 0.0 0.0 0.0 0.0 0.0 0.0 0.0 0.0 0.0 0.0 0.0 -1.1512442590619146e-26 -0.5442396572688689 -0.7673661111166267 -0.229354796466502 -1.3146049461972196e-11 0.0 -1.511583712148294e-25 -7.14586669994025 -7.145866699940251 -1.0424175499402515 -5.974879480466362e-11 0.0 0.0 -1.570796314870016 1.5707963705062866 -1.570796314870016 -1.570796314870016 0.0 0.0 0.0 0.0 0.0 0.0 0.0 -1.151244268742903e-26 -0.5442396402359009 -0.7673661112785339 -0.22935479879379272 -1.3146049353263134e-11 0.0 -1.151244268742903e-26 -0.5442396402359009 -0.7673661112785339 -0.22935479879379272 -1.3146049353263134e-11 0.0 -0.2985999973554403 -0.11235000099231761 0.3136499823461779 2.2214412195942916 2.2214412191386654 6.515886891884208e-08 0.0 0.0 0.0 0.0 0.0 0.0 9.240738067961096e-07 3.4768818278582924e-07 4.253146293222068e-08 -2.8475662131755493e-08 6.147405365792544e-08 -2.650151154611292e-15 -0.29859999998320197 -0.1123500000156699 0.31364999997695675 2.221441469306996 2.22144146885137 4.556249894594308e-10 0.0 0.0 0.0 0.0 0.0 0.0

9579.4 0.0 -1.5707963267948966 1.5707963267948966 -1.5707963267948966 -1.5707963267948966 0.0 0.0 0.0 0.0 0.0 0.0 0.0 0.0 0.0 0.0 0.0 0.0 0.0 -1.1512442590619146e-26 -0.5442396572688689 -0.7673661111166267 -0.229354796466502 -1.3146049461972196e-11 0.0 -1.511583712148294e-25 -7.14586669994025 -7.145866699940251 -1.0424175499402515 -5.974879480466362e-11 0.0 0.0 -1.570796314870016 1.5707963705062866 -1.570796314870016 -1.570796314870016 0.0 0.0 0.0 0.0 0.0 0.0 0.0 -1.151244268742903e-26 -0.5442396402359009 -0.7673661112785339 -0.22935479879379272 -1.3146049353263134e-11 0.0 -1.151244268742903e-26 -0.5442396402359009 -0.7673661112785339 -0.22935479879379272 -1.3146049353263134e-11 0.0 -0.2985999973554403 -0.11235000099231761 0.3136499823461779 2.2214412195942916 2.2214412191386654 6.515886891884208e-08 0.0 0.0 0.0 0.0 0.0 0.0 9.240738067961096e-07 3.4768818278582924e-07 4.253146293222068e-08 -2.8475662131755493e-08 6.147405365792544e-08 -2.650151154611292e-15 -0.29859999998320197 -0.1123500000156699 0.31364999997695675 2.221441469306996 2.22144146885137 4.556249894594308e-10 0.0 0.0 0.0 0.0 0.0 0.0

9579.408 0.0 -1.5707963267948966 1.5707963267948966 -1.5707963267948966 -1.5707963267948966 0.0 0.0 0.0 0.0 0.0 0.0 0.0 0.0 0.0 0.0 0.0 0.0 0.0 -1.1512442590619146e-26 -0.5442396572688689 -0.7673661111166267 -0.229354796466502 -1.3146049461972196e-11 0.0 -1.511583712148294e-25 -7.14586669994025 -7.145866699940251 -1.0424175499402515 -5.974879480466362e-11 0.0 0.0 -1.570796314870016 1.5707963705062866 -1.570796314870016 -1.570796314870016 0.0 0.0 0.0 0.0 0.0 0.0 0.0 -1.151244268742903e-26 -0.5442396402359009 -0.7673661112785339 -0.22935479879379272 -1.3146049353263134e-11 0.0 -1.151244268742903e-26 -0.5442396402359009 -0.7673661112785339 -0.22935479879379272 -1.3146049353263134e-11 0.0 -0.2985999973554403 -0.11235000099231761 0.3136499823461779 2.2214412195942916 2.2214412191386654 6.515886891884208e-08 0.0 0.0 0.0 0.0 0.0 0.0 9.240738067961096e-07 3.4768818278582924e-07 4.253146293222068e-08 -2.8475662131755493e-08 6.147405365792544e-08 -2.650151154611292e-15 -0.29859999998320197 -0.1123500000156699 0.31364999997695675 2.221441469306996 2.22144146885137 4.556249894594308e-10 0.0 0.0 0.0 0.0 0.0 0.0

9579.416 0.0 -1.5707963267948966 1.5707963267948966 -1.5707963267948966 -1.5707963267948966 0.0 0.0 0.0 0.0 0.0 0.0 0.0 0.0 0.0 0.0 0.0 0.0 0.0 -1.1512442590619146e-26 -0.5442396572688689 -0.7673661111166267 -0.229354796466502 -1.3146049461972196e-11 0.0 -1.511583712148294e-25 -7.14586669994025 -7.145866699940251 -1.0424175499402515 -5.974879480466362e-11 0.0 0.0 -1.570796314870016 1.5707963705062866 -1.570796314870016 -1.570796314870016 0.0 0.0 0.0 0.0 0.0 0.0 0.0 -1.151244268742903e-26 -0.5442396402359009 -0.7673661112785339 -0.22935479879379272 -1.3146049353263134e-11 0.0 -1.151244268742903e-26 -0.5442396402359009 -0.7673661112785339 -0.22935479879379272 -1.3146049353263134e-11 0.0 -0.2985999973554403 -0.11235000099231761 0.3136499823461779 2.2214412195942916 2.2214412191386654 6.515886891884208e-08 0.0 0.0 0.0 0.0 0.0 0.0 9.240738067961096e-07 3.4768818278582924e-07 4.253146293222068e-08 -2.8475662131755493e-08 6.147405365792544e-08 -2.650151154611292e-15 -0.29859999998320197 -0.1123500000156699 0.31364999997695675 2.221441469306996 2.22144146885137 4.556249894594308e-10 0.0 0.0 0.0 0.0 0.0 0.0

9579.423999999999 0.0 -1.5707963267948966 1.5707963267948966 -1.5707963267948966 -1.5707963267948966 0.0 0.0 0.0 0.0 0.0 0.0 0.0 0.0 0.0 0.0 0.0 0.0 0.0 -1.1512442590619146e-26 -0.5442396572688689 -0.7673661111166267 -0.229354796466502 -1.3146049461972196e-11 0.0 -1.511583712148294e-25 -7.14586669994025 -7.145866699940251 -1.0424175499402515 -5.974879480466362e-11 0.0 0.0 -1.570796314870016 1.5707963705062866 -1.570796314870016 -1.570796314870016 0.0 0.0 0.0 0.0 0.0 0.0 0.0 -1.151244268742903e-26 -0.5442396402359009 -0.7673661112785339 -0.22935479879379272 -1.3146049353263134e-11 0.0 -1.151244268742903e-26 -0.5442396402359009 -0.7673661112785339 -0.22935479879379272 -1.3146049353263134e-11 0.0 -0.2985999973554403 -0.11235000099231761 0.3136499823461779 2.2214412195942916 2.2214412191386654 6.515886891884208e-08 0.0 0.0 0.0 0.0 0.0 0.0 9.240738067961096e-07 3.4768818278582924e-07 4.253146293222068e-08 -2.8475662131755493e-08 6.147405365792544e-08 -2.650151154611292e-15 -0.29859999998320197 -0.1123500000156699 0.31364999997695675 2.221441469306996 2.22144146885137 4.556249894594308e-10 0.0 0.0 0.0 0.0 0.0 0.0

9579.431999999999 0.0 -1.5707963267948966 1.5707963267948966 -1.5707963267948966 -1.5707963267948966 0.0 0.0 0.0 0.0 0.0 0.0 0.0 0.0 0.0 0.0 0.0 0.0 0.0 -1.1512442590619146e-26 -0.5442396572688689 -0.7673661111166267 -0.229354796466502 -1.3146049461972196e-11 0.0 -1.511583712148294e-25 -7.14586669994025 -7.145866699940251 -1.0424175499402515 -5.974879480466362e-11 0.0 0.0 -1.570796314870016 1.5707963705062866 -1.570796314870016 -1.570796314870016 0.0 0.0 0.0 0.0 0.0 0.0 0.0 -1.151244268742903e-26 -0.5442396402359009 -0.7673661112785339 -0.22935479879379272 -1.3146049353263134e-11 0.0 -1.151244268742903e-26 -0.5442396402359009 -0.7673661112785339 -0.22935479879379272 -1.3146049353263134e-11 0.0 -0.2985999973554403 -0.11235000099231761 0.3136499823461779 2.2214412195942916 2.2214412191386654 6.515886891884208e-08 0.0 0.0 0.0 0.0 0.0 0.0 9.240738067961096e-07 3.4768818278582924e-07 4.253146293222068e-08 -2.8475662131755493e-08 6.147405365792544e-08 -2.650151154611292e-15 -0.29859999998320197 -0.1123500000156699 0.31364999997695675 2.221441469306996 2.22144146885137 4.556249894594308e-10 0.0 0.0 0.0 0.0 0.0 0.0

9579.439999999999 0.0 -1.5707963267948966 1.5707963267948966 -1.5707963267948966 -1.5707963267948966 0.0 0.0 0.0 0.0 0.0 0.0 0.0 0.0 0.0 0.0 0.0 0.0 0.0 -1.1512442590619146e-26 -0.5442396572688689 -0.7673661111166267 -0.229354796466502 -1.3146049461972196e-11 0.0 -1.511583712148294e-25 -7.14586669994025 -7.145866699940251 -1.0424175499402515 -5.974879480466362e-11 0.0 0.0 -1.570796314870016 1.5707963705062866 -1.570796314870016 -1.570796314870016 0.0 0.0 0.0 0.0 0.0 0.0 0.0 -1.151244268742903e-26 -0.5442396402359009 -0.7673661112785339 -0.22935479879379272 -1.3146049353263134e-11 0.0 -1.151244268742903e-26 -0.5442396402359009 -0.7673661112785339 -0.22935479879379272 -1.3146049353263134e-11 0.0 -0.2985999973554403 -0.11235000099231761 0.3136499823461779 2.2214412195942916 2.2214412191386654 6.515886891884208e-08 0.0 0.0 0.0 0.0 0.0 0.0 9.240738067961096e-07 3.4768818278582924e-07 4.253146293222068e-08 -2.8475662131755493e-08 6.147405365792544e-08 -2.650151154611292e-15 -0.29859999998320197 -0.1123500000156699 0.31364999997695675 2.221441469306996 2.22144146885137 4.556249894594308e-10 0.0 0.0 0.0 0.0 0.0 0.0

9579.448 0.0 -1.5707963267948966 1.5707963267948966 -1.5707963267948966 -1.5707963267948966 0.0 0.0 0.0 0.0 0.0 0.0 0.0 0.0 0.0 0.0 0.0 0.0 0.0 -1.1512442590619146e-26 -0.5442396572688689 -0.7673661111166267 -0.229354796466502 -1.3146049461972196e-11 0.0 -1.511583712148294e-25 -7.14586669994025 -7.145866699940251 -1.0424175499402515 -5.974879480466362e-11 0.0 0.0 -1.570796314870016 1.5707963705062866 -1.570796314870016 -1.570796314870016 0.0 0.0 0.0 0.0 0.0 0.0 0.0 -1.151244268742903e-26 -0.5442396402359009 -0.7673661112785339 -0.22935479879379272 -1.3146049353263134e-11 0.0 -1.151244268742903e-26 -0.5442396402359009 -0.7673661112785339 -0.22935479879379272 -1.3146049353263134e-11 0.0 -0.2985999973554403 -0.11235000099231761 0.3136499823461779 2.2214412195942916 2.2214412191386654 6.515886891884208e-08 0.0 0.0 0.0 0.0 0.0 0.0 9.240738067961096e-07 3.4768818278582924e-07 4.253146293222068e-08 -2.8475662131755493e-08 6.147405365792544e-08 -2.650151154611292e-15 -0.29859999998320197 -0.1123500000156699 0.31364999997695675 2.221441469306996 2.22144146885137 4.556249894594308e-10 0.0 0.0 0.0 0.0 0.0 0.0

9579.456 0.0 -1.5707963267948966 1.5707963267948966 -1.5707963267948966 -1.5707963267948966 0.0 0.0 0.0 0.0 0.0 0.0 0.0 0.0 0.0 0.0 0.0 0.0 0.0 -1.1512442590619146e-26 -0.5442396572688689 -0.7673661111166267 -0.229354796466502 -1.3146049461972196e-11 0.0 -1.511583712148294e-25 -7.14586669994025 -7.145866699940251 -1.0424175499402515 -5.974879480466362e-11 0.0 0.0 -1.570796314870016 1.5707963705062866 -1.570796314870016 -1.570796314870016 0.0 0.0 0.0 0.0 0.0 0.0 0.0 -1.151244268742903e-26 -0.5442396402359009 -0.7673661112785339 -0.22935479879379272 -1.3146049353263134e-11 0.0 -1.151244268742903e-26 -0.5442396402359009 -0.7673661112785339 -0.22935479879379272 -1.3146049353263134e-11 0.0 -0.2985999973554403 -0.11235000099231761 0.3136499823461779 2.2214412195942916 2.2214412191386654 6.515886891884208e-08 0.0 0.0 0.0 0.0 0.0 0.0 9.240738067961096e-07 3.4768818278582924e-07 4.253146293222068e-08 -2.8475662131755493e-08 6.147405365792544e-08 -2.650151154611292e-15 -0.29859999998320197 -0.1123500000156699 0.31364999997695675 2.221441469306996 2.22144146885137 4.556249894594308e-10 0.0 0.0 0.0 0.0 0.0 0.0

9579.464 0.0 -1.5707963267948966 1.5707963267948966 -1.5707963267948966 -1.5707963267948966 0.0 0.0 0.0 0.0 0.0 0.0 0.0 0.0 0.0 0.0 0.0 0.0 0.0 -1.1512442590619146e-26 -0.5442396572688689 -0.7673661111166267 -0.229354796466502 -1.3146049461972196e-11 0.0 -1.511583712148294e-25 -7.14586669994025 -7.145866699940251 -1.0424175499402515 -5.974879480466362e-11 0.0 0.0 -1.570796314870016 1.5707963705062866 -1.570796314870016 -1.570796314870016 0.0 0.0 0.0 0.0 0.0 0.0 0.0 -1.151244268742903e-26 -0.5442396402359009 -0.7673661112785339 -0.22935479879379272 -1.3146049353263134e-11 0.0 -1.151244268742903e-26 -0.5442396402359009 -0.7673661112785339 -0.22935479879379272 -1.3146049353263134e-11 0.0 -0.2985999973554403 -0.11235000099231761 0.3136499823461779 2.2214412195942916 2.2214412191386654 6.515886891884208e-08 0.0 0.0 0.0 0.0 0.0 0.0 9.240738067961096e-07 3.4768818278582924e-07 4.253146293222068e-08 -2.8475662131755493e-08 6.147405365792544e-08 -2.650151154611292e-15 -0.29859999998320197 -0.1123500000156699 0.31364999997695675 2.221441469306996 2.22144146885137 4.556249894594308e-10 0.0 0.0 0.0 0.0 0.0 0.0

9579.472 0.0 -1.5707963267948966 1.5707963267948966 -1.5707963267948966 -1.5707963267948966 0.0 0.0 0.0 0.0 0.0 0.0 0.0 0.0 0.0 0.0 0.0 0.0 0.0 -1.1512442590619146e-26 -0.5442396572688689 -0.7673661111166267 -0.229354796466502 -1.3146049461972196e-11 0.0 -1.511583712148294e-25 -7.14586669994025 -7.145866699940251 -1.0424175499402515 -5.974879480466362e-11 0.0 0.0 -1.570796314870016 1.5707963705062866 -1.570796314870016 -1.570796314870016 0.0 0.0 0.0 0.0 0.0 0.0 0.0 -1.151244268742903e-26 -0.5442396402359009 -0.7673661112785339 -0.22935479879379272 -1.3146049353263134e-11 0.0 -1.151244268742903e-26 -0.5442396402359009 -0.7673661112785339 -0.22935479879379272 -1.3146049353263134e-11 0.0 -0.2985999973554403 -0.11235000099231761 0.3136499823461779 2.2214412195942916 2.2214412191386654 6.515886891884208e-08 0.0 0.0 0.0 0.0 0.0 0.0 9.240738067961096e-07 3.4768818278582924e-07 4.253146293222068e-08 -2.8475662131755493e-08 6.147405365792544e-08 -2.650151154611292e-15 -0.29859999998320197 -0.1123500000156699 0.31364999997695675 2.221441469306996 2.22144146885137 4.556249894594308e-10 0.0 0.0 0.0 0.0 0.0 0.0

9579.48 0.0 -1.5707963267948966 1.5707963267948966 -1.5707963267948966 -1.5707963267948966 0.0 0.0 0.0 0.0 0.0 0.0 0.0 0.0 0.0 0.0 0.0 0.0 0.0 -1.1512442590619146e-26 -0.5442396572688689 -0.7673661111166267 -0.229354796466502 -1.3146049461972196e-11 0.0 -1.511583712148294e-25 -7.14586669994025 -7.145866699940251 -1.0424175499402515 -5.974879480466362e-11 0.0 0.0 -1.570796314870016 1.5707963705062866 -1.570796314870016 -1.570796314870016 0.0 0.0 0.0 0.0 0.0 0.0 0.0 -1.151244268742903e-26 -0.5442396402359009 -0.7673661112785339 -0.22935479879379272 -1.3146049353263134e-11 0.0 -1.151244268742903e-26 -0.5442396402359009 -0.7673661112785339 -0.22935479879379272 -1.3146049353263134e-11 0.0 -0.2985999973554403 -0.11235000099231761 0.3136499823461779 2.2214412195942916 2.2214412191386654 6.515886891884208e-08 0.0 0.0 0.0 0.0 0.0 0.0 9.240738067961096e-07 3.4768818278582924e-07 4.253146293222068e-08 -2.8475662131755493e-08 6.147405365792544e-08 -2.650151154611292e-15 -0.29859999998320197 -0.1123500000156699 0.31364999997695675 2.221441469306996 2.22144146885137 4.556249894594308e-10 0.0 0.0 0.0 0.0 0.0 0.0

9579.488 0.0 -1.5707963267948966 1.5707963267948966 -1.5707963267948966 -1.5707963267948966 0.0 0.0 0.0 0.0 0.0 0.0 0.0 0.0 0.0 0.0 0.0 0.0 0.0 -1.1512442590619146e-26 -0.5442396572688689 -0.7673661111166267 -0.229354796466502 -1.3146049461972196e-11 0.0 -1.511583712148294e-25 -7.14586669994025 -7.145866699940251 -1.0424175499402515 -5.974879480466362e-11 0.0 0.0 -1.570796314870016 1.5707963705062866 -1.570796314870016 -1.570796314870016 0.0 0.0 0.0 0.0 0.0 0.0 0.0 -1.151244268742903e-26 -0.5442396402359009 -0.7673661112785339 -0.22935479879379272 -1.3146049353263134e-11 0.0 -1.151244268742903e-26 -0.5442396402359009 -0.7673661112785339 -0.22935479879379272 -1.3146049353263134e-11 0.0 -0.2985999973554403 -0.11235000099231761 0.3136499823461779 2.2214412195942916 2.2214412191386654 6.515886891884208e-08 0.0 0.0 0.0 0.0 0.0 0.0 9.240738067961096e-07 3.4768818278582924e-07 4.253146293222068e-08 -2.8475662131755493e-08 6.147405365792544e-08 -2.650151154611292e-15 -0.29859999998320197 -0.1123500000156699 0.31364999997695675 2.221441469306996 2.22144146885137 4.556249894594308e-10 0.0 0.0 0.0 0.0 0.0 0.0

9579.496 0.0 -1.5707963267948966 1.5707963267948966 -1.5707963267948966 -1.5707963267948966 0.0 0.0 0.0 0.0 0.0 0.0 0.0 0.0 0.0 0.0 0.0 0.0 0.0 -1.1512442590619146e-26 -0.5442396572688689 -0.7673661111166267 -0.229354796466502 -1.3146049461972196e-11 0.0 -1.511583712148294e-25 -7.14586669994025 -7.145866699940251 -1.0424175499402515 -5.974879480466362e-11 0.0 0.0 -1.570796314870016 1.5707963705062866 -1.570796314870016 -1.570796314870016 0.0 0.0 0.0 0.0 0.0 0.0 0.0 -1.151244268742903e-26 -0.5442396402359009 -0.7673661112785339 -0.22935479879379272 -1.3146049353263134e-11 0.0 -1.151244268742903e-26 -0.5442396402359009 -0.7673661112785339 -0.22935479879379272 -1.3146049353263134e-11 0.0 -0.2985999973554403 -0.11235000099231761 0.3136499823461779 2.2214412195942916 2.2214412191386654 6.515886891884208e-08 0.0 0.0 0.0 0.0 0.0 0.0 9.240738067961096e-07 3.4768818278582924e-07 4.253146293222068e-08 -2.8475662131755493e-08 6.147405365792544e-08 -2.650151154611292e-15 -0.29859999998320197 -0.1123500000156699 0.31364999997695675 2.221441469306996 2.22144146885137 4.556249894594308e-10 0.0 0.0 0.0 0.0 0.0 0.0

9579.503999999999 0.0 -1.5707963267948966 1.5707963267948966 -1.5707963267948966 -1.5707963267948966 0.0 0.0 0.0 0.0 0.0 0.0 0.0 0.0 0.0 0.0 0.0 0.0 0.0 -1.1512442590619146e-26 -0.5442396572688689 -0.7673661111166267 -0.229354796466502 -1.3146049461972196e-11 0.0 -1.511583712148294e-25 -7.14586669994025 -7.145866699940251 -1.0424175499402515 -5.974879480466362e-11 0.0 0.0 -1.570796314870016 1.5707963705062866 -1.570796314870016 -1.570796314870016 0.0 0.0 0.0 0.0 0.0 0.0 0.0 -1.151244268742903e-26 -0.5442396402359009 -0.7673661112785339 -0.22935479879379272 -1.3146049353263134e-11 0.0 -1.151244268742903e-26 -0.5442396402359009 -0.7673661112785339 -0.22935479879379272 -1.3146049353263134e-11 0.0 -0.2985999973554403 -0.11235000099231761 0.3136499823461779 2.2214412195942916 2.2214412191386654 6.515886891884208e-08 0.0 0.0 0.0 0.0 0.0 0.0 9.240738067961096e-07 3.4768818278582924e-07 4.253146293222068e-08 -2.8475662131755493e-08 6.147405365792544e-08 -2.650151154611292e-15 -0.29859999998320197 -0.1123500000156699 0.31364999997695675 2.221441469306996 2.22144146885137 4.556249894594308e-10 0.0 0.0 0.0 0.0 0.0 0.0

9579.511999999999 0.0 -1.5707963267948966 1.5707963267948966 -1.5707963267948966 -1.5707963267948966 0.0 0.0 0.0 0.0 0.0 0.0 0.0 0.0 0.0 0.0 0.0 0.0 0.0 -1.1512442590619146e-26 -0.5442396572688689 -0.7673661111166267 -0.229354796466502 -1.3146049461972196e-11 0.0 -1.511583712148294e-25 -7.14586669994025 -7.145866699940251 -1.0424175499402515 -5.974879480466362e-11 0.0 0.0 -1.570796314870016 1.5707963705062866 -1.570796314870016 -1.570796314870016 0.0 0.0 0.0 0.0 0.0 0.0 0.0 -1.151244268742903e-26 -0.5442396402359009 -0.7673661112785339 -0.22935479879379272 -1.3146049353263134e-11 0.0 -1.151244268742903e-26 -0.5442396402359009 -0.7673661112785339 -0.22935479879379272 -1.3146049353263134e-11 0.0 -0.2985999973554403 -0.11235000099231761 0.3136499823461779 2.2214412195942916 2.2214412191386654 6.515886891884208e-08 0.0 0.0 0.0 0.0 0.0 0.0 9.240738067961096e-07 3.4768818278582924e-07 4.253146293222068e-08 -2.8475662131755493e-08 6.147405365792544e-08 -2.650151154611292e-15 -0.29859999998320197 -0.1123500000156699 0.31364999997695675 2.221441469306996 2.22144146885137 4.556249894594308e-10 0.0 0.0 0.0 0.0 0.0 0.0

9579.52 0.0 -1.5707963267948966 1.5707963267948966 -1.5707963267948966 -1.5707963267948966 0.0 0.0 0.0 0.0 0.0 0.0 0.0 0.0 0.0 0.0 0.0 0.0 0.0 -1.1512442590619146e-26 -0.5442396572688689 -0.7673661111166267 -0.229354796466502 -1.3146049461972196e-11 0.0 -1.511583712148294e-25 -7.14586669994025 -7.145866699940251 -1.0424175499402515 -5.974879480466362e-11 0.0 0.0 -1.570796314870016 1.5707963705062866 -1.570796314870016 -1.570796314870016 0.0 0.0 0.0 0.0 0.0 0.0 0.0 -1.151244268742903e-26 -0.5442396402359009 -0.7673661112785339 -0.22935479879379272 -1.3146049353263134e-11 0.0 -1.151244268742903e-26 -0.5442396402359009 -0.7673661112785339 -0.22935479879379272 -1.3146049353263134e-11 0.0 -0.2985999973554403 -0.11235000099231761 0.3136499823461779 2.2214412195942916 2.2214412191386654 6.515886891884208e-08 0.0 0.0 0.0 0.0 0.0 0.0 9.240738067961096e-07 3.4768818278582924e-07 4.253146293222068e-08 -2.8475662131755493e-08 6.147405365792544e-08 -2.650151154611292e-15 -0.29859999998320197 -0.1123500000156699 0.31364999997695675 2.221441469306996 2.22144146885137 4.556249894594308e-10 0.0 0.0 0.0 0.0 0.0 0.0

9579.528 0.0 -1.5707963267948966 1.5707963267948966 -1.5707963267948966 -1.5707963267948966 0.0 0.0 0.0 0.0 0.0 0.0 0.0 0.0 0.0 0.0 0.0 0.0 0.0 -1.1512442590619146e-26 -0.5442396572688689 -0.7673661111166267 -0.229354796466502 -1.3146049461972196e-11 0.0 -1.511583712148294e-25 -7.14586669994025 -7.145866699940251 -1.0424175499402515 -5.974879480466362e-11 0.0 0.0 -1.570796314870016 1.5707963705062866 -1.570796314870016 -1.570796314870016 0.0 0.0 0.0 0.0 0.0 0.0 0.0 -1.151244268742903e-26 -0.5442396402359009 -0.7673661112785339 -0.22935479879379272 -1.3146049353263134e-11 0.0 -1.151244268742903e-26 -0.5442396402359009 -0.7673661112785339 -0.22935479879379272 -1.3146049353263134e-11 0.0 -0.2985999973554403 -0.11235000099231761 0.3136499823461779 2.2214412195942916 2.2214412191386654 6.515886891884208e-08 0.0 0.0 0.0 0.0 0.0 0.0 9.240738067961096e-07 3.4768818278582924e-07 4.253146293222068e-08 -2.8475662131755493e-08 6.147405365792544e-08 -2.650151154611292e-15 -0.29859999998320197 -0.1123500000156699 0.31364999997695675 2.221441469306996 2.22144146885137 4.556249894594308e-10 0.0 0.0 0.0 0.0 0.0 0.0

9579.536 0.0 -1.5707963267948966 1.5707963267948966 -1.5707963267948966 -1.5707963267948966 0.0 0.0 0.0 0.0 0.0 0.0 0.0 0.0 0.0 0.0 0.0 0.0 0.0 -1.1512442590619146e-26 -0.5442396572688689 -0.7673661111166267 -0.229354796466502 -1.3146049461972196e-11 0.0 -1.511583712148294e-25 -7.14586669994025 -7.145866699940251 -1.0424175499402515 -5.974879480466362e-11 0.0 0.0 -1.570796314870016 1.5707963705062866 -1.570796314870016 -1.570796314870016 0.0 0.0 0.0 0.0 0.0 0.0 0.0 -1.151244268742903e-26 -0.5442396402359009 -0.7673661112785339 -0.22935479879379272 -1.3146049353263134e-11 0.0 -1.151244268742903e-26 -0.5442396402359009 -0.7673661112785339 -0.22935479879379272 -1.3146049353263134e-11 0.0 -0.2985999973554403 -0.11235000099231761 0.3136499823461779 2.2214412195942916 2.2214412191386654 6.515886891884208e-08 0.0 0.0 0.0 0.0 0.0 0.0 9.240738067961096e-07 3.4768818278582924e-07 4.253146293222068e-08 -2.8475662131755493e-08 6.147405365792544e-08 -2.650151154611292e-15 -0.29859999998320197 -0.1123500000156699 0.31364999997695675 2.221441469306996 2.22144146885137 4.556249894594308e-10 0.0 0.0 0.0 0.0 0.0 0.0

9579.544 0.0 -1.5707963267948966 1.5707963267948966 -1.5707963267948966 -1.5707963267948966 0.0 0.0 0.0 0.0 0.0 0.0 0.0 0.0 0.0 0.0 0.0 0.0 0.0 -1.1512442590619146e-26 -0.5442396572688689 -0.7673661111166267 -0.229354796466502 -1.3146049461972196e-11 0.0 -1.511583712148294e-25 -7.14586669994025 -7.145866699940251 -1.0424175499402515 -5.974879480466362e-11 0.0 0.0 -1.570796314870016 1.5707963705062866 -1.570796314870016 -1.570796314870016 0.0 0.0 0.0 0.0 0.0 0.0 0.0 -1.151244268742903e-26 -0.5442396402359009 -0.7673661112785339 -0.22935479879379272 -1.3146049353263134e-11 0.0 -1.151244268742903e-26 -0.5442396402359009 -0.7673661112785339 -0.22935479879379272 -1.3146049353263134e-11 0.0 -0.2985999973554403 -0.11235000099231761 0.3136499823461779 2.2214412195942916 2.2214412191386654 6.515886891884208e-08 0.0 0.0 0.0 0.0 0.0 0.0 9.240738067961096e-07 3.4768818278582924e-07 4.253146293222068e-08 -2.8475662131755493e-08 6.147405365792544e-08 -2.650151154611292e-15 -0.29859999998320197 -0.1123500000156699 0.31364999997695675 2.221441469306996 2.22144146885137 4.556249894594308e-10 0.0 0.0 0.0 0.0 0.0 0.0

9579.552 0.0 -1.5707963267948966 1.5707963267948966 -1.5707963267948966 -1.5707963267948966 0.0 0.0 0.0 0.0 0.0 0.0 0.0 0.0 0.0 0.0 0.0 0.0 0.0 -1.1512442590619146e-26 -0.5442396572688689 -0.7673661111166267 -0.229354796466502 -1.3146049461972196e-11 0.0 -1.511583712148294e-25 -7.14586669994025 -7.145866699940251 -1.0424175499402515 -5.974879480466362e-11 0.0 0.0 -1.570796314870016 1.5707963705062866 -1.570796314870016 -1.570796314870016 0.0 0.0 0.0 0.0 0.0 0.0 0.0 -1.151244268742903e-26 -0.5442396402359009 -0.7673661112785339 -0.22935479879379272 -1.3146049353263134e-11 0.0 -1.151244268742903e-26 -0.5442396402359009 -0.7673661112785339 -0.22935479879379272 -1.3146049353263134e-11 0.0 -0.2985999973554403 -0.11235000099231761 0.3136499823461779 2.2214412195942916 2.2214412191386654 6.515886891884208e-08 0.0 0.0 0.0 0.0 0.0 0.0 9.240738067961096e-07 3.4768818278582924e-07 4.253146293222068e-08 -2.8475662131755493e-08 6.147405365792544e-08 -2.650151154611292e-15 -0.29859999998320197 -0.1123500000156699 0.31364999997695675 2.221441469306996 2.22144146885137 4.556249894594308e-10 0.0 0.0 0.0 0.0 0.0 0.0

9579.56 0.0 -1.5707963267948966 1.5707963267948966 -1.5707963267948966 -1.5707963267948966 0.0 0.0 0.0 0.0 0.0 0.0 0.0 0.0 0.0 0.0 0.0 0.0 0.0 -1.1512442590619146e-26 -0.5442396572688689 -0.7673661111166267 -0.229354796466502 -1.3146049461972196e-11 0.0 -1.511583712148294e-25 -7.14586669994025 -7.145866699940251 -1.0424175499402515 -5.974879480466362e-11 0.0 0.0 -1.570796314870016 1.5707963705062866 -1.570796314870016 -1.570796314870016 0.0 0.0 0.0 0.0 0.0 0.0 0.0 -1.151244268742903e-26 -0.5442396402359009 -0.7673661112785339 -0.22935479879379272 -1.3146049353263134e-11 0.0 -1.151244268742903e-26 -0.5442396402359009 -0.7673661112785339 -0.22935479879379272 -1.3146049353263134e-11 0.0 -0.2985999973554403 -0.11235000099231761 0.3136499823461779 2.2214412195942916 2.2214412191386654 6.515886891884208e-08 0.0 0.0 0.0 0.0 0.0 0.0 9.240738067961096e-07 3.4768818278582924e-07 4.253146293222068e-08 -2.8475662131755493e-08 6.147405365792544e-08 -2.650151154611292e-15 -0.29859999998320197 -0.1123500000156699 0.31364999997695675 2.221441469306996 2.22144146885137 4.556249894594308e-10 0.0 0.0 0.0 0.0 0.0 0.0

9579.568 0.0 -1.5707963267948966 1.5707963267948966 -1.5707963267948966 -1.5707963267948966 0.0 0.0 0.0 0.0 0.0 0.0 0.0 0.0 0.0 0.0 0.0 0.0 0.0 -1.1512442590619146e-26 -0.5442396572688689 -0.7673661111166267 -0.229354796466502 -1.3146049461972196e-11 0.0 -1.511583712148294e-25 -7.14586669994025 -7.145866699940251 -1.0424175499402515 -5.974879480466362e-11 0.0 0.0 -1.570796314870016 1.5707963705062866 -1.570796314870016 -1.570796314870016 0.0 0.0 0.0 0.0 0.0 0.0 0.0 -1.151244268742903e-26 -0.5442396402359009 -0.7673661112785339 -0.22935479879379272 -1.3146049353263134e-11 0.0 -1.151244268742903e-26 -0.5442396402359009 -0.7673661112785339 -0.22935479879379272 -1.3146049353263134e-11 0.0 -0.2985999973554403 -0.11235000099231761 0.3136499823461779 2.2214412195942916 2.2214412191386654 6.515886891884208e-08 0.0 0.0 0.0 0.0 0.0 0.0 9.240738067961096e-07 3.4768818278582924e-07 4.253146293222068e-08 -2.8475662131755493e-08 6.147405365792544e-08 -2.650151154611292e-15 -0.29859999998320197 -0.1123500000156699 0.31364999997695675 2.221441469306996 2.22144146885137 4.556249894594308e-10 0.0 0.0 0.0 0.0 0.0 0.0

9579.576 8e-08 -1.5707963267948966 1.5707963267948966 -1.5707963267948966 -1.5707963267948966 0.0 4e-05 0.0 0.0 0.0 0.0 0.0 0.005 0.0 0.0 0.0 0.0 0.0 0.00032717358791258493 -0.5442786229359113 -0.7673643216009649 -0.22935112994771337 9.744726053630263e-06 0.0 0.00429578920929224 -7.146378319148517 -7.145850035612506 -1.0424008856123572 4.4289779913749545e-05 0.0 7.999999951380232e-08 -1.570796314870016 1.5707963705062866 -1.570796314870016 -1.570796314870016 0.0 3.9999998989515007e-05 0.0 0.0 0.0 0.0 0.0 0.00032717359135858715 -0.544278621673584 -0.7673643231391907 -0.22935113310813904 9.744726412463933e-06 0.0 0.00032717359135858715 -0.544278621673584 -0.7673643231391907 -0.22935113310813904 9.744726412463933e-06 0.0 -0.2985999883674393 -0.1123500248803169 0.3136499823461779 2.2214411307366486 2.221441307996319 6.515887075661186e-08 4.494000881684662e-06 -1.1943999232966765e-05 0.0 0.0 0.0 3.9999998989515007e-05 1.2681560938718154e-07 4.786665511405575e-08 1.8696448406632135e-10 -3.918647007173791e-09 -3.993892952090493e-09 -2.187445256306442e-16 -0.298599990995201 -0.11235002390366952 0.31364999997695675 2.221441380449335 2.2214415577090274 4.556249894594032e-10 4.494000956146781e-06 -1.1943999639808041e-05 0.0 0.0 0.0 4e-05

9579.583999999999 7.200000000000001e-07 -1.5707963267948966 1.5707963267948966 -1.5707963267948966 -1.5707963267948966 0.0 0.00018000000000000004 0.0 0.0 0.0 0.0 0.0 0.017500000000000005 0.0 0.0 0.0 0.0 0.0 0.0011451075576940477 -0.5443760374473299 -0.7673598477863178 -0.22934196359851003 3.410655440030555e-05 0.0 0.015035262232522845 -7.147657371683442 -7.145808374555749 -1.042359224555228 0.0001550142897493887 0.0 7.200000027296483e-07 -1.570796314870016 1.5707963705062866 -1.570796314870016 -1.570796314870016 0.0 0.00018000000272877514 0.0 0.0 0.0 0.0 0.0 0.0011451075552031398 -0.544376015663147 -0.7673598527908325 -0.22934196889400482 3.410655335756019e-05 0.0 0.0011451075552031398 -0.544376015663147 -0.7673598527908325 -0.22934196889400482 3.410655335756019e-05 0.0 -0.29859991646336187 -0.1123502159842874 0.3136499823461779 2.2214404198753694 2.221442018857427 6.515888545877778e-08 2.022303918375021e-05 -5.3747985778217165e-05 0.0 0.0 0.0 0.00018000000272877514 1.3651929958106063e-06 5.135534535672045e-07 -1.05674099217804e-07 -4.2064756394266694e-08 9.67605741837132e-08 -3.984578976567313e-15 -0.2985999190911246 -0.11235021500764075 0.31364999997695675 2.2214406695879227 2.2214422685701556 4.556249894591564e-10 2.022303870137534e-05 -5.374798543640244e-05 0.0 0.0 0.0 0.00018000000000000004

9579.591999999999 2.8800000000000004e-06 -1.5707963267948966 1.5707963267948966 -1.5707963267948966 -1.5707963267948966 0.0 0.00048000000000000007 0.0 0.0 0.0 0.0 0.0 0.037500000000000006 0.0 0.0 0.0 0.0 0.0 0.0024538019093443874 -0.5445319025735026 -0.7673526895414164 -0.2293272971499372 7.308537069814363e-05 0.0 0.032218419069691806 -7.149703880790089 -7.145741715547579 -1.0422925655464645 0.0003321730098230628 0.0 2.880000010918593e-06 -1.570796314870016 1.5707963705062866 -1.570796314870016 -1.570796314870016 0.0 0.0004799999878741801 0.0 0.0 0.0 0.0 0.0 0.0024538019206374884 -0.5445318818092346 -0.7673527002334595 -0.22932729125022888 7.308537169592455e-05 0.0 0.0024538019206374884 -0.5445318818092346 -0.7673527002334595 -0.22932729125022888 7.308537169592455e-05 0.0 -0.2985996737861979 -0.11235086095984731 0.3136499823461779 2.221438020716874 2.221444418011984 6.515893507868589e-08 5.39284118983804e-05 -0.0001433278397966091 0.0 0.0 0.0 0.0004799999878741801 1.5276046772376018e-06 5.752718057800061e-07 -5.926405589214443e-07 -4.711044943270737e-08 2.0250687455926986e-07 -5.565796221663228e-15 -0.29859967641396357 -0.11235085998320389 0.31364999997695675 2.2214382704289775 2.2214446677247834 4.55624989457979e-10 5.3928412791937875e-05 -0.00014332784467870253 0.0 0.0 0.0 0.00048000000000000007

9579.6 8e-06 -1.5707963267948966 1.5707963267948966 -1.5707963267948966 -1.5707963267948966 0.0 0.001 0.0 0.0 0.0 0.0 0.0 0.06499999999999999 0.0 0.0 0.0 0.0 0.0 0.004253256642863604 -0.5447462235024064 -0.7673428464815871 -0.22930712981384013 0.00012668087839935637 0.0 0.055845259720799116 -7.152517914586597 -7.145650055005835 -1.0422009050039034 0.0005757645923250746 0.0 7.999999979801942e-06 -1.570796314870016 1.5707963705062866 -1.570796314870016 -1.570796314870016 0.0 0.0010000000474974513 0.0 0.0 0.0 0.0 0.0 0.0042532566003501415 -0.5447462201118469 -0.7673428654670715 -0.2293071299791336 0.00012668088311329484 0.0 0.0042532566003501415 -0.5447462201118469 -0.7673428654670715 -0.2293071299791336 0.00012668088311329484 0.0 -0.29859909854587946 -0.11235238978869519 0.3136499823461779 2.22143233381237 2.221450104886454 6.515905269685018e-08 0.00011235239512514735 -0.0002985991127285756 0.0 0.0 0.0 0.0010000000474974513 9.083275764158105e-07 3.399024614636807e-07 -8.255350915127864e-07 -2.7817145186924432e-08 1.441001905637717e-07 -3.573810341452194e-15 -0.29859910117364674 -0.11235238881207454 0.31364999997695675 2.221432583523349 2.2214503545994764 4.5562498945306536e-10 0.00011235238881207455 -0.00029859910117364675 0.0 0.0 0.0 0.001

9579.608 1.8e-05 -1.5707963267948966 1.5707963267948966 -1.5707963267948966 -1.5707963267948966 0.0 0.0018 0.0 0.0 0.0 0.0 0.0 0.09999999999999999 0.0 0.0 0.0 0.0 0.0 0.006543471758251697 -0.54501901176459 -0.7673303177518711 -0.22928145983850437 0.00019489241841108524 0.0 0.08591578418584479 -7.156099624469067 -7.145533384968974 -1.0420842349660022 0.0008857860416783824 0.0 1.8000000636675395e-05 -1.570796314870016 1.5707963705062866 -1.570796314870016 -1.570796314870016 0.0 0.0017999999690800905 0.0 0.0 0.0 0.0 0.0 0.006543471943587065 -0.5450190305709839 -0.7673302888870239 -0.2292814552783966 0.00019489241822157055 0.0 0.006543471943587065 -0.5450190305709839 -0.7673302888870239 -0.2292814552783966 0.00019489241822157055 0.0 -0.2985979750069778 -0.11235537577425914 0.3136499823461779 2.221421226534229 2.221461212021965 6.515928242229992e-08 0.0002022396729196484 -0.0005374763457799377 0.0 0.0 0.0 0.0017999999690800905 -2.116641608376363e-06 -7.882926954806465e-07 1.1632802577649423e-06 6.456172560125383e-08 -2.519132337062683e-07 7.327179675658608e-15 -0.29859797763482865 -0.11235537479746861 0.31364999997695675 2.221421476243808 2.2214614617346258 4.5562498943485684e-10 0.0002022396746354435 -0.0005374763597426915 0.0 0.0 0.0 0.0018

9579.616 3.5279999999999994e-05 -1.5707963267948966 1.5707963267948966 -1.5707963267948966 -1.5707963267948966 0.0 0.0029399999999999995 0.0 0.0 0.0 0.0 0.0 0.14249999999999993 0.0 0.0 0.0 0.0 0.0 0.009324447255508666 -0.5453502890818209 -0.7673151017416597 -0.22925028392397104 0.00027771874910446047 0.0 0.12242999246482879 -7.16044929564431 -7.145391690438684 -1.0419425404344484 0.0012622317146797728 0.0 3.5280001611681655e-05 -1.570796314870016 1.5707963705062866 -1.570796314870016 -1.570796314870016 0.0 0.002940000034868717 0.0 0.0 0.0 0.0 0.0 0.009324447251856327 -0.5453503131866455 -0.7673150897026062 -0.22925028204917908 0.0002777187619358301 0.0 0.009324447251856327 -0.5453503131866455 -0.7673150897026062 -0.22925028204917908 0.0002777187619358301 0.0 -0.2985960334613945 -0.11236053553078354 0.3136499823461779 2.221402033026881 2.2214804050210506 6.515967939553088e-08 0.00033033997837837134 -0.0008778723487881605 0.0 0.0 0.0 0.002940000034868717 -1.7590836501390032e-06 -6.620969747573677e-07 4.857637699362017e-07 5.428522335567245e-08 -1.7700796463086315e-07 5.752799427709616e-15 -0.2985960360893718 -0.11236053455374731 0.31364999997695675 2.2214022827338646 2.2214806547332646 4.556249893765451e-10 0.00033033997158801704 -0.0008778723461027529 0.0 0.0 0.0 0.0029399999999999995

9579.624 6.272e-05 -1.5707963267948966 1.5707963267948966 -1.5707963267948966 -1.5707963267948966 0.0 0.00448 0.0 0.0 0.0 0.0 0.0 0.1925 0.0 0.0 0.0 0.0 0.0 0.01259618313463452 -0.5457400921394091 -0.7672971957308385 -0.22921359649702835 0.00037515777352583517 0.0 0.16538788455775125 -7.165567409790443 -7.145224946084714 -1.0417757960789937 0.0017050920806749208 0.0 6.271999882301316e-05 -1.570796314870016 1.5707963705062866 -1.570796314870016 -1.570796314870016 0.0 0.004480000119656324 0.0 0.0 0.0 0.0 0.0 0.012596183456480503 -0.5457400679588318 -0.7672972083091736 -0.22921359539031982 0.00037515777512453496 0.0 0.012596183456480503 -0.5457400679588318 -0.7672972083091736 -0.22921359539031982 0.00037515777512453496 0.0 -0.29859295017619886 -0.1123687289628069 0.3136499823461779 2.221371554112162 2.2215108824471774 6.516030979415348e-08 0.000503411919199004 -0.0013376964525179057 0.0 0.0 0.0 0.004480000119656324 1.7837573557317121e-06 6.854293724689279e-07 -5.72857869346645e-07 -5.6132782130060586e-08 2.0001314432195643e-07 -6.147209081722182e-15 -0.29859295280388953 -0.11236872798667545 0.31364999997695675 2.221371803810206 2.221511132163499 4.556249892140601e-10 0.000503411901380306 -0.001337696428561425 0.0 0.0 0.0 0.00448

9579.632 0.00010368 -1.5707963267948966 1.5707963267948966 -1.5707963267948966 -1.5707963267948966 0.0 0.006479999999999999 0.0 0.0 0.0 0.0 0.0 0.2499999999999999 0.0 0.0 0.0 0.0 0.0 0.016358679395629242 -0.5461884782822055 -0.7672765954674453 -0.22917138884587815 0.00048720621381019146 0.0 0.21478946046461195 -7.171454719845359 -7.145033112311945 -1.0415839623045162 0.0022143522417673203 0.0 0.00010368000221205875 -1.570796314870016 1.5707963705062866 -1.570796314870016 -1.570796314870016 0.0 0.006479999981820583 0.0 0.0 0.0 0.0 0.0 0.01635867916047573 -0.546188473701477 -0.7672765851020813 -0.22917139530181885 0.00048720621271058917 0.0 0.01635867916047573 -0.546188473701477 -0.7672765851020813 -0.22917139530181885 0.00048720621271058917 0.0 -0.29858834730220307 -0.11238095923679291 0.3136499823461779 2.221326057103279 2.2215563756780883 6.51612508430327e-08 0.0007282286138113978 -0.0019348524850901138 0.0 0.0 0.0 0.006479999981820583 -1.49303095300405e-07 -6.653437551265441e-08 5.902302060943386e-07 5.452433415768031e-09 -9.194631974681708e-08 1.4464419681741636e-15 -0.29858834993031463 -0.11238095825975714 0.31364999997695675 2.2213263067963673 2.221556625392153 4.556249888119534e-10 0.0007282286095232261 -0.0019348525075484385 0.0 0.0 0.0 0.006479999999999999

9579.64 0.00016199999999999998 -1.5707963267948966 1.5707963267948966 -1.5707963267948966 -1.5707963267948966 0.0 0.008999999999999998 0.0 0.0 0.0 0.0 0.0 0.31499999999999984 0.0 0.0 0.0 0.0 0.0 0.02061193603849284 -0.5466955321342757 -0.76725329467684 -0.22912364811447952 0.0006138592327967243 0.0 0.270634720185411 -7.17811233692304 -7.144816130689669 -1.0413669806803094 0.0027899902130611117 0.0 0.00016199999663513154 -1.570796314870016 1.5707963705062866 -1.570796314870016 -1.570796314870016 0.0 0.008999999612569809 0.0 0.0 0.0 0.0 0.0 0.02061193622648716 -0.5466955304145813 -0.7672532796859741 -0.22912365198135376 0.0006138592143543065 0.0 0.02061193622648716 -0.5466955304145813 -0.7672532796859741 -0.22912365198135376 0.0006138592143543065 0.0 -0.29858179273750823 -0.11239837271641621 0.3136499823461779 2.2212612755862997 2.2216211486003448 6.51625908287213e-08 0.001011585310901223 -0.002687236018957973 0.0 0.0 0.0 0.008999999612569809 -4.80244400525384e-07 -1.7251661898623942e-07 7.37035774770082e-07 1.4058328910763347e-08 -1.1981297439362717e-07 2.3555729128792847e-15 -0.2985817953650499 -0.11239837174119889 0.31364999997695675 2.221261525260777 2.221621398322749 4.556249879096633e-10 0.0010115853456707897 -0.0026872361582854485 0.0 0.0 0.0 0.008999999999999998

9579.648 0.00024199999999999997 -1.5707963267948966 1.5707963267948966 -1.5707963267948966 -1.5707963267948966 0.0 0.012099999999999998 0.0 0.0 0.0 0.0 0.0 0.3875 0.0 0.0 0.0 0.0 0.0 0.025355953063225332 -0.54726137314225 -0.7672272845023851 -0.22907035615656676 0.0007551100028465968 0.0 0.33292366372014864 -7.185541829357742 -7.14457391874311 -1.0411247687315959 0.0034319749629377824 0.0 0.00024199999461416155 -1.570796314870016 1.5707963705062866 -1.570796314870016 -1.570796314870016 0.0 0.01209999993443489 0.0 0.0 0.0 0.0 0.0 0.025355953723192215 -0.5472613573074341 -0.767227292060852 -0.22907035052776337 0.0007551099988631904 0.0 0.025355953723192215 -0.5472613573074341 -0.767227292060852 -0.22907035052776337 0.0007551099988631904 0.0 -0.29857279991246594 -0.11242225889953153 0.3136499823461779 2.2211724089726586 2.221709997278848 6.516442912344018e-08 0.0013603093253133538 -0.0036127308593648794 0.0 0.0 0.0 0.01209999993443489 1.14208918887005e-06 4.590559063003952e-07 -4.500297956308186e-07 -3.7630270021778944e-08 1.5753005689999204e-07 -4.393802850678258e-15 -0.2985728025398585 -0.11242225792512782 0.31364999997695675 2.221172658627858 2.2217102470064383 4.5562498604173353e-10 0.0013603093208940464 -0.0036127309107322875 0.0 0.0 0.0 0.012099999999999998

9579.655999999999 0.00034847999999999997 -1.5707963267948966 1.5707963267948966 -1.5707963267948966 -1.5707963267948966 0.0 0.01584 0.0 0.0 0.0 0.0 0.0 0.46750000000000025 0.0 0.0 0.0 0.0 0.0 0.03059073046982671 -0.5478861640423479 -0.7671985528776398 -0.2290114882493436 0.0009109492218628696 0.0 0.4016562910688247 -7.193745333876029 -7.144306364107158 -1.0408572140932666 0.004140264213366742 0.0 0.0003484800108708441 -1.570796314870016 1.5707963705062866 -1.570796314870016 -1.570796314870016 0.0 0.01583999954164028 0.0 0.0 0.0 0.0 0.0 0.030590729787945747 -0.5478861927986145 -0.7671985626220703 -0.22901149094104767 0.000910949194803834 0.0 0.030590729787945747 -0.5478861927986145 -0.7671985626220703 -0.22901149094104767 0.000910949194803834 0.0 -0.29856082749592505 -0.11245405029873849 0.3136499823461779 2.2210541219758198 2.2218282493765615 6.516687621680404e-08 0.001781272105187611 -0.004729203370687196 0.0 0.0 0.0 0.01583999954164028 -1.1770470851291828e-06 -4.7332668120700267e-07 -3.681514864975929e-07 3.863578492339322e-08 -7.721227481367998e-08 3.52144723198788e-15 -0.2985608301252494 -0.11245404931976095 0.31364999997695675 2.2210543716264093 2.221828499090012 4.5562498242463556e-10 0.0017812721412250134 -0.0047292035491839505 0.0 0.0 0.0 0.01584

9579.663999999999 0.00048671999999999995 -1.5707963267948966 1.5707963267948966 -1.5707963267948966 -1.5707963267948966 0.0 0.02028 0.0 0.0 0.0 0.0 0.0 0.5549999999999999 0.0 0.0 0.0 0.0 0.0 0.03631626825829692 -0.5485701202510787 -0.7671670838300657 -0.22894701166685358 0.001081364576512605 0.0 0.4768326022314386 -7.2027256788966625 -7.144013318042338 -1.0405641680258495 0.00491480200024979 0.0 0.000486720004118979 -1.570796314870016 1.5707963705062866 -1.570796314870016 -1.570796314870016 0.0 0.02027999982237816 0.0 0.0 0.0 0.0 0.0 0.036316268146038055 -0.5485700964927673 -0.7671670913696289 -0.2289470136165619 0.0010813645785674453 0.0 0.036316268146038055 -0.5485700964927673 -0.7671670913696289 -0.2289470136165619 0.0010813645785674453 0.0 -0.2985452789960277 -0.11249532227086917 0.3136499823461779 2.220900543921392 2.221981763334554 6.517005375870877e-08 0.0022814051156716006 -0.006054498205011279 0.0 0.0 0.0 0.02027999982237816 1.5681801935268785e-06 5.85971324162527e-07 -2.876833645183689e-07 -4.7989350258461575e-08 1.441263188805112e-07 -4.936706233998427e-15 -0.2985452816247279 -0.11249532129427085 0.31364999997695675 2.220900793535048 2.2219820130605807 4.556249758019291e-10 0.002281405115847813 -0.006054498311349481 0.0 0.0 0.0 0.02028

9579.671999999999 0.00066248 -1.5707963267948966 1.5707963267948966 -1.5707963267948966 -1.5707963267948966 0.0 0.025480000000000003 0.0 0.0 0.0 0.0 0.0 0.6500000000000004 0.0 0.0 0.0 0.0 0.0 0.042532566428636065 -0.5493135201796175 -0.7671328567162445 -0.2288768841130257 0.0012663401526511516 0.0 0.5584525972079916 -7.212486519958379 -7.1436945883130125 -1.0402454382937019 0.005755515993799484 0.0 0.0006624800153076649 -1.570796314870016 1.5707963705062866 -1.570796314870016 -1.570796314870016 0.0 0.02548000030219555 0.0 0.0 0.0 0.0 0.0 0.04253256693482399 -0.5493135452270508 -0.7671328783035278 -0.22887688875198364 0.0012663401430472732 0.0 0.04253256693482399 -0.5493135452270508 -0.7671328783035278 -0.22887688875198364 0.0012663401430472732 0.0 -0.2985255022057606 -0.11254779285459646 0.3136499823461779 2.2207052675914345 2.222176927521946 6.517409462129477e-08 0.0028677177959465596 -0.007606429886415858 0.0 0.0 0.0 0.02548000030219555 -5.246024773053955e-07 -1.7551801179333546e-07 -8.438032444956238e-07 1.4297531639088714e-08 7.9695523825289e-09 8.759574407570022e-16 -0.2985255048358916 -0.11254779187512007 0.31364999997695675 2.2207055171801007 2.222177177241999 4.5562496423857525e-10 0.00286771773697806 -0.007606429863218518 0.0 0.0 0.0 0.025480000000000003

9579.68 0.0008820000000000001 -1.5707963267948966 1.5707963267948966 -1.5707963267948966 -1.5707963267948966 0.0 0.03150000000000001 0.0 0.0 0.0 0.0 0.0 0.7525000000000005 0.0 0.0 0.0 0.0 0.0 0.04923962498084406 -0.5501167164718561 -0.7670958453886063 -0.22880105201439552 0.0014658557929485873 0.0 0.6465162759984825 -7.223032487275471 -7.14334993142778 -1.0399007814054275 0.0066623145789513295 0.0 0.0008820000221021473 -1.570796314870016 1.5707963705062866 -1.570796314870016 -1.570796314870016 0.0 0.03150000050663948 0.0 0.0 0.0 0.0 0.0 0.0492396242916584 -0.5501167178153992 -0.7670958638191223 -0.22880105674266815 0.0014658557483926415 0.0 0.0492396242916584 -0.5501167178153992 -0.7670958638191223 -0.22880105674266815 0.0014658557483926415 0.0 -0.2985007885208792 -0.11261332246255801 0.3136499823461779 2.2204613480874333 2.222420658772947 6.517914297187203e-08 0.0035473197146249323 -0.009402774989639979 0.0 0.0 0.0 0.03150000050663948 6.318213969417722e-07 2.080480158228919e-07 -7.040499155206528e-07 -1.7275685637731696e-08 9.034663968999237e-08 -2.2243287109645152e-15 -0.29850079115199024 -0.11261332148163085 0.31364999997695675 2.2204615976369104 2.222420908493505 4.556249448542967e-10 0.0035473196266713725 -0.009402774921287695 0.0 0.0 0.0 0.03150000000000001

