mkrssg/UniversalRobots/rtde_client_3.5/examples/simulation/movej_3Achsen_sync_simulation.csv
timestamp target_q_0 target_q_1 target_q_2 target_q_3 target_q_4 target_q_5 target_qd_0 target_qd_1 target_qd_2 target_qd_3 target_qd_4 target_qd_5 target_qdd_0 target_qdd_1 target_qdd_2 target_qdd_3 target_qdd_4 target_qdd_5 target_current_0 target_current_1 target_current_2 target_current_3 target_current_4 target_current_5 target_moment_0 target_moment_1 target_moment_2 target_moment_3 target_moment_4 target_moment_5 actual_q_0 actual_q_1 actual_q_2 actual_q_3 actual_q_4 actual_q_5 actual_qd_0 actual_qd_1 actual_qd_2 actual_qd_3 actual_qd_4 actual_qd_5 actual_current_0 actual_current_1 actual_current_2 actual_current_3 actual_current_4 actual_current_5 joint_control_output_0 joint_control_output_1 joint_control_output_2 joint_control_output_3 joint_control_output_4 joint_control_output_5 actual_TCP_pose_0 actual_TCP_pose_1 actual_TCP_pose_2 actual_TCP_pose_3 actual_TCP_pose_4 actual_TCP_pose_5 actual_TCP_speed_0 actual_TCP_speed_1 actual_TCP_speed_2 actual_TCP_speed_3 actual_TCP_speed_4 actual_TCP_speed_5 actual_TCP_force_0 actual_TCP_force_1 actual_TCP_force_2 actual_TCP_force_3 actual_TCP_force_4 actual_TCP_force_5 target_TCP_pose_0 target_TCP_pose_1 target_TCP_pose_2 target_TCP_pose_3 target_TCP_pose_4 target_TCP_pose_5 target_TCP_speed_0 target_TCP_speed_1 target_TCP_speed_2 target_TCP_speed_3 target_TCP_speed_4 target_TCP_speed_5

195384.376 0.0 -1.5707963267948966 1.5707963267948972 -1.5707963267948966 -1.5707963267948966 0.0 0.0 0.0 0.0 0.0 0.0 0.0 0.0 0.0 0.0 0.0 0.0 0.0 1.9987199928536514e-26 -0.5442396572688689 -0.7673661111166267 -0.22935479646650192 -1.3146049461972202e-11 0.0 2.6243193506168444e-25 -7.14586669994025 -7.145866699940251 -1.0424175499402513 -5.974879480466366e-11 0.0 0.0 -1.570796314870016 1.5707963705062866 -1.570796314870016 -1.570796314870016 0.0 0.0 0.0 0.0 0.0 0.0 0.0 1.998719927374967e-26 -0.5442396402359009 -0.7673661112785339 -0.22935479879379272 -1.3146049353263134e-11 0.0 1.998719927374967e-26 -0.5442396402359009 -0.7673661112785339 -0.22935479879379272 -1.3146049353263134e-11 0.0 -0.2985999973554403 -0.11235000099231761 0.3136499823461779 2.2214412195942916 2.2214412191386654 6.515886891884208e-08 0.0 0.0 0.0 0.0 0.0 0.0 9.240738067961096e-07 3.4768818278582924e-07 4.2531464706885504e-08 -2.847566213175549e-08 6.147405312801053e-08 -2.6501511484008074e-15 -0.2985999999832019 -0.1123500000156699 0.31364999997695653 2.221441469306996 2.22144146885137 4.5562572934807095e-10 0.0 0.0 0.0 0.0 0.0 0.0

195384.384 0.0 -1.5707963267948966 1.5707963267948972 -1.5707963267948966 -1.5707963267948966 0.0 0.0 0.0 0.0 0.0 0.0 0.0 0.0 0.0 0.0 0.0 0.0 0.0 1.9987199928536514e-26 -0.5442396572688689 -0.7673661111166267 -0.22935479646650192 -1.3146049461972202e-11 0.0 2.6243193506168444e-25 -7.14586669994025 -7.145866699940251 -1.0424175499402513 -5.974879480466366e-11 0.0 0.0 -1.570796314870016 1.5707963705062866 -1.570796314870016 -1.570796314870016 0.0 0.0 0.0 0.0 0.0 0.0 0.0 1.998719927374967e-26 -0.5442396402359009 -0.7673661112785339 -0.22935479879379272 -1.3146049353263134e-11 0.0 1.998719927374967e-26 -0.5442396402359009 -0.7673661112785339 -0.22935479879379272 -1.3146049353263134e-11 0.0 -0.2985999973554403 -0.11235000099231761 0.3136499823461779 2.2214412195942916 2.2214412191386654 6.515886891884208e-08 0.0 0.0 0.0 0.0 0.0 0.0 9.240738067961096e-07 3.4768818278582924e-07 4.2531464706885504e-08 -2.847566213175549e-08 6.147405312801053e-08 -2.6501511484008074e-15 -0.2985999999832019 -0.1123500000156699 0.31364999997695653 2.221441469306996 2.22144146885137 4.5562572934807095e-10 0.0 0.0 0.0 0.0 0.0 0.0

195384.392 0.0 -1.5707963267948966 1.5707963267948972 -1.5707963267948966 -1.5707963267948966 0.0 0.0 0.0 0.0 0.0 0.0 0.0 0.0 0.0 0.0 0.0 0.0 0.0 1.9987199928536514e-26 -0.5442396572688689 -0.7673661111166267 -0.22935479646650192 -1.3146049461972202e-11 0.0 2.6243193506168444e-25 -7.14586669994025 -7.145866699940251 -1.0424175499402513 -5.974879480466366e-11 0.0 0.0 -1.570796314870016 1.5707963705062866 -1.570796314870016 -1.570796314870016 0.0 0.0 0.0 0.0 0.0 0.0 0.0 1.998719927374967e-26 -0.5442396402359009 -0.7673661112785339 -0.22935479879379272 -1.3146049353263134e-11 0.0 1.998719927374967e-26 -0.5442396402359009 -0.7673661112785339 -0.22935479879379272 -1.3146049353263134e-11 0.0 -0.2985999973554403 -0.11235000099231761 0.3136499823461779 2.2214412195942916 2.2214412191386654 6.515886891884208e-08 0.0 0.0 0.0 0.0 0.0 0.0 9.240738067961096e-07 3.4768818278582924e-07 4.2531464706885504e-08 -2.847566213175549e-08 6.147405312801053e-08 -2.6501511484008074e-15 -0.2985999999832019 -0.1123500000156699 0.31364999997695653 2.221441469306996 2.22144146885137 4.5562572934807095e-10 0.0 0.0 0.0 0.0 0.0 0.0

195384.4 0.0 -1.5707963267948966 1.5707963267948972 -1.5707963267948966 -1.5707963267948966 0.0 0.0 0.0 0.0 0.0 0.0 0.0 0.0 0.0 0.0 0.0 0.0 0.0 1.9987199928536514e-26 -0.5442396572688689 -0.7673661111166267 -0.22935479646650192 -1.3146049461972202e-11 0.0 2.6243193506168444e-25 -7.14586669994025 -7.145866699940251 -1.0424175499402513 -5.974879480466366e-11 0.0 0.0 -1.570796314870016 1.5707963705062866 -1.570796314870016 -1.570796314870016 0.0 0.0 0.0 0.0 0.0 0.0 0.0 1.998719927374967e-26 -0.5442396402359009 -0.7673661112785339 -0.22935479879379272 -1.3146049353263134e-11 0.0 1.998719927374967e-26 -0.5442396402359009 -0.7673661112785339 -0.22935479879379272 -1.3146049353263134e-11 0.0 -0.2985999973554403 -0.11235000099231761 0.3136499823461779 2.2214412195942916 2.2214412191386654 6.515886891884208e-08 0.0 0.0 0.0 0.0 0.0 0.0 9.240738067961096e-07 3.4768818278582924e-07 4.2531464706885504e-08 -2.847566213175549e-08 6.147405312801053e-08 -2.6501511484008074e-15 -0.2985999999832019 -0.1123500000156699 0.31364999997695653 2.221441469306996 2.22144146885137 4.5562572934807095e-10 0.0 0.0 0.0 0.0 0.0 0.0

195384.408 0.0 -1.5707963267948966 1.5707963267948972 -1.5707963267948966 -1.5707963267948966 0.0 0.0 0.0 0.0 0.0 0.0 0.0 0.0 0.0 0.0 0.0 0.0 0.0 1.9987199928536514e-26 -0.5442396572688689 -0.7673661111166267 -0.22935479646650192 -1.3146049461972202e-11 0.0 2.6243193506168444e-25 -7.14586669994025 -7.145866699940251 -1.0424175499402513 -5.974879480466366e-11 0.0 0.0 -1.570796314870016 1.5707963705062866 -1.570796314870016 -1.570796314870016 0.0 0.0 0.0 0.0 0.0 0.0 0.0 1.998719927374967e-26 -0.5442396402359009 -0.7673661112785339 -0.22935479879379272 -1.3146049353263134e-11 0.0 1.998719927374967e-26 -0.5442396402359009 -0.7673661112785339 -0.22935479879379272 -1.3146049353263134e-11 0.0 -0.2985999973554403 -0.11235000099231761 0.3136499823461779 2.2214412195942916 2.2214412191386654 6.515886891884208e-08 0.0 0.0 0.0 0.0 0.0 0.0 9.240738067961096e-07 3.4768818278582924e-07 4.2531464706885504e-08 -2.847566213175549e-08 6.147405312801053e-08 -2.6501511484008074e-15 -0.2985999999832019 -0.1123500000156699 0.31364999997695653 2.221441469306996 2.22144146885137 4.5562572934807095e-10 0.0 0.0 0.0 0.0 0.0 0.0

195384.416 0.0 -1.5707963267948966 1.5707963267948972 -1.5707963267948966 -1.5707963267948966 0.0 0.0 0.0 0.0 0.0 0.0 0.0 0.0 0.0 0.0 0.0 0.0 0.0 1.9987199928536514e-26 -0.5442396572688689 -0.7673661111166267 -0.22935479646650192 -1.3146049461972202e-11 0.0 2.6243193506168444e-25 -7.14586669994025 -7.145866699940251 -1.0424175499402513 -5.974879480466366e-11 0.0 0.0 -1.570796314870016 1.5707963705062866 -1.570796314870016 -1.570796314870016 0.0 0.0 0.0 0.0 0.0 0.0 0.0 1.998719927374967e-26 -0.5442396402359009 -0.7673661112785339 -0.22935479879379272 -1.3146049353263134e-11 0.0 1.998719927374967e-26 -0.5442396402359009 -0.7673661112785339 -0.22935479879379272 -1.3146049353263134e-11 0.0 -0.2985999973554403 -0.11235000099231761 0.3136499823461779 2.2214412195942916 2.2214412191386654 6.515886891884208e-08 0.0 0.0 0.0 0.0 0.0 0.0 9.240738067961096e-07 3.4768818278582924e-07 4.2531464706885504e-08 -2.847566213175549e-08 6.147405312801053e-08 -2.6501511484008074e-15 -0.2985999999832019 -0.1123500000156699 0.31364999997695653 2.221441469306996 2.22144146885137 4.5562572934807095e-10 0.0 0.0 0.0 0.0 0.0 0.0

195384.424 0.0 -1.5707963267948966 1.5707963267948972 -1.5707963267948966 -1.5707963267948966 0.0 0.0 0.0 0.0 0.0 0.0 0.0 0.0 0.0 0.0 0.0 0.0 0.0 1.9987199928536514e-26 -0.5442396572688689 -0.7673661111166267 -0.22935479646650192 -1.3146049461972202e-11 0.0 2.6243193506168444e-25 -7.14586669994025 -7.145866699940251 -1.0424175499402513 -5.974879480466366e-11 0.0 0.0 -1.570796314870016 1.5707963705062866 -1.570796314870016 -1.570796314870016 0.0 0.0 0.0 0.0 0.0 0.0 0.0 1.998719927374967e-26 -0.5442396402359009 -0.7673661112785339 -0.22935479879379272 -1.3146049353263134e-11 0.0 1.998719927374967e-26 -0.5442396402359009 -0.7673661112785339 -0.22935479879379272 -1.3146049353263134e-11 0.0 -0.2985999973554403 -0.11235000099231761 0.3136499823461779 2.2214412195942916 2.2214412191386654 6.515886891884208e-08 0.0 0.0 0.0 0.0 0.0 0.0 9.240738067961096e-07 3.4768818278582924e-07 4.2531464706885504e-08 -2.847566213175549e-08 6.147405312801053e-08 -2.6501511484008074e-15 -0.2985999999832019 -0.1123500000156699 0.31364999997695653 2.221441469306996 2.22144146885137 4.5562572934807095e-10 0.0 0.0 0.0 0.0 0.0 0.0

195384.432 0.0 -1.5707963267948966 1.5707963267948972 -1.5707963267948966 -1.5707963267948966 0.0 0.0 0.0 0.0 0.0 0.0 0.0 0.0 0.0 0.0 0.0 0.0 0.0 1.9987199928536514e-26 -0.5442396572688689 -0.7673661111166267 -0.22935479646650192 -1.3146049461972202e-11 0.0 2.6243193506168444e-25 -7.14586669994025 -7.145866699940251 -1.0424175499402513 -5.974879480466366e-11 0.0 0.0 -1.570796314870016 1.5707963705062866 -1.570796314870016 -1.570796314870016 0.0 0.0 0.0 0.0 0.0 0.0 0.0 1.998719927374967e-26 -0.5442396402359009 -0.7673661112785339 -0.22935479879379272 -1.3146049353263134e-11 0.0 1.998719927374967e-26 -0.5442396402359009 -0.7673661112785339 -0.22935479879379272 -1.3146049353263134e-11 0.0 -0.2985999973554403 -0.11235000099231761 0.3136499823461779 2.2214412195942916 2.2214412191386654 6.515886891884208e-08 0.0 0.0 0.0 0.0 0.0 0.0 9.240738067961096e-07 3.4768818278582924e-07 4.2531464706885504e-08 -2.847566213175549e-08 6.147405312801053e-08 -2.6501511484008074e-15 -0.2985999999832019 -0.1123500000156699 0.31364999997695653 2.221441469306996 2.22144146885137 4.5562572934807095e-10 0.0 0.0 0.0 0.0 0.0 0.0

195384.44 0.0 -1.5707963267948966 1.5707963267948972 -1.5707963267948966 -1.5707963267948966 0.0 0.0 0.0 0.0 0.0 0.0 0.0 0.0 0.0 0.0 0.0 0.0 0.0 1.9987199928536514e-26 -0.5442396572688689 -0.7673661111166267 -0.22935479646650192 -1.3146049461972202e-11 0.0 2.6243193506168444e-25 -7.14586669994025 -7.145866699940251 -1.0424175499402513 -5.974879480466366e-11 0.0 0.0 -1.570796314870016 1.5707963705062866 -1.570796314870016 -1.570796314870016 0.0 0.0 0.0 0.0 0.0 0.0 0.0 1.998719927374967e-26 -0.5442396402359009 -0.7673661112785339 -0.22935479879379272 -1.3146049353263134e-11 0.0 1.998719927374967e-26 -0.5442396402359009 -0.7673661112785339 -0.22935479879379272 -1.3146049353263134e-11 0.0 -0.2985999973554403 -0.11235000099231761 0.3136499823461779 2.2214412195942916 2.2214412191386654 6.515886891884208e-08 0.0 0.0 0.0 0.0 0.0 0.0 9.240738067961096e-07 3.4768818278582924e-07 4.2531464706885504e-08 -2.847566213175549e-08 6.147405312801053e-08 -2.6501511484008074e-15 -0.2985999999832019 -0.1123500000156699 0.31364999997695653 2.221441469306996 2.22144146885137 4.5562572934807095e-10 0.0 0.0 0.0 0.0 0.0 0.0

195384.448 0.0 -1.5707963267948966 1.5707963267948972 -1.5707963267948966 -1.5707963267948966 0.0 0.0 0.0 0.0 0.0 0.0 0.0 0.0 0.0 0.0 0.0 0.0 0.0 1.9987199928536514e-26 -0.5442396572688689 -0.7673661111166267 -0.22935479646650192 -1.3146049461972202e-11 0.0 2.6243193506168444e-25 -7.14586669994025 -7.145866699940251 -1.0424175499402513 -5.974879480466366e-11 0.0 0.0 -1.570796314870016 1.5707963705062866 -1.570796314870016 -1.570796314870016 0.0 0.0 0.0 0.0 0.0 0.0 0.0 1.998719927374967e-26 -0.5442396402359009 -0.7673661112785339 -0.22935479879379272 -1.3146049353263134e-11 0.0 1.998719927374967e-26 -0.5442396402359009 -0.7673661112785339 -0.22935479879379272 -1.3146049353263134e-11 0.0 -0.2985999973554403 -0.11235000099231761 0.3136499823461779 2.2214412195942916 2.2214412191386654 6.515886891884208e-08 0.0 0.0 0.0 0.0 0.0 0.0 9.240738067961096e-07 3.4768818278582924e-07 4.2531464706885504e-08 -2.847566213175549e-08 6.147405312801053e-08 -2.6501511484008074e-15 -0.2985999999832019 -0.1123500000156699 0.31364999997695653 2.221441469306996 2.22144146885137 4.5562572934807095e-10 0.0 0.0 0.0 0.0 0.0 0.0

195384.456 0.0 -1.5707963267948966 1.5707963267948972 -1.5707963267948966 -1.5707963267948966 0.0 0.0 0.0 0.0 0.0 0.0 0.0 0.0 0.0 0.0 0.0 0.0 0.0 1.9987199928536514e-26 -0.5442396572688689 -0.7673661111166267 -0.22935479646650192 -1.3146049461972202e-11 0.0 2.6243193506168444e-25 -7.14586669994025 -7.145866699940251 -1.0424175499402513 -5.974879480466366e-11 0.0 0.0 -1.570796314870016 1.5707963705062866 -1.570796314870016 -1.570796314870016 0.0 0.0 0.0 0.0 0.0 0.0 0.0 1.998719927374967e-26 -0.5442396402359009 -0.7673661112785339 -0.22935479879379272 -1.3146049353263134e-11 0.0 1.998719927374967e-26 -0.5442396402359009 -0.7673661112785339 -0.22935479879379272 -1.3146049353263134e-11 0.0 -0.2985999973554403 -0.11235000099231761 0.3136499823461779 2.2214412195942916 2.2214412191386654 6.515886891884208e-08 0.0 0.0 0.0 0.0 0.0 0.0 9.240738067961096e-07 3.4768818278582924e-07 4.2531464706885504e-08 -2.847566213175549e-08 6.147405312801053e-08 -2.6501511484008074e-15 -0.2985999999832019 -0.1123500000156699 0.31364999997695653 2.221441469306996 2.22144146885137 4.5562572934807095e-10 0.0 0.0 0.0 0.0 0.0 0.0

195384.46399999998 0.0 -1.5707963267948966 1.5707963267948972 -1.5707963267948966 -1.5707963267948966 0.0 0.0 0.0 0.0 0.0 0.0 0.0 0.0 0.0 0.0 0.0 0.0 0.0 1.9987199928536514e-26 -0.5442396572688689 -0.7673661111166267 -0.22935479646650192 -1.3146049461972202e-11 0.0 2.6243193506168444e-25 -7.14586669994025 -7.145866699940251 -1.0424175499402513 -5.974879480466366e-11 0.0 0.0 -1.570796314870016 1.5707963705062866 -1.570796314870016 -1.570796314870016 0.0 0.0 0.0 0.0 0.0 0.0 0.0 1.998719927374967e-26 -0.5442396402359009 -0.7673661112785339 -0.22935479879379272 -1.3146049353263134e-11 0.0 1.998719927374967e-26 -0.5442396402359009 -0.7673661112785339 -0.22935479879379272 -1.3146049353263134e-11 0.0 -0.2985999973554403 -0.11235000099231761 0.3136499823461779 2.2214412195942916 2.2214412191386654 6.515886891884208e-08 0.0 0.0 0.0 0.0 0.0 0.0 9.240738067961096e-07 3.4768818278582924e-07 4.2531464706885504e-08 -2.847566213175549e-08 6.147405312801053e-08 -2.6501511484008074e-15 -0.2985999999832019 -0.1123500000156699 0.31364999997695653 2.221441469306996 2.22144146885137 4.5562572934807095e-10 0.0 0.0 0.0 0.0 0.0 0.0

195384.47199999998 0.0 -1.5707963267948966 1.5707963267948972 -1.5707963267948966 -1.5707963267948966 0.0 0.0 0.0 0.0 0.0 0.0 0.0 0.0 0.0 0.0 0.0 0.0 0.0 1.9987199928536514e-26 -0.5442396572688689 -0.7673661111166267 -0.22935479646650192 -1.3146049461972202e-11 0.0 2.6243193506168444e-25 -7.14586669994025 -7.145866699940251 -1.0424175499402513 -5.974879480466366e-11 0.0 0.0 -1.570796314870016 1.5707963705062866 -1.570796314870016 -1.570796314870016 0.0 0.0 0.0 0.0 0.0 0.0 0.0 1.998719927374967e-26 -0.5442396402359009 -0.7673661112785339 -0.22935479879379272 -1.3146049353263134e-11 0.0 1.998719927374967e-26 -0.5442396402359009 -0.7673661112785339 -0.22935479879379272 -1.3146049353263134e-11 0.0 -0.2985999973554403 -0.11235000099231761 0.3136499823461779 2.2214412195942916 2.2214412191386654 6.515886891884208e-08 0.0 0.0 0.0 0.0 0.0 0.0 9.240738067961096e-07 3.4768818278582924e-07 4.2531464706885504e-08 -2.847566213175549e-08 6.147405312801053e-08 -2.6501511484008074e-15 -0.2985999999832019 -0.1123500000156699 0.31364999997695653 2.221441469306996 2.22144146885137 4.5562572934807095e-10 0.0 0.0 0.0 0.0 0.0 0.0

195384.47999999998 0.0 -1.5707963267948966 1.5707963267948972 -1.5707963267948966 -1.5707963267948966 0.0 0.0 0.0 0.0 0.0 0.0 0.0 0.0 0.0 0.0 0.0 0.0 0.0 1.9987199928536514e-26 -0.5442396572688689 -0.7673661111166267 -0.22935479646650192 -1.3146049461972202e-11 0.0 2.6243193506168444e-25 -7.14586669994025 -7.145866699940251 -1.0424175499402513 -5.974879480466366e-11 0.0 0.0 -1.570796314870016 1.5707963705062866 -1.570796314870016 -1.570796314870016 0.0 0.0 0.0 0.0 0.0 0.0 0.0 1.998719927374967e-26 -0.5442396402359009 -0.7673661112785339 -0.22935479879379272 -1.3146049353263134e-11 0.0 1.998719927374967e-26 -0.5442396402359009 -0.7673661112785339 -0.22935479879379272 -1.3146049353263134e-11 0.0 -0.2985999973554403 -0.11235000099231761 0.3136499823461779 2.2214412195942916 2.2214412191386654 6.515886891884208e-08 0.0 0.0 0.0 0.0 0.0 0.0 9.240738067961096e-07 3.4768818278582924e-07 4.2531464706885504e-08 -2.847566213175549e-08 6.147405312801053e-08 -2.6501511484008074e-15 -0.2985999999832019 -0.1123500000156699 0.31364999997695653 2.221441469306996 2.22144146885137 4.5562572934807095e-10 0.0 0.0 0.0 0.0 0.0 0.0

195384.48799999998 0.0 -1.5707963267948966 1.5707963267948972 -1.5707963267948966 -1.5707963267948966 0.0 0.0 0.0 0.0 0.0 0.0 0.0 0.0 0.0 0.0 0.0 0.0 0.0 1.9987199928536514e-26 -0.5442396572688689 -0.7673661111166267 -0.22935479646650192 -1.3146049461972202e-11 0.0 2.6243193506168444e-25 -7.14586669994025 -7.145866699940251 -1.0424175499402513 -5.974879480466366e-11 0.0 0.0 -1.570796314870016 1.5707963705062866 -1.570796314870016 -1.570796314870016 0.0 0.0 0.0 0.0 0.0 0.0 0.0 1.998719927374967e-26 -0.5442396402359009 -0.7673661112785339 -0.22935479879379272 -1.3146049353263134e-11 0.0 1.998719927374967e-26 -0.5442396402359009 -0.7673661112785339 -0.22935479879379272 -1.3146049353263134e-11 0.0 -0.2985999973554403 -0.11235000099231761 0.3136499823461779 2.2214412195942916 2.2214412191386654 6.515886891884208e-08 0.0 0.0 0.0 0.0 0.0 0.0 9.240738067961096e-07 3.4768818278582924e-07 4.2531464706885504e-08 -2.847566213175549e-08 6.147405312801053e-08 -2.6501511484008074e-15 -0.2985999999832019 -0.1123500000156699 0.31364999997695653 2.221441469306996 2.22144146885137 4.5562572934807095e-10 0.0 0.0 0.0 0.0 0.0 0.0

195384.49599999998 0.0 -1.5707963267948966 1.5707963267948972 -1.5707963267948966 -1.5707963267948966 0.0 0.0 0.0 0.0 0.0 0.0 0.0 0.0 0.0 0.0 0.0 0.0 0.0 1.9987199928536514e-26 -0.5442396572688689 -0.7673661111166267 -0.22935479646650192 -1.3146049461972202e-11 0.0 2.6243193506168444e-25 -7.14586669994025 -7.145866699940251 -1.0424175499402513 -5.974879480466366e-11 0.0 0.0 -1.570796314870016 1.5707963705062866 -1.570796314870016 -1.570796314870016 0.0 0.0 0.0 0.0 0.0 0.0 0.0 1.998719927374967e-26 -0.5442396402359009 -0.7673661112785339 -0.22935479879379272 -1.3146049353263134e-11 0.0 1.998719927374967e-26 -0.5442396402359009 -0.7673661112785339 -0.22935479879379272 -1.3146049353263134e-11 0.0 -0.2985999973554403 -0.11235000099231761 0.3136499823461779 2.2214412195942916 2.2214412191386654 6.515886891884208e-08 0.0 0.0 0.0 0.0 0.0 0.0 9.240738067961096e-07 3.4768818278582924e-07 4.2531464706885504e-08 -2.847566213175549e-08 6.147405312801053e-08 -2.6501511484008074e-15 -0.2985999999832019 -0.1123500000156699 0.31364999997695653 2.221441469306996 2.22144146885137 4.5562572934807095e-10 0.0 0.0 0.0 0.0 0.0 0.0

195384.504 0.0 -1.5707963267948966 1.5707963267948972 -1.5707963267948966 -1.5707963267948966 0.0 0.0 0.0 0.0 0.0 0.0 0.0 0.0 0.0 0.0 0.0 0.0 0.0 1.9987199928536514e-26 -0.5442396572688689 -0.7673661111166267 -0.22935479646650192 -1.3146049461972202e-11 0.0 2.6243193506168444e-25 -7.14586669994025 -7.145866699940251 -1.0424175499402513 -5.974879480466366e-11 0.0 0.0 -1.570796314870016 1.5707963705062866 -1.570796314870016 -1.570796314870016 0.0 0.0 0.0 0.0 0.0 0.0 0.0 1.998719927374967e-26 -0.5442396402359009 -0.7673661112785339 -0.22935479879379272 -1.3146049353263134e-11 0.0 1.998719927374967e-26 -0.5442396402359009 -0.7673661112785339 -0.22935479879379272 -1.3146049353263134e-11 0.0 -0.2985999973554403 -0.11235000099231761 0.3136499823461779 2.2214412195942916 2.2214412191386654 6.515886891884208e-08 0.0 0.0 0.0 0.0 0.0 0.0 9.240738067961096e-07 3.4768818278582924e-07 4.2531464706885504e-08 -2.847566213175549e-08 6.147405312801053e-08 -2.6501511484008074e-15 -0.2985999999832019 -0.1123500000156699 0.31364999997695653 2.221441469306996 2.22144146885137 4.5562572934807095e-10 0.0 0.0 0.0 0.0 0.0 0.0

195384.512 0.0 -1.5707963267948966 1.5707963267948972 -1.5707963267948966 -1.5707963267948966 0.0 0.0 0.0 0.0 0.0 0.0 0.0 0.0 0.0 0.0 0.0 0.0 0.0 1.9987199928536514e-26 -0.5442396572688689 -0.7673661111166267 -0.22935479646650192 -1.3146049461972202e-11 0.0 2.6243193506168444e-25 -7.14586669994025 -7.145866699940251 -1.0424175499402513 -5.974879480466366e-11 0.0 0.0 -1.570796314870016 1.5707963705062866 -1.570796314870016 -1.570796314870016 0.0 0.0 0.0 0.0 0.0 0.0 0.0 1.998719927374967e-26 -0.5442396402359009 -0.7673661112785339 -0.22935479879379272 -1.3146049353263134e-11 0.0 1.998719927374967e-26 -0.5442396402359009 -0.7673661112785339 -0.22935479879379272 -1.3146049353263134e-11 0.0 -0.2985999973554403 -0.11235000099231761 0.3136499823461779 2.2214412195942916 2.2214412191386654 6.515886891884208e-08 0.0 0.0 0.0 0.0 0.0 0.0 9.240738067961096e-07 3.4768818278582924e-07 4.2531464706885504e-08 -2.847566213175549e-08 6.147405312801053e-08 -2.6501511484008074e-15 -0.2985999999832019 -0.1123500000156699 0.31364999997695653 2.221441469306996 2.22144146885137 4.5562572934807095e-10 0.0 0.0 0.0 0.0 0.0 0.0

195384.52 0.0 -1.5707963267948966 1.5707963267948972 -1.5707963267948966 -1.5707963267948966 0.0 0.0 0.0 0.0 0.0 0.0 0.0 0.0 0.0 0.0 0.0 0.0 0.0 1.9987199928536514e-26 -0.5442396572688689 -0.7673661111166267 -0.22935479646650192 -1.3146049461972202e-11 0.0 2.6243193506168444e-25 -7.14586669994025 -7.145866699940251 -1.0424175499402513 -5.974879480466366e-11 0.0 0.0 -1.570796314870016 1.5707963705062866 -1.570796314870016 -1.570796314870016 0.0 0.0 0.0 0.0 0.0 0.0 0.0 1.998719927374967e-26 -0.5442396402359009 -0.7673661112785339 -0.22935479879379272 -1.3146049353263134e-11 0.0 1.998719927374967e-26 -0.5442396402359009 -0.7673661112785339 -0.22935479879379272 -1.3146049353263134e-11 0.0 -0.2985999973554403 -0.11235000099231761 0.3136499823461779 2.2214412195942916 2.2214412191386654 6.515886891884208e-08 0.0 0.0 0.0 0.0 0.0 0.0 9.240738067961096e-07 3.4768818278582924e-07 4.2531464706885504e-08 -2.847566213175549e-08 6.147405312801053e-08 -2.6501511484008074e-15 -0.2985999999832019 -0.1123500000156699 0.31364999997695653 2.221441469306996 2.22144146885137 4.5562572934807095e-10 0.0 0.0 0.0 0.0 0.0 0.0

195384.528 0.0 -1.5707963267948966 1.5707963267948972 -1.5707963267948966 -1.5707963267948966 0.0 0.0 0.0 0.0 0.0 0.0 0.0 0.0 0.0 0.0 0.0 0.0 0.0 1.9987199928536514e-26 -0.5442396572688689 -0.7673661111166267 -0.22935479646650192 -1.3146049461972202e-11 0.0 2.6243193506168444e-25 -7.14586669994025 -7.145866699940251 -1.0424175499402513 -5.974879480466366e-11 0.0 0.0 -1.570796314870016 1.5707963705062866 -1.570796314870016 -1.570796314870016 0.0 0.0 0.0 0.0 0.0 0.0 0.0 1.998719927374967e-26 -0.5442396402359009 -0.7673661112785339 -0.22935479879379272 -1.3146049353263134e-11 0.0 1.998719927374967e-26 -0.5442396402359009 -0.7673661112785339 -0.22935479879379272 -1.3146049353263134e-11 0.0 -0.2985999973554403 -0.11235000099231761 0.3136499823461779 2.2214412195942916 2.2214412191386654 6.515886891884208e-08 0.0 0.0 0.0 0.0 0.0 0.0 9.240738067961096e-07 3.4768818278582924e-07 4.2531464706885504e-08 -2.847566213175549e-08 6.147405312801053e-08 -2.6501511484008074e-15 -0.2985999999832019 -0.1123500000156699 0.31364999997695653 2.221441469306996 2.22144146885137 4.5562572934807095e-10 0.0 0.0 0.0 0.0 0.0 0.0

195384.536 0.0 -1.5707963267948966 1.5707963267948972 -1.5707963267948966 -1.5707963267948966 0.0 0.0 0.0 0.0 0.0 0.0 0.0 0.0 0.0 0.0 0.0 0.0 0.0 1.9987199928536514e-26 -0.5442396572688689 -0.7673661111166267 -0.22935479646650192 -1.3146049461972202e-11 0.0 2.6243193506168444e-25 -7.14586669994025 -7.145866699940251 -1.0424175499402513 -5.974879480466366e-11 0.0 0.0 -1.570796314870016 1.5707963705062866 -1.570796314870016 -1.570796314870016 0.0 0.0 0.0 0.0 0.0 0.0 0.0 1.998719927374967e-26 -0.5442396402359009 -0.7673661112785339 -0.22935479879379272 -1.3146049353263134e-11 0.0 1.998719927374967e-26 -0.5442396402359009 -0.7673661112785339 -0.22935479879379272 -1.3146049353263134e-11 0.0 -0.2985999973554403 -0.11235000099231761 0.3136499823461779 2.2214412195942916 2.2214412191386654 6.515886891884208e-08 0.0 0.0 0.0 0.0 0.0 0.0 9.240738067961096e-07 3.4768818278582924e-07 4.2531464706885504e-08 -2.847566213175549e-08 6.147405312801053e-08 -2.6501511484008074e-15 -0.2985999999832019 -0.1123500000156699 0.31364999997695653 2.221441469306996 2.22144146885137 4.5562572934807095e-10 0.0 0.0 0.0 0.0 0.0 0.0

195384.544 0.0 -1.5707963267948966 1.5707963267948972 -1.5707963267948966 -1.5707963267948966 0.0 0.0 0.0 0.0 0.0 0.0 0.0 0.0 0.0 0.0 0.0 0.0 0.0 1.9987199928536514e-26 -0.5442396572688689 -0.7673661111166267 -0.22935479646650192 -1.3146049461972202e-11 0.0 2.6243193506168444e-25 -7.14586669994025 -7.145866699940251 -1.0424175499402513 -5.974879480466366e-11 0.0 0.0 -1.570796314870016 1.5707963705062866 -1.570796314870016 -1.570796314870016 0.0 0.0 0.0 0.0 0.0 0.0 0.0 1.998719927374967e-26 -0.5442396402359009 -0.7673661112785339 -0.22935479879379272 -1.3146049353263134e-11 0.0 1.998719927374967e-26 -0.5442396402359009 -0.7673661112785339 -0.22935479879379272 -1.3146049353263134e-11 0.0 -0.2985999973554403 -0.11235000099231761 0.3136499823461779 2.2214412195942916 2.2214412191386654 6.515886891884208e-08 0.0 0.0 0.0 0.0 0.0 0.0 9.240738067961096e-07 3.4768818278582924e-07 4.2531464706885504e-08 -2.847566213175549e-08 6.147405312801053e-08 -2.6501511484008074e-15 -0.2985999999832019 -0.1123500000156699 0.31364999997695653 2.221441469306996 2.22144146885137 4.5562572934807095e-10 0.0 0.0 0.0 0.0 0.0 0.0

195384.552 0.0 -1.5707963267948966 1.5707963267948972 -1.5707963267948966 -1.5707963267948966 0.0 0.0 0.0 0.0 0.0 0.0 0.0 0.0 0.0 0.0 0.0 0.0 0.0 1.9987199928536514e-26 -0.5442396572688689 -0.7673661111166267 -0.22935479646650192 -1.3146049461972202e-11 0.0 2.6243193506168444e-25 -7.14586669994025 -7.145866699940251 -1.0424175499402513 -5.974879480466366e-11 0.0 0.0 -1.570796314870016 1.5707963705062866 -1.570796314870016 -1.570796314870016 0.0 0.0 0.0 0.0 0.0 0.0 0.0 1.998719927374967e-26 -0.5442396402359009 -0.7673661112785339 -0.22935479879379272 -1.3146049353263134e-11 0.0 1.998719927374967e-26 -0.5442396402359009 -0.7673661112785339 -0.22935479879379272 -1.3146049353263134e-11 0.0 -0.2985999973554403 -0.11235000099231761 0.3136499823461779 2.2214412195942916 2.2214412191386654 6.515886891884208e-08 0.0 0.0 0.0 0.0 0.0 0.0 9.240738067961096e-07 3.4768818278582924e-07 4.2531464706885504e-08 -2.847566213175549e-08 6.147405312801053e-08 -2.6501511484008074e-15 -0.2985999999832019 -0.1123500000156699 0.31364999997695653 2.221441469306996 2.22144146885137 4.5562572934807095e-10 0.0 0.0 0.0 0.0 0.0 0.0

195384.56 0.0 -1.5707963267948966 1.5707963267948972 -1.5707963267948966 -1.5707963267948966 0.0 0.0 0.0 0.0 0.0 0.0 0.0 0.0 0.0 0.0 0.0 0.0 0.0 1.9987199928536514e-26 -0.5442396572688689 -0.7673661111166267 -0.22935479646650192 -1.3146049461972202e-11 0.0 2.6243193506168444e-25 -7.14586669994025 -7.145866699940251 -1.0424175499402513 -5.974879480466366e-11 0.0 0.0 -1.570796314870016 1.5707963705062866 -1.570796314870016 -1.570796314870016 0.0 0.0 0.0 0.0 0.0 0.0 0.0 1.998719927374967e-26 -0.5442396402359009 -0.7673661112785339 -0.22935479879379272 -1.3146049353263134e-11 0.0 1.998719927374967e-26 -0.5442396402359009 -0.7673661112785339 -0.22935479879379272 -1.3146049353263134e-11 0.0 -0.2985999973554403 -0.11235000099231761 0.3136499823461779 2.2214412195942916 2.2214412191386654 6.515886891884208e-08 0.0 0.0 0.0 0.0 0.0 0.0 9.240738067961096e-07 3.4768818278582924e-07 4.2531464706885504e-08 -2.847566213175549e-08 6.147405312801053e-08 -2.6501511484008074e-15 -0.2985999999832019 -0.1123500000156699 0.31364999997695653 2.221441469306996 2.22144146885137 4.5562572934807095e-10 0.0 0.0 0.0 0.0 0.0 0.0

195384.568 0.0 -1.5707963267948966 1.5707963267948972 -1.5707963267948966 -1.5707963267948966 0.0 0.0 0.0 0.0 0.0 0.0 0.0 0.0 0.0 0.0 0.0 0.0 0.0 1.9987199928536514e-26 -0.5442396572688689 -0.7673661111166267 -0.22935479646650192 -1.3146049461972202e-11 0.0 2.6243193506168444e-25 -7.14586669994025 -7.145866699940251 -1.0424175499402513 -5.974879480466366e-11 0.0 0.0 -1.570796314870016 1.5707963705062866 -1.570796314870016 -1.570796314870016 0.0 0.0 0.0 0.0 0.0 0.0 0.0 1.998719927374967e-26 -0.5442396402359009 -0.7673661112785339 -0.22935479879379272 -1.3146049353263134e-11 0.0 1.998719927374967e-26 -0.5442396402359009 -0.7673661112785339 -0.22935479879379272 -1.3146049353263134e-11 0.0 -0.2985999973554403 -0.11235000099231761 0.3136499823461779 2.2214412195942916 2.2214412191386654 6.515886891884208e-08 0.0 0.0 0.0 0.0 0.0 0.0 9.240738067961096e-07 3.4768818278582924e-07 4.2531464706885504e-08 -2.847566213175549e-08 6.147405312801053e-08 -2.6501511484008074e-15 -0.2985999999832019 -0.1123500000156699 0.31364999997695653 2.221441469306996 2.22144146885137 4.5562572934807095e-10 0.0 0.0 0.0 0.0 0.0 0.0

195384.576 0.0 -1.5707963267948966 1.5707963267948972 -1.5707963267948966 -1.5707963267948966 0.0 0.0 0.0 0.0 0.0 0.0 0.0 0.0 0.0 0.0 0.0 0.0 0.0 1.9987199928536514e-26 -0.5442396572688689 -0.7673661111166267 -0.22935479646650192 -1.3146049461972202e-11 0.0 2.6243193506168444e-25 -7.14586669994025 -7.145866699940251 -1.0424175499402513 -5.974879480466366e-11 0.0 0.0 -1.570796314870016 1.5707963705062866 -1.570796314870016 -1.570796314870016 0.0 0.0 0.0 0.0 0.0 0.0 0.0 1.998719927374967e-26 -0.5442396402359009 -0.7673661112785339 -0.22935479879379272 -1.3146049353263134e-11 0.0 1.998719927374967e-26 -0.5442396402359009 -0.7673661112785339 -0.22935479879379272 -1.3146049353263134e-11 0.0 -0.2985999973554403 -0.11235000099231761 0.3136499823461779 2.2214412195942916 2.2214412191386654 6.515886891884208e-08 0.0 0.0 0.0 0.0 0.0 0.0 9.240738067961096e-07 3.4768818278582924e-07 4.2531464706885504e-08 -2.847566213175549e-08 6.147405312801053e-08 -2.6501511484008074e-15 -0.2985999999832019 -0.1123500000156699 0.31364999997695653 2.221441469306996 2.22144146885137 4.5562572934807095e-10 0.0 0.0 0.0 0.0 0.0 0.0

195384.584 0.0 -1.5707963267948966 1.5707963267948972 -1.5707963267948966 -1.5707963267948966 0.0 0.0 0.0 0.0 0.0 0.0 0.0 0.0 0.0 0.0 0.0 0.0 0.0 1.9987199928536514e-26 -0.5442396572688689 -0.7673661111166267 -0.22935479646650192 -1.3146049461972202e-11 0.0 2.6243193506168444e-25 -7.14586669994025 -7.145866699940251 -1.0424175499402513 -5.974879480466366e-11 0.0 0.0 -1.570796314870016 1.5707963705062866 -1.570796314870016 -1.570796314870016 0.0 0.0 0.0 0.0 0.0 0.0 0.0 1.998719927374967e-26 -0.5442396402359009 -0.7673661112785339 -0.22935479879379272 -1.3146049353263134e-11 0.0 1.998719927374967e-26 -0.5442396402359009 -0.7673661112785339 -0.22935479879379272 -1.3146049353263134e-11 0.0 -0.2985999973554403 -0.11235000099231761 0.3136499823461779 2.2214412195942916 2.2214412191386654 6.515886891884208e-08 0.0 0.0 0.0 0.0 0.0 0.0 9.240738067961096e-07 3.4768818278582924e-07 4.2531464706885504e-08 -2.847566213175549e-08 6.147405312801053e-08 -2.6501511484008074e-15 -0.2985999999832019 -0.1123500000156699 0.31364999997695653 2.221441469306996 2.22144146885137 4.5562572934807095e-10 0.0 0.0 0.0 0.0 0.0 0.0

195384.592 0.0 -1.5707963267948966 1.5707963267948972 -1.5707963267948966 -1.5707963267948966 0.0 0.0 0.0 0.0 0.0 0.0 0.0 0.0 0.0 0.0 0.0 0.0 0.0 1.9987199928536514e-26 -0.5442396572688689 -0.7673661111166267 -0.22935479646650192 -1.3146049461972202e-11 0.0 2.6243193506168444e-25 -7.14586669994025 -7.145866699940251 -1.0424175499402513 -5.974879480466366e-11 0.0 0.0 -1.570796314870016 1.5707963705062866 -1.570796314870016 -1.570796314870016 0.0 0.0 0.0 0.0 0.0 0.0 0.0 1.998719927374967e-26 -0.5442396402359009 -0.7673661112785339 -0.22935479879379272 -1.3146049353263134e-11 0.0 1.998719927374967e-26 -0.5442396402359009 -0.7673661112785339 -0.22935479879379272 -1.3146049353263134e-11 0.0 -0.2985999973554403 -0.11235000099231761 0.3136499823461779 2.2214412195942916 2.2214412191386654 6.515886891884208e-08 0.0 0.0 0.0 0.0 0.0 0.0 9.240738067961096e-07 3.4768818278582924e-07 4.2531464706885504e-08 -2.847566213175549e-08 6.147405312801053e-08 -2.6501511484008074e-15 -0.2985999999832019 -0.1123500000156699 0.31364999997695653 2.221441469306996 2.22144146885137 4.5562572934807095e-10 0.0 0.0 0.0 0.0 0.0 0.0

195384.59999999998 0.0 -1.5707963267948966 1.5707963267948972 -1.5707963267948966 -1.5707963267948966 0.0 0.0 0.0 0.0 0.0 0.0 0.0 0.0 0.0 0.0 0.0 0.0 0.0 1.9987199928536514e-26 -0.5442396572688689 -0.7673661111166267 -0.22935479646650192 -1.3146049461972202e-11 0.0 2.6243193506168444e-25 -7.14586669994025 -7.145866699940251 -1.0424175499402513 -5.974879480466366e-11 0.0 0.0 -1.570796314870016 1.5707963705062866 -1.570796314870016 -1.570796314870016 0.0 0.0 0.0 0.0 0.0 0.0 0.0 1.998719927374967e-26 -0.5442396402359009 -0.7673661112785339 -0.22935479879379272 -1.3146049353263134e-11 0.0 1.998719927374967e-26 -0.5442396402359009 -0.7673661112785339 -0.22935479879379272 -1.3146049353263134e-11 0.0 -0.2985999973554403 -0.11235000099231761 0.3136499823461779 2.2214412195942916 2.2214412191386654 6.515886891884208e-08 0.0 0.0 0.0 0.0 0.0 0.0 9.240738067961096e-07 3.4768818278582924e-07 4.2531464706885504e-08 -2.847566213175549e-08 6.147405312801053e-08 -2.6501511484008074e-15 -0.2985999999832019 -0.1123500000156699 0.31364999997695653 2.221441469306996 2.22144146885137 4.5562572934807095e-10 0.0 0.0 0.0 0.0 0.0 0.0

195384.60799999998 0.0 -1.5707963267948966 1.5707963267948972 -1.5707963267948966 -1.5707963267948966 0.0 0.0 0.0 0.0 0.0 0.0 0.0 0.0 0.0 0.0 0.0 0.0 0.0 1.9987199928536514e-26 -0.5442396572688689 -0.7673661111166267 -0.22935479646650192 -1.3146049461972202e-11 0.0 2.6243193506168444e-25 -7.14586669994025 -7.145866699940251 -1.0424175499402513 -5.974879480466366e-11 0.0 0.0 -1.570796314870016 1.5707963705062866 -1.570796314870016 -1.570796314870016 0.0 0.0 0.0 0.0 0.0 0.0 0.0 1.998719927374967e-26 -0.5442396402359009 -0.7673661112785339 -0.22935479879379272 -1.3146049353263134e-11 0.0 1.998719927374967e-26 -0.5442396402359009 -0.7673661112785339 -0.22935479879379272 -1.3146049353263134e-11 0.0 -0.2985999973554403 -0.11235000099231761 0.3136499823461779 2.2214412195942916 2.2214412191386654 6.515886891884208e-08 0.0 0.0 0.0 0.0 0.0 0.0 9.240738067961096e-07 3.4768818278582924e-07 4.2531464706885504e-08 -2.847566213175549e-08 6.147405312801053e-08 -2.6501511484008074e-15 -0.2985999999832019 -0.1123500000156699 0.31364999997695653 2.221441469306996 2.22144146885137 4.5562572934807095e-10 0.0 0.0 0.0 0.0 0.0 0.0

195384.61599999998 0.0 -1.5707963267948966 1.5707963267948972 -1.5707963267948966 -1.5707963267948966 0.0 0.0 0.0 0.0 0.0 0.0 0.0 0.0 0.0 0.0 0.0 0.0 0.0 1.9987199928536514e-26 -0.5442396572688689 -0.7673661111166267 -0.22935479646650192 -1.3146049461972202e-11 0.0 2.6243193506168444e-25 -7.14586669994025 -7.145866699940251 -1.0424175499402513 -5.974879480466366e-11 0.0 0.0 -1.570796314870016 1.5707963705062866 -1.570796314870016 -1.570796314870016 0.0 0.0 0.0 0.0 0.0 0.0 0.0 1.998719927374967e-26 -0.5442396402359009 -0.7673661112785339 -0.22935479879379272 -1.3146049353263134e-11 0.0 1.998719927374967e-26 -0.5442396402359009 -0.7673661112785339 -0.22935479879379272 -1.3146049353263134e-11 0.0 -0.2985999973554403 -0.11235000099231761 0.3136499823461779 2.2214412195942916 2.2214412191386654 6.515886891884208e-08 0.0 0.0 0.0 0.0 0.0 0.0 9.240738067961096e-07 3.4768818278582924e-07 4.2531464706885504e-08 -2.847566213175549e-08 6.147405312801053e-08 -2.6501511484008074e-15 -0.2985999999832019 -0.1123500000156699 0.31364999997695653 2.221441469306996 2.22144146885137 4.5562572934807095e-10 0.0 0.0 0.0 0.0 0.0 0.0

195384.62399999998 0.0 -1.5707963267948966 1.5707963267948972 -1.5707963267948966 -1.5707963267948966 0.0 0.0 0.0 0.0 0.0 0.0 0.0 0.0 0.0 0.0 0.0 0.0 0.0 1.9987199928536514e-26 -0.5442396572688689 -0.7673661111166267 -0.22935479646650192 -1.3146049461972202e-11 0.0 2.6243193506168444e-25 -7.14586669994025 -7.145866699940251 -1.0424175499402513 -5.974879480466366e-11 0.0 0.0 -1.570796314870016 1.5707963705062866 -1.570796314870016 -1.570796314870016 0.0 0.0 0.0 0.0 0.0 0.0 0.0 1.998719927374967e-26 -0.5442396402359009 -0.7673661112785339 -0.22935479879379272 -1.3146049353263134e-11 0.0 1.998719927374967e-26 -0.5442396402359009 -0.7673661112785339 -0.22935479879379272 -1.3146049353263134e-11 0.0 -0.2985999973554403 -0.11235000099231761 0.3136499823461779 2.2214412195942916 2.2214412191386654 6.515886891884208e-08 0.0 0.0 0.0 0.0 0.0 0.0 9.240738067961096e-07 3.4768818278582924e-07 4.2531464706885504e-08 -2.847566213175549e-08 6.147405312801053e-08 -2.6501511484008074e-15 -0.2985999999832019 -0.1123500000156699 0.31364999997695653 2.221441469306996 2.22144146885137 4.5562572934807095e-10 0.0 0.0 0.0 0.0 0.0 0.0

195384.63199999998 0.0 -1.5707963267948966 1.5707963267948972 -1.5707963267948966 -1.5707963267948966 0.0 0.0 0.0 0.0 0.0 0.0 0.0 0.0 0.0 0.0 0.0 0.0 0.0 1.9987199928536514e-26 -0.5442396572688689 -0.7673661111166267 -0.22935479646650192 -1.3146049461972202e-11 0.0 2.6243193506168444e-25 -7.14586669994025 -7.145866699940251 -1.0424175499402513 -5.974879480466366e-11 0.0 0.0 -1.570796314870016 1.5707963705062866 -1.570796314870016 -1.570796314870016 0.0 0.0 0.0 0.0 0.0 0.0 0.0 1.998719927374967e-26 -0.5442396402359009 -0.7673661112785339 -0.22935479879379272 -1.3146049353263134e-11 0.0 1.998719927374967e-26 -0.5442396402359009 -0.7673661112785339 -0.22935479879379272 -1.3146049353263134e-11 0.0 -0.2985999973554403 -0.11235000099231761 0.3136499823461779 2.2214412195942916 2.2214412191386654 6.515886891884208e-08 0.0 0.0 0.0 0.0 0.0 0.0 9.240738067961096e-07 3.4768818278582924e-07 4.2531464706885504e-08 -2.847566213175549e-08 6.147405312801053e-08 -2.6501511484008074e-15 -0.2985999999832019 -0.1123500000156699 0.31364999997695653 2.221441469306996 2.22144146885137 4.5562572934807095e-10 0.0 0.0 0.0 0.0 0.0 0.0

195384.63999999998 0.0 -1.5707963267948966 1.5707963267948972 -1.5707963267948966 -1.5707963267948966 0.0 0.0 0.0 0.0 0.0 0.0 0.0 0.0 0.0 0.0 0.0 0.0 0.0 1.9987199928536514e-26 -0.5442396572688689 -0.7673661111166267 -0.22935479646650192 -1.3146049461972202e-11 0.0 2.6243193506168444e-25 -7.14586669994025 -7.145866699940251 -1.0424175499402513 -5.974879480466366e-11 0.0 0.0 -1.570796314870016 1.5707963705062866 -1.570796314870016 -1.570796314870016 0.0 0.0 0.0 0.0 0.0 0.0 0.0 1.998719927374967e-26 -0.5442396402359009 -0.7673661112785339 -0.22935479879379272 -1.3146049353263134e-11 0.0 1.998719927374967e-26 -0.5442396402359009 -0.7673661112785339 -0.22935479879379272 -1.3146049353263134e-11 0.0 -0.2985999973554403 -0.11235000099231761 0.3136499823461779 2.2214412195942916 2.2214412191386654 6.515886891884208e-08 0.0 0.0 0.0 0.0 0.0 0.0 9.240738067961096e-07 3.4768818278582924e-07 4.2531464706885504e-08 -2.847566213175549e-08 6.147405312801053e-08 -2.6501511484008074e-15 -0.2985999999832019 -0.1123500000156699 0.31364999997695653 2.221441469306996 2.22144146885137 4.5562572934807095e-10 0.0 0.0 0.0 0.0 0.0 0.0

195384.648 0.0 -1.5707963267948966 1.5707963267948972 -1.5707963267948966 -1.5707963267948966 0.0 0.0 0.0 0.0 0.0 0.0 0.0 0.0 0.0 0.0 0.0 0.0 0.0 1.9987199928536514e-26 -0.5442396572688689 -0.7673661111166267 -0.22935479646650192 -1.3146049461972202e-11 0.0 2.6243193506168444e-25 -7.14586669994025 -7.145866699940251 -1.0424175499402513 -5.974879480466366e-11 0.0 0.0 -1.570796314870016 1.5707963705062866 -1.570796314870016 -1.570796314870016 0.0 0.0 0.0 0.0 0.0 0.0 0.0 1.998719927374967e-26 -0.5442396402359009 -0.7673661112785339 -0.22935479879379272 -1.3146049353263134e-11 0.0 1.998719927374967e-26 -0.5442396402359009 -0.7673661112785339 -0.22935479879379272 -1.3146049353263134e-11 0.0 -0.2985999973554403 -0.11235000099231761 0.3136499823461779 2.2214412195942916 2.2214412191386654 6.515886891884208e-08 0.0 0.0 0.0 0.0 0.0 0.0 9.240738067961096e-07 3.4768818278582924e-07 4.2531464706885504e-08 -2.847566213175549e-08 6.147405312801053e-08 -2.6501511484008074e-15 -0.2985999999832019 -0.1123500000156699 0.31364999997695653 2.221441469306996 2.22144146885137 4.5562572934807095e-10 0.0 0.0 0.0 0.0 0.0 0.0

195384.656 0.0 -1.5707963267948966 1.5707963267948972 -1.5707963267948966 -1.5707963267948966 0.0 0.0 0.0 0.0 0.0 0.0 0.0 0.0 0.0 0.0 0.0 0.0 0.0 1.9987199928536514e-26 -0.5442396572688689 -0.7673661111166267 -0.22935479646650192 -1.3146049461972202e-11 0.0 2.6243193506168444e-25 -7.14586669994025 -7.145866699940251 -1.0424175499402513 -5.974879480466366e-11 0.0 0.0 -1.570796314870016 1.5707963705062866 -1.570796314870016 -1.570796314870016 0.0 0.0 0.0 0.0 0.0 0.0 0.0 1.998719927374967e-26 -0.5442396402359009 -0.7673661112785339 -0.22935479879379272 -1.3146049353263134e-11 0.0 1.998719927374967e-26 -0.5442396402359009 -0.7673661112785339 -0.22935479879379272 -1.3146049353263134e-11 0.0 -0.2985999973554403 -0.11235000099231761 0.3136499823461779 2.2214412195942916 2.2214412191386654 6.515886891884208e-08 0.0 0.0 0.0 0.0 0.0 0.0 9.240738067961096e-07 3.4768818278582924e-07 4.2531464706885504e-08 -2.847566213175549e-08 6.147405312801053e-08 -2.6501511484008074e-15 -0.2985999999832019 -0.1123500000156699 0.31364999997695653 2.221441469306996 2.22144146885137 4.5562572934807095e-10 0.0 0.0 0.0 0.0 0.0 0.0

195384.664 0.0 -1.5707963267948966 1.5707963267948972 -1.5707963267948966 -1.5707963267948966 0.0 0.0 0.0 0.0 0.0 0.0 0.0 0.0 0.0 0.0 0.0 0.0 0.0 1.9987199928536514e-26 -0.5442396572688689 -0.7673661111166267 -0.22935479646650192 -1.3146049461972202e-11 0.0 2.6243193506168444e-25 -7.14586669994025 -7.145866699940251 -1.0424175499402513 -5.974879480466366e-11 0.0 0.0 -1.570796314870016 1.5707963705062866 -1.570796314870016 -1.570796314870016 0.0 0.0 0.0 0.0 0.0 0.0 0.0 1.998719927374967e-26 -0.5442396402359009 -0.7673661112785339 -0.22935479879379272 -1.3146049353263134e-11 0.0 1.998719927374967e-26 -0.5442396402359009 -0.7673661112785339 -0.22935479879379272 -1.3146049353263134e-11 0.0 -0.2985999973554403 -0.11235000099231761 0.3136499823461779 2.2214412195942916 2.2214412191386654 6.515886891884208e-08 0.0 0.0 0.0 0.0 0.0 0.0 9.240738067961096e-07 3.4768818278582924e-07 4.2531464706885504e-08 -2.847566213175549e-08 6.147405312801053e-08 -2.6501511484008074e-15 -0.2985999999832019 -0.1123500000156699 0.31364999997695653 2.221441469306996 2.22144146885137 4.5562572934807095e-10 0.0 0.0 0.0 0.0 0.0 0.0

195384.672 0.0 -1.5707963267948966 1.5707963267948972 -1.5707963267948966 -1.5707963267948966 0.0 0.0 0.0 0.0 0.0 0.0 0.0 0.0 0.0 0.0 0.0 0.0 0.0 1.9987199928536514e-26 -0.5442396572688689 -0.7673661111166267 -0.22935479646650192 -1.3146049461972202e-11 0.0 2.6243193506168444e-25 -7.14586669994025 -7.145866699940251 -1.0424175499402513 -5.974879480466366e-11 0.0 0.0 -1.570796314870016 1.5707963705062866 -1.570796314870016 -1.570796314870016 0.0 0.0 0.0 0.0 0.0 0.0 0.0 1.998719927374967e-26 -0.5442396402359009 -0.7673661112785339 -0.22935479879379272 -1.3146049353263134e-11 0.0 1.998719927374967e-26 -0.5442396402359009 -0.7673661112785339 -0.22935479879379272 -1.3146049353263134e-11 0.0 -0.2985999973554403 -0.11235000099231761 0.3136499823461779 2.2214412195942916 2.2214412191386654 6.515886891884208e-08 0.0 0.0 0.0 0.0 0.0 0.0 9.240738067961096e-07 3.4768818278582924e-07 4.2531464706885504e-08 -2.847566213175549e-08 6.147405312801053e-08 -2.6501511484008074e-15 -0.2985999999832019 -0.1123500000156699 0.31364999997695653 2.221441469306996 2.22144146885137 4.5562572934807095e-10 0.0 0.0 0.0 0.0 0.0 0.0

195384.68 0.0 -1.5707963267948966 1.5707963267948972 -1.5707963267948966 -1.5707963267948966 0.0 0.0 0.0 0.0 0.0 0.0 0.0 0.0 0.0 0.0 0.0 0.0 0.0 1.9987199928536514e-26 -0.5442396572688689 -0.7673661111166267 -0.22935479646650192 -1.3146049461972202e-11 0.0 2.6243193506168444e-25 -7.14586669994025 -7.145866699940251 -1.0424175499402513 -5.974879480466366e-11 0.0 0.0 -1.570796314870016 1.5707963705062866 -1.570796314870016 -1.570796314870016 0.0 0.0 0.0 0.0 0.0 0.0 0.0 1.998719927374967e-26 -0.5442396402359009 -0.7673661112785339 -0.22935479879379272 -1.3146049353263134e-11 0.0 1.998719927374967e-26 -0.5442396402359009 -0.7673661112785339 -0.22935479879379272 -1.3146049353263134e-11 0.0 -0.2985999973554403 -0.11235000099231761 0.3136499823461779 2.2214412195942916 2.2214412191386654 6.515886891884208e-08 0.0 0.0 0.0 0.0 0.0 0.0 9.240738067961096e-07 3.4768818278582924e-07 4.2531464706885504e-08 -2.847566213175549e-08 6.147405312801053e-08 -2.6501511484008074e-15 -0.2985999999832019 -0.1123500000156699 0.31364999997695653 2.221441469306996 2.22144146885137 4.5562572934807095e-10 0.0 0.0 0.0 0.0 0.0 0.0

195384.688 0.0 -1.5707963267948966 1.5707963267948972 -1.5707963267948966 -1.5707963267948966 0.0 0.0 0.0 0.0 0.0 0.0 0.0 0.0 0.0 0.0 0.0 0.0 0.0 1.9987199928536514e-26 -0.5442396572688689 -0.7673661111166267 -0.22935479646650192 -1.3146049461972202e-11 0.0 2.6243193506168444e-25 -7.14586669994025 -7.145866699940251 -1.0424175499402513 -5.974879480466366e-11 0.0 0.0 -1.570796314870016 1.5707963705062866 -1.570796314870016 -1.570796314870016 0.0 0.0 0.0 0.0 0.0 0.0 0.0 1.998719927374967e-26 -0.5442396402359009 -0.7673661112785339 -0.22935479879379272 -1.3146049353263134e-11 0.0 1.998719927374967e-26 -0.5442396402359009 -0.7673661112785339 -0.22935479879379272 -1.3146049353263134e-11 0.0 -0.2985999973554403 -0.11235000099231761 0.3136499823461779 2.2214412195942916 2.2214412191386654 6.515886891884208e-08 0.0 0.0 0.0 0.0 0.0 0.0 9.240738067961096e-07 3.4768818278582924e-07 4.2531464706885504e-08 -2.847566213175549e-08 6.147405312801053e-08 -2.6501511484008074e-15 -0.2985999999832019 -0.1123500000156699 0.31364999997695653 2.221441469306996 2.22144146885137 4.5562572934807095e-10 0.0 0.0 0.0 0.0 0.0 0.0

195384.696 0.0 -1.5707963267948966 1.5707963267948972 -1.5707963267948966 -1.5707963267948966 0.0 0.0 0.0 0.0 0.0 0.0 0.0 0.0 0.0 0.0 0.0 0.0 0.0 1.9987199928536514e-26 -0.5442396572688689 -0.7673661111166267 -0.22935479646650192 -1.3146049461972202e-11 0.0 2.6243193506168444e-25 -7.14586669994025 -7.145866699940251 -1.0424175499402513 -5.974879480466366e-11 0.0 0.0 -1.570796314870016 1.5707963705062866 -1.570796314870016 -1.570796314870016 0.0 0.0 0.0 0.0 0.0 0.0 0.0 1.998719927374967e-26 -0.5442396402359009 -0.7673661112785339 -0.22935479879379272 -1.3146049353263134e-11 0.0 1.998719927374967e-26 -0.5442396402359009 -0.7673661112785339 -0.22935479879379272 -1.3146049353263134e-11 0.0 -0.2985999973554403 -0.11235000099231761 0.3136499823461779 2.2214412195942916 2.2214412191386654 6.515886891884208e-08 0.0 0.0 0.0 0.0 0.0 0.0 9.240738067961096e-07 3.4768818278582924e-07 4.2531464706885504e-08 -2.847566213175549e-08 6.147405312801053e-08 -2.6501511484008074e-15 -0.2985999999832019 -0.1123500000156699 0.31364999997695653 2.221441469306996 2.22144146885137 4.5562572934807095e-10 0.0 0.0 0.0 0.0 0.0 0.0

195384.704 0.0 -1.5707963267948966 1.5707963267948972 -1.5707963267948966 -1.5707963267948966 0.0 0.0 0.0 0.0 0.0 0.0 0.0 0.0 0.0 0.0 0.0 0.0 0.0 1.9987199928536514e-26 -0.5442396572688689 -0.7673661111166267 -0.22935479646650192 -1.3146049461972202e-11 0.0 2.6243193506168444e-25 -7.14586669994025 -7.145866699940251 -1.0424175499402513 -5.974879480466366e-11 0.0 0.0 -1.570796314870016 1.5707963705062866 -1.570796314870016 -1.570796314870016 0.0 0.0 0.0 0.0 0.0 0.0 0.0 1.998719927374967e-26 -0.5442396402359009 -0.7673661112785339 -0.22935479879379272 -1.3146049353263134e-11 0.0 1.998719927374967e-26 -0.5442396402359009 -0.7673661112785339 -0.22935479879379272 -1.3146049353263134e-11 0.0 -0.2985999973554403 -0.11235000099231761 0.3136499823461779 2.2214412195942916 2.2214412191386654 6.515886891884208e-08 0.0 0.0 0.0 0.0 0.0 0.0 9.240738067961096e-07 3.4768818278582924e-07 4.2531464706885504e-08 -2.847566213175549e-08 6.147405312801053e-08 -2.6501511484008074e-15 -0.2985999999832019 -0.1123500000156699 0.31364999997695653 2.221441469306996 2.22144146885137 4.5562572934807095e-10 0.0 0.0 0.0 0.0 0.0 0.0

195384.712 0.0 -1.5707963267948966 1.5707963267948972 -1.5707963267948966 -1.5707963267948966 0.0 0.0 0.0 0.0 0.0 0.0 0.0 0.0 0.0 0.0 0.0 0.0 0.0 1.9987199928536514e-26 -0.5442396572688689 -0.7673661111166267 -0.22935479646650192 -1.3146049461972202e-11 0.0 2.6243193506168444e-25 -7.14586669994025 -7.145866699940251 -1.0424175499402513 -5.974879480466366e-11 0.0 0.0 -1.570796314870016 1.5707963705062866 -1.570796314870016 -1.570796314870016 0.0 0.0 0.0 0.0 0.0 0.0 0.0 1.998719927374967e-26 -0.5442396402359009 -0.7673661112785339 -0.22935479879379272 -1.3146049353263134e-11 0.0 1.998719927374967e-26 -0.5442396402359009 -0.7673661112785339 -0.22935479879379272 -1.3146049353263134e-11 0.0 -0.2985999973554403 -0.11235000099231761 0.3136499823461779 2.2214412195942916 2.2214412191386654 6.515886891884208e-08 0.0 0.0 0.0 0.0 0.0 0.0 9.240738067961096e-07 3.4768818278582924e-07 4.2531464706885504e-08 -2.847566213175549e-08 6.147405312801053e-08 -2.6501511484008074e-15 -0.2985999999832019 -0.1123500000156699 0.31364999997695653 2.221441469306996 2.22144146885137 4.5562572934807095e-10 0.0 0.0 0.0 0.0 0.0 0.0

195384.72 0.0 -1.5707963267948966 1.5707963267948972 -1.5707963267948966 -1.5707963267948966 0.0 0.0 0.0 0.0 0.0 0.0 0.0 0.0 0.0 0.0 0.0 0.0 0.0 1.9987199928536514e-26 -0.5442396572688689 -0.7673661111166267 -0.22935479646650192 -1.3146049461972202e-11 0.0 2.6243193506168444e-25 -7.14586669994025 -7.145866699940251 -1.0424175499402513 -5.974879480466366e-11 0.0 0.0 -1.570796314870016 1.5707963705062866 -1.570796314870016 -1.570796314870016 0.0 0.0 0.0 0.0 0.0 0.0 0.0 1.998719927374967e-26 -0.5442396402359009 -0.7673661112785339 -0.22935479879379272 -1.3146049353263134e-11 0.0 1.998719927374967e-26 -0.5442396402359009 -0.7673661112785339 -0.22935479879379272 -1.3146049353263134e-11 0.0 -0.2985999973554403 -0.11235000099231761 0.3136499823461779 2.2214412195942916 2.2214412191386654 6.515886891884208e-08 0.0 0.0 0.0 0.0 0.0 0.0 9.240738067961096e-07 3.4768818278582924e-07 4.2531464706885504e-08 -2.847566213175549e-08 6.147405312801053e-08 -2.6501511484008074e-15 -0.2985999999832019 -0.1123500000156699 0.31364999997695653 2.221441469306996 2.22144146885137 4.5562572934807095e-10 0.0 0.0 0.0 0.0 0.0 0.0

195384.728 0.0 -1.5707963267948966 1.5707963267948972 -1.5707963267948966 -1.5707963267948966 0.0 0.0 0.0 0.0 0.0 0.0 0.0 0.0 0.0 0.0 0.0 0.0 0.0 1.9987199928536514e-26 -0.5442396572688689 -0.7673661111166267 -0.22935479646650192 -1.3146049461972202e-11 0.0 2.6243193506168444e-25 -7.14586669994025 -7.145866699940251 -1.0424175499402513 -5.974879480466366e-11 0.0 0.0 -1.570796314870016 1.5707963705062866 -1.570796314870016 -1.570796314870016 0.0 0.0 0.0 0.0 0.0 0.0 0.0 1.998719927374967e-26 -0.5442396402359009 -0.7673661112785339 -0.22935479879379272 -1.3146049353263134e-11 0.0 1.998719927374967e-26 -0.5442396402359009 -0.7673661112785339 -0.22935479879379272 -1.3146049353263134e-11 0.0 -0.2985999973554403 -0.11235000099231761 0.3136499823461779 2.2214412195942916 2.2214412191386654 6.515886891884208e-08 0.0 0.0 0.0 0.0 0.0 0.0 9.240738067961096e-07 3.4768818278582924e-07 4.2531464706885504e-08 -2.847566213175549e-08 6.147405312801053e-08 -2.6501511484008074e-15 -0.2985999999832019 -0.1123500000156699 0.31364999997695653 2.221441469306996 2.22144146885137 4.5562572934807095e-10 0.0 0.0 0.0 0.0 0.0 0.0

195384.736 0.0 -1.5707963267948966 1.5707963267948972 -1.5707963267948966 -1.5707963267948966 0.0 0.0 0.0 0.0 0.0 0.0 0.0 0.0 0.0 0.0 0.0 0.0 0.0 1.9987199928536514e-26 -0.5442396572688689 -0.7673661111166267 -0.22935479646650192 -1.3146049461972202e-11 0.0 2.6243193506168444e-25 -7.14586669994025 -7.145866699940251 -1.0424175499402513 -5.974879480466366e-11 0.0 0.0 -1.570796314870016 1.5707963705062866 -1.570796314870016 -1.570796314870016 0.0 0.0 0.0 0.0 0.0 0.0 0.0 1.998719927374967e-26 -0.5442396402359009 -0.7673661112785339 -0.22935479879379272 -1.3146049353263134e-11 0.0 1.998719927374967e-26 -0.5442396402359009 -0.7673661112785339 -0.22935479879379272 -1.3146049353263134e-11 0.0 -0.2985999973554403 -0.11235000099231761 0.3136499823461779 2.2214412195942916 2.2214412191386654 6.515886891884208e-08 0.0 0.0 0.0 0.0 0.0 0.0 9.240738067961096e-07 3.4768818278582924e-07 4.2531464706885504e-08 -2.847566213175549e-08 6.147405312801053e-08 -2.6501511484008074e-15 -0.2985999999832019 -0.1123500000156699 0.31364999997695653 2.221441469306996 2.22144146885137 4.5562572934807095e-10 0.0 0.0 0.0 0.0 0.0 0.0

195384.74399999998 0.0 -1.5707963267948966 1.5707963267948972 -1.5707963267948966 -1.5707963267948966 0.0 0.0 0.0 0.0 0.0 0.0 0.0 0.0 0.0 0.0 0.0 0.0 0.0 1.9987199928536514e-26 -0.5442396572688689 -0.7673661111166267 -0.22935479646650192 -1.3146049461972202e-11 0.0 2.6243193506168444e-25 -7.14586669994025 -7.145866699940251 -1.0424175499402513 -5.974879480466366e-11 0.0 0.0 -1.570796314870016 1.5707963705062866 -1.570796314870016 -1.570796314870016 0.0 0.0 0.0 0.0 0.0 0.0 0.0 1.998719927374967e-26 -0.5442396402359009 -0.7673661112785339 -0.22935479879379272 -1.3146049353263134e-11 0.0 1.998719927374967e-26 -0.5442396402359009 -0.7673661112785339 -0.22935479879379272 -1.3146049353263134e-11 0.0 -0.2985999973554403 -0.11235000099231761 0.3136499823461779 2.2214412195942916 2.2214412191386654 6.515886891884208e-08 0.0 0.0 0.0 0.0 0.0 0.0 9.240738067961096e-07 3.4768818278582924e-07 4.2531464706885504e-08 -2.847566213175549e-08 6.147405312801053e-08 -2.6501511484008074e-15 -0.2985999999832019 -0.1123500000156699 0.31364999997695653 2.221441469306996 2.22144146885137 4.5562572934807095e-10 0.0 0.0 0.0 0.0 0.0 0.0

195384.75199999998 0.0 -1.5707963267948966 1.5707963267948972 -1.5707963267948966 -1.5707963267948966 0.0 0.0 0.0 0.0 0.0 0.0 0.0 0.0 0.0 0.0 0.0 0.0 0.0 1.9987199928536514e-26 -0.5442396572688689 -0.7673661111166267 -0.22935479646650192 -1.3146049461972202e-11 0.0 2.6243193506168444e-25 -7.14586669994025 -7.145866699940251 -1.0424175499402513 -5.974879480466366e-11 0.0 0.0 -1.570796314870016 1.5707963705062866 -1.570796314870016 -1.570796314870016 0.0 0.0 0.0 0.0 0.0 0.0 0.0 1.998719927374967e-26 -0.5442396402359009 -0.7673661112785339 -0.22935479879379272 -1.3146049353263134e-11 0.0 1.998719927374967e-26 -0.5442396402359009 -0.7673661112785339 -0.22935479879379272 -1.3146049353263134e-11 0.0 -0.2985999973554403 -0.11235000099231761 0.3136499823461779 2.2214412195942916 2.2214412191386654 6.515886891884208e-08 0.0 0.0 0.0 0.0 0.0 0.0 9.240738067961096e-07 3.4768818278582924e-07 4.2531464706885504e-08 -2.847566213175549e-08 6.147405312801053e-08 -2.6501511484008074e-15 -0.2985999999832019 -0.1123500000156699 0.31364999997695653 2.221441469306996 2.22144146885137 4.5562572934807095e-10 0.0 0.0 0.0 0.0 0.0 0.0

195384.75999999998 0.0 -1.5707963267948966 1.5707963267948972 -1.5707963267948966 -1.5707963267948966 0.0 0.0 0.0 0.0 0.0 0.0 0.0 0.0 0.0 0.0 0.0 0.0 0.0 1.9987199928536514e-26 -0.5442396572688689 -0.7673661111166267 -0.22935479646650192 -1.3146049461972202e-11 0.0 2.6243193506168444e-25 -7.14586669994025 -7.145866699940251 -1.0424175499402513 -5.974879480466366e-11 0.0 0.0 -1.570796314870016 1.5707963705062866 -1.570796314870016 -1.570796314870016 0.0 0.0 0.0 0.0 0.0 0.0 0.0 1.998719927374967e-26 -0.5442396402359009 -0.7673661112785339 -0.22935479879379272 -1.3146049353263134e-11 0.0 1.998719927374967e-26 -0.5442396402359009 -0.7673661112785339 -0.22935479879379272 -1.3146049353263134e-11 0.0 -0.2985999973554403 -0.11235000099231761 0.3136499823461779 2.2214412195942916 2.2214412191386654 6.515886891884208e-08 0.0 0.0 0.0 0.0 0.0 0.0 9.240738067961096e-07 3.4768818278582924e-07 4.2531464706885504e-08 -2.847566213175549e-08 6.147405312801053e-08 -2.6501511484008074e-15 -0.2985999999832019 -0.1123500000156699 0.31364999997695653 2.221441469306996 2.22144146885137 4.5562572934807095e-10 0.0 0.0 0.0 0.0 0.0 0.0

195384.76799999998 0.0 -1.5707963267948966 1.5707963267948972 -1.5707963267948966 -1.5707963267948966 0.0 0.0 0.0 0.0 0.0 0.0 0.0 0.0 0.0 0.0 0.0 0.0 0.0 1.9987199928536514e-26 -0.5442396572688689 -0.7673661111166267 -0.22935479646650192 -1.3146049461972202e-11 0.0 2.6243193506168444e-25 -7.14586669994025 -7.145866699940251 -1.0424175499402513 -5.974879480466366e-11 0.0 0.0 -1.570796314870016 1.5707963705062866 -1.570796314870016 -1.570796314870016 0.0 0.0 0.0 0.0 0.0 0.0 0.0 1.998719927374967e-26 -0.5442396402359009 -0.7673661112785339 -0.22935479879379272 -1.3146049353263134e-11 0.0 1.998719927374967e-26 -0.5442396402359009 -0.7673661112785339 -0.22935479879379272 -1.3146049353263134e-11 0.0 -0.2985999973554403 -0.11235000099231761 0.3136499823461779 2.2214412195942916 2.2214412191386654 6.515886891884208e-08 0.0 0.0 0.0 0.0 0.0 0.0 9.240738067961096e-07 3.4768818278582924e-07 4.2531464706885504e-08 -2.847566213175549e-08 6.147405312801053e-08 -2.6501511484008074e-15 -0.2985999999832019 -0.1123500000156699 0.31364999997695653 2.221441469306996 2.22144146885137 4.5562572934807095e-10 0.0 0.0 0.0 0.0 0.0 0.0

195384.77599999998 0.0 -1.5707963267948966 1.5707963267948972 -1.5707963267948966 -1.5707963267948966 0.0 0.0 0.0 0.0 0.0 0.0 0.0 0.0 0.0 0.0 0.0 0.0 0.0 1.9987199928536514e-26 -0.5442396572688689 -0.7673661111166267 -0.22935479646650192 -1.3146049461972202e-11 0.0 2.6243193506168444e-25 -7.14586669994025 -7.145866699940251 -1.0424175499402513 -5.974879480466366e-11 0.0 0.0 -1.570796314870016 1.5707963705062866 -1.570796314870016 -1.570796314870016 0.0 0.0 0.0 0.0 0.0 0.0 0.0 1.998719927374967e-26 -0.5442396402359009 -0.7673661112785339 -0.22935479879379272 -1.3146049353263134e-11 0.0 1.998719927374967e-26 -0.5442396402359009 -0.7673661112785339 -0.22935479879379272 -1.3146049353263134e-11 0.0 -0.2985999973554403 -0.11235000099231761 0.3136499823461779 2.2214412195942916 2.2214412191386654 6.515886891884208e-08 0.0 0.0 0.0 0.0 0.0 0.0 9.240738067961096e-07 3.4768818278582924e-07 4.2531464706885504e-08 -2.847566213175549e-08 6.147405312801053e-08 -2.6501511484008074e-15 -0.2985999999832019 -0.1123500000156699 0.31364999997695653 2.221441469306996 2.22144146885137 4.5562572934807095e-10 0.0 0.0 0.0 0.0 0.0 0.0

195384.78399999999 0.0 -1.5707963267948966 1.5707963267948972 -1.5707963267948966 -1.5707963267948966 0.0 0.0 0.0 0.0 0.0 0.0 0.0 0.0 0.0 0.0 0.0 0.0 0.0 1.9987199928536514e-26 -0.5442396572688689 -0.7673661111166267 -0.22935479646650192 -1.3146049461972202e-11 0.0 2.6243193506168444e-25 -7.14586669994025 -7.145866699940251 -1.0424175499402513 -5.974879480466366e-11 0.0 0.0 -1.570796314870016 1.5707963705062866 -1.570796314870016 -1.570796314870016 0.0 0.0 0.0 0.0 0.0 0.0 0.0 1.998719927374967e-26 -0.5442396402359009 -0.7673661112785339 -0.22935479879379272 -1.3146049353263134e-11 0.0 1.998719927374967e-26 -0.5442396402359009 -0.7673661112785339 -0.22935479879379272 -1.3146049353263134e-11 0.0 -0.2985999973554403 -0.11235000099231761 0.3136499823461779 2.2214412195942916 2.2214412191386654 6.515886891884208e-08 0.0 0.0 0.0 0.0 0.0 0.0 9.240738067961096e-07 3.4768818278582924e-07 4.2531464706885504e-08 -2.847566213175549e-08 6.147405312801053e-08 -2.6501511484008074e-15 -0.2985999999832019 -0.1123500000156699 0.31364999997695653 2.221441469306996 2.22144146885137 4.5562572934807095e-10 0.0 0.0 0.0 0.0 0.0 0.0

195384.792 0.0 -1.5707963267948966 1.5707963267948972 -1.5707963267948966 -1.5707963267948966 0.0 0.0 0.0 0.0 0.0 0.0 0.0 0.0 0.0 0.0 0.0 0.0 0.0 1.9987199928536514e-26 -0.5442396572688689 -0.7673661111166267 -0.22935479646650192 -1.3146049461972202e-11 0.0 2.6243193506168444e-25 -7.14586669994025 -7.145866699940251 -1.0424175499402513 -5.974879480466366e-11 0.0 0.0 -1.570796314870016 1.5707963705062866 -1.570796314870016 -1.570796314870016 0.0 0.0 0.0 0.0 0.0 0.0 0.0 1.998719927374967e-26 -0.5442396402359009 -0.7673661112785339 -0.22935479879379272 -1.3146049353263134e-11 0.0 1.998719927374967e-26 -0.5442396402359009 -0.7673661112785339 -0.22935479879379272 -1.3146049353263134e-11 0.0 -0.2985999973554403 -0.11235000099231761 0.3136499823461779 2.2214412195942916 2.2214412191386654 6.515886891884208e-08 0.0 0.0 0.0 0.0 0.0 0.0 9.240738067961096e-07 3.4768818278582924e-07 4.2531464706885504e-08 -2.847566213175549e-08 6.147405312801053e-08 -2.6501511484008074e-15 -0.2985999999832019 -0.1123500000156699 0.31364999997695653 2.221441469306996 2.22144146885137 4.5562572934807095e-10 0.0 0.0 0.0 0.0 0.0 0.0

195384.8 0.0 -1.5707963267948966 1.5707963267948972 -1.5707963267948966 -1.5707963267948966 0.0 0.0 0.0 0.0 0.0 0.0 0.0 0.0 0.0 0.0 0.0 0.0 0.0 1.9987199928536514e-26 -0.5442396572688689 -0.7673661111166267 -0.22935479646650192 -1.3146049461972202e-11 0.0 2.6243193506168444e-25 -7.14586669994025 -7.145866699940251 -1.0424175499402513 -5.974879480466366e-11 0.0 0.0 -1.570796314870016 1.5707963705062866 -1.570796314870016 -1.570796314870016 0.0 0.0 0.0 0.0 0.0 0.0 0.0 1.998719927374967e-26 -0.5442396402359009 -0.7673661112785339 -0.22935479879379272 -1.3146049353263134e-11 0.0 1.998719927374967e-26 -0.5442396402359009 -0.7673661112785339 -0.22935479879379272 -1.3146049353263134e-11 0.0 -0.2985999973554403 -0.11235000099231761 0.3136499823461779 2.2214412195942916 2.2214412191386654 6.515886891884208e-08 0.0 0.0 0.0 0.0 0.0 0.0 9.240738067961096e-07 3.4768818278582924e-07 4.2531464706885504e-08 -2.847566213175549e-08 6.147405312801053e-08 -2.6501511484008074e-15 -0.2985999999832019 -0.1123500000156699 0.31364999997695653 2.221441469306996 2.22144146885137 4.5562572934807095e-10 0.0 0.0 0.0 0.0 0.0 0.0

195384.808 0.0 -1.5707963267948966 1.5707963267948972 -1.5707963267948966 -1.5707963267948966 0.0 0.0 0.0 0.0 0.0 0.0 0.0 0.0 0.0 0.0 0.0 0.0 0.0 1.9987199928536514e-26 -0.5442396572688689 -0.7673661111166267 -0.22935479646650192 -1.3146049461972202e-11 0.0 2.6243193506168444e-25 -7.14586669994025 -7.145866699940251 -1.0424175499402513 -5.974879480466366e-11 0.0 0.0 -1.570796314870016 1.5707963705062866 -1.570796314870016 -1.570796314870016 0.0 0.0 0.0 0.0 0.0 0.0 0.0 1.998719927374967e-26 -0.5442396402359009 -0.7673661112785339 -0.22935479879379272 -1.3146049353263134e-11 0.0 1.998719927374967e-26 -0.5442396402359009 -0.7673661112785339 -0.22935479879379272 -1.3146049353263134e-11 0.0 -0.2985999973554403 -0.11235000099231761 0.3136499823461779 2.2214412195942916 2.2214412191386654 6.515886891884208e-08 0.0 0.0 0.0 0.0 0.0 0.0 9.240738067961096e-07 3.4768818278582924e-07 4.2531464706885504e-08 -2.847566213175549e-08 6.147405312801053e-08 -2.6501511484008074e-15 -0.2985999999832019 -0.1123500000156699 0.31364999997695653 2.221441469306996 2.22144146885137 4.5562572934807095e-10 0.0 0.0 0.0 0.0 0.0 0.0

195384.816 0.0 -1.5707963267948966 1.5707963267948972 -1.5707963267948966 -1.5707963267948966 0.0 0.0 0.0 0.0 0.0 0.0 0.0 0.0 0.0 0.0 0.0 0.0 0.0 1.9987199928536514e-26 -0.5442396572688689 -0.7673661111166267 -0.22935479646650192 -1.3146049461972202e-11 0.0 2.6243193506168444e-25 -7.14586669994025 -7.145866699940251 -1.0424175499402513 -5.974879480466366e-11 0.0 0.0 -1.570796314870016 1.5707963705062866 -1.570796314870016 -1.570796314870016 0.0 0.0 0.0 0.0 0.0 0.0 0.0 1.998719927374967e-26 -0.5442396402359009 -0.7673661112785339 -0.22935479879379272 -1.3146049353263134e-11 0.0 1.998719927374967e-26 -0.5442396402359009 -0.7673661112785339 -0.22935479879379272 -1.3146049353263134e-11 0.0 -0.2985999973554403 -0.11235000099231761 0.3136499823461779 2.2214412195942916 2.2214412191386654 6.515886891884208e-08 0.0 0.0 0.0 0.0 0.0 0.0 9.240738067961096e-07 3.4768818278582924e-07 4.2531464706885504e-08 -2.847566213175549e-08 6.147405312801053e-08 -2.6501511484008074e-15 -0.2985999999832019 -0.1123500000156699 0.31364999997695653 2.221441469306996 2.22144146885137 4.5562572934807095e-10 0.0 0.0 0.0 0.0 0.0 0.0

195384.824 0.0 -1.5707963267948966 1.5707963267948972 -1.5707963267948966 -1.5707963267948966 0.0 0.0 0.0 0.0 0.0 0.0 0.0 0.0 0.0 0.0 0.0 0.0 0.0 1.9987199928536514e-26 -0.5442396572688689 -0.7673661111166267 -0.22935479646650192 -1.3146049461972202e-11 0.0 2.6243193506168444e-25 -7.14586669994025 -7.145866699940251 -1.0424175499402513 -5.974879480466366e-11 0.0 0.0 -1.570796314870016 1.5707963705062866 -1.570796314870016 -1.570796314870016 0.0 0.0 0.0 0.0 0.0 0.0 0.0 1.998719927374967e-26 -0.5442396402359009 -0.7673661112785339 -0.22935479879379272 -1.3146049353263134e-11 0.0 1.998719927374967e-26 -0.5442396402359009 -0.7673661112785339 -0.22935479879379272 -1.3146049353263134e-11 0.0 -0.2985999973554403 -0.11235000099231761 0.3136499823461779 2.2214412195942916 2.2214412191386654 6.515886891884208e-08 0.0 0.0 0.0 0.0 0.0 0.0 9.240738067961096e-07 3.4768818278582924e-07 4.2531464706885504e-08 -2.847566213175549e-08 6.147405312801053e-08 -2.6501511484008074e-15 -0.2985999999832019 -0.1123500000156699 0.31364999997695653 2.221441469306996 2.22144146885137 4.5562572934807095e-10 0.0 0.0 0.0 0.0 0.0 0.0

195384.832 0.0 -1.5707963267948966 1.5707963267948972 -1.5707963267948966 -1.5707963267948966 0.0 0.0 0.0 0.0 0.0 0.0 0.0 0.0 0.0 0.0 0.0 0.0 0.0 1.9987199928536514e-26 -0.5442396572688689 -0.7673661111166267 -0.22935479646650192 -1.3146049461972202e-11 0.0 2.6243193506168444e-25 -7.14586669994025 -7.145866699940251 -1.0424175499402513 -5.974879480466366e-11 0.0 0.0 -1.570796314870016 1.5707963705062866 -1.570796314870016 -1.570796314870016 0.0 0.0 0.0 0.0 0.0 0.0 0.0 1.998719927374967e-26 -0.5442396402359009 -0.7673661112785339 -0.22935479879379272 -1.3146049353263134e-11 0.0 1.998719927374967e-26 -0.5442396402359009 -0.7673661112785339 -0.22935479879379272 -1.3146049353263134e-11 0.0 -0.2985999973554403 -0.11235000099231761 0.3136499823461779 2.2214412195942916 2.2214412191386654 6.515886891884208e-08 0.0 0.0 0.0 0.0 0.0 0.0 9.240738067961096e-07 3.4768818278582924e-07 4.2531464706885504e-08 -2.847566213175549e-08 6.147405312801053e-08 -2.6501511484008074e-15 -0.2985999999832019 -0.1123500000156699 0.31364999997695653 2.221441469306996 2.22144146885137 4.5562572934807095e-10 0.0 0.0 0.0 0.0 0.0 0.0

195384.84 0.0 -1.5707963267948966 1.5707963267948972 -1.5707963267948966 -1.5707963267948966 0.0 0.0 0.0 0.0 0.0 0.0 0.0 0.0 0.0 0.0 0.0 0.0 0.0 1.9987199928536514e-26 -0.5442396572688689 -0.7673661111166267 -0.22935479646650192 -1.3146049461972202e-11 0.0 2.6243193506168444e-25 -7.14586669994025 -7.145866699940251 -1.0424175499402513 -5.974879480466366e-11 0.0 0.0 -1.570796314870016 1.5707963705062866 -1.570796314870016 -1.570796314870016 0.0 0.0 0.0 0.0 0.0 0.0 0.0 1.998719927374967e-26 -0.5442396402359009 -0.7673661112785339 -0.22935479879379272 -1.3146049353263134e-11 0.0 1.998719927374967e-26 -0.5442396402359009 -0.7673661112785339 -0.22935479879379272 -1.3146049353263134e-11 0.0 -0.2985999973554403 -0.11235000099231761 0.3136499823461779 2.2214412195942916 2.2214412191386654 6.515886891884208e-08 0.0 0.0 0.0 0.0 0.0 0.0 9.240738067961096e-07 3.4768818278582924e-07 4.2531464706885504e-08 -2.847566213175549e-08 6.147405312801053e-08 -2.6501511484008074e-15 -0.2985999999832019 -0.1123500000156699 0.31364999997695653 2.221441469306996 2.22144146885137 4.5562572934807095e-10 0.0 0.0 0.0 0.0 0.0 0.0

195384.848 0.0 -1.5707963267948966 1.5707963267948972 -1.5707963267948966 -1.5707963267948966 0.0 0.0 0.0 0.0 0.0 0.0 0.0 0.0 0.0 0.0 0.0 0.0 0.0 1.9987199928536514e-26 -0.5442396572688689 -0.7673661111166267 -0.22935479646650192 -1.3146049461972202e-11 0.0 2.6243193506168444e-25 -7.14586669994025 -7.145866699940251 -1.0424175499402513 -5.974879480466366e-11 0.0 0.0 -1.570796314870016 1.5707963705062866 -1.570796314870016 -1.570796314870016 0.0 0.0 0.0 0.0 0.0 0.0 0.0 1.998719927374967e-26 -0.5442396402359009 -0.7673661112785339 -0.22935479879379272 -1.3146049353263134e-11 0.0 1.998719927374967e-26 -0.5442396402359009 -0.7673661112785339 -0.22935479879379272 -1.3146049353263134e-11 0.0 -0.2985999973554403 -0.11235000099231761 0.3136499823461779 2.2214412195942916 2.2214412191386654 6.515886891884208e-08 0.0 0.0 0.0 0.0 0.0 0.0 9.240738067961096e-07 3.4768818278582924e-07 4.2531464706885504e-08 -2.847566213175549e-08 6.147405312801053e-08 -2.6501511484008074e-15 -0.2985999999832019 -0.1123500000156699 0.31364999997695653 2.221441469306996 2.22144146885137 4.5562572934807095e-10 0.0 0.0 0.0 0.0 0.0 0.0

195384.856 0.0 -1.5707963267948966 1.5707963267948972 -1.5707963267948966 -1.5707963267948966 0.0 0.0 0.0 0.0 0.0 0.0 0.0 0.0 0.0 0.0 0.0 0.0 0.0 1.9987199928536514e-26 -0.5442396572688689 -0.7673661111166267 -0.22935479646650192 -1.3146049461972202e-11 0.0 2.6243193506168444e-25 -7.14586669994025 -7.145866699940251 -1.0424175499402513 -5.974879480466366e-11 0.0 0.0 -1.570796314870016 1.5707963705062866 -1.570796314870016 -1.570796314870016 0.0 0.0 0.0 0.0 0.0 0.0 0.0 1.998719927374967e-26 -0.5442396402359009 -0.7673661112785339 -0.22935479879379272 -1.3146049353263134e-11 0.0 1.998719927374967e-26 -0.5442396402359009 -0.7673661112785339 -0.22935479879379272 -1.3146049353263134e-11 0.0 -0.2985999973554403 -0.11235000099231761 0.3136499823461779 2.2214412195942916 2.2214412191386654 6.515886891884208e-08 0.0 0.0 0.0 0.0 0.0 0.0 9.240738067961096e-07 3.4768818278582924e-07 4.2531464706885504e-08 -2.847566213175549e-08 6.147405312801053e-08 -2.6501511484008074e-15 -0.2985999999832019 -0.1123500000156699 0.31364999997695653 2.221441469306996 2.22144146885137 4.5562572934807095e-10 0.0 0.0 0.0 0.0 0.0 0.0

195384.864 0.0 -1.5707963267948966 1.5707963267948972 -1.5707963267948966 -1.5707963267948966 0.0 0.0 0.0 0.0 0.0 0.0 0.0 0.0 0.0 0.0 0.0 0.0 0.0 1.9987199928536514e-26 -0.5442396572688689 -0.7673661111166267 -0.22935479646650192 -1.3146049461972202e-11 0.0 2.6243193506168444e-25 -7.14586669994025 -7.145866699940251 -1.0424175499402513 -5.974879480466366e-11 0.0 0.0 -1.570796314870016 1.5707963705062866 -1.570796314870016 -1.570796314870016 0.0 0.0 0.0 0.0 0.0 0.0 0.0 1.998719927374967e-26 -0.5442396402359009 -0.7673661112785339 -0.22935479879379272 -1.3146049353263134e-11 0.0 1.998719927374967e-26 -0.5442396402359009 -0.7673661112785339 -0.22935479879379272 -1.3146049353263134e-11 0.0 -0.2985999973554403 -0.11235000099231761 0.3136499823461779 2.2214412195942916 2.2214412191386654 6.515886891884208e-08 0.0 0.0 0.0 0.0 0.0 0.0 9.240738067961096e-07 3.4768818278582924e-07 4.2531464706885504e-08 -2.847566213175549e-08 6.147405312801053e-08 -2.6501511484008074e-15 -0.2985999999832019 -0.1123500000156699 0.31364999997695653 2.221441469306996 2.22144146885137 4.5562572934807095e-10 0.0 0.0 0.0 0.0 0.0 0.0

195384.872 0.0 -1.5707963267948966 1.5707963267948972 -1.5707963267948966 -1.5707963267948966 0.0 0.0 0.0 0.0 0.0 0.0 0.0 0.0 0.0 0.0 0.0 0.0 0.0 1.9987199928536514e-26 -0.5442396572688689 -0.7673661111166267 -0.22935479646650192 -1.3146049461972202e-11 0.0 2.6243193506168444e-25 -7.14586669994025 -7.145866699940251 -1.0424175499402513 -5.974879480466366e-11 0.0 0.0 -1.570796314870016 1.5707963705062866 -1.570796314870016 -1.570796314870016 0.0 0.0 0.0 0.0 0.0 0.0 0.0 1.998719927374967e-26 -0.5442396402359009 -0.7673661112785339 -0.22935479879379272 -1.3146049353263134e-11 0.0 1.998719927374967e-26 -0.5442396402359009 -0.7673661112785339 -0.22935479879379272 -1.3146049353263134e-11 0.0 -0.2985999973554403 -0.11235000099231761 0.3136499823461779 2.2214412195942916 2.2214412191386654 6.515886891884208e-08 0.0 0.0 0.0 0.0 0.0 0.0 9.240738067961096e-07 3.4768818278582924e-07 4.2531464706885504e-08 -2.847566213175549e-08 6.147405312801053e-08 -2.6501511484008074e-15 -0.2985999999832019 -0.1123500000156699 0.31364999997695653 2.221441469306996 2.22144146885137 4.5562572934807095e-10 0.0 0.0 0.0 0.0 0.0 0.0

195384.88 0.0 -1.5707963267948966 1.5707963267948972 -1.5707963267948966 -1.5707963267948966 0.0 0.0 0.0 0.0 0.0 0.0 0.0 0.0 0.0 0.0 0.0 0.0 0.0 1.9987199928536514e-26 -0.5442396572688689 -0.7673661111166267 -0.22935479646650192 -1.3146049461972202e-11 0.0 2.6243193506168444e-25 -7.14586669994025 -7.145866699940251 -1.0424175499402513 -5.974879480466366e-11 0.0 0.0 -1.570796314870016 1.5707963705062866 -1.570796314870016 -1.570796314870016 0.0 0.0 0.0 0.0 0.0 0.0 0.0 1.998719927374967e-26 -0.5442396402359009 -0.7673661112785339 -0.22935479879379272 -1.3146049353263134e-11 0.0 1.998719927374967e-26 -0.5442396402359009 -0.7673661112785339 -0.22935479879379272 -1.3146049353263134e-11 0.0 -0.2985999973554403 -0.11235000099231761 0.3136499823461779 2.2214412195942916 2.2214412191386654 6.515886891884208e-08 0.0 0.0 0.0 0.0 0.0 0.0 9.240738067961096e-07 3.4768818278582924e-07 4.2531464706885504e-08 -2.847566213175549e-08 6.147405312801053e-08 -2.6501511484008074e-15 -0.2985999999832019 -0.1123500000156699 0.31364999997695653 2.221441469306996 2.22144146885137 4.5562572934807095e-10 0.0 0.0 0.0 0.0 0.0 0.0

195384.88799999998 0.0 -1.5707963267948966 1.5707963267948972 -1.5707963267948966 -1.5707963267948966 0.0 0.0 0.0 0.0 0.0 0.0 0.0 0.0 0.0 0.0 0.0 0.0 0.0 1.9987199928536514e-26 -0.5442396572688689 -0.7673661111166267 -0.22935479646650192 -1.3146049461972202e-11 0.0 2.6243193506168444e-25 -7.14586669994025 -7.145866699940251 -1.0424175499402513 -5.974879480466366e-11 0.0 0.0 -1.570796314870016 1.5707963705062866 -1.570796314870016 -1.570796314870016 0.0 0.0 0.0 0.0 0.0 0.0 0.0 1.998719927374967e-26 -0.5442396402359009 -0.7673661112785339 -0.22935479879379272 -1.3146049353263134e-11 0.0 1.998719927374967e-26 -0.5442396402359009 -0.7673661112785339 -0.22935479879379272 -1.3146049353263134e-11 0.0 -0.2985999973554403 -0.11235000099231761 0.3136499823461779 2.2214412195942916 2.2214412191386654 6.515886891884208e-08 0.0 0.0 0.0 0.0 0.0 0.0 9.240738067961096e-07 3.4768818278582924e-07 4.2531464706885504e-08 -2.847566213175549e-08 6.147405312801053e-08 -2.6501511484008074e-15 -0.2985999999832019 -0.1123500000156699 0.31364999997695653 2.221441469306996 2.22144146885137 4.5562572934807095e-10 0.0 0.0 0.0 0.0 0.0 0.0

195384.89599999998 0.0 -1.5707963267948966 1.5707963267948972 -1.5707963267948966 -1.5707963267948966 0.0 0.0 0.0 0.0 0.0 0.0 0.0 0.0 0.0 0.0 0.0 0.0 0.0 1.9987199928536514e-26 -0.5442396572688689 -0.7673661111166267 -0.22935479646650192 -1.3146049461972202e-11 0.0 2.6243193506168444e-25 -7.14586669994025 -7.145866699940251 -1.0424175499402513 -5.974879480466366e-11 0.0 0.0 -1.570796314870016 1.5707963705062866 -1.570796314870016 -1.570796314870016 0.0 0.0 0.0 0.0 0.0 0.0 0.0 1.998719927374967e-26 -0.5442396402359009 -0.7673661112785339 -0.22935479879379272 -1.3146049353263134e-11 0.0 1.998719927374967e-26 -0.5442396402359009 -0.7673661112785339 -0.22935479879379272 -1.3146049353263134e-11 0.0 -0.2985999973554403 -0.11235000099231761 0.3136499823461779 2.2214412195942916 2.2214412191386654 6.515886891884208e-08 0.0 0.0 0.0 0.0 0.0 0.0 9.240738067961096e-07 3.4768818278582924e-07 4.2531464706885504e-08 -2.847566213175549e-08 6.147405312801053e-08 -2.6501511484008074e-15 -0.2985999999832019 -0.1123500000156699 0.31364999997695653 2.221441469306996 2.22144146885137 4.5562572934807095e-10 0.0 0.0 0.0 0.0 0.0 0.0

195384.90399999998 0.0 -1.5707963267948966 1.5707963267948972 -1.5707963267948966 -1.5707963267948966 0.0 0.0 0.0 0.0 0.0 0.0 0.0 0.0 0.0 0.0 0.0 0.0 0.0 1.9987199928536514e-26 -0.5442396572688689 -0.7673661111166267 -0.22935479646650192 -1.3146049461972202e-11 0.0 2.6243193506168444e-25 -7.14586669994025 -7.145866699940251 -1.0424175499402513 -5.974879480466366e-11 0.0 0.0 -1.570796314870016 1.5707963705062866 -1.570796314870016 -1.570796314870016 0.0 0.0 0.0 0.0 0.0 0.0 0.0 1.998719927374967e-26 -0.5442396402359009 -0.7673661112785339 -0.22935479879379272 -1.3146049353263134e-11 0.0 1.998719927374967e-26 -0.5442396402359009 -0.7673661112785339 -0.22935479879379272 -1.3146049353263134e-11 0.0 -0.2985999973554403 -0.11235000099231761 0.3136499823461779 2.2214412195942916 2.2214412191386654 6.515886891884208e-08 0.0 0.0 0.0 0.0 0.0 0.0 9.240738067961096e-07 3.4768818278582924e-07 4.2531464706885504e-08 -2.847566213175549e-08 6.147405312801053e-08 -2.6501511484008074e-15 -0.2985999999832019 -0.1123500000156699 0.31364999997695653 2.221441469306996 2.22144146885137 4.5562572934807095e-10 0.0 0.0 0.0 0.0 0.0 0.0

195384.91199999998 0.0 -1.5707963267948966 1.5707963267948972 -1.5707963267948966 -1.5707963267948966 0.0 0.0 0.0 0.0 0.0 0.0 0.0 0.0 0.0 0.0 0.0 0.0 0.0 1.9987199928536514e-26 -0.5442396572688689 -0.7673661111166267 -0.22935479646650192 -1.3146049461972202e-11 0.0 2.6243193506168444e-25 -7.14586669994025 -7.145866699940251 -1.0424175499402513 -5.974879480466366e-11 0.0 0.0 -1.570796314870016 1.5707963705062866 -1.570796314870016 -1.570796314870016 0.0 0.0 0.0 0.0 0.0 0.0 0.0 1.998719927374967e-26 -0.5442396402359009 -0.7673661112785339 -0.22935479879379272 -1.3146049353263134e-11 0.0 1.998719927374967e-26 -0.5442396402359009 -0.7673661112785339 -0.22935479879379272 -1.3146049353263134e-11 0.0 -0.2985999973554403 -0.11235000099231761 0.3136499823461779 2.2214412195942916 2.2214412191386654 6.515886891884208e-08 0.0 0.0 0.0 0.0 0.0 0.0 9.240738067961096e-07 3.4768818278582924e-07 4.2531464706885504e-08 -2.847566213175549e-08 6.147405312801053e-08 -2.6501511484008074e-15 -0.2985999999832019 -0.1123500000156699 0.31364999997695653 2.221441469306996 2.22144146885137 4.5562572934807095e-10 0.0 0.0 0.0 0.0 0.0 0.0

195384.91999999998 0.0 -1.5707963267948966 1.5707963267948972 -1.5707963267948966 -1.5707963267948966 0.0 0.0 0.0 0.0 0.0 0.0 0.0 0.0 0.0 0.0 0.0 0.0 0.0 1.9987199928536514e-26 -0.5442396572688689 -0.7673661111166267 -0.22935479646650192 -1.3146049461972202e-11 0.0 2.6243193506168444e-25 -7.14586669994025 -7.145866699940251 -1.0424175499402513 -5.974879480466366e-11 0.0 0.0 -1.570796314870016 1.5707963705062866 -1.570796314870016 -1.570796314870016 0.0 0.0 0.0 0.0 0.0 0.0 0.0 1.998719927374967e-26 -0.5442396402359009 -0.7673661112785339 -0.22935479879379272 -1.3146049353263134e-11 0.0 1.998719927374967e-26 -0.5442396402359009 -0.7673661112785339 -0.22935479879379272 -1.3146049353263134e-11 0.0 -0.2985999973554403 -0.11235000099231761 0.3136499823461779 2.2214412195942916 2.2214412191386654 6.515886891884208e-08 0.0 0.0 0.0 0.0 0.0 0.0 9.240738067961096e-07 3.4768818278582924e-07 4.2531464706885504e-08 -2.847566213175549e-08 6.147405312801053e-08 -2.6501511484008074e-15 -0.2985999999832019 -0.1123500000156699 0.31364999997695653 2.221441469306996 2.22144146885137 4.5562572934807095e-10 0.0 0.0 0.0 0.0 0.0 0.0

195384.92799999999 0.0 -1.5707963267948966 1.5707963267948972 -1.5707963267948966 -1.5707963267948966 0.0 0.0 0.0 0.0 0.0 0.0 0.0 0.0 0.0 0.0 0.0 0.0 0.0 1.9987199928536514e-26 -0.5442396572688689 -0.7673661111166267 -0.22935479646650192 -1.3146049461972202e-11 0.0 2.6243193506168444e-25 -7.14586669994025 -7.145866699940251 -1.0424175499402513 -5.974879480466366e-11 0.0 0.0 -1.570796314870016 1.5707963705062866 -1.570796314870016 -1.570796314870016 0.0 0.0 0.0 0.0 0.0 0.0 0.0 1.998719927374967e-26 -0.5442396402359009 -0.7673661112785339 -0.22935479879379272 -1.3146049353263134e-11 0.0 1.998719927374967e-26 -0.5442396402359009 -0.7673661112785339 -0.22935479879379272 -1.3146049353263134e-11 0.0 -0.2985999973554403 -0.11235000099231761 0.3136499823461779 2.2214412195942916 2.2214412191386654 6.515886891884208e-08 0.0 0.0 0.0 0.0 0.0 0.0 9.240738067961096e-07 3.4768818278582924e-07 4.2531464706885504e-08 -2.847566213175549e-08 6.147405312801053e-08 -2.6501511484008074e-15 -0.2985999999832019 -0.1123500000156699 0.31364999997695653 2.221441469306996 2.22144146885137 4.5562572934807095e-10 0.0 0.0 0.0 0.0 0.0 0.0

195384.936 0.0 -1.5707963267948966 1.5707963267948972 -1.5707963267948966 -1.5707963267948966 0.0 0.0 0.0 0.0 0.0 0.0 0.0 0.0 0.0 0.0 0.0 0.0 0.0 1.9987199928536514e-26 -0.5442396572688689 -0.7673661111166267 -0.22935479646650192 -1.3146049461972202e-11 0.0 2.6243193506168444e-25 -7.14586669994025 -7.145866699940251 -1.0424175499402513 -5.974879480466366e-11 0.0 0.0 -1.570796314870016 1.5707963705062866 -1.570796314870016 -1.570796314870016 0.0 0.0 0.0 0.0 0.0 0.0 0.0 1.998719927374967e-26 -0.5442396402359009 -0.7673661112785339 -0.22935479879379272 -1.3146049353263134e-11 0.0 1.998719927374967e-26 -0.5442396402359009 -0.7673661112785339 -0.22935479879379272 -1.3146049353263134e-11 0.0 -0.2985999973554403 -0.11235000099231761 0.3136499823461779 2.2214412195942916 2.2214412191386654 6.515886891884208e-08 0.0 0.0 0.0 0.0 0.0 0.0 9.240738067961096e-07 3.4768818278582924e-07 4.2531464706885504e-08 -2.847566213175549e-08 6.147405312801053e-08 -2.6501511484008074e-15 -0.2985999999832019 -0.1123500000156699 0.31364999997695653 2.221441469306996 2.22144146885137 4.5562572934807095e-10 0.0 0.0 0.0 0.0 0.0 0.0

195384.944 0.0 -1.5707963267948966 1.5707963267948972 -1.5707963267948966 -1.5707963267948966 0.0 0.0 0.0 0.0 0.0 0.0 0.0 0.0 0.0 0.0 0.0 0.0 0.0 1.9987199928536514e-26 -0.5442396572688689 -0.7673661111166267 -0.22935479646650192 -1.3146049461972202e-11 0.0 2.6243193506168444e-25 -7.14586669994025 -7.145866699940251 -1.0424175499402513 -5.974879480466366e-11 0.0 0.0 -1.570796314870016 1.5707963705062866 -1.570796314870016 -1.570796314870016 0.0 0.0 0.0 0.0 0.0 0.0 0.0 1.998719927374967e-26 -0.5442396402359009 -0.7673661112785339 -0.22935479879379272 -1.3146049353263134e-11 0.0 1.998719927374967e-26 -0.5442396402359009 -0.7673661112785339 -0.22935479879379272 -1.3146049353263134e-11 0.0 -0.2985999973554403 -0.11235000099231761 0.3136499823461779 2.2214412195942916 2.2214412191386654 6.515886891884208e-08 0.0 0.0 0.0 0.0 0.0 0.0 9.240738067961096e-07 3.4768818278582924e-07 4.2531464706885504e-08 -2.847566213175549e-08 6.147405312801053e-08 -2.6501511484008074e-15 -0.2985999999832019 -0.1123500000156699 0.31364999997695653 2.221441469306996 2.22144146885137 4.5562572934807095e-10 0.0 0.0 0.0 0.0 0.0 0.0

195384.952 0.0 -1.5707963267948966 1.5707963267948972 -1.5707963267948966 -1.5707963267948966 0.0 0.0 0.0 0.0 0.0 0.0 0.0 0.0 0.0 0.0 0.0 0.0 0.0 1.9987199928536514e-26 -0.5442396572688689 -0.7673661111166267 -0.22935479646650192 -1.3146049461972202e-11 0.0 2.6243193506168444e-25 -7.14586669994025 -7.145866699940251 -1.0424175499402513 -5.974879480466366e-11 0.0 0.0 -1.570796314870016 1.5707963705062866 -1.570796314870016 -1.570796314870016 0.0 0.0 0.0 0.0 0.0 0.0 0.0 1.998719927374967e-26 -0.5442396402359009 -0.7673661112785339 -0.22935479879379272 -1.3146049353263134e-11 0.0 1.998719927374967e-26 -0.5442396402359009 -0.7673661112785339 -0.22935479879379272 -1.3146049353263134e-11 0.0 -0.2985999973554403 -0.11235000099231761 0.3136499823461779 2.2214412195942916 2.2214412191386654 6.515886891884208e-08 0.0 0.0 0.0 0.0 0.0 0.0 9.240738067961096e-07 3.4768818278582924e-07 4.2531464706885504e-08 -2.847566213175549e-08 6.147405312801053e-08 -2.6501511484008074e-15 -0.2985999999832019 -0.1123500000156699 0.31364999997695653 2.221441469306996 2.22144146885137 4.5562572934807095e-10 0.0 0.0 0.0 0.0 0.0 0.0

195384.96 0.0 -1.5707963267948966 1.5707963267948972 -1.5707963267948966 -1.5707963267948966 0.0 0.0 0.0 0.0 0.0 0.0 0.0 0.0 0.0 0.0 0.0 0.0 0.0 1.9987199928536514e-26 -0.5442396572688689 -0.7673661111166267 -0.22935479646650192 -1.3146049461972202e-11 0.0 2.6243193506168444e-25 -7.14586669994025 -7.145866699940251 -1.0424175499402513 -5.974879480466366e-11 0.0 0.0 -1.570796314870016 1.5707963705062866 -1.570796314870016 -1.570796314870016 0.0 0.0 0.0 0.0 0.0 0.0 0.0 1.998719927374967e-26 -0.5442396402359009 -0.7673661112785339 -0.22935479879379272 -1.3146049353263134e-11 0.0 1.998719927374967e-26 -0.5442396402359009 -0.7673661112785339 -0.22935479879379272 -1.3146049353263134e-11 0.0 -0.2985999973554403 -0.11235000099231761 0.3136499823461779 2.2214412195942916 2.2214412191386654 6.515886891884208e-08 0.0 0.0 0.0 0.0 0.0 0.0 9.240738067961096e-07 3.4768818278582924e-07 4.2531464706885504e-08 -2.847566213175549e-08 6.147405312801053e-08 -2.6501511484008074e-15 -0.2985999999832019 -0.1123500000156699 0.31364999997695653 2.221441469306996 2.22144146885137 4.5562572934807095e-10 0.0 0.0 0.0 0.0 0.0 0.0

195384.968 8e-08 -1.5707963001282295 1.570796273461564 -1.5707963267948966 -1.5707963267948966 0.0 4e-05 1.3333333333333343e-05 -2.6666666666666687e-05 0.0 0.0 0.0 0.005 0.0016666666666666679 -0.0033333333333333357 0.0 0.0 0.0 0.0003133389400600783 -0.544193677720138 -0.767473198544683 -0.22936570564787945 9.744728337829774e-06 0.0 0.004114140282988828 -7.145262988465413 -7.146863919487797 -1.0424671321696122 4.428979029543632e-05 0.0 7.999999951380232e-08 -1.570796314870016 1.570796251296997 -1.570796314870016 -1.570796314870016 0.0 3.9999998989515007e-05 1.3333333299669903e-05 -2.6666666599339806e-05 0.0 0.0 0.0 0.0003133389400318265 -0.544193685054779 -0.7674732208251953 -0.22936570644378662 9.744728231453337e-06 0.0 0.0003133389400318265 -0.544193685054779 -0.7674732208251953 -0.22936570644378662 9.744728231453337e-06 0.0 -0.2985999981306801 -0.11235002488031767 0.3136500179420717 -2.221441255655059 -2.22144143291474 7.450432612372198e-08 1.5333446551203825e-07 -1.1943999971566284e-05 3.981333340717257e-06 -1.0666666574909555e-12 1.333333329966986e-05 3.999999899224972e-05 4.5629694188538374e-07 1.716831933012722e-07 -9.559821568042037e-07 -1.4061344151940404e-08 1.1534640053935179e-07 -6.284763740737969e-16 -0.2985999996765343 -0.11235002390367022 0.31365000793962305 -2.2214412966735426 -2.2214414739332278 2.7745824583723093e-08 1.5333439564904002e-07 -1.1944000335131282e-05 3.981333275598249e-06 -1.0666666666666665e-12 1.3333333333333301e-05 4.0000000002734714e-05

195384.976 7.200000000000001e-07 -1.5707960867948962 1.5707958467948973 -1.5707963267948966 -1.5707963267948966 0.0 0.00018000000000000004 6.0000000000000056e-05 -0.00012000000000000011 0.0 0.0 0.0 0.017500000000000005 0.005833333333333339 -0.011666666666666678 0.0 0.0 0.0 0.001096686669821742 -0.5440788608925056 -0.7677409215988231 -0.22939298792418056 3.4106603498871714e-05 0.0 0.014399495974759473 -7.1437554435185975 -7.149357010112561 -1.0425911301154007 0.00015501451290237194 0.0 7.200000027296483e-07 -1.570796314870016 1.5707958936691284 -1.570796314870016 -1.570796314870016 0.0 0.00018000000272877514 5.999999848427251e-05 -0.00011999999696854502 0.0 0.0 0.0 0.0010966866975650191 -0.5440788865089417 -0.7677409052848816 -0.22939299046993256 3.410660428926349e-05 0.0 0.0010966866975650191 -0.5440788865089417 -0.7677409052848816 -0.22939299046993256 3.410660428926349e-05 0.0 -0.2985999555162996 -0.11235021598431554 0.31365012472976 -2.2214394212741384 -2.221441020255484 4.673750810548612e-07 6.900471623734426e-07 -5.3748006875175004e-05 1.791600138324675e-05 -4.319999907245136e-11 5.999999848425696e-05 0.00018000000274108135 -2.003949773321731e-06 -7.527795596402504e-07 7.666556113505409e-07 6.165629442842702e-08 -2.411279413894993e-07 -2.2395758873157153e-14 -0.298599997223116 -0.11235021500769701 0.3136500716409518 -2.221439915606478 -2.221441514588167 2.6615439158468363e-07 6.900430012310643e-07 -5.3748013567592424e-05 1.791599766979162e-05 -4.3199999999996313e-11 5.9999999999984504e-05 0.00018000000001230625

195384.984 2.8800000000000004e-06 -1.570795366794897 1.5707944067948971 -1.5707963267948966 -1.5707963267948966 0.0 0.00048000000000000007 0.00016000000000000012 -0.00032000000000000024 0.0 0.0 0.0 0.037500000000000006 0.01250000000000001 -0.02500000000000002 0.0 0.0 0.0 0.002350045281144891 -0.5438954959782318 -0.7681692897263043 -0.22943666340022273 7.308573150341057e-05 0.0 0.030856094541432417 -7.141347862194185 -7.153346059789292 -1.0427896351540122 0.00033217464968300105 0.0 2.880000010918593e-06 -1.5707953611956995 1.5707944631576538 -1.570796314870016 -1.570796314870016 0.0 0.0004799999878741801 0.00015999999595806003 -0.00031999999191612005 0.0 0.0 0.0 0.002350045368075371 -0.5438954830169678 -0.7681692838668823 -0.22943666577339172 7.308572821784765e-05 0.0 0.002350045368075371 -0.5438954830169678 -0.7681692838668823 -0.22943666577339172 7.308572821784765e-05 0.0 -0.2985999842547526 -0.11235086096074152 0.3136502671132472 -2.221435524096764 -2.221441921384697 9.970266636963039e-07 1.840455956720985e-06 -0.0001433281388446243 4.77759727590784e-05 -4.607999901055507e-10 0.00015999999595739647 0.0004799999879069966 4.74521190267616e-07 1.8236529659529986e-07 3.064481654183572e-07 -1.495054399668494e-08 1.9218233215281978e-09 1.3222278710217602e-14 -0.2985999889418258 -0.11235085998410405 0.3136502866328822 -2.2214352545126794 -2.221441651799799 1.065902158699357e-06 1.8404586575699778e-06 -0.00014332814471518335 4.777597515249036e-05 -4.607999999993634e-10 0.00015999999999933656 0.0004800000000328166

195384.992 8e-06 -1.5707936601282295 1.5707909934615638 -1.5707963267948966 -1.5707963267948966 0.0 0.001 0.00033333333333333354 -0.0006666666666666671 0.0 0.0 0.0 0.06499999999999999 0.021666666666666678 -0.043333333333333356 0.0 0.0 0.0 0.004073421145519699 -0.5436440195009882 -0.768758316244258 -0.22949676164353844 0.00012668247688803167 0.0 0.053484019640673654 -7.138045976047975 -7.158831192529781 -1.043062781669882 0.0005757718574561039 0.0 7.999999979801942e-06 -1.5707934538470667 1.5707910060882568 -1.570796314870016 -1.570796314870016 0.0 0.0010000000474974513 0.00033333332976326346 -0.0006666666595265269 0.0 0.0 0.0 0.0040734210051596165 -0.5436440110206604 -0.7687582969665527 -0.2294967621564865 0.00012668248382396996 0.0 0.0040734210051596165 -0.5436440110206604 -0.7687582969665527 -0.2294967621564865 0.00012668248382396996 0.0 -0.2986000006612866 -0.11235238979591228 0.31365072985918624 -2.2214313715764384 -2.221449142642859 2.718428985006215e-06 3.835972926150983e-06 -0.0002986008829958157 9.953316542843566e-05 -2.666666631344977e-09 0.0003333333297525968 0.0010000000475658191 -2.7979283199266405e-07 -1.1144789784392022e-07 8.527518992956989e-07 9.159708386697996e-09 -9.802886822008062e-08 -2.1158862441777485e-14 -0.29859996930591837 -0.11235238881901977 0.3136507962430479 -2.2214312501859794 -2.2214490212514413 2.9615068352612697e-06 3.835987578433721e-06 -0.0002986008374575429 9.95331895496024e-05 -2.6666666666382235e-09 0.0003333333333226669 0.0010000000000683679

195385.0 1.8e-05 -1.5707903267948966 1.5707843267948973 -1.5707963267948966 -1.5707963267948966 0.0 0.0018 0.0006000000000000004 -0.0012000000000000008 0.0 0.0 0.0 0.09999999999999999 0.033333333333333354 -0.06666666666666671 0.0 0.0 0.0 0.006266828750190257 -0.5433250184902465 -0.7695080173319123 -0.22957332099875968 0.00019489767055744708 0.0 0.08228346148999807 -7.133857492776937 -7.165812558998234 -1.0434107439393627 0.000885809912683597 0.0 1.8000000636675395e-05 -1.5707901159869593 1.570784330368042 -1.570796314870016 -1.570796314870016 0.0 0.0017999999690800905 0.0006000000284984708 -0.0012000000569969416 0.0 0.0 0.0 0.006266828626394272 -0.5433250069618225 -0.7695080041885376 -0.2295733243227005 0.000194897671462968 0.0 0.006266828626394272 -0.5433250069618225 -0.7695080041885376 -0.2295733243227005 0.000194897671462968 0.0 -0.29859996375864295 -0.11235537581005703 0.3136517265416426 -2.2214185954031525 -2.221458580843607 6.425773029808288e-06 6.910699682551318e-06 -0.0005374834414912639 0.00017915938425785256 -1.0800000894394529e-08 0.0006000000284012708 0.0017999999692031527 1.1891370760035802e-07 3.930064875199726e-08 6.447873312461166e-07 -3.2133444107144574e-09 -6.040124048200719e-08 1.9266373894930432e-14 -0.29859993092945347 -0.11235537483262828 0.3136517915740449 -2.2214184762804883 -2.2214584617173077 6.663940219533409e-06 6.910749693890509e-06 -0.0005374833916304129 0.00017915941768669648 -1.0799999999416807e-08 0.0005999999999028004 0.001800000000123062

195385.008 3.5279999999999994e-05 -1.570784566794897 1.5707728067948972 -1.5707963267948966 -1.5707963267948966 0.0 0.0029399999999999995 0.0009800000000000006 -0.0019600000000000012 0.0 0.0 0.0 0.14249999999999993 0.04750000000000003 -0.09500000000000006 0.0 0.0 0.0 0.008930295793118147 -0.5429392346639994 -0.7704184106923536 -0.2296663876827467 0.0002777329035485734 0.0 0.11725478376364129 -7.128792151138312 -7.174290324049336 -1.0438337320180837 0.0012622960466282661 0.0 3.5280001611681655e-05 -1.5707843939410608 1.5707727670669556 -1.570796314870016 -1.570796314870016 0.0 0.002940000034868717 0.0009800000116229057 -0.0019600000232458115 0.0 0.0 0.0 0.008930295705795288 -0.5429392457008362 -0.7704184055328369 -0.22966638207435608 0.0002777329063974321 0.0 0.008930295705795288 -0.5429392457008362 -0.7704184055328369 -0.22966638207435608 0.0002777329063974321 0.0 -0.2985998947731611 -0.11236053566701136 0.3136534707319532 -2.221396481400997 -2.221474853199461 1.2913965133851158e-05 1.1304376567531823e-05 -0.0008778949566814725 0.0002926260863823615 -3.457440198233182e-08 0.0009800000110130132 0.0029400000350697187 -7.919467735992274e-07 -3.018433733643327e-07 1.0578325765683224e-07 2.4733339657375864e-08 -4.8398221546516426e-08 -2.866843526080634e-13 -0.2985998645367214 -0.11236053468881566 0.31365351150177156 -2.221396402927047 -2.2214747747190073 1.3061809873433237e-05 1.130441351100917e-05 -0.000877894857372487 0.00029262613582690353 -3.457439999282768e-08 0.0009799999993901083 0.002940000000201001

195385.016 6.272e-05 -1.5707754201282302 1.570754513461564 -1.5707963267948966 -1.5707963267948966 0.0 0.00448 0.0014933333333333341 -0.0029866666666666683 0.0 0.0 0.0 0.1925 0.06416666666666669 -0.12833333333333338 0.0 0.0 0.0 0.01206386953697789 -0.542487569618753 -0.7714895138816185 -0.22977601465977562 0.0003751908935144946 0.0 0.1583986070205197 -7.122861789094228 -7.184264651168408 -1.0443319866286802 0.0017052426110233778 0.0 6.271999882301316e-05 -1.570775334035055 1.5707545280456543 -1.570796314870016 -1.570796314870016 0.0 0.004480000119656324 0.0014933333732187748 -0.0029866667464375496 0.0 0.0 0.0 0.012063869275152683 -0.5424875617027283 -0.7714895009994507 -0.22977600991725922 0.00037519089528359473 0.0 0.012063869275152683 -0.5424875617027283 -0.7714895009994507 -0.22977600991725922 0.00037519089528359473 0.0 -0.29859977065915705 -0.11236872939058887 0.31365621159162116 -2.2213614133295705 -2.22150074102882 2.3109812107621848e-05 1.7266518592127422e-05 -0.0013377574994129452 0.0004459042500890261 -9.366186734924e-08 0.0014933333702815388 0.004480000119962612 -6.577354528986802e-08 -3.626498542937315e-08 4.6146249735055656e-07 2.979261713023023e-09 -2.3218609029536183e-08 -6.164794848055579e-14 -0.2985997589039515 -0.11236872841355532 0.313656242672273 -2.221361351069412 -2.221500678767095 2.3221632281715846e-05 1.7266560166306292e-05 -0.00133775741101712 0.0004459042832751537 -9.366186660525889e-08 0.001493333330396098 0.004480000000306288

195385.024 0.00010368 -1.570761766794897 1.5707272067948972 -1.5707963267948966 -1.5707963267948966 0.0 0.006479999999999999 0.0021600000000000013 -0.004320000000000003 0.0 0.0 0.0 0.2499999999999999 0.0833333333333334 -0.1666666666666668 0.0 0.0 0.0 0.015667624422543474 -0.5419710910260976 -0.7727213423026835 -0.22990226029601132 0.00048727592384173706 0.0 0.20571590866799583 -7.116080425172662 -7.19573568379105 -1.0449057730453715 0.0022146690738606947 0.0 0.00010368000221205875 -1.5707619825946253 1.5707272291183472 -1.570796314870016 -1.570796314870016 0.0 0.006479999981820583 0.00215999991632998 -0.00431999983265996 0.0 0.0 0.0 0.015667624771595 -0.5419710874557495 -0.7727213501930237 -0.2299022674560547 0.00048727591638453305 0.0 0.015667624771595 -0.5419710874557495 -0.7727213501930237 -0.2299022674560547 0.00048727591638453305 0.0 -0.29859956304706803 -0.1123809603996435 0.31366037625291227 -2.2213089436127857 -2.221539260413649 3.860265098259304e-05 2.506306574077321e-05 -0.0019349980674555412 0.0006449640457071999 -2.239487957019145e-07 0.002159999904720474 0.0064799999822636066 4.939528818136278e-07 2.012545449497069e-07 -1.919704078978831e-07 -1.6514965073095467e-08 2.4296096278158383e-08 5.73379838796278e-13 -0.2985996007599288 -0.11238095942624526 0.31366031949635753 -2.221309028420303 -2.2215393452245853 3.8387746396959034e-05 2.5062911651933352e-05 -0.0019349983172772228 0.0006449639250057422 -2.239487995987756e-07 0.0021599999883904954 0.006480000000443022

195385.03199999998 0.00016199999999999998 -1.5707423267948961 1.5706883267948972 -1.5707963267948966 -1.5707963267948966 0.0 0.008999999999999998 0.0030000000000000014 -0.006000000000000003 0.0 0.0 0.0 0.31499999999999984 0.105 -0.21 0.0 0.0 0.0 0.01974167094207192 -0.5413910398358215 -0.7741139068619275 -0.23004518679245206 0.0006139943552551051 0.0 0.25920813946940435 -7.1084643530443365 -7.208703523479642 -1.0455553739716945 0.002790604344634453 0.0 0.00016199999663513154 -1.570742432271139 1.5706883668899536 -1.570796314870016 -1.570796314870016 0.0 0.008999999612569809 0.003000000026077032 -0.006000000052154064 0.0 0.0 0.0 0.019741671159863472 -0.5413910150527954 -0.7741138935089111 -0.23004518449306488 0.0006139943725429475 0.0 0.019741671159863472 -0.5413910150527954 -0.7741138935089111 -0.23004518449306488 0.0006139943725429475 0.0 -0.29859935330745724 -0.11239837556123182 0.3136661426477728 -2.2212345084698977 -2.2215943771480533 6.0055214078032353e-05 3.4983770966180715e-05 -0.002687552273716152 0.0008957738931589913 -4.859999920041099e-07 0.0029999999867110338 0.008999999613185119 8.25099635798773e-07 3.2016437040775737e-07 5.340479758437749e-07 -2.6137196045278104e-08 3.2439222318067034e-08 1.4121361180764202e-12 -0.2985993746294519 -0.11239837458904307 0.31366612414111616 -2.221234529228909 -2.2215943979171873 5.9982595005631655e-05 3.4983758740312e-05 -0.0026875525813114115 0.0008957737951435426 -4.859999978742361e-07 0.0029999999606340018 0.009000000000615307

195385.03999999998 0.00024199999999999997 -1.5707156601282302 1.570634993461564 -1.5707963267948966 -1.5707963267948966 0.0 0.012099999999999998 0.004033333333333335 -0.00806666666666667 0.0 0.0 0.0 0.3875 0.1291666666666667 -0.2583333333333334 0.0 0.0 0.0 0.02428616577362963 -0.5407488384866523 -0.7756672112858927 -0.230204858395571 0.0007553552096824113 0.0 0.31887735660775707 -7.100032249329745 -7.22316820493649 -1.0462810814078702 0.003433089428006559 0.0 0.00024199999461416155 -1.5707157293902796 1.5706349611282349 -1.570796314870016 -1.570796314870016 0.0 0.01209999993443489 0.004033333156257868 -0.008066666312515736 0.0 0.0 0.0 0.024286165833473206 -0.5407488346099854 -0.7756671905517578 -0.23020486533641815 0.0007553552277386189 0.0 0.024286165833473206 -0.5407488346099854 -0.7756671905517578 -0.23020486533641815 0.0007553552277386189 0.0 -0.2985990530672009 -0.11242226525279991 0.3136741158378781 -2.221132295292288 -2.221669873890889 8.971975005665058e-05 4.7355105299287095e-05 -0.003613366257721436 0.001204300747890297 -9.76066592564463e-07 0.004033333038153812 0.01209999993526214 -5.835734190119844e-07 -2.170882272480646e-07 1.0533956101481832e-06 1.7890984650902107e-08 -1.6925104917366158e-07 -1.439515374223334e-12 -0.2985990626008826 -0.11242226428006766 0.3136740865173332 -2.221132334151134 -2.2216699127700363 8.960689358312676e-05 4.7354925009009325e-05 -0.0036133663927063004 0.0012043007030860984 -9.760666571396056e-07 0.004033333215229269 0.012100000000827248

