mkrssg/UniversalRobots/rtde_client_3.5/examples/simulation/movel_distance-y=400_simu.csv
timestamp target_q_0 target_q_1 target_q_2 target_q_3 target_q_4 target_q_5 target_qd_0 target_qd_1 target_qd_2 target_qd_3 target_qd_4 target_qd_5 target_qdd_0 target_qdd_1 target_qdd_2 target_qdd_3 target_qdd_4 target_qdd_5 target_current_0 target_current_1 target_current_2 target_current_3 target_current_4 target_current_5 target_moment_0 target_moment_1 target_moment_2 target_moment_3 target_moment_4 target_moment_5 actual_q_0 actual_q_1 actual_q_2 actual_q_3 actual_q_4 actual_q_5 actual_qd_0 actual_qd_1 actual_qd_2 actual_qd_3 actual_qd_4 actual_qd_5 actual_current_0 actual_current_1 actual_current_2 actual_current_3 actual_current_4 actual_current_5 joint_control_output_0 joint_control_output_1 joint_control_output_2 joint_control_output_3 joint_control_output_4 joint_control_output_5 actual_TCP_pose_0 actual_TCP_pose_1 actual_TCP_pose_2 actual_TCP_pose_3 actual_TCP_pose_4 actual_TCP_pose_5 actual_TCP_speed_0 actual_TCP_speed_1 actual_TCP_speed_2 actual_TCP_speed_3 actual_TCP_speed_4 actual_TCP_speed_5 actual_TCP_force_0 actual_TCP_force_1 actual_TCP_force_2 actual_TCP_force_3 actual_TCP_force_4 actual_TCP_force_5 target_TCP_pose_0 target_TCP_pose_1 target_TCP_pose_2 target_TCP_pose_3 target_TCP_pose_4 target_TCP_pose_5 target_TCP_speed_0 target_TCP_speed_1 target_TCP_speed_2 target_TCP_speed_3 target_TCP_speed_4 target_TCP_speed_5

232418.504 0.3161706401720355 -1.56409359189949 1.628110407694094 -1.634786622958046 -1.5707440192600224 0.3161706394779721 0.0 0.0 0.0 0.0 0.0 0.0 0.0 0.0 0.0 0.0 0.0 0.0 2.793533715360294e-19 -0.5491560746677138 -0.766022724096804 -0.22935309661868195 3.3526213231617217e-06 0.0 3.667909768268066e-18 -7.210419260387082 -7.133356811334259 -1.0424098241319093 1.5237663913770023e-05 0.0 0.3161706328392029 -1.5640934149371546 1.628110408782959 -1.6347864309894007 -1.5707438627826136 0.3161706328392029 0.0 0.0 0.0 0.0 0.0 0.0 2.793533685198771e-19 -0.5491560697555542 -0.7660227417945862 -0.22935310006141663 3.352621433805325e-06 0.0 2.793533685198771e-19 -0.5491560697555542 -0.7660227417945862 -0.22935310006141663 3.352621433805325e-06 0.0 -0.25000000734868855 -0.2000000135749509 0.2999999302396414 2.2213997840713846 2.221399782048772 4.0768586060112275e-07 0.0 0.0 0.0 0.0 0.0 0.0 7.884023273517225e-07 6.306943310512587e-07 -6.40281229068635e-07 -6.378272159290594e-08 1.0163779772062043e-07 -6.8887752765962895e-12 -0.2500000000000002 -0.1999999999999998 0.29999999999999993 2.221400000290394 2.2213999998359646 4.3117272452176497e-10 0.0 0.0 0.0 0.0 0.0 0.0

232418.512 0.3161706401720355 -1.56409359189949 1.628110407694094 -1.634786622958046 -1.5707440192600224 0.3161706394779721 0.0 0.0 0.0 0.0 0.0 0.0 0.0 0.0 0.0 0.0 0.0 0.0 2.793533715360294e-19 -0.5491560746677138 -0.766022724096804 -0.22935309661868195 3.3526213231617217e-06 0.0 3.667909768268066e-18 -7.210419260387082 -7.133356811334259 -1.0424098241319093 1.5237663913770023e-05 0.0 0.3161706328392029 -1.5640934149371546 1.628110408782959 -1.6347864309894007 -1.5707438627826136 0.3161706328392029 0.0 0.0 0.0 0.0 0.0 0.0 2.793533685198771e-19 -0.5491560697555542 -0.7660227417945862 -0.22935310006141663 3.352621433805325e-06 0.0 2.793533685198771e-19 -0.5491560697555542 -0.7660227417945862 -0.22935310006141663 3.352621433805325e-06 0.0 -0.25000000734868855 -0.2000000135749509 0.2999999302396414 2.2213997840713846 2.221399782048772 4.0768586060112275e-07 0.0 0.0 0.0 0.0 0.0 0.0 7.884023273517225e-07 6.306943310512587e-07 -6.40281229068635e-07 -6.378272159290594e-08 1.0163779772062043e-07 -6.8887752765962895e-12 -0.2500000000000002 -0.1999999999999998 0.29999999999999993 2.221400000290394 2.2213999998359646 4.3117272452176497e-10 0.0 0.0 0.0 0.0 0.0 0.0

232418.52 0.3161706401720355 -1.56409359189949 1.628110407694094 -1.634786622958046 -1.5707440192600224 0.3161706394779721 0.0 0.0 0.0 0.0 0.0 0.0 0.0 0.0 0.0 0.0 0.0 0.0 2.793533715360294e-19 -0.5491560746677138 -0.766022724096804 -0.22935309661868195 3.3526213231617217e-06 0.0 3.667909768268066e-18 -7.210419260387082 -7.133356811334259 -1.0424098241319093 1.5237663913770023e-05 0.0 0.3161706328392029 -1.5640934149371546 1.628110408782959 -1.6347864309894007 -1.5707438627826136 0.3161706328392029 0.0 0.0 0.0 0.0 0.0 0.0 2.793533685198771e-19 -0.5491560697555542 -0.7660227417945862 -0.22935310006141663 3.352621433805325e-06 0.0 2.793533685198771e-19 -0.5491560697555542 -0.7660227417945862 -0.22935310006141663 3.352621433805325e-06 0.0 -0.25000000734868855 -0.2000000135749509 0.2999999302396414 2.2213997840713846 2.221399782048772 4.0768586060112275e-07 0.0 0.0 0.0 0.0 0.0 0.0 7.884023273517225e-07 6.306943310512587e-07 -6.40281229068635e-07 -6.378272159290594e-08 1.0163779772062043e-07 -6.8887752765962895e-12 -0.2500000000000002 -0.1999999999999998 0.29999999999999993 2.221400000290394 2.2213999998359646 4.3117272452176497e-10 0.0 0.0 0.0 0.0 0.0 0.0

232418.528 0.3161706401720355 -1.56409359189949 1.628110407694094 -1.634786622958046 -1.5707440192600224 0.3161706394779721 0.0 0.0 0.0 0.0 0.0 0.0 0.0 0.0 0.0 0.0 0.0 0.0 2.793533715360294e-19 -0.5491560746677138 -0.766022724096804 -0.22935309661868195 3.3526213231617217e-06 0.0 3.667909768268066e-18 -7.210419260387082 -7.133356811334259 -1.0424098241319093 1.5237663913770023e-05 0.0 0.3161706328392029 -1.5640934149371546 1.628110408782959 -1.6347864309894007 -1.5707438627826136 0.3161706328392029 0.0 0.0 0.0 0.0 0.0 0.0 2.793533685198771e-19 -0.5491560697555542 -0.7660227417945862 -0.22935310006141663 3.352621433805325e-06 0.0 2.793533685198771e-19 -0.5491560697555542 -0.7660227417945862 -0.22935310006141663 3.352621433805325e-06 0.0 -0.25000000734868855 -0.2000000135749509 0.2999999302396414 2.2213997840713846 2.221399782048772 4.0768586060112275e-07 0.0 0.0 0.0 0.0 0.0 0.0 7.884023273517225e-07 6.306943310512587e-07 -6.40281229068635e-07 -6.378272159290594e-08 1.0163779772062043e-07 -6.8887752765962895e-12 -0.2500000000000002 -0.1999999999999998 0.29999999999999993 2.221400000290394 2.2213999998359646 4.3117272452176497e-10 0.0 0.0 0.0 0.0 0.0 0.0

232418.536 0.3161706401720355 -1.56409359189949 1.628110407694094 -1.634786622958046 -1.5707440192600224 0.3161706394779721 0.0 0.0 0.0 0.0 0.0 0.0 0.0 0.0 0.0 0.0 0.0 0.0 2.793533715360294e-19 -0.5491560746677138 -0.766022724096804 -0.22935309661868195 3.3526213231617217e-06 0.0 3.667909768268066e-18 -7.210419260387082 -7.133356811334259 -1.0424098241319093 1.5237663913770023e-05 0.0 0.3161706328392029 -1.5640934149371546 1.628110408782959 -1.6347864309894007 -1.5707438627826136 0.3161706328392029 0.0 0.0 0.0 0.0 0.0 0.0 2.793533685198771e-19 -0.5491560697555542 -0.7660227417945862 -0.22935310006141663 3.352621433805325e-06 0.0 2.793533685198771e-19 -0.5491560697555542 -0.7660227417945862 -0.22935310006141663 3.352621433805325e-06 0.0 -0.25000000734868855 -0.2000000135749509 0.2999999302396414 2.2213997840713846 2.221399782048772 4.0768586060112275e-07 0.0 0.0 0.0 0.0 0.0 0.0 7.884023273517225e-07 6.306943310512587e-07 -6.40281229068635e-07 -6.378272159290594e-08 1.0163779772062043e-07 -6.8887752765962895e-12 -0.2500000000000002 -0.1999999999999998 0.29999999999999993 2.221400000290394 2.2213999998359646 4.3117272452176497e-10 0.0 0.0 0.0 0.0 0.0 0.0

232418.544 0.3161706401720355 -1.56409359189949 1.628110407694094 -1.634786622958046 -1.5707440192600224 0.3161706394779721 0.0 0.0 0.0 0.0 0.0 0.0 0.0 0.0 0.0 0.0 0.0 0.0 2.793533715360294e-19 -0.5491560746677138 -0.766022724096804 -0.22935309661868195 3.3526213231617217e-06 0.0 3.667909768268066e-18 -7.210419260387082 -7.133356811334259 -1.0424098241319093 1.5237663913770023e-05 0.0 0.3161706328392029 -1.5640934149371546 1.628110408782959 -1.6347864309894007 -1.5707438627826136 0.3161706328392029 0.0 0.0 0.0 0.0 0.0 0.0 2.793533685198771e-19 -0.5491560697555542 -0.7660227417945862 -0.22935310006141663 3.352621433805325e-06 0.0 2.793533685198771e-19 -0.5491560697555542 -0.7660227417945862 -0.22935310006141663 3.352621433805325e-06 0.0 -0.25000000734868855 -0.2000000135749509 0.2999999302396414 2.2213997840713846 2.221399782048772 4.0768586060112275e-07 0.0 0.0 0.0 0.0 0.0 0.0 7.884023273517225e-07 6.306943310512587e-07 -6.40281229068635e-07 -6.378272159290594e-08 1.0163779772062043e-07 -6.8887752765962895e-12 -0.2500000000000002 -0.1999999999999998 0.29999999999999993 2.221400000290394 2.2213999998359646 4.3117272452176497e-10 0.0 0.0 0.0 0.0 0.0 0.0

232418.552 0.3161706401720355 -1.56409359189949 1.628110407694094 -1.634786622958046 -1.5707440192600224 0.3161706394779721 0.0 0.0 0.0 0.0 0.0 0.0 0.0 0.0 0.0 0.0 0.0 0.0 2.793533715360294e-19 -0.5491560746677138 -0.766022724096804 -0.22935309661868195 3.3526213231617217e-06 0.0 3.667909768268066e-18 -7.210419260387082 -7.133356811334259 -1.0424098241319093 1.5237663913770023e-05 0.0 0.3161706328392029 -1.5640934149371546 1.628110408782959 -1.6347864309894007 -1.5707438627826136 0.3161706328392029 0.0 0.0 0.0 0.0 0.0 0.0 2.793533685198771e-19 -0.5491560697555542 -0.7660227417945862 -0.22935310006141663 3.352621433805325e-06 0.0 2.793533685198771e-19 -0.5491560697555542 -0.7660227417945862 -0.22935310006141663 3.352621433805325e-06 0.0 -0.25000000734868855 -0.2000000135749509 0.2999999302396414 2.2213997840713846 2.221399782048772 4.0768586060112275e-07 0.0 0.0 0.0 0.0 0.0 0.0 7.884023273517225e-07 6.306943310512587e-07 -6.40281229068635e-07 -6.378272159290594e-08 1.0163779772062043e-07 -6.8887752765962895e-12 -0.2500000000000002 -0.1999999999999998 0.29999999999999993 2.221400000290394 2.2213999998359646 4.3117272452176497e-10 0.0 0.0 0.0 0.0 0.0 0.0

232418.56 0.3161706401720355 -1.56409359189949 1.628110407694094 -1.634786622958046 -1.5707440192600224 0.3161706394779721 0.0 0.0 0.0 0.0 0.0 0.0 0.0 0.0 0.0 0.0 0.0 0.0 2.793533715360294e-19 -0.5491560746677138 -0.766022724096804 -0.22935309661868195 3.3526213231617217e-06 0.0 3.667909768268066e-18 -7.210419260387082 -7.133356811334259 -1.0424098241319093 1.5237663913770023e-05 0.0 0.3161706328392029 -1.5640934149371546 1.628110408782959 -1.6347864309894007 -1.5707438627826136 0.3161706328392029 0.0 0.0 0.0 0.0 0.0 0.0 2.793533685198771e-19 -0.5491560697555542 -0.7660227417945862 -0.22935310006141663 3.352621433805325e-06 0.0 2.793533685198771e-19 -0.5491560697555542 -0.7660227417945862 -0.22935310006141663 3.352621433805325e-06 0.0 -0.25000000734868855 -0.2000000135749509 0.2999999302396414 2.2213997840713846 2.221399782048772 4.0768586060112275e-07 0.0 0.0 0.0 0.0 0.0 0.0 7.884023273517225e-07 6.306943310512587e-07 -6.40281229068635e-07 -6.378272159290594e-08 1.0163779772062043e-07 -6.8887752765962895e-12 -0.2500000000000002 -0.1999999999999998 0.29999999999999993 2.221400000290394 2.2213999998359646 4.3117272452176497e-10 0.0 0.0 0.0 0.0 0.0 0.0

232418.568 0.3161706401720355 -1.56409359189949 1.628110407694094 -1.634786622958046 -1.5707440192600224 0.3161706394779721 0.0 0.0 0.0 0.0 0.0 0.0 0.0 0.0 0.0 0.0 0.0 0.0 2.793533715360294e-19 -0.5491560746677138 -0.766022724096804 -0.22935309661868195 3.3526213231617217e-06 0.0 3.667909768268066e-18 -7.210419260387082 -7.133356811334259 -1.0424098241319093 1.5237663913770023e-05 0.0 0.3161706328392029 -1.5640934149371546 1.628110408782959 -1.6347864309894007 -1.5707438627826136 0.3161706328392029 0.0 0.0 0.0 0.0 0.0 0.0 2.793533685198771e-19 -0.5491560697555542 -0.7660227417945862 -0.22935310006141663 3.352621433805325e-06 0.0 2.793533685198771e-19 -0.5491560697555542 -0.7660227417945862 -0.22935310006141663 3.352621433805325e-06 0.0 -0.25000000734868855 -0.2000000135749509 0.2999999302396414 2.2213997840713846 2.221399782048772 4.0768586060112275e-07 0.0 0.0 0.0 0.0 0.0 0.0 7.884023273517225e-07 6.306943310512587e-07 -6.40281229068635e-07 -6.378272159290594e-08 1.0163779772062043e-07 -6.8887752765962895e-12 -0.2500000000000002 -0.1999999999999998 0.29999999999999993 2.221400000290394 2.2213999998359646 4.3117272452176497e-10 0.0 0.0 0.0 0.0 0.0 0.0

232418.576 0.3161706401720355 -1.56409359189949 1.628110407694094 -1.634786622958046 -1.5707440192600224 0.3161706394779721 0.0 0.0 0.0 0.0 0.0 0.0 0.0 0.0 0.0 0.0 0.0 0.0 2.793533715360294e-19 -0.5491560746677138 -0.766022724096804 -0.22935309661868195 3.3526213231617217e-06 0.0 3.667909768268066e-18 -7.210419260387082 -7.133356811334259 -1.0424098241319093 1.5237663913770023e-05 0.0 0.3161706328392029 -1.5640934149371546 1.628110408782959 -1.6347864309894007 -1.5707438627826136 0.3161706328392029 0.0 0.0 0.0 0.0 0.0 0.0 2.793533685198771e-19 -0.5491560697555542 -0.7660227417945862 -0.22935310006141663 3.352621433805325e-06 0.0 2.793533685198771e-19 -0.5491560697555542 -0.7660227417945862 -0.22935310006141663 3.352621433805325e-06 0.0 -0.25000000734868855 -0.2000000135749509 0.2999999302396414 2.2213997840713846 2.221399782048772 4.0768586060112275e-07 0.0 0.0 0.0 0.0 0.0 0.0 7.884023273517225e-07 6.306943310512587e-07 -6.40281229068635e-07 -6.378272159290594e-08 1.0163779772062043e-07 -6.8887752765962895e-12 -0.2500000000000002 -0.1999999999999998 0.29999999999999993 2.221400000290394 2.2213999998359646 4.3117272452176497e-10 0.0 0.0 0.0 0.0 0.0 0.0

232418.584 0.3161706401720355 -1.56409359189949 1.628110407694094 -1.634786622958046 -1.5707440192600224 0.3161706394779721 0.0 0.0 0.0 0.0 0.0 0.0 0.0 0.0 0.0 0.0 0.0 0.0 2.793533715360294e-19 -0.5491560746677138 -0.766022724096804 -0.22935309661868195 3.3526213231617217e-06 0.0 3.667909768268066e-18 -7.210419260387082 -7.133356811334259 -1.0424098241319093 1.5237663913770023e-05 0.0 0.3161706328392029 -1.5640934149371546 1.628110408782959 -1.6347864309894007 -1.5707438627826136 0.3161706328392029 0.0 0.0 0.0 0.0 0.0 0.0 2.793533685198771e-19 -0.5491560697555542 -0.7660227417945862 -0.22935310006141663 3.352621433805325e-06 0.0 2.793533685198771e-19 -0.5491560697555542 -0.7660227417945862 -0.22935310006141663 3.352621433805325e-06 0.0 -0.25000000734868855 -0.2000000135749509 0.2999999302396414 2.2213997840713846 2.221399782048772 4.0768586060112275e-07 0.0 0.0 0.0 0.0 0.0 0.0 7.884023273517225e-07 6.306943310512587e-07 -6.40281229068635e-07 -6.378272159290594e-08 1.0163779772062043e-07 -6.8887752765962895e-12 -0.2500000000000002 -0.1999999999999998 0.29999999999999993 2.221400000290394 2.2213999998359646 4.3117272452176497e-10 0.0 0.0 0.0 0.0 0.0 0.0

232418.59199999998 0.3161706401720355 -1.56409359189949 1.628110407694094 -1.634786622958046 -1.5707440192600224 0.3161706394779721 0.0 0.0 0.0 0.0 0.0 0.0 0.0 0.0 0.0 0.0 0.0 0.0 2.793533715360294e-19 -0.5491560746677138 -0.766022724096804 -0.22935309661868195 3.3526213231617217e-06 0.0 3.667909768268066e-18 -7.210419260387082 -7.133356811334259 -1.0424098241319093 1.5237663913770023e-05 0.0 0.3161706328392029 -1.5640934149371546 1.628110408782959 -1.6347864309894007 -1.5707438627826136 0.3161706328392029 0.0 0.0 0.0 0.0 0.0 0.0 2.793533685198771e-19 -0.5491560697555542 -0.7660227417945862 -0.22935310006141663 3.352621433805325e-06 0.0 2.793533685198771e-19 -0.5491560697555542 -0.7660227417945862 -0.22935310006141663 3.352621433805325e-06 0.0 -0.25000000734868855 -0.2000000135749509 0.2999999302396414 2.2213997840713846 2.221399782048772 4.0768586060112275e-07 0.0 0.0 0.0 0.0 0.0 0.0 7.884023273517225e-07 6.306943310512587e-07 -6.40281229068635e-07 -6.378272159290594e-08 1.0163779772062043e-07 -6.8887752765962895e-12 -0.2500000000000002 -0.1999999999999998 0.29999999999999993 2.221400000290394 2.2213999998359646 4.3117272452176497e-10 0.0 0.0 0.0 0.0 0.0 0.0

232418.59999999998 0.3161706401720355 -1.56409359189949 1.628110407694094 -1.634786622958046 -1.5707440192600224 0.3161706394779721 0.0 0.0 0.0 0.0 0.0 0.0 0.0 0.0 0.0 0.0 0.0 0.0 2.793533715360294e-19 -0.5491560746677138 -0.766022724096804 -0.22935309661868195 3.3526213231617217e-06 0.0 3.667909768268066e-18 -7.210419260387082 -7.133356811334259 -1.0424098241319093 1.5237663913770023e-05 0.0 0.3161706328392029 -1.5640934149371546 1.628110408782959 -1.6347864309894007 -1.5707438627826136 0.3161706328392029 0.0 0.0 0.0 0.0 0.0 0.0 2.793533685198771e-19 -0.5491560697555542 -0.7660227417945862 -0.22935310006141663 3.352621433805325e-06 0.0 2.793533685198771e-19 -0.5491560697555542 -0.7660227417945862 -0.22935310006141663 3.352621433805325e-06 0.0 -0.25000000734868855 -0.2000000135749509 0.2999999302396414 2.2213997840713846 2.221399782048772 4.0768586060112275e-07 0.0 0.0 0.0 0.0 0.0 0.0 7.884023273517225e-07 6.306943310512587e-07 -6.40281229068635e-07 -6.378272159290594e-08 1.0163779772062043e-07 -6.8887752765962895e-12 -0.2500000000000002 -0.1999999999999998 0.29999999999999993 2.221400000290394 2.2213999998359646 4.3117272452176497e-10 0.0 0.0 0.0 0.0 0.0 0.0

232418.60799999998 0.3161706401720355 -1.56409359189949 1.628110407694094 -1.634786622958046 -1.5707440192600224 0.3161706394779721 0.0 0.0 0.0 0.0 0.0 0.0 0.0 0.0 0.0 0.0 0.0 0.0 2.793533715360294e-19 -0.5491560746677138 -0.766022724096804 -0.22935309661868195 3.3526213231617217e-06 0.0 3.667909768268066e-18 -7.210419260387082 -7.133356811334259 -1.0424098241319093 1.5237663913770023e-05 0.0 0.3161706328392029 -1.5640934149371546 1.628110408782959 -1.6347864309894007 -1.5707438627826136 0.3161706328392029 0.0 0.0 0.0 0.0 0.0 0.0 2.793533685198771e-19 -0.5491560697555542 -0.7660227417945862 -0.22935310006141663 3.352621433805325e-06 0.0 2.793533685198771e-19 -0.5491560697555542 -0.7660227417945862 -0.22935310006141663 3.352621433805325e-06 0.0 -0.25000000734868855 -0.2000000135749509 0.2999999302396414 2.2213997840713846 2.221399782048772 4.0768586060112275e-07 0.0 0.0 0.0 0.0 0.0 0.0 7.884023273517225e-07 6.306943310512587e-07 -6.40281229068635e-07 -6.378272159290594e-08 1.0163779772062043e-07 -6.8887752765962895e-12 -0.2500000000000002 -0.1999999999999998 0.29999999999999993 2.221400000290394 2.2213999998359646 4.3117272452176497e-10 0.0 0.0 0.0 0.0 0.0 0.0

232418.61599999998 0.3161706401720355 -1.56409359189949 1.628110407694094 -1.634786622958046 -1.5707440192600224 0.3161706394779721 0.0 0.0 0.0 0.0 0.0 0.0 0.0 0.0 0.0 0.0 0.0 0.0 2.793533715360294e-19 -0.5491560746677138 -0.766022724096804 -0.22935309661868195 3.3526213231617217e-06 0.0 3.667909768268066e-18 -7.210419260387082 -7.133356811334259 -1.0424098241319093 1.5237663913770023e-05 0.0 0.3161706328392029 -1.5640934149371546 1.628110408782959 -1.6347864309894007 -1.5707438627826136 0.3161706328392029 0.0 0.0 0.0 0.0 0.0 0.0 2.793533685198771e-19 -0.5491560697555542 -0.7660227417945862 -0.22935310006141663 3.352621433805325e-06 0.0 2.793533685198771e-19 -0.5491560697555542 -0.7660227417945862 -0.22935310006141663 3.352621433805325e-06 0.0 -0.25000000734868855 -0.2000000135749509 0.2999999302396414 2.2213997840713846 2.221399782048772 4.0768586060112275e-07 0.0 0.0 0.0 0.0 0.0 0.0 7.884023273517225e-07 6.306943310512587e-07 -6.40281229068635e-07 -6.378272159290594e-08 1.0163779772062043e-07 -6.8887752765962895e-12 -0.2500000000000002 -0.1999999999999998 0.29999999999999993 2.221400000290394 2.2213999998359646 4.3117272452176497e-10 0.0 0.0 0.0 0.0 0.0 0.0

232418.62399999998 0.3161706401720355 -1.56409359189949 1.628110407694094 -1.634786622958046 -1.5707440192600224 0.3161706394779721 0.0 0.0 0.0 0.0 0.0 0.0 0.0 0.0 0.0 0.0 0.0 0.0 2.793533715360294e-19 -0.5491560746677138 -0.766022724096804 -0.22935309661868195 3.3526213231617217e-06 0.0 3.667909768268066e-18 -7.210419260387082 -7.133356811334259 -1.0424098241319093 1.5237663913770023e-05 0.0 0.3161706328392029 -1.5640934149371546 1.628110408782959 -1.6347864309894007 -1.5707438627826136 0.3161706328392029 0.0 0.0 0.0 0.0 0.0 0.0 2.793533685198771e-19 -0.5491560697555542 -0.7660227417945862 -0.22935310006141663 3.352621433805325e-06 0.0 2.793533685198771e-19 -0.5491560697555542 -0.7660227417945862 -0.22935310006141663 3.352621433805325e-06 0.0 -0.25000000734868855 -0.2000000135749509 0.2999999302396414 2.2213997840713846 2.221399782048772 4.0768586060112275e-07 0.0 0.0 0.0 0.0 0.0 0.0 7.884023273517225e-07 6.306943310512587e-07 -6.40281229068635e-07 -6.378272159290594e-08 1.0163779772062043e-07 -6.8887752765962895e-12 -0.2500000000000002 -0.1999999999999998 0.29999999999999993 2.221400000290394 2.2213999998359646 4.3117272452176497e-10 0.0 0.0 0.0 0.0 0.0 0.0

232418.63199999998 0.3161706401720355 -1.56409359189949 1.628110407694094 -1.634786622958046 -1.5707440192600224 0.3161706394779721 0.0 0.0 0.0 0.0 0.0 0.0 0.0 0.0 0.0 0.0 0.0 0.0 2.793533715360294e-19 -0.5491560746677138 -0.766022724096804 -0.22935309661868195 3.3526213231617217e-06 0.0 3.667909768268066e-18 -7.210419260387082 -7.133356811334259 -1.0424098241319093 1.5237663913770023e-05 0.0 0.3161706328392029 -1.5640934149371546 1.628110408782959 -1.6347864309894007 -1.5707438627826136 0.3161706328392029 0.0 0.0 0.0 0.0 0.0 0.0 2.793533685198771e-19 -0.5491560697555542 -0.7660227417945862 -0.22935310006141663 3.352621433805325e-06 0.0 2.793533685198771e-19 -0.5491560697555542 -0.7660227417945862 -0.22935310006141663 3.352621433805325e-06 0.0 -0.25000000734868855 -0.2000000135749509 0.2999999302396414 2.2213997840713846 2.221399782048772 4.0768586060112275e-07 0.0 0.0 0.0 0.0 0.0 0.0 7.884023273517225e-07 6.306943310512587e-07 -6.40281229068635e-07 -6.378272159290594e-08 1.0163779772062043e-07 -6.8887752765962895e-12 -0.2500000000000002 -0.1999999999999998 0.29999999999999993 2.221400000290394 2.2213999998359646 4.3117272452176497e-10 0.0 0.0 0.0 0.0 0.0 0.0

232418.63999999998 0.3161706401720355 -1.56409359189949 1.628110407694094 -1.634786622958046 -1.5707440192600224 0.3161706394779721 0.0 0.0 0.0 0.0 0.0 0.0 0.0 0.0 0.0 0.0 0.0 0.0 2.793533715360294e-19 -0.5491560746677138 -0.766022724096804 -0.22935309661868195 3.3526213231617217e-06 0.0 3.667909768268066e-18 -7.210419260387082 -7.133356811334259 -1.0424098241319093 1.5237663913770023e-05 0.0 0.3161706328392029 -1.5640934149371546 1.628110408782959 -1.6347864309894007 -1.5707438627826136 0.3161706328392029 0.0 0.0 0.0 0.0 0.0 0.0 2.793533685198771e-19 -0.5491560697555542 -0.7660227417945862 -0.22935310006141663 3.352621433805325e-06 0.0 2.793533685198771e-19 -0.5491560697555542 -0.7660227417945862 -0.22935310006141663 3.352621433805325e-06 0.0 -0.25000000734868855 -0.2000000135749509 0.2999999302396414 2.2213997840713846 2.221399782048772 4.0768586060112275e-07 0.0 0.0 0.0 0.0 0.0 0.0 7.884023273517225e-07 6.306943310512587e-07 -6.40281229068635e-07 -6.378272159290594e-08 1.0163779772062043e-07 -6.8887752765962895e-12 -0.2500000000000002 -0.1999999999999998 0.29999999999999993 2.221400000290394 2.2213999998359646 4.3117272452176497e-10 0.0 0.0 0.0 0.0 0.0 0.0

232418.648 0.3161706401720355 -1.56409359189949 1.628110407694094 -1.634786622958046 -1.5707440192600224 0.3161706394779721 0.0 0.0 0.0 0.0 0.0 0.0 0.0 0.0 0.0 0.0 0.0 0.0 2.793533715360294e-19 -0.5491560746677138 -0.766022724096804 -0.22935309661868195 3.3526213231617217e-06 0.0 3.667909768268066e-18 -7.210419260387082 -7.133356811334259 -1.0424098241319093 1.5237663913770023e-05 0.0 0.3161706328392029 -1.5640934149371546 1.628110408782959 -1.6347864309894007 -1.5707438627826136 0.3161706328392029 0.0 0.0 0.0 0.0 0.0 0.0 2.793533685198771e-19 -0.5491560697555542 -0.7660227417945862 -0.22935310006141663 3.352621433805325e-06 0.0 2.793533685198771e-19 -0.5491560697555542 -0.7660227417945862 -0.22935310006141663 3.352621433805325e-06 0.0 -0.25000000734868855 -0.2000000135749509 0.2999999302396414 2.2213997840713846 2.221399782048772 4.0768586060112275e-07 0.0 0.0 0.0 0.0 0.0 0.0 7.884023273517225e-07 6.306943310512587e-07 -6.40281229068635e-07 -6.378272159290594e-08 1.0163779772062043e-07 -6.8887752765962895e-12 -0.2500000000000002 -0.1999999999999998 0.29999999999999993 2.221400000290394 2.2213999998359646 4.3117272452176497e-10 0.0 0.0 0.0 0.0 0.0 0.0

232418.656 0.3161706401720355 -1.56409359189949 1.628110407694094 -1.634786622958046 -1.5707440192600224 0.3161706394779721 0.0 0.0 0.0 0.0 0.0 0.0 0.0 0.0 0.0 0.0 0.0 0.0 2.793533715360294e-19 -0.5491560746677138 -0.766022724096804 -0.22935309661868195 3.3526213231617217e-06 0.0 3.667909768268066e-18 -7.210419260387082 -7.133356811334259 -1.0424098241319093 1.5237663913770023e-05 0.0 0.3161706328392029 -1.5640934149371546 1.628110408782959 -1.6347864309894007 -1.5707438627826136 0.3161706328392029 0.0 0.0 0.0 0.0 0.0 0.0 2.793533685198771e-19 -0.5491560697555542 -0.7660227417945862 -0.22935310006141663 3.352621433805325e-06 0.0 2.793533685198771e-19 -0.5491560697555542 -0.7660227417945862 -0.22935310006141663 3.352621433805325e-06 0.0 -0.25000000734868855 -0.2000000135749509 0.2999999302396414 2.2213997840713846 2.221399782048772 4.0768586060112275e-07 0.0 0.0 0.0 0.0 0.0 0.0 7.884023273517225e-07 6.306943310512587e-07 -6.40281229068635e-07 -6.378272159290594e-08 1.0163779772062043e-07 -6.8887752765962895e-12 -0.2500000000000002 -0.1999999999999998 0.29999999999999993 2.221400000290394 2.2213999998359646 4.3117272452176497e-10 0.0 0.0 0.0 0.0 0.0 0.0

232418.664 0.3161706401720355 -1.56409359189949 1.628110407694094 -1.634786622958046 -1.5707440192600224 0.3161706394779721 0.0 0.0 0.0 0.0 0.0 0.0 0.0 0.0 0.0 0.0 0.0 0.0 2.793533715360294e-19 -0.5491560746677138 -0.766022724096804 -0.22935309661868195 3.3526213231617217e-06 0.0 3.667909768268066e-18 -7.210419260387082 -7.133356811334259 -1.0424098241319093 1.5237663913770023e-05 0.0 0.3161706328392029 -1.5640934149371546 1.628110408782959 -1.6347864309894007 -1.5707438627826136 0.3161706328392029 0.0 0.0 0.0 0.0 0.0 0.0 2.793533685198771e-19 -0.5491560697555542 -0.7660227417945862 -0.22935310006141663 3.352621433805325e-06 0.0 2.793533685198771e-19 -0.5491560697555542 -0.7660227417945862 -0.22935310006141663 3.352621433805325e-06 0.0 -0.25000000734868855 -0.2000000135749509 0.2999999302396414 2.2213997840713846 2.221399782048772 4.0768586060112275e-07 0.0 0.0 0.0 0.0 0.0 0.0 7.884023273517225e-07 6.306943310512587e-07 -6.40281229068635e-07 -6.378272159290594e-08 1.0163779772062043e-07 -6.8887752765962895e-12 -0.2500000000000002 -0.1999999999999998 0.29999999999999993 2.221400000290394 2.2213999998359646 4.3117272452176497e-10 0.0 0.0 0.0 0.0 0.0 0.0

232418.672 0.3161703865509759 -1.564093810848843 1.6281106283182967 -1.634786624619629 -1.5707440192667486 0.31617038585691226 -0.00012681054634215973 -0.00010947466507633922 0.00011031207606295514 -8.307778663999533e-07 -3.362996643400326e-09 -0.0001268105464710491 -0.015851318292769968 -0.013684333134542401 0.013789009507869392 -0.00010384723329999416 -4.2037458042504075e-07 -0.015851318308881136 -0.0009292454888740239 -0.5499014037243435 -0.7656955801174542 -0.22934458012421946 -2.7671111415282666e-05 -0.00024904182320842144 -0.012200993268915935 -7.22020543090063 -7.130310381169757 -1.0423711166645775 -0.0001257652013824597 -0.0011318950864822753 0.3161703944206238 -1.5640938917743128 1.628110647201538 -1.6347864309894007 -1.5707438627826136 0.3161703944206238 -0.0001268105406779796 -0.0001094746621674858 0.00011031207395717502 -8.307778784910624e-07 -3.362996547906505e-09 -0.0001268105406779796 -0.0009292454924434423 -0.5499014258384705 -0.7656955718994141 -0.22934457659721375 -2.7671110728988424e-05 -0.0002490418264642358 -0.0009292454924434423 -0.5499014258384705 -0.7656955718994141 -0.22934457659721375 -2.7671110728988424e-05 -0.0002490418264642358 -0.24999996626274035 -0.19999992492978344 0.30000000210548106 2.221399860300505 2.2213998582917798 7.363223946683575e-08 -1.5590719106011541e-13 3.999999430956773e-05 -2.402361069680999e-12 -2.1783572543185926e-11 1.2919800910500667e-11 -1.2992997644311313e-13 -1.2567107671361567e-06 -1.0055841948330806e-06 1.8766582832235924e-07 8.23579848956398e-08 -1.0291393983582953e-07 -7.089233139403499e-12 -0.2500000000000003 -0.19999991999999978 0.2999999999999998 2.221400000291784 2.2213999998372516 4.311727245209017e-10 3.2413446237576075e-20 3.999999999999999e-05 -1.8524748056464835e-20 1.3707938156516824e-20 1.994216094202031e-20 1.7483289426920793e-20

232418.68 0.3161683575801158 -1.5640955624420165 1.6281123933082784 -1.6347866379103069 -1.5707440193205544 0.3161683568860501 -0.0005706486500991005 -0.0004926351674195207 0.0004964025225354098 -3.7375058653209084e-06 -1.5133189775519717e-08 -0.0005706486506791106 -0.055479762969617596 -0.04789506279289769 0.048261305809056826 -0.0003633409998651194 -1.471274141514924e-06 -0.0554797630260077 -0.0032523608523117964 -0.5517636647290795 -0.7648777212280288 -0.22932328567851432 -0.00010523003952342695 -0.000871648721319721 -0.042703497990853885 -7.244656917892813 -7.1226943156196505 -1.0422743334088476 -0.0004782705296339755 -0.003961643438398132 0.3161683678627014 -1.5640957991229456 1.6281124353408813 -1.6347864309894007 -1.5707438627826136 0.3161683678627014 -0.0005706486408598721 -0.0004926351830363274 0.0004964024992659688 -3.7375059491751017e-06 -1.5133188924210117e-08 -0.0005706486408598721 -0.003252360736951232 -0.551763653755188 -0.7648777365684509 -0.22932328283786774 -0.00010523004311835393 -0.0008716487209312618 -0.003252360736951232 -0.551763653755188 -0.7648777365684509 -0.22932328283786774 -0.00010523004311835393 -0.0008716487209312618 -0.24999994071802642 -0.19999927733883227 0.30000004076336895 2.221399898414781 2.221399896412914 -9.356481401537512e-08 3.0938082352967563e-12 0.00017999996507088589 -1.679137571604247e-11 -4.686076643309276e-11 1.194712350622603e-10 -5.846899022483633e-13 9.841961735094978e-07 7.933814056872248e-07 -6.5615005283285e-07 -8.64235018800867e-08 1.4609827823360255e-07 -7.903283748736434e-12 -0.25000000000000033 -0.19999927999999986 0.29999999999999977 2.2214000002930683 2.221399999838644 4.3414632950212855e-10 4.169133605221269e-17 0.0001800000000000001 8.332657179666119e-17 -3.12749892550225e-13 -2.8956844037528936e-13 -1.3160774417963692e-19

232418.688 0.31616150977218743 -1.5641014740473107 1.6281183501017003 -1.6347866827402422 -1.570744019502154 0.3161615090781192 -0.0015217404566826547 -0.001313686350968346 0.0013237236830900654 -9.957733795828035e-06 -4.035602248567703e-08 -0.0015217404573372485 -0.11888647582294427 -0.10263139794360317 0.10341514506933196 -0.0007775284913133908 -3.1528540887696643e-06 -0.11888647583226723 -0.006969378042726156 -0.5547405034852768 -0.7635691706823291 -0.2292891935310899 -0.00022932262649656357 -0.0018678386314091764 -0.09150793370099443 -7.283742810761685 -7.110508831227985 -1.0421193845988035 -0.0010422713374268814 -0.008489326579754706 0.31616151332855225 -1.564101521168844 1.6281183958053589 -1.6347869078265589 -1.5707438627826136 0.31616151332855225 -0.0015217404579743743 -0.0013136863708496094 0.0013237236998975277 -9.95773370959796e-06 -4.035602074736744e-08 -0.0015217404579743743 -0.006969377864152193 -0.5547404885292053 -0.763569176197052 -0.2292891889810562 -0.00022932262800168246 -0.0018678386695683002 -0.006969377864152193 -0.5547404885292053 -0.763569176197052 -0.2292891889810562 -0.00022932262800168246 -0.0018678386695683002 -0.2500000020362193 -0.1999971352925656 0.3000000197109213 2.221399974643817 2.221399972656058 -4.282177797813608e-07 -1.9460502641566907e-11 0.00048000000595077753 -1.4142771707723561e-11 2.51713574454556e-10 3.3586962247150127e-10 -1.5592077163451378e-12 8.471663994092765e-07 6.863782869337386e-07 -2.731892196228628e-07 -6.990197365810424e-08 1.111980011029876e-07 -1.8095599990918907e-10 -0.25000000000000033 -0.1999971199999998 0.2999999999999997 2.2214000002904726 2.2213999998358855 4.341463294578956e-10 1.1094370852397854e-16 0.0004800000000000832 1.6634207435193366e-16 -8.02291279795255e-13 -8.037566093531544e-13 -8.920819714610631e-13

232418.696 0.31614527773842416 -1.5641154866078057 1.628132469613953 -1.634786788842952 -1.5707440199326381 0.31614527704434653 -0.003170345571148987 -0.002736809878541326 0.002757676800319764 -2.0701091636905973e-05 -8.408123340396024e-08 -0.0031703455732559815 -0.2060756393082915 -0.17789044094662246 0.17924413965371233 -0.0013429197301347423 -5.4656513647854005e-06 -0.20607563948984162 -0.012080444672016716 -0.5588282748092922 -0.76177003591072 -0.2292422388686482 -0.00039994566682485507 -0.003237677269318178 -0.15861623854357948 -7.337415248246006 -7.093754928407807 -1.041905975658006 -0.0018177530557189662 -0.01471524318905112 0.31614527106285095 -1.564115349446432 1.6281324625015259 -1.6347869078265589 -1.5707438627826136 0.31614527106285095 -0.003170345677062869 -0.0027368098963052034 0.002757676877081394 -2.070109076157678e-05 -8.408123619574326e-08 -0.003170345677062869 -0.01208044495433569 -0.5588282942771912 -0.7617700099945068 -0.2292422354221344 -0.00039994565304368734 -0.0032376772724092007 -0.01208044495433569 -0.5588282942771912 -0.7617700099945068 -0.2292422354221344 -0.00039994565304368734 -0.0032376772724092007 -0.2500000265483518 -0.1999920201204982 0.2999999711568712 2.221399898414734 2.221399896412961 -9.569459266364433e-08 -7.40786425943405e-11 0.001000000109523648 7.386016382730183e-11 -1.6965779896314622e-10 4.0575072395209533e-10 -3.2481967254432205e-12 -1.7022416686476117e-06 -1.3765671420177088e-06 9.292762658272265e-07 1.3259389286247122e-07 -1.998902841516817e-07 -2.2387849693232403e-13 -0.2500000000000002 -0.19999199999999978 0.2999999999999997 2.2214000002917014 2.221399999837334 4.3414632944529266e-10 1.384809961372492e-16 0.0010000000000000347 2.776116231470261e-16 -2.9475890087607193e-14 2.964221637570016e-14 -1.1151017107846432e-12

232418.704 0.3161135737655847 -1.5641428543483187 1.6281600455921865 -1.6347869954223553 -1.5707440207734864 0.31611357307148374 -0.005706808194097666 -0.0049261288023817965 0.004963533924684445 -3.710662263861085e-05 -1.51359904248125e-07 -0.005706808198559023 -0.3170578278685849 -0.2736648654800588 0.27573214054558515 -0.0020506913752131096 -8.409833855520596e-06 -0.3170578281628802 -0.018585972350172564 -0.5640218888076116 -0.7594806156276466 -0.22918226721334073 -0.000617094063987113 -0.004981330766914585 -0.24403381695776577 -7.405607400043941 -7.0724353888477705 -1.0416334044846336 -0.0028046925208214286 -0.022640148335626786 0.31611356139183044 -1.5641430060016077 1.628159999847412 -1.6347869078265589 -1.5707438627826136 0.31611356139183044 -0.005706808064132929 -0.004926128778606653 0.004963533952832222 -3.710662349476479e-05 -1.5135989883674483e-07 -0.005706808064132929 -0.018585972487926483 -0.56402188539505 -0.7594805955886841 -0.22918227314949036 -0.0006170940469019115 -0.004981330595910549 -0.018585972487926483 -0.56402188539505 -0.7594805955886841 -0.22918227314949036 -0.0006170940469019115 -0.004981330595910549 -0.24999997444027688 -0.19998200135108712 0.300000051626816 2.221399936534674 2.2213999345395754 -2.656291665803694e-07 2.1697180801270773e-11 0.0017999998071290618 -1.9756992900062814e-10 3.3056712352119177e-10 1.0025895027399005e-09 -5.846746393816922e-12 -4.896469891936716e-07 -3.957733403504328e-07 9.65913873012127e-07 6.65074475277876e-08 -1.440747865272048e-07 7.859688442259365e-10 -0.2500000000000002 -0.19998199999999977 0.2999999999999997 2.221400000291671 2.2213999998373644 4.3711993440738186e-10 1.0307958979731412e-18 0.0017999999999999995 3.3145253083266604e-16 -5.883295086362857e-13 -6.163092371124879e-13 -1.3381222700361163e-12

232418.712 0.3160587868627792 -1.5641901441149662 1.6282076931596907 -1.6347873503575752 -1.5707440222266618 0.3160587861686422 -0.009321645488384826 -0.008045646324139044 0.00810630298133892 -6.0169093979148234e-05 -2.472621859926017e-07 -0.00932164549473413 -0.45185466178589495 -0.3899396902196559 0.3928461320818094 -0.002882808917567173 -1.1987785218059586e-05 -0.4518546620218884 -0.026486848216033216 -0.5703145978667405 -0.7567015522267697 -0.2291089738971519 -0.0008807610075712807 -0.007099138801099446 -0.3477723170765161 -7.488230669990304 -7.046556194646126 -1.0413002863625553 -0.004003058779411471 -0.03226558585099698 0.31605878472328186 -1.5641902128802698 1.6282076835632324 -1.634787384663717 -1.5707438627826136 0.31605878472328186 -0.009321645833551884 -0.008045646362006664 0.00810630340129137 -6.016909537720494e-05 -2.472621929427987e-07 -0.009321645833551884 -0.026486847549676895 -0.5703145861625671 -0.7567015290260315 -0.22910897433757782 -0.0008807610138319433 -0.00709913857281208 -0.026486847549676895 -0.5703145861625671 -0.7567015290260315 -0.22910897433757782 -0.0008807610138319433 -0.00709913857281208 -0.24999999023130504 -0.19996472986963873 0.30000002640374357 2.221399936541047 2.221399934546568 -2.706824224610774e-07 -1.1647960675385554e-10 0.0029400000053839376 -2.4861389089108956e-10 6.53907052717231e-10 1.3765549435935468e-09 -9.549509627341819e-12 -2.292062874360916e-07 -1.4416184953523422e-07 1.0077774059707226e-06 3.914065828965702e-08 -1.0243392832504793e-07 1.0434538837252779e-09 -0.2500000000000001 -0.1999647199999998 0.2999999999999998 2.2214000002917604 2.221399999837275 4.3711993435488676e-10 1.2279379886681685e-18 0.0029399999999999513 3.863425605707255e-16 -6.705289015765426e-13 -7.34881135588758e-13 -3.122286215922858e-12

232418.72 0.31597178094442957 -1.5642652341159566 1.6282833460413488 -1.6347879086875503 -1.5707440245347444 0.3159717802502291 -0.014205683617765903 -0.012259151484308511 0.012350520098693665 -9.062562744581311e-05 -3.7687914116235285e-07 -0.014205683628628332 -0.6105047661726346 -0.5266881450211834 0.530527139669343 -0.0038070666833331097 -1.6202119396218893e-05 -0.6105047667367752 -0.035784709887862996 -0.5776977243910932 -0.7534340295213546 -0.22902182761468745 -0.0011909384266896366 -0.009591708224064447 -0.4698532408276412 -7.585171121255055 -7.016128369708759 -1.0409042065087544 -0.005412815149304398 -0.043594313878372905 0.3159717917442322 -1.5642650763141077 1.6282833814620972 -1.6347878615008753 -1.5707438627826136 0.3159717917442322 -0.014205683954060078 -0.01225915178656578 0.012350520119071007 -9.062562457984313e-05 -3.768791430047713e-07 -0.014205683954060078 -0.03578471019864082 -0.57769775390625 -0.7534340023994446 -0.2290218323469162 -0.0011909384047612548 -0.009591707959771156 -0.03578471019864082 -0.57769775390625 -0.7534340023994446 -0.2290218323469162 -0.0011909384047612548 -0.009591707959771156 -0.25000000904757197 -0.19993730030122503 0.2999999381108631 2.221399822165088 2.2213998201495886 2.2227551747086016e-07 -3.203777873214173e-10 0.004480000258078363 5.558676503602585e-10 -4.047660694783273e-09 1.3872423492551766e-09 -1.4551535090991552e-11 -2.1942564348488554e-06 -1.766293375867954e-06 1.1189693926199175e-06 1.8112015461373413e-07 -2.9089985765427043e-07 1.2208606742276574e-09 -0.25000000000000017 -0.19993727999999972 0.2999999999999996 2.2214000002904855 2.2213999998358727 4.3117272430430327e-10 -2.1594976654484523e-16 0.0044800000000000005 2.2368805099934526e-16 -8.198776374548518e-13 -7.863045004629761e-13 -3.5683257538623244e-12

232418.728 0.3158418917322594 -1.5643773117740558 1.6283962518339825 -1.634788730028836 -1.570744027981176 0.31584189103793175 -0.02055025188642049 -0.017730084479196728 0.01785995336784697 -0.00012879413914752258 -5.453426335172444e-07 -0.020550251907288878 -0.7930710335818235 -0.6838666243610271 0.6886791586441631 -0.004771063962713683 -2.1057936544361447e-05 -0.7930710348325682 -0.046482283844290435 -0.5861603292894111 -0.7496800157232798 -0.22891997835694963 -0.001547617855158223 -0.01246002714725835 -0.6103123868755335 -7.696285123569968 -6.981170242418326 -1.040441301632336 -0.007033923151694123 -0.0566308233842892 0.3158418834209442 -1.5643771330462855 1.6283962726593018 -1.6347888151751917 -1.5707438627826136 0.3158418834209442 -0.020550251007080078 -0.01773008517920971 0.01785995252430439 -0.00012879414134658873 -5.453426297208352e-07 -0.020550251007080078 -0.046482283622026443 -0.5861603021621704 -0.7496800422668457 -0.22891998291015625 -0.0015476178377866745 -0.012460026890039444 -0.046482283622026443 -0.5861603021621704 -0.7496800422668457 -0.22891998291015625 -0.0015476178377866745 -0.012460026890039444 -0.25000002735649157 -0.19989634055267308 0.29999994748928915 2.221399860289746 2.221399858281195 4.3270711788300696e-08 -2.1312391958951736e-10 0.00648000031549361 1.2339440077071514e-09 -3.7694608054148295e-09 3.965975843926114e-09 -2.1046363074219603e-11 2.0661775095952383e-06 1.6683718883091925e-06 -9.051162024410329e-07 -1.5413713787885385e-07 2.2300648023338124e-07 1.1533684036881573e-09 -0.2500000000000001 -0.1998963199999995 0.29999999999999916 2.2214000002931846 2.2213999998385274 4.400935392819334e-10 -1.204523591777101e-16 0.006479999999999813 7.489294332632058e-16 -6.174920196218809e-14 6.204743942837516e-14 -1.1272314462060229e-17

232418.73599999998 0.3156569218756384 -1.5645368703424367 1.6285569645589328 -1.6347898745121867 -1.5707440328906062 0.3156569211811631 -0.028547445436813864 -0.024621354220552238 0.024797202268099436 -0.00017435519484521834 -7.578380059304811e-07 -0.028547445459098073 -0.9996491937991716 -0.8614087176694387 0.8671561125315582 -0.00569513196221197 -2.6561921551654586e-05 -0.9996491939761494 -0.05858378764256222 -0.5956888209591616 -0.7454425516294332 -0.22880214998370738 -0.0019507915917677027 -0.015705599558691948 -0.7692051317468419 -7.821394219193792 -6.941710129283607 -1.03990577167595 -0.008866347784584208 -0.0713819499942549 0.3156569302082062 -1.5645368734942835 1.6285569667816162 -1.634789768849508 -1.5707438627826136 0.3156569302082062 -0.028547445312142372 -0.024621354416012764 0.02479720301926136 -0.00017435519839636981 -7.578379950246017e-07 -0.028547445312142372 -0.05858378857374191 -0.5956888198852539 -0.7454425692558289 -0.2288021445274353 -0.001950791571289301 -0.015705600380897522 -0.05858378857374191 -0.5956888198852539 -0.7454425692558289 -0.2288021445274353 -0.001950791571289301 -0.015705600380897522 -0.24999998513777916 -0.19983801242925164 0.2999999912644957 2.221399860288543 2.2213998582797294 2.6171058780288268e-08 -2.4987691486092936e-10 0.008999999623294919 -1.839928581573211e-10 -4.180387367011754e-09 3.1612379733718417e-09 -2.922932706995714e-11 6.312058602016868e-07 4.4066760863078903e-07 -8.405818353884745e-07 -6.597621586234637e-08 1.434959236272187e-07 -3.745639521478225e-09 -0.25000000000000017 -0.199837999999999 0.2999999999999984 2.2214000002919345 2.221399999837101 4.311727241742952e-10 -2.6342662399475123e-16 0.008999999999999229 1.940644368438002e-15 -2.0929812654460047e-12 -1.9221413742895012e-12 -6.6905984773973654e-12

232418.74399999998 0.3154031337059879 -1.5647557038761581 1.628777333608636 -1.634791396757496 -1.570744039629517 0.31540313301126405 -0.03839046696507091 -0.033095100623943864 0.03332317713907886 -0.00022606919381584984 -1.0196483424917202e-06 -0.038390467004008964 -1.2303776910321307 -1.0592183004239533 1.0657468588724281 -0.006464249871328938 -3.272629207015488e-05 -1.2303776931138615 -0.07209539626488756 -0.6062665042658301 -0.7407260837969387 -0.2286665180712302 -0.0024004542760252103 -0.019330600645144445 -0.9466125529579738 -7.96027920101035 -6.897789437533853 -1.0392893246337411 -0.010910064684534579 -0.0878575799321815 0.31540313363075256 -1.5647557417498987 1.6287773847579956 -1.6347911993609827 -1.5707438627826136 0.31540313363075256 -0.038390468806028366 -0.0330950990319252 0.033323176205158234 -0.00022606919810641557 -1.0196483799518319e-06 -0.038390468806028366 -0.07209539413452148 -0.6062664985656738 -0.740726113319397 -0.2286665141582489 -0.002400454366579652 -0.019330600276589394 -0.07209539413452148 -0.6062664985656738 -0.740726113319397 -0.2286665141582489 -0.002400454366579652 -0.019330600276589394 -0.24999997017402006 -0.19975800547950126 0.29999997925086463 2.221399822114487 2.2213998200988967 1.69661343241612e-07 -8.848305284587831e-10 0.012099999214486078 -5.035245030299077e-10 -9.593360278939308e-09 3.323090710891113e-09 -3.929452198534974e-11 1.173534912686591e-06 1.0562220830761717e-06 -1.2828737686555901e-06 -1.2638282300241825e-07 2.169829197750165e-07 1.660789143337194e-09 -0.24999999999999994 -0.19975799999999802 0.2999999999999964 2.22140000029303 2.221399999838682 4.3711993406099367e-10 -1.4086168279379249e-16 0.012099999999997783 4.2779012535140315e-15 -1.2709556792267984e-12 -9.375533142486821e-13 -1.8905775382715984e-17

232418.75199999998 0.31506523895700816 -1.5650469000906746 1.6290704880745013 -1.6347933373428614 -1.570744048606957 0.31506523826197447 -0.050274057969775604 -0.043312393907703785 0.043596443251336485 -0.0002814211157020732 -1.3361628481602569e-06 -0.05027405801536714 -1.4854488755880868 -1.27716166046999 1.284158264032203 -0.006918990235777921 -3.956431320856708e-05 -1.4854488764197722 -0.08702577345283342 -0.6178730685109499 -0.7355368425285485 -0.22851057371964353 -0.002896604667816187 -0.023338052347306196 -1.142648405435703 -8.112673389548773 -6.849466184994349 -1.0385805575557798 -0.01316506821522457 -0.10607144791850667 0.3150652348995209 -1.5650470892535608 1.629070520401001 -1.6347931067096155 -1.5707438627826136 0.3150652348995209 -0.05027405917644501 -0.04331239312887192 0.04359644278883934 -0.0002814211184158921 -1.3361628816710436e-06 -0.05027405917644501 -0.08702577650547028 -0.6178730726242065 -0.7355368137359619 -0.22851057350635529 -0.0028966045938432217 -0.02333805151283741 -0.08702577650547028 -0.6178730726242065 -0.7355368137359619 -0.22851057350635529 -0.0028966045938432217 -0.02333805151283741 -0.24999994856181007 -0.19965151796371972 0.3000000273442072 2.2213998602899254 2.221399858281015 -2.851522245135214e-08 -2.752484792356206e-10 0.01583999762605035 -2.0919948213740573e-09 -6.3275778477946686e-09 7.432047300550256e-09 -5.14334025978442e-11 -1.0714679733675725e-06 -1.0007858404878917e-06 1.170146802683067e-06 1.1293664683741746e-07 -1.8168222999176357e-07 3.804920550892288e-09 -0.24999999999999975 -0.19965151999999622 0.29999999999999233 2.2214000002907066 2.2213999998356515 4.3414632889437936e-10 -8.111476626799452e-16 0.01583999999999467 1.0658211034882449e-14 -2.372497817510045e-12 -2.4456501458981017e-12 -5.352481038413664e-12

232418.75999999998 0.31462638469851156 -1.5654248305761014 1.6294508153210419 -1.634795711164121 -1.5707440602756968 0.3146263840030584 -0.06439503004223215 -0.0554328628976728 0.055772414350427665 -0.00033618576227168286 -1.7129450046205032e-06 -0.06439503010450745 -1.7651215090570687 -1.5150586237461265 1.5219963873863975 -0.006845580821201206 -4.70977695575308e-05 -1.7651215111425385 -0.10338666854421431 -0.6304840128924498 -0.729883264097658 -0.22833097475297515 -0.0034392479382169654 -0.027732020186172775 -1.357466957985534 -8.278255089277867 -6.796818931930212 -1.037764280252272 -0.015631381879196108 -0.12604203174615525 0.31462639570236206 -1.5654247442828577 1.629450798034668 -1.6347954908954065 -1.5707438627826136 0.31462639570236206 -0.06439503282308578 -0.05543286353349686 0.055772412568330765 -0.0003361857670824975 -1.7129450498032384e-06 -0.06439503282308578 -0.10338667035102844 -0.6304839849472046 -0.7298832535743713 -0.22833096981048584 -0.003439247841015458 -0.027732020244002342 -0.10338667035102844 -0.6304839849472046 -0.7298832535743713 -0.22833096981048584 -0.003439247841015458 -0.027732020244002342 -0.24999998936746742 -0.19951329701486398 0.299999960513294 2.221399783838352 2.22139978181575 2.646856450984853e-07 -1.7703816280505442e-09 0.02028000012785407 1.888047049211934e-09 -2.2399217038095708e-08 8.632914809551406e-09 -6.584316702566749e-11 9.44308327292835e-07 6.576441685026919e-07 4.2553798474979767e-07 -4.915237827800286e-08 6.430354090048389e-08 -2.6756313149116954e-10 -0.24999999999999936 -0.19951327999999277 0.2999999999999854 2.2214000002892877 2.221399999834393 4.3117272387275917e-10 -1.5278144061553277e-15 0.020279999999988446 2.4720184318989853e-14 -3.0482539176925745e-13 3.0525639735644567e-13 -2.8992202518937638e-12

232418.76799999998 0.3140681346470825 -1.565905137770403 1.6299339325511655 -1.634798492026425 -1.570744075133626 0.31406813395106864 -0.08095290680526035 -0.06961424390635529 0.07000238087614007 -0.0003839070637320009 -2.1557576345013736e-06 -0.08095290688706744 -2.0697345953785242 -1.7726726260853114 1.77874581571405 -0.005965162682539756 -5.53515787351088e-05 -2.0697345978199984 -0.12119358040684952 -0.6440700069715771 -0.7237764568309205 -0.22812338565659654 -0.004028398074938663 -0.03251783023686086 -1.5912717107419343 -8.456639191536809 -6.739951121300898 -1.0368207878092313 -0.01830906925059622 -0.14779353842653262 0.31406813859939575 -1.5659049193011683 1.6299339532852173 -1.6347983519183558 -1.5707438627826136 0.31406813859939575 -0.08095290511846542 -0.06961424648761749 0.07000238448381424 -0.0003839070559479296 -2.1557575564656872e-06 -0.08095290511846542 -0.12119358032941818 -0.644070029258728 -0.7237764596939087 -0.22812338173389435 -0.00402839807793498 -0.03251783177256584 -0.12119358032941818 -0.644070029258728 -0.7237764596939087 -0.22812338173389435 -0.00402839807793498 -0.03251783177256584 -0.2500000118139593 -0.19933754336738457 0.29999991646155605 2.22139974550679 2.2213997434773236 3.7982091000333555e-07 -8.824183609742159e-10 0.025480000823755757 3.403311689463805e-09 -3.419433502746606e-08 5.881375886877473e-09 -8.271293047858565e-11 -9.043592915001903e-07 -7.449296290593365e-07 -2.789573814237544e-07 4.8133644432600874e-08 -3.447354968139061e-08 -6.976330058909294e-09 -0.24999999999999864 -0.19933751999998695 0.29999999999997284 2.221400000290575 2.221399999835783 4.371199339514396e-10 -2.9841843258689444e-15 0.025479999999975418 5.089735377598512e-14 1.1615354636555549e-12 1.6502148367707083e-12 3.810970636286548e-17

232418.77599999998 0.3133704449320961 -1.5665047180253797 1.6305366499913225 -1.6348015927627895 -1.570744093725649 0.3133704442354195 -0.10015068710270666 -0.08601184119754343 0.08643235863214768 -0.00041528627762606597 -2.67063843570792e-06 -0.10015068719702896 -2.3997225371807893 -2.0496996613985177 2.053747219500952 -0.003922401736758132 -6.436010015081832e-05 -2.399722538745191 -0.14046648950807583 -0.6585961828491163 -0.7172307100025089 -0.22788230882824148 -0.004664080766360313 -0.03770230744206333 -1.8443250072410358 -8.647367880808897 -6.678995817685363 -1.0357250936243574 -0.02119824708310762 -0.17135698732417784 0.3133704364299774 -1.5665047804461878 1.630536675453186 -1.6348016897784632 -1.5707438627826136 0.3133704364299774 -0.1001506894826889 -0.0860118418931961 0.08643236011266708 -0.0004152862820774317 -2.670638423296623e-06 -0.1001506894826889 -0.14046649634838104 -0.6585961580276489 -0.7172307372093201 -0.22788231074810028 -0.004664080683141947 -0.03770230710506439 -0.14046649634838104 -0.6585961580276489 -0.7172307372093201 -0.22788231074810028 -0.004664080683141947 -0.03770230710506439 -0.2499999923124784 -0.1991180147172487 0.30000001936599663 2.221399898695036 2.221399896693466 -3.519434732503941e-07 -1.6585339455087433e-09 0.03149999973143567 -1.541254999674724e-09 5.87454414604169e-09 2.5396817051702623e-08 -1.022245676779096e-10 2.0810106161328817e-06 1.304278533714719e-06 -9.967891331647329e-07 -1.300019325009845e-07 2.431850399720731e-07 1.5161283344083038e-09 -0.24999999999999756 -0.1991179999999774 0.29999999999995197 2.2214000002906755 2.2213999998356826 4.3711993397418934e-10 -5.924474997290817e-15 0.03149999999995181 1.0158684598999127e-13 -2.0381193730401355e-13 2.0430138963136034e-13 -6.690607215389249e-12

232418.78399999999 0.312511633310398 -1.5672417000245993 1.631276924213293 -1.6348048401371909 -1.5707441166461518 0.3125116326129097 -0.1221957401251075 -0.10477788925680377 0.1052017442713326 -0.0004174751822470758 -3.2639764885130875e-06 -0.12219574024092612 -2.755631627800105 -2.3457560074075423 2.346173204898114 -0.0002736130776262319 -7.416725660064592e-05 -2.755631630487145 -0.1612306602476736 -0.6740213541233918 -0.7102640447008521 -0.22760090978669648 -0.0053463364658094545 -0.04329403472787582 -2.1169585690519543 -8.849900379640134 -6.614120837063275 -1.0344461349805354 -0.02429909923710397 -0.19677138783819556 0.3125116229057312 -1.5672414938556116 1.6312769651412964 -1.6348050276385706 -1.5707443396197718 0.3125116229057312 -0.12219574302434921 -0.10477788746356964 0.10520174354314804 -0.0004174751811660826 -3.2639763958286494e-06 -0.12219574302434921 -0.1612306535243988 -0.6740213632583618 -0.7102640271186829 -0.22760091722011566 -0.005346336401998997 -0.0432940348982811 -0.1612306535243988 -0.6740213632583618 -0.7102640271186829 -0.22760091722011566 -0.005346336401998997 -0.0432940348982811 -0.2500000476299307 -0.1988479929284379 0.29999994214861225 2.2214001222345217 2.2214001202331213 2.432916465042407e-07 5.388057275225219e-11 0.038400006190166716 4.945792578061849e-09 1.7745365162551707e-09 -2.9179745237620487e-08 -1.2153594048449094e-10 -1.0658903948715405e-06 -4.977487825741785e-07 8.53258183251416e-07 7.382266342625289e-08 -1.8865362263630028e-07 -7.636517471703456e-10 -0.2499999999999959 -0.19884799999996242 0.2999999999999181 2.2214000002907492 2.221399999835609 4.2819911898902884e-10 -1.0612946883172817e-14 0.03839999999991042 1.918276318383655e-13 -3.3784978895950576e-13 3.383729978381958e-13 -7.136598874791372e-12

232418.792 0.31146834073744184 -1.568135417730696 1.632173800003319 -1.6348079437654253 -1.570744144542001 0.311468340038891 -0.14730084316943987 -0.12606080606391806 0.12644176479604247 -0.0003732722730532974 -3.9425814838679276e-06 -0.14730084332101864 -3.138137880541545 -2.6603646008892863 2.6550025655887337 0.005525363649222305 -8.482562441935501e-05 -3.138137885011565 -0.18351751557404267 -0.690297155161053 -0.7028988052535289 -0.22727084024918953 -0.006075223688914988 -0.04930363299340392 -2.4095849794871804 -9.063601647264628 -6.545534254281911 -1.0329459689325664 -0.027611891666118615 -0.2240850119550208 0.31146833300590515 -1.5681355635272425 1.632173776626587 -1.6348078886615198 -1.5707443396197718 0.31146833300590515 -0.1473008394241333 -0.12606079876422882 0.12644176185131073 -0.00037327228346839547 -3.9425813156412914e-06 -0.1473008394241333 -0.18351751565933228 -0.6902971267700195 -0.7028988003730774 -0.22727084159851074 -0.006075223907828331 -0.049303632229566574 -0.18351751565933228 -0.6902971267700195 -0.7028988003730774 -0.22727084159851074 -0.006075223907828331 -0.049303632229566574 -0.2499999837077065 -0.1985202955431918 0.3000000458313807 2.2214001606107447 2.221400158616033 -1.9146368037475755e-08 3.119303135225828e-09 0.0462399960191786 -5.780944810861062e-09 2.613108570658647e-08 -2.6338538450793515e-08 -1.4629169433461563e-10 1.120852492210429e-06 8.994347406036047e-07 3.284673006123706e-07 -6.413989452236485e-08 5.897352227225901e-08 3.4665550454568707e-09 -0.24999999999999328 -0.1985203199999396 0.2999999999998654 2.2214000002907244 2.2213999998356337 4.3711993397370844e-10 -1.8393747717329793e-14 0.04623999999984112 3.477536864767785e-13 -4.52992547275622e-13 4.535770016346374e-13 3.791375877528272e-12

232418.8 0.31021548411725147 -1.5692063769482463 1.6332473390903186 -1.6348104582792793 -1.5707441781162856 0.31021548341749133 -0.17568537269326615 -0.15000432519545906 0.15027370924931865 -0.00026022233041392767 -4.713789838326655e-06 -0.17568537286088765 -3.548066190478285 -2.9929398914426244 2.9789930566595233 0.014131242829921214 -9.640104430734095e-05 -3.5480661924836254 -0.20736558613058675 -0.7073670918965224 -0.6951622896075745 -0.22688206391560373 -0.006850822612124041 -0.055744062179687186 -2.722710145894604 -9.28772991660134 -6.473490273283656 -1.0311789804964189 -0.031136988772103764 -0.2533567626066782 0.31021547317504883 -1.5692065397845667 1.6332473754882812 -1.6348102728473108 -1.5707443396197718 0.31021547317504883 -0.17568537592887878 -0.1500043272972107 0.15027371048927307 -0.00026022232486866415 -4.7137896217464e-06 -0.17568537592887878 -0.20736558735370636 -0.7073670625686646 -0.695162296295166 -0.22688207030296326 -0.006850822828710079 -0.05574406310915947 -0.20736558735370636 -0.7073670625686646 -0.695162296295166 -0.22688207030296326 -0.006850822828710079 -0.05574406310915947 -0.2499999654665657 -0.19812725160903402 0.3000000219349074 2.221400083530414 2.2214000815223156 1.9889256981913208e-07 4.8806907227894296e-09 0.055079994492735596 -5.693882356217685e-09 -1.4702704844965701e-09 -2.9367418660046297e-08 -1.741732693402026e-10 1.5582753581574958e-06 1.1537798558276225e-06 -3.8473508982860285e-08 -8.757369762071274e-08 1.0280828928092187e-07 -4.232329427403276e-09 -0.24999999999998962 -0.19812727999990642 0.29999999999978494 2.221400000293477 2.221399999838235 4.37119933971443e-10 -3.112815449812378e-14 0.05507999999972925 6.055100642712181e-13 -4.460436484675232e-13 4.4662847945097044e-13 -8.0287554084452e-12

232418.808 0.30872619896851083 -1.5704762144848097 1.6345185339542265 -1.6348117379724494 -1.5707442181328757 0.30872619826732906 -0.20757665923408808 -0.17674649279264973 0.1768069318983657 -4.9622604559129605e-05 -5.585570733779088e-06 -0.20757665943228265 -3.9864108176027417 -3.3427709496488336 3.316652831130879 0.026324965731849757 -0.00010897261193155412 -3.9864108214243754 -0.23282153656224433 -0.7251654925079254 -0.6870874168917822 -0.2264226908577254 -0.007673238774990138 -0.06263094334993408 -3.056946775062268 -9.52142291662906 -6.398295443579655 -1.0290911299483618 -0.03487487023233018 -0.28465763752545037 0.3087261915206909 -1.5704763571368616 1.6345185041427612 -1.6348117033587855 -1.5707443396197718 0.3087261915206909 -0.2075766623020172 -0.17674648761749268 0.17680692672729492 -4.9622605729382485e-05 -5.5855707614682615e-06 -0.2075766623020172 -0.2328215390443802 -0.7251654863357544 -0.6870874166488647 -0.22642269730567932 -0.00767323886975646 -0.06263094395399094 -0.2328215390443802 -0.7251654863357544 -0.6870874166488647 -0.22642269730567932 -0.00767323886975646 -0.06263094395399094 -0.24999998438029686 -0.19766070224338475 0.3000000484779029 2.2214001221165653 2.2214001201148017 -1.0441070100579905e-07 1.9754377224728694e-09 0.0649799968355236 -6.143917525472747e-09 3.492028630091636e-08 -1.533711126176417e-08 -2.053587468668237e-10 3.069840068934021e-07 1.0137468876293813e-07 1.6906854661583865e-07 4.576445391957019e-09 -1.665575783555496e-08 -2.7445599577066402e-09 -0.24999999999998468 -0.1976607199998594 0.29999999999966476 2.221400000290849 2.221399999835509 4.3414632872659193e-10 -5.029418353578679e-14 0.06497999999955653 1.021237288629768e-12 -4.393103182649349e-12 -3.2356105430223253e-12 -8.474760986292712e-12

232418.816 0.3069717706605532 -1.571967648772877 1.6360092048546855 -1.634810883205752 -1.570744265422066 0.3069717699576685 -0.24321151647809877 -0.20641851309875928 0.20613661754387025 0.0002945574295888972 -6.566680352472825e-06 -0.2432115167145885 -4.454357155501336 -3.7090025382636935 3.66621070568807 0.043022504268503355 -0.00012263870233671708 -4.45435716028823 -0.2599412710868316 -0.7436163427599427 -0.6787134300153962 -0.22587882808254875 -0.008542607003559943 -0.06998290027386174 -3.413028889370099 -9.763682580438047 -6.320315202989373 -1.026619273635184 -0.038826148831179935 -0.3180722817447016 0.3069717586040497 -1.5719674269305628 1.6360092163085938 -1.634810749684469 -1.5707443396197718 0.3069717586040497 -0.2432115226984024 -0.20641851425170898 0.20613661408424377 0.00029455742333084345 -6.566680440300843e-06 -0.2432115226984024 -0.2599412798881531 -0.7436163425445557 -0.6787134408950806 -0.22587883472442627 -0.008542606607079506 -0.06998290121555328 -0.2599412798881531 -0.7436163425445557 -0.6787134408950806 -0.22587883472442627 -0.008542606607079506 -0.06998290121555328 -0.25000002406392663 -0.197111997485623 0.2999999191069898 2.2213999282424517 2.221399926206875 5.655764465476383e-07 -5.848163200372765e-10 0.07600000678041524 1.2533993323358627e-08 -8.098734017909344e-08 -3.975644367741428e-08 -2.4002777651750684e-10 4.799975195748757e-07 -1.009163474595059e-07 -3.06833280378866e-07 1.1190012161866847e-08 3.6044083871484325e-08 -4.281008533913211e-09 -0.24999999999997818 -0.19711199999979526 0.29999999999949 2.221400000291017 2.221399999835341 4.341463286760102e-10 -7.766602386503321e-14 0.07599999999929806 1.6759138581664578e-12 -6.827628330745032e-13 6.835008519334969e-13 -4.4604794033689665e-12

232418.824 0.304921552792212 -1.5737044206744581 1.6377418781503472 -1.6348066779199248 -1.5707443208870675 0.30492155208733773 -0.26936948028245705 -0.22775564117948902 0.22699171525762443 0.0007779346698125869 -7.301678277665411e-06 -0.2693694805433068 -3.2697454755447852 -2.667141010091217 2.606887214219273 0.06042215502796121 -9.187474064907328e-05 -3.269745478589787 -0.19045789050039427 -0.6853473470058868 -0.7038672440510507 -0.22638434848823757 -0.0062043405157739505 -0.05137133451917732 -2.500712102270177 -8.998610666187295 -6.554552550052195 -1.0289168638790398 -0.028198727644192602 -0.2334827153896609 0.30492156744003296 -1.5737045446978968 1.6377419233322144 -1.6348064581500452 -1.5707443396197718 0.30492153763771057 -0.2693694829940796 -0.22775563597679138 0.2269917130470276 0.0007779346778988838 -7.301678124349564e-06 -0.2693694829940796 -0.19045789539813995 -0.685347318649292 -0.7038672566413879 -0.22638434171676636 -0.006204340606927872 -0.05137133598327637 -0.19045789539813995 -0.685347318649292 -0.7038672566413879 -0.22638434171676636 -0.006204340606927872 -0.05137133598327637 -0.24999995877482686 -0.19647198998396115 0.30000000466186677 2.2213999336645136 2.221399997837886 2.1033637572981017e-07 9.785493538540157e-10 0.08399999005064254 -7.767947607306032e-09 -3.37961910233533e-08 -1.9070872740012212e-08 -2.650504347793438e-10 1.7590160589988115e-06 1.0984874620150844e-06 -5.667995959612953e-07 -1.141275457721742e-07 2.194430218758284e-07 -6.668164512089587e-09 -0.24999999999997033 -0.19647199999971068 0.29999999999923976 2.2214000002910725 2.2213999998352856 4.2819911869110175e-10 -1.1014032816492959e-13 0.08399999999897735 2.5496102439123164e-12 -9.34528731693513e-13 9.352043944320756e-13 -4.4604057589364005e-12

232418.832 0.3026614132228205 -1.5756114219530524 1.6396404012059167 -1.634798082226098 -1.5707443822844382 0.30266141251570355 -0.2956946013052418 -0.24897385771494882 0.24759515710671837 0.0013940602576234427 -8.049997068452447e-06 -0.2956946015990534 -3.2906401278480906 -2.652277066932475 2.5754302311367416 0.07701569847635698 -9.353984884837947e-05 -3.2906401319683294 -0.19145519925744664 -0.6827229374404677 -0.7045683627410445 -0.22613210197228925 -0.006206880925709973 -0.051699612740035754 -2.5138067662502745 -8.964152168593342 -6.561081507517155 -1.0277704034640547 -0.028210273807351822 -0.2349747399034625 0.3026614189147949 -1.575611416493551 1.6396404504776 -1.6347978750811976 -1.5707443396197718 0.3026614189147949 -0.29569458961486816 -0.24897386133670807 0.2475951611995697 0.0013940602075308561 -8.049996722547803e-06 -0.29569458961486816 -0.1914552003145218 -0.6827229261398315 -0.7045683860778809 -0.2261320948600769 -0.006206880789250135 -0.05169961228966713 -0.1914552003145218 -0.6827229261398315 -0.7045683860778809 -0.2261320948600769 -0.006206880789250135 -0.05169961228966713 -0.24999997792766837 -0.19576799853901483 0.2999999660075111 2.2213998884055774 2.221399886362784 3.336596055073473e-07 3.485358247919532e-09 0.0919999911497738 1.9382066416003226e-10 -7.75512697475916e-08 -1.1439671136220847e-08 -2.900169969628774e-10 1.2709757254945382e-06 9.478797123658969e-07 -1.0771579377025105e-06 -1.1408136088588554e-07 2.2288979992874316e-07 2.0329299125319495e-09 -0.2499999999999635 -0.19576799999962868 0.29999999999897026 2.221400000293583 2.221399999838129 4.3414632867684043e-10 -1.4944004395001435e-13 0.09199999999855449 3.800821242106344e-12 -1.0178685719858782e-12 1.018553915715458e-12 4.4603596532390155e-12

232418.84 0.300189950868437 -1.5776876530389217 1.64170266737394 -1.6347839890131208 -1.5707444497261314 0.3001899501589341 -0.3222028354547423 -0.2700610567011345 0.26792361938927167 0.002154152186122992 -8.812990137291753e-06 -0.322202835763317 -3.3135292686875677 -2.6358998732732113 2.5410577853191634 0.09501149106244365 -9.537413360491329e-05 -3.3135292705329458 -0.19255126311950496 -0.6798541393442767 -0.70533660603362 -0.22585922597016497 -0.0062098104539860316 -0.05205922653926206 -2.5281980847591004 -8.926484849590354 -6.568235542706277 -1.0265301820343997 -0.028223588513366513 -0.23660918462094604 0.30018994212150574 -1.5776875654803675 1.641702651977539 -1.6347840468036097 -1.5707443396197718 0.30018994212150574 -0.3222028315067291 -0.27006104588508606 0.26792362332344055 0.0021541521418839693 -8.812990017759148e-06 -0.3222028315067291 -0.19255127012729645 -0.679854154586792 -0.7053366303443909 -0.22585922479629517 -0.006209810264408588 -0.05205922573804855 -0.19255127012729645 -0.679854154586792 -0.7053366303443909 -0.22585922479629517 -0.006209810264408588 -0.05205922573804855 -0.25000001735334315 -0.19500001209634496 0.2999999835625159 2.2213999274716376 2.221399925435718 -6.026315552618257e-08 -4.125833087729842e-09 0.10000000369132327 1.3882306034527402e-09 -1.0570135129135409e-08 1.846901607292594e-08 -3.1487739501835817e-10 1.7270991548244686e-07 -2.187889924562977e-07 -1.0824227224903803e-06 -1.0157904754222776e-08 1.077462529585292e-07 3.6366146920333108e-09 -0.24999999999995826 -0.1949999999995518 0.2999999999986812 2.2214000002920544 2.221399999836981 4.311727234107385e-10 -1.8364416104494451e-13 0.09999999999814459 5.148316798653431e-12 -4.783412089252414e-12 -3.246855874948757e-12 -4.460334310013234e-12

232418.848 0.297505637022792 -1.579932016597203 1.643926384065182 -1.6347632029910022 -1.570744523335133 0.2975056363106973 -0.3489101311538709 -0.2910048981427131 0.2879539420106411 0.003069030813184592 -9.592052004273176e-06 -0.3489101314901902 -3.338411962391069 -2.6179801801973213 2.503790327671181 0.11435982838270002 -9.738273337267782e-05 -3.338411965859149 -0.193746418171827 -0.6767402803537443 -0.7061716946705696 -0.22556652084036205 -0.0062131240420239 -0.05245016133027596 -2.5438904705960885 -8.885599881044662 -6.576012055111279 -1.0251998372194455 -0.028238648770998628 -0.23838598324610424 0.297505646944046 -1.5799320379840296 1.6439263820648193 -1.6347630659686487 -1.5707443396197718 0.297505646944046 -0.3489101231098175 -0.29100489616394043 0.2879539430141449 0.0030690308194607496 -9.592052265361417e-06 -0.3489101231098175 -0.193746417760849 -0.676740288734436 -0.7061716914176941 -0.22556652128696442 -0.00621312391012907 -0.052450161427259445 -0.193746417760849 -0.676740288734436 -0.7061716914176941 -0.22556652128696442 -0.00621312391012907 -0.052450161427259445 -0.24999998008796448 -0.1941680127029476 0.2999999952301542 2.2213998486734843 2.2213998466235334 2.2827723643654002e-08 -3.263361971401169e-09 0.10799999165420059 -2.3940739625655698e-09 -5.582265140301636e-08 4.6802803763707066e-08 -3.396482548879455e-10 -4.905939016201033e-07 -3.6119505145582784e-07 1.1503382411583626e-07 3.362886657250302e-08 -5.133228775838794e-08 -4.372539114741719e-10 -0.249999999999955 -0.1941679999994828 0.29999999999837346 2.221400000290994 2.221399999835364 4.3117272321113875e-10 -2.0981584203286234e-13 0.1079999999977602 6.5936297974271306e-12 -2.490725448375197e-12 -1.5247389388098187e-12 -2.18439632701517e-16

232418.856 0.2946068154498787 -1.5823433155399949 1.6463090740957314 -1.6347344440260922 -1.570744603245556 0.29460681473500183 -0.37583242081382184 -0.31179277870891103 0.30766313788462973 0.004149080132843231 -1.0388582395960212e-05 -0.3758324211729828 -3.365286207493871 -2.598485070774745 2.463649484248577 0.1350061649573298 -9.956629896087946e-05 -3.3652862103490806 -0.1950409853793263 -0.6733805769678872 -0.7070733349443716 -0.2252548641265826 -0.006216816076566733 -0.052872385571484444 -2.5608881380305544 -8.84148697558836 -6.584408309668978 -1.023783357455318 -0.028255429067995802 -0.24030499242239678 0.2946068048477173 -1.5823434034930628 1.6463090181350708 -1.6347344557391565 -1.57074481645693 0.2946068048477173 -0.3758324086666107 -0.31179279088974 0.3076631426811218 0.004149080254137516 -1.0388582268205937e-05 -0.3758324086666107 -0.1950409859418869 -0.6733805537223816 -0.7070733308792114 -0.2252548635005951 -0.006216816138476133 -0.05287238582968712 -0.1950409859418869 -0.6733805537223816 -0.7070733308792114 -0.2252548635005951 -0.006216816138476133 -0.05287238582968712 -0.2500000006885339 -0.1932719786878412 0.30000004365893546 2.2214001859120147 2.2214001838835307 -5.731299019232255e-08 1.2811972479921703e-08 0.11599999712326946 -4.507928869451761e-09 7.71275653624728e-08 -5.2745660186310534e-08 -3.550294519906027e-10 9.396001800981114e-07 6.921351778953429e-07 2.3497620380947727e-07 -5.195786135510506e-08 6.04061933111525e-08 -1.1781702337258106e-09 -0.2499999999999542 -0.1932719999994241 0.29999999999804705 2.221400000291318 2.22139999983504 4.400935381504124e-10 -2.259133372138819e-13 0.11599999999741517 8.132357548067877e-12 -8.999900293144785e-13 9.004402238501312e-13 -1.0297210133181078e-16

232418.864 0.29149170255341256 -1.5849202507950917 1.648848077105393 -1.63469635079099 -1.5707446896028552 0.29149170183566186 -0.4029856101142465 -0.3324118002124902 0.3270284013436518 0.005404207829804748 -1.1204014272052778e-05 -0.4029856104823782 -3.3941486625530812 -2.5773776879473993 2.420657932377758 0.15689096212018963 -0.00010192898451157077 -3.3941486636744207 -0.19643525833697895 -0.6697741233901139 -0.7080412211502721 -0.22492521296092569 -0.006220880502069337 -0.053325846782618126 -2.5791949419645337 -8.794134240112196 -6.5934214595955645 -1.0222850929074072 -0.02827390188190514 -0.24236597362699935 0.29149171710014343 -1.5849202314959925 1.648848056793213 -1.6346963087665003 -1.57074481645693 0.29149168729782104 -0.4029856026172638 -0.3324117958545685 0.32702839374542236 0.005404207855463028 -1.1204014299437404e-05 -0.4029856026172638 -0.19643525779247284 -0.6697741150856018 -0.708041250705719 -0.2249252200126648 -0.006220880430191755 -0.053325846791267395 -0.19643525779247284 -0.6697741150856018 -0.708041250705719 -0.2249252200126648 -0.006220880430191755 -0.053325846791267395 -0.2500000014875492 -0.19231199407484353 0.2999999967789453 2.221400033218439 2.221400097373133 1.5161878602762952e-07 2.201716179771249e-09 0.1239999994629486 2.5518878257909564e-09 -2.0636612069961504e-09 -5.063335837027504e-08 -3.788765784939162e-10 1.3185237386890434e-06 1.0426682115819489e-06 -1.04264090053577e-06 -1.0144949594585524e-07 1.6261832799931542e-07 -5.0240159001363214e-11 -0.24999999999995653 -0.19231199999937876 0.29999999999770155 2.2214000002923515 2.221399999836684 4.3117272319164035e-10 -2.299319936287971e-13 0.1239999999971216 9.764378932708012e-12 -1.3861372730248882e-12 1.386874919834586e-12 -1.3380969211352137e-11

232418.872 0.2881583876415465 -1.5876614188133562 1.651540551039301 -1.6346474847390713 -1.5707447825640823 0.2881583869206739 -0.4303855648589253 -0.35284873576574166 0.34602711553663434 0.006843804033936462 -1.2039812206594291e-05 -0.4303855652622497 -3.424994343084853 -2.5546169441564293 2.3748392741228184 0.17994952551646431 -0.00010447474181768916 -3.424994347483938 -0.19792948969585228 -0.665919879703477 -0.7090750380698144 -0.22457860663185 -0.006225310750167298 -0.05381046674824765 -2.5988141997065406 -8.743528020506654 -6.603048569513725 -1.0207097671417582 -0.028294037359510367 -0.24456857137078555 0.2881583869457245 -1.5876615683185022 1.6515405178070068 -1.6346476713763636 -1.57074481645693 0.2881583869457245 -0.430385559797287 -0.35284873843193054 0.34602710604667664 0.00684380391612649 -1.2039812645525672e-05 -0.430385559797287 -0.1979294866323471 -0.6659198999404907 -0.7090750336647034 -0.2245786041021347 -0.006225310731679201 -0.05381046608090401 -0.1979294866323471 -0.6659198999404907 -0.7090750336647034 -0.2245786041021347 -0.006225310731679201 -0.05381046608090401 -0.24999999739222248 -0.19128799611778946 0.30000006979744964 2.221400146731797 2.221400144696637 -4.841142560300012e-07 2.2016741783213365e-09 0.13199999741736834 -9.199934155253457e-09 1.5307393666252947e-07 4.295937331823424e-08 -4.026022898308973e-10 -1.1114332250571355e-06 -6.773648334632567e-07 5.825348967035231e-08 5.3703207150945696e-08 -8.474860892771761e-08 3.038804935264204e-09 -0.24999999999996234 -0.19128799999934973 0.2999999999973375 2.221400000292562 2.2213999998364735 4.400935380124575e-10 -2.1833290743979846e-13 0.131999999996895 1.1491905042482731e-11 -2.9362431377382133e-12 -1.0790185117047316e-12 -1.7157499379583108e-16

232418.87999999998 0.2846048333073956 -1.5905653087955844 1.65438347368473 -1.6345863344147897 -1.5707448822981478 0.2846048325833004 -0.45804809512063577 -0.3730899934765563 0.3646368588316721 0.008476698604504984 -1.2897474149338075e-05 -0.45804809553179743 -3.457816282713806 -2.53015721385183 2.326217911879716 0.20411182132106517 -0.00010720774284297304 -3.4578162836934667 -0.1995238758512184 -0.6618166594779771 -0.7101744633535577 -0.22421616948606177 -0.006230099731260125 -0.05432613583491735 -2.6197484899264976 -8.68965273894584 -6.613286637641 -1.0190624903141507 -0.028315803278577266 -0.24691228736969936 0.28460484743118286 -1.5905655066119593 1.6543834209442139 -1.6345861593829554 -1.57074481645693 0.28460484743118286 -0.45804810523986816 -0.373089998960495 0.3646368682384491 0.008476698771119118 -1.2897474334749859e-05 -0.45804810523986816 -0.19952388107776642 -0.6618166565895081 -0.7101744413375854 -0.22421616315841675 -0.006230099592357874 -0.0543261356651783 -0.19952388107776642 -0.6618166565895081 -0.7101744413375854 -0.22421616315841675 -0.006230099592357874 -0.0543261356651783 -0.24999995875685188 -0.1901999978690432 0.30000005881284253 2.221399985895744 2.2213999838334977 -1.5328370598685988e-07 4.3704332276714086e-10 0.13999998537653638 -1.9147042166358366e-08 2.5879398783393275e-08 3.4733270121081465e-08 -4.260967271835399e-10 -5.063886851061058e-07 -6.566493025937897e-07 7.853770530136622e-07 6.513475994890628e-08 -7.802803245316781e-08 7.774038656743281e-10 -0.24999999999997252 -0.1901999999993402 0.2999999999969545 2.2214000002911134 2.2213999998352447 4.371199328560661e-10 -1.8940572556601666e-13 0.13999999999674967 1.3312083037702896e-11 -3.2520903929864454e-12 -7.63579885004244e-13 -1.3381343261101644e-11

232418.88799999998 0.2808288759482179 -1.5936302996186384 1.6573736442551321 -1.6345113201118888 -1.5707449889860507 0.280828875220721 -0.4859889363793098 -0.39312157754918636 0.3828354102329545 0.01031111682234285 -1.3778526542442882e-05 -0.48598893681550004 -3.4926051573342525 -2.5039480090787576 2.2748189251603006 0.22930227722973331 -0.00011013154913810088 -3.4926051604628263 -0.2012185398452788 -0.6574631168289565 -0.7113391698371959 -0.22383911407067422 -0.006235239804880841 -0.05487270774327152 -2.6419994281685106 -8.6324907239642 -6.624132617357936 -1.0173487734512143 -0.02833916491318342 -0.24939645669316904 0.2808288633823395 -1.5936301390277308 1.6573736667633057 -1.6345112959491175 -1.57074481645693 0.2808288633823395 -0.48598894476890564 -0.3931215703487396 0.38283541798591614 0.010311116464436054 -1.3778526408714242e-05 -0.48598894476890564 -0.20121854543685913 -0.6574631333351135 -0.7113391757011414 -0.22383911907672882 -0.006235240027308464 -0.05487270653247833 -0.20121854543685913 -0.6574631333351135 -0.7113391757011414 -0.22383911907672882 -0.006235240027308464 -0.05487270653247833 -0.2500000173446615 -0.1890480158819918 0.29999994423474996 2.2213998234643717 2.2213998213748 1.544090622594281e-07 -9.36064882780966e-09 0.1480000092567899 1.0979939243741015e-08 -1.1597590143544695e-07 3.862355696599206e-08 -4.4943306010385847e-10 -5.080814380500656e-07 -6.558476127266666e-07 -1.92439366515758e-07 5.44960027353302e-08 -4.7974254728368685e-08 5.507323045903322e-09 -0.2499999999999876 -0.18904799999935343 0.29999999999655286 2.221400000291406 2.221399999834952 4.2819911787321327e-10 -1.3847463826747676e-13 0.1479999999967021 1.5227313411482784e-11 -1.0791130599525608e-12 1.0797969383283767e-12 -8.920621131971312e-12

232418.89599999998 0.27682822644859406 -1.596854656439648 1.6605076850138296 -1.6344207988932657 -1.5707451028210873 0.2768282257174385 -0.5142237273289265 -0.4129290466797794 0.40060075387659116 0.012354633278593858 -1.4684521848019507e-05 -0.5142237277983541 -3.529348868702091 -2.4759336413241324 2.220667955454586 0.255439557031376 -0.00011324941319707811 -3.529348872856761 -0.2030135122670871 -0.6528577331236147 -0.7125688276054407 -0.22344874468818904 -0.006240722765764711 -0.05544999229132734 -2.665567416066854 -8.572022035913061 -6.635583436427385 -1.015574544607819 -0.028364084970400612 -0.2520202149640827 0.27682822942733765 -1.5968545118915003 1.6605076789855957 -1.6344206968890589 -1.5707452932940882 0.27682822942733765 -0.5142237544059753 -0.41292905807495117 0.40060076117515564 0.012354632839560509 -1.468452228436945e-05 -0.5142237544059753 -0.20301350951194763 -0.6528577208518982 -0.7125688195228577 -0.2234487384557724 -0.006240722723305225 -0.055449992418289185 -0.20301350951194763 -0.6528577208518982 -0.7125688195228577 -0.2234487384557724 -0.006240722723305225 -0.055449992418289185 -0.25000001681380646 -0.1878319894630675 0.299999950905263 2.2214000359312123 2.2214000338431585 4.7611120800846745e-07 2.5247206069163075e-09 0.15600001634605373 1.5719491598097006e-08 -9.344690165266886e-08 -1.236543371283571e-07 -4.599742132321838e-10 2.7409756744753114e-07 3.483189285081226e-07 2.434387540968494e-07 -3.0404234595528305e-08 2.9764446426041883e-08 -5.795347589004726e-10 -0.2500000000000081 -0.18783199999939287 0.2999999999961326 2.2214000002912666 2.2213999998350915 4.4009353781887054e-10 -6.297642269976516e-14 0.15599999999676833 1.7235355705450362e-11 -1.518018356078291e-12 1.5185203086531756e-12 4.460504285808825e-12

232418.90399999998 0.27260047105565754 -1.6002365269561398 1.663782042930071 -1.6343130699873187 -1.5707452240091655 0.2726004703207886 -0.5427679840015799 -0.43249746962728236 0.4179110826402909 0.014614123830050823 -1.5617055020842903e-05 -0.5427679844722452 -3.568032084081671 -2.4460528684378673 2.1637910954624693 0.28243631893212057 -0.0001165666466029244 -3.5680320842363806 -0.20490870997993876 -0.6479988032869602 -0.7138631059103581 -0.22304646120696114 -0.006246539860106433 -0.05605774852344714 -2.690451362036596 -8.50822428715779 -6.6476360148584375 -1.0137461661856384 -0.028390523664183733 -0.2547824670390672 0.2726004719734192 -1.600236717854635 1.663782000541687 -1.634312931691305 -1.5707452932940882 0.2726004719734192 -0.5427680015563965 -0.43249747157096863 0.4179110825061798 0.014614123851060867 -1.561705539643299e-05 -0.5427680015563965 -0.20490871369838715 -0.6479988098144531 -0.7138631343841553 -0.2230464667081833 -0.006246539764106274 -0.05605774745345116 -0.20490871369838715 -0.6479988098144531 -0.7138631343841553 -0.2230464667081833 -0.006246539764106274 -0.05605774745345116 -0.24999996711630398 -0.18655198519179322 0.3000000563815277 2.221400076748333 2.221400074667344 -7.619488576113133e-08 5.129796989659907e-09 0.1639999867403976 -1.943869817678126e-08 5.9223574877588805e-08 -2.035274473879258e-08 -4.821284740798987e-10 6.462797503029941e-07 3.063920922054074e-07 -1.0835696262642159e-06 -4.284557282152722e-08 1.1803360026289642e-07 4.856469830507367e-09 -0.2500000000000351 -0.18655199999946223 0.29999999999569393 2.221400000291274 2.221399999835084 4.341463278469718e-10 3.9360001734789156e-14 0.16399999999696568 1.9336798053406142e-11 -1.308955387362339e-12 1.3097742048513355e-12 -1.3381153552826514e-11

232418.91199999998 0.26814307247722424 -1.6037739372991453 1.667192991360689 -1.6341863805769652 -1.570745352769066 0.268143071738457 -0.5716370698487724 -0.4518113778695003 0.43474480094514295 0.017095715448262425 -1.657775109705476e-05 -0.5716370703465908 -3.608635730899062 -2.414238530277245 2.104214788106504 0.3101989522764502 -0.00012008700952648234 -3.6086357342932085 -0.20690391261512533 -0.6428844219194341 -0.71522167480405 -0.22263376320915546 -0.006252681707327962 -0.05669567698100663 -2.716648372636596 -8.44107245980217 -6.660287280110274 -1.0118704537856116 -0.028418438359805585 -0.25768185187867515 0.26814305782318115 -1.6037738958941858 1.6671929359436035 -1.6341865698443812 -1.5707452932940882 0.26814305782318115 -0.5716370940208435 -0.45181137323379517 0.43474480509757996 0.017095714807510376 -1.6577751011936925e-05 -0.5716370940208435 -0.20690391957759857 -0.6428844332695007 -0.7152217030525208 -0.22263376414775848 -0.006252681836485863 -0.05669567734003067 -0.20690391957759857 -0.6428844332695007 -0.7152217030525208 -0.22263376414775848 -0.006252681836485863 -0.05669567734003067 -0.2500000273828441 -0.185208008165553 0.3000000206596203 2.2214000356339176 2.221400033545637 -3.2330080359227396e-07 -8.855428547804907e-09 0.1720000201042259 2.0513117030190998e-09 1.051982842651062e-07 5.571595024864463e-08 -5.040248349979029e-10 4.546659291696279e-07 -3.539068595663028e-08 -1.1887482056829828e-06 -2.342245860570101e-08 1.3079906906327303e-07 -1.6381699808213701e-09 -0.2500000000000689 -0.18520799999956508 0.29999999999523697 2.221400000291112 2.221399999835246 4.371199328383213e-10 1.744476369919816e-13 0.17199999999731247 2.1530111721675197e-11 -1.3201580904085169e-12 1.321086316559198e-12 -4.460475120770385e-12

232418.91999999998 0.263453371236836 -1.607464787535572 1.6707366317511754 -1.6340389319988295 -1.57074548933271 0.26345337049404605 -0.6008461613656815 -0.4708547152535219 0.4510805268253514 0.01980473379763095 -1.756827039125364e-05 -0.6008461618763509 -3.6511364396136363 -2.3804171730026984 2.0419657350260536 0.33862729367106553 -0.00012381491177485977 -3.6511364412200042 -0.2089987364437366 -0.6375124692547504 -0.7166442064919135 -0.22221225446018147 -0.006259138309963309 -0.057363410309834294 -2.7441534095062616 -8.370538721314873 -6.6735341796939975 -1.0099546965215247 -0.028447783618783237 -0.26071669985819684 0.2634533643722534 -1.607464615498678 1.6707366704940796 -1.6340387503253382 -1.5707452932940882 0.2634533643722534 -0.6008461713790894 -0.4708547294139862 0.4510805308818817 0.019804732874035835 -1.75682707777014e-05 -0.6008461713790894 -0.20899873971939087 -0.6375124454498291 -0.7166442275047302 -0.22221225500106812 -0.0062591382302343845 -0.05736340954899788 -0.20899873971939087 -0.6375124454498291 -0.7166442275047302 -0.22221225500106812 -0.0062591382302343845 -0.05736340954899788 -0.25000000374609344 -0.18380001558295908 0.2999999231784642 2.221399742613056 2.2213997404775125 3.8127757892800955e-07 -8.830293164466878e-09 0.1800000045787652 2.2656805871569804e-08 -2.612150106889964e-07 6.296630241384943e-08 -5.256358663217539e-10 1.815123499546827e-06 1.1762196789013272e-06 -7.774375796467028e-07 -1.1262617932565334e-07 2.1044664185397645e-07 3.444537268525319e-09 -0.25000000000011097 -0.18379999999970553 0.2999999999947618 2.221400000292683 2.2213999998363527 4.341463278560292e-10 3.4351603181381857e-13 0.17999999999782657 2.38149005755304e-11 -1.0772226890043015e-12 1.0781186445744665e-12 -8.920706133421635e-12

232418.92799999999 0.2585285873230256 -1.6113068467555616 1.6744088953507479 -1.6338688863714985 -1.5707456339454176 0.2585285865760546 -0.630410208835543 -0.48961078457795487 0.4668970933716066 0.022745648366569865 -1.859030418580842e-05 -0.6304102093669829 -3.69550593373269 -2.344508665554121 1.977070818281905 0.36761432111736453 -0.00012775422431934733 -3.695505936329002 -0.21119260556638633 -0.631880597163882 -0.7181303763124666 -0.2217836477201143 -0.00626589900906623 -0.05806050437743566 -2.7729589110866524 -8.296592240761772 -6.687373690296951 -1.0080066788879194 -0.028478510996206012 -0.26388499239544505 0.25852859020233154 -1.6113069693194788 1.6744089126586914 -1.6338689962970179 -1.5707457701312464 0.25852859020233154 -0.6304101943969727 -0.48961079120635986 0.4668971002101898 0.0227456483989954 -1.8590304534882307e-05 -0.6304101943969727 -0.21119260787963867 -0.6318805813789368 -0.718130350112915 -0.22178365290164948 -0.006265899166464806 -0.058060504496097565 -0.21119260787963867 -0.6318805813789368 -0.718130350112915 -0.22178365290164948 -0.006265899166464806 -0.058060504496097565 -0.24999999188671884 -0.18232798717594303 0.3000000395506654 2.22140016086074 2.2214001587611043 -1.8416900352057454e-07 1.213079243914921e-08 0.18799999200196787 -1.4681962951351326e-08 1.5315305667875022e-07 -4.8554739261851845e-08 -5.315683815430156e-10 -5.9424537314341437e-08 -1.669589905566553e-07 1.2506907609969238e-06 4.6298050338443977e-08 -1.3101219204357266e-07 -5.31986787185249e-10 -0.25000000000016187 -0.18232799999988747 0.29999999999426874 2.2214000002912564 2.2213999998351017 4.3711993270106305e-10 5.539129127433875e-13 0.18799999999852887 2.6190775525798287e-11 -3.4332204636071575e-12 -5.821338865889533e-13 -4.4602168096027905e-12

232418.936 0.25336582217371795 -1.6152977477200228 1.6782055449367947 -1.6336743736730437 -1.57074578686625 0.25336582142246356 -0.6603438917254132 -0.5080621910512242 0.48217354965144094 0.025922014995946346 -1.9645588888286194e-05 -0.660343892267616 -3.7417103612337743 -2.3064258091586645 1.9095570349792894 0.3970458286720602 -0.0001319105878097219 -3.7417103625791426 -0.21348472009230116 -0.6259862152803192 -0.7196798633509652 -0.2213497698572377 -0.006272952491745456 -0.05878642725207675 -2.8030543748119143 -8.21919900663059 -6.701802823496858 -1.0060347040011453 -0.028510569074983092 -0.2671843118606888 0.25336581468582153 -1.6152976194964808 1.6782054901123047 -1.633674446736471 -1.5707457701312464 0.25336581468582153 -0.6603438854217529 -0.5080621838569641 0.4821735620498657 0.0259220153093338 -1.9645589418360032e-05 -0.6603438854217529 -0.2134847193956375 -0.6259862184524536 -0.7196798920631409 -0.2213497757911682 -0.006272952537983656 -0.05878642573952675 -0.2134847193956375 -0.6259862184524536 -0.7196798920631409 -0.2213497757911682 -0.006272952537983656 -0.05878642573952675 -0.25000003024552264 -0.180792007024835 0.2999999857336336 2.221399990808101 2.2213999886820197 -1.244441402828988e-08 -2.837378081534828e-09 0.1960000176131134 1.0069319802605035e-08 2.0046326564923917e-09 -8.626916199973328e-09 -5.516822629693212e-10 7.512559243919038e-07 6.073395522869731e-07 -1.0741663817906643e-06 -6.616950679921718e-08 1.2411810142284972e-07 6.8666464425652256e-09 -0.25000000000022254 -0.18079200000011514 0.29999999999375815 2.221400000291485 2.221399999834873 4.4009353765751066e-10 8.082228676227248e-13 0.19599999999943857 2.8655955826774514e-11 -1.2936140756117866e-12 1.2942054626699503e-12 -8.920799483228686e-12

232418.944 0.247980117551693 -1.6194212244215187 1.6821091859784285 -1.6334542662539544 -1.5707459478260697 0.2479801167960885 -0.6771081964991765 -0.5158818834994284 0.4871624403949709 0.028753554976323634 -2.0328346213506976e-05 -0.6771081970399113 -2.0955380967204174 -0.9774615560255301 0.6236113429412479 0.3539424975471609 -8.534466565259778e-05 -2.0955380965369113 -0.11792921272446896 -0.5512073160657983 -0.7503606284629732 -0.2229454074213833 -0.0031444012595139726 -0.032923231872257694 -1.5484105630722775 -7.237352059943932 -6.9875082443729 -1.013286876730187 -0.014291303724491005 -0.1496360888594112 0.24798011779785156 -1.6194213072406214 1.6821092367172241 -1.6334541479693812 -1.5707457701312464 0.24798011779785156 -0.6771081686019897 -0.5158818960189819 0.48716244101524353 0.028753554448485374 -2.032834709098097e-05 -0.6771081686019897 -0.11792921274900436 -0.5512073040008545 -0.7503606081008911 -0.2229454070329666 -0.0031444013584405184 -0.03292323276400566 -0.11792921274900436 -0.5512073040008545 -0.7503606081008911 -0.2229454070329666 -0.0031444013584405184 -0.03292323276400566 -0.24999997036228144 -0.1791973409579682 0.29999999846055425 2.221399861994212 2.2213998598479785 -2.613356100589138e-08 1.3627306668109613e-09 0.199999973407947 -6.909254704629389e-09 -8.916566125233447e-08 1.1435913029320036e-07 -5.60190999544883e-10 -7.092631153451694e-08 -6.832318272049142e-08 8.772581671537721e-07 2.310721153519182e-08 -7.678866755095825e-08 -4.0488374026965946e-09 -0.24999999994581942 -0.17919733336312513 0.2999999999702637 2.2214000002930314 2.221399999836004 4.3117272263694006e-10 1.111669902480023e-12 0.20000000000057686 3.1208837373119424e-11 -1.6365896460650447e-12 1.6374225199086366e-12 -1.3381473988778592e-11

232418.952 0.24255037571348909 -1.6235377367416213 1.685986843482085 -1.6332151383377393 -1.5707461115812302 0.24255037495350365 -0.680356402015825 -0.513264842546721 0.48227575966077274 0.031023246987617416 -2.061166733014396e-05 -0.6803564025613923 -0.4060256895810632 0.3271301190884285 -0.6108350917747724 0.28371150141172274 -3.541513957962303e-05 -0.4060256901851217 -0.020082719822826278 -0.478101835164987 -0.7797862886708725 -0.2249076358162318 1.2507681943730342e-05 -0.0063791147324640226 -0.263686111273709 -6.2774770957162795 -7.261525877360899 -1.0222052047847736 5.6847414434254404e-05 -0.028993076459048982 0.24255037307739258 -1.623537842427389 1.685986876487732 -1.6332152525531214 -1.5707462469684046 0.24255037307739258 -0.6803563833236694 -0.5132648348808289 0.48227575421333313 0.03102324716746807 -2.061166742350906e-05 -0.6803563833236694 -0.02008271962404251 -0.47810184955596924 -0.7797862887382507 -0.22490763664245605 1.2507682185969315e-05 -0.006379114929586649 -0.02008271962404251 -0.47810184955596924 -0.7797862887382507 -0.22490763664245605 1.2507682185969315e-05 -0.006379114929586649 -0.2499999939152448 -0.17759740856106337 0.300000030033176 2.22140015136854 2.221400149238122 -1.4107639903578325e-07 1.0638830090766425e-08 0.1999866572738458 -1.359839067974002e-08 1.4612974628902363e-07 -6.120412139449491e-08 -5.409598907604556e-10 -6.81166737472809e-07 -4.770215108588689e-07 -3.381525093221559e-08 3.9278250309696464e-08 -5.6632953334283746e-08 -8.919583026520619e-10 -0.24999999994763758 -0.17759742225102917 0.29999999997132076 2.221400000292951 2.2213999998360845 4.3117272250240916e-10 -2.709040149895526e-10 0.19998666681562677 1.4868112222440419e-10 -3.956157181181379e-12 -5.934554848110535e-14 4.7488055154865094e-17

232418.96 0.2370943604373139 -1.6276334455186268 1.6898256820606712 -1.6329579946177484 -1.5707462776199606 0.23709435967299874 -0.683645373278109 -0.5106571756969832 0.47743524504402446 0.03325614639890414 -2.0898299879967167e-05 -0.6836453738149325 -0.4111214077855002 0.3259583562172236 -0.6050643270935352 0.27911242641084044 -3.5829068727900865e-05 -0.4111214066925273 -0.02041954922842943 -0.47458135225583936 -0.7796675251098094 -0.2249770266796793 1.5589488893538194e-06 -0.006459174100702595 -0.26810868136927846 -6.231253155119171 -7.260419927327567 -1.0225205862591424 7.085422702113109e-06 -0.029356946287693295 0.23709435760974884 -1.6276333967791956 1.6898256540298462 -1.6329577604876917 -1.5707462469684046 0.23709435760974884 -0.6836453676223755 -0.5106571912765503 0.47743523120880127 0.03325614705681801 -2.089830013574101e-05 -0.6836453676223755 -0.020419549196958542 -0.47458136081695557 -0.7796674966812134 -0.2249770313501358 1.5589488384648575e-06 -0.006459174212068319 -0.020419549196958542 -0.47458136081695557 -0.7796674966812134 -0.2249770313501358 1.5589488384648575e-06 -0.006459174212068319 -0.24999999082743124 -0.17599752550474185 0.2999999744898114 2.221399888725373 2.2213998865556284 3.1695070407761035e-07 2.3313618762244166e-09 0.19998710355665933 1.468865416196195e-08 -1.8102497998515112e-07 7.4000933169084254e-09 -5.378948215116995e-10 -1.3004489699209338e-06 -9.158191930376358e-07 1.251446781493051e-06 1.0508406334516818e-07 -2.309626086009951e-07 -4.922018723496738e-10 -0.24999999994975905 -0.1759975259535837 0.2999999999724997 2.2214000002929843 2.2213999998360516 4.2819911735154773e-10 -2.6181298633343325e-10 0.1999871112551471 1.43395868176329e-10 -3.8356201906814565e-12 -1.7977417627268456e-13 3.63207727782644e-18

232418.968 0.23161205744636265 -1.6317081873572548 1.6936258470456864 -1.632683143841282 -1.5707464459593208 0.23161205667775892 -0.6869280353595665 -0.5080228829614387 0.47260721078031004 0.03544993658386455 -2.118681257492698e-05 -0.6869280358918726 -0.41033276018218046 0.3292865919430621 -0.6035042829643025 0.27422377312005114 -3.606408686997644e-05 -0.41033275961750715 -0.020416767814318042 -0.47084144224877966 -0.7796497418559575 -0.22505384309794108 1.4032442349387665e-06 -0.006446783578879501 -0.2680721614019959 -6.182148136726477 -7.260254326111047 -1.0228697168801422 6.377745047796694e-06 -0.029300631366007333 0.23161205649375916 -1.6317079702960413 1.693625807762146 -1.6326831022845667 -1.5707462469684046 0.23161205649375916 -0.6869280338287354 -0.5080229043960571 0.47260722517967224 0.03544993698596954 -2.1186811864026822e-05 -0.6869280338287354 -0.02041676826775074 -0.4708414375782013 -0.7796497344970703 -0.2250538468360901 1.403244255016034e-06 -0.006446783430874348 -0.02041676826775074 -0.4708414375782013 -0.7796497344970703 -0.2250538468360901 1.403244255016034e-06 -0.006446783430874348 -0.2500000279886059 -0.17439764868626667 0.29999994663581897 2.221399799912422 2.2213997977285342 1.2908518098808986e-07 -1.1068479932258528e-08 0.19998764964885635 2.8618250464433537e-08 -1.7954820063545462e-07 1.0491295710636988e-07 -5.346941629692445e-10 -2.5213751542374996e-10 -2.1288876084000945e-08 4.01470834063933e-07 1.3510518638253344e-08 -4.990605614650639e-08 6.753238929905721e-10 -0.24999999995179803 -0.1743976256068002 0.2999999999736326 2.2214000002917187 2.2213999998346394 4.3117272216504474e-10 -2.5120567685134516e-10 0.19998762976791967 1.375012097497942e-10 -3.885648826145028e-12 -1.3056018471696972e-13 4.460497238494704e-12

232418.976 0.22610352230345865 -1.6357617451858584 1.6973874358386483 -1.6323909005057864 -1.57074661661414 0.2261035215306629 -0.6902033275251442 -0.5053611105303029 0.4677911997049859 0.037604220813548514 -2.1477156903226056e-05 -0.6902033280437762 -0.40941152069721987 0.332721553891982 -0.6020013844155181 0.2692855287104957 -3.629304103738468e-05 -0.40941151898794825 -0.020407403816982805 -0.4671159448885495 -0.7796339768278528 -0.22513145915904292 1.3207609040860558e-06 -0.006432309864988431 -0.26794921211698425 -6.133232356386655 -7.260107519016331 -1.02322248187785 6.002858309071123e-06 -0.02923484833637242 0.2261035293340683 -1.635761562977926 1.697387456893921 -1.6323908011065882 -1.5707467238055628 0.2261035144329071 -0.6902033090591431 -0.5053611397743225 0.46779119968414307 0.03760422021150589 -2.1477157133631408e-05 -0.6902033090591431 -0.020407402887940407 -0.46711593866348267 -0.7796339988708496 -0.22513145208358765 1.3207609299570322e-06 -0.0064323097467422485 -0.020407402887940407 -0.46711593866348267 -0.7796339988708496 -0.22513145208358765 1.3207609299570322e-06 -0.0064323097467422485 -0.2500000171211913 -0.17279771822489395 0.29999993376133194 2.2213999353001737 2.2213999662152553 4.927411298590207e-07 8.849833645228398e-09 0.19998813702682652 3.073611873859668e-08 -1.936923082868252e-07 -8.982411351431089e-08 -5.149896570928909e-10 9.746884035004365e-07 7.245914978257343e-07 -1.0468556155376564e-06 -8.658784548159238e-08 1.9824072005714762e-07 5.256280639717009e-10 -0.2499999999537549 -0.17279772124689222 0.2999999999747204 2.2214000002916494 2.221399999834709 4.341463271168189e-10 -2.4101102248975737e-10 0.19998812803400218 1.3183674555173713e-10 -1.9870479082312514e-12 1.987725377876379e-12 3.052029115546695e-17

232418.984 0.22056881697610106 -1.6397938967463075 1.7011105437490728 -1.6320815822037211 -1.5707467895988678 0.22056881619922364 -0.6934704952666724 -0.5026712537251837 0.46298699363088147 0.03971861253368979 -2.1769284993829928e-05 -0.6934704957713933 -0.4083959676910165 0.33623210063989106 -0.6005257592630527 0.26429896501765915 -3.6516011325483995e-05 -0.40839596595214356 -0.020393677438844238 -0.4634067416926093 -0.7796194965082237 -0.22520983539781667 1.2369865730159997e-06 -0.006416354398403678 -0.2677689847720248 -6.084530518423961 -7.259972675383881 -1.0235787018830766 5.622103974357718e-06 -0.029162330740744716 0.22056882083415985 -1.6397936979876917 1.701110601425171 -1.6320818106280726 -1.5707467238055628 0.22056882083415985 -0.6934704780578613 -0.5026712417602539 0.4629870057106018 0.039718613028526306 -2.176928501285147e-05 -0.6934704780578613 -0.020393677055835724 -0.4634067416191101 -0.7796195149421692 -0.22520983219146729 1.2369865771688637e-06 -0.006416354328393936 -0.020393677055835724 -0.4634067416191101 -0.7796195149421692 -0.22520983219146729 1.2369865771688637e-06 -0.006416354328393936 -0.25000003974973184 -0.1711978285919966 0.2999999463422118 2.2213999512590132 2.221399949071872 -1.7719205799644677e-08 -9.22237015690234e-09 0.19998862975180046 1.7267304687428156e-08 -2.3568242633748576e-08 1.6326775663500312e-08 -5.114432234925442e-10 5.755340209736869e-07 4.1547850689536554e-07 -8.348957626045461e-07 -5.280945886897383e-08 1.3088689918864136e-07 3.1056678137648124e-10 -0.2499999999556331 -0.17119781303462614 0.29999999997576465 2.2214000002933605 2.2213999998356746 4.4009353707281133e-10 -2.3122634805959725e-10 0.19998860623446227 1.2639789880649837e-10 -1.883254850455383e-12 1.8834294971661857e-12 -4.4603306508309015e-12

232418.992 0.2150080095133466 -1.6438044149796145 1.7047952643923014 -1.631755509634763 -1.5707469649275927 0.21500800873252945 -0.6967287712637618 -0.4999527159983219 0.4581943862009666 0.04179272148623869 -2.206315100697518e-05 -0.6967287717498729 -0.4072844996361735 0.33981721585772673 -0.5990759287393607 0.2592636190686132 -3.6733251643156374e-05 -0.407284497309951 -0.02037550109592113 -0.4597141174402231 -0.7796062430955534 -0.22528897889090893 1.1514368545324788e-06 -0.0063988919910696745 -0.26753032938944443 -6.03604636199013 -7.259849256954412 -1.023938409059181 5.233280503850116e-06 -0.02908296409941167 0.21500800549983978 -1.6438043753253382 1.704795241355896 -1.6317556540118616 -1.570747200642721 0.21500800549983978 -0.6967287659645081 -0.4999527037143707 0.458194375038147 0.041792720556259155 -2.206315184594132e-05 -0.6967287659645081 -0.020375501364469528 -0.4597141146659851 -0.7796062231063843 -0.2252889722585678 1.1514368907228345e-06 -0.006398892030119896 -0.020375501364469528 -0.4597141146659851 -0.7796062231063843 -0.2252889722585678 1.1514368907228345e-06 -0.006398892030119896 -0.25000002418297296 -0.16959788550355115 0.3000000080473249 2.2214001902203906 2.2214001880439476 3.144054149074862e-08 8.977311879649137e-09 0.19998907966592583 4.8931470331564844e-09 1.220405856205256e-07 -1.4164294712665156e-07 -4.914110214126848e-10 -5.009149005724983e-07 -3.5461313353389064e-07 6.983894305599035e-07 3.533186906287043e-08 -6.98091580932724e-08 -1.7314352855965177e-10 -0.24999999995743602 -0.16959790112516804 0.2999999999767675 2.2214000002920606 2.2213999998342975 4.311727219998358e-10 -2.2183562924559123e-10 0.19998906517313195 1.2117654021549692e-10 -4.449748140934572e-12 4.3510286906906823e-13 -1.3381562676516301e-11

