mkrssg/UniversalRobots/rtde_client_3.5/examples/simulation/movel_neu.csv
timestamp target_q_0 target_q_1 target_q_2 target_q_3 target_q_4 target_q_5 target_qd_0 target_qd_1 target_qd_2 target_qd_3 target_qd_4 target_qd_5 target_qdd_0 target_qdd_1 target_qdd_2 target_qdd_3 target_qdd_4 target_qdd_5 target_current_0 target_current_1 target_current_2 target_current_3 target_current_4 target_current_5 target_moment_0 target_moment_1 target_moment_2 target_moment_3 target_moment_4 target_moment_5 actual_q_0 actual_q_1 actual_q_2 actual_q_3 actual_q_4 actual_q_5 actual_qd_0 actual_qd_1 actual_qd_2 actual_qd_3 actual_qd_4 actual_qd_5 actual_current_0 actual_current_1 actual_current_2 actual_current_3 actual_current_4 actual_current_5 joint_control_output_0 joint_control_output_1 joint_control_output_2 joint_control_output_3 joint_control_output_4 joint_control_output_5 actual_TCP_pose_0 actual_TCP_pose_1 actual_TCP_pose_2 actual_TCP_pose_3 actual_TCP_pose_4 actual_TCP_pose_5 actual_TCP_speed_0 actual_TCP_speed_1 actual_TCP_speed_2 actual_TCP_speed_3 actual_TCP_speed_4 actual_TCP_speed_5 actual_TCP_force_0 actual_TCP_force_1 actual_TCP_force_2 actual_TCP_force_3 actual_TCP_force_4 actual_TCP_force_5 target_TCP_pose_0 target_TCP_pose_1 target_TCP_pose_2 target_TCP_pose_3 target_TCP_pose_4 target_TCP_pose_5 target_TCP_speed_0 target_TCP_speed_1 target_TCP_speed_2 target_TCP_speed_3 target_TCP_speed_4 target_TCP_speed_5
2759.864 2.1235540291303265 -1.401008946722106 1.8780087367536975 -3.27443157306135 -1.0887717717564005 -0.6754223496960368 0.0 0.0 0.0 0.0 0.0 0.0 0.0 0.0 0.0 0.0 0.0 0.0 4.326258029590886e-18 -0.6062134784418526 -0.6461266268636273 -0.1308471762617176 0.010025243908536955 0.0 5.680376792852834e-17 -7.959582971941524 -6.016860374679471 -0.5947004161095065 0.045564733564300464 0.0 2.123553991317749 -1.4010089079486292 1.8780087232589722 -3.2744315306292933 -1.0887716452227991 -0.675422493611471 0.0 0.0 0.0 0.0 0.0 0.0 4.326258001228904e-18 -0.6062134504318237 -0.6461266279220581 -0.13084717094898224 0.01002524420619011 0.0 4.326258001228904e-18 -0.6062134504318237 -0.6461266279220581 -0.13084717094898224 0.01002524420619011 0.0 0.3000000034531598 -0.20000001171119786 0.3499999886602267 -1.6275988880789851 1.6275986054673 -1.6275986736458656 0.0 0.0 0.0 0.0 0.0 0.0 -1.3761852709535863e-06 8.814992235902832e-07 5.816496553549296e-07 6.612692873678044e-08 1.1109256624647124e-07 1.0787300186452465e-08 0.29999999999999805 -0.20000000000000195 0.35000000000000103 -1.6275987284684308 1.6275987284684377 -1.6275987284684523 0.0 0.0 0.0 0.0 0.0 0.0
2759.872 2.1235540291303265 -1.401008946722106 1.8780087367536975 -3.27443157306135 -1.0887717717564005 -0.6754223496960368 0.0 0.0 0.0 0.0 0.0 0.0 0.0 0.0 0.0 0.0 0.0 0.0 4.326258029590886e-18 -0.6062134784418526 -0.6461266268636273 -0.1308471762617176 0.010025243908536955 0.0 5.680376792852834e-17 -7.959582971941524 -6.016860374679471 -0.5947004161095065 0.045564733564300464 0.0 2.123553991317749 -1.4010089079486292 1.8780087232589722 -3.2744315306292933 -1.0887716452227991 -0.675422493611471 0.0 0.0 0.0 0.0 0.0 0.0 4.326258001228904e-18 -0.6062134504318237 -0.6461266279220581 -0.13084717094898224 0.01002524420619011 0.0 4.326258001228904e-18 -0.6062134504318237 -0.6461266279220581 -0.13084717094898224 0.01002524420619011 0.0 0.3000000034531598 -0.20000001171119786 0.3499999886602267 -1.6275988880789851 1.6275986054673 -1.6275986736458656 0.0 0.0 0.0 0.0 0.0 0.0 -1.3761852709535863e-06 8.814992235902832e-07 5.816496553549296e-07 6.612692873678044e-08 1.1109256624647124e-07 1.0787300186452465e-08 0.29999999999999805 -0.20000000000000195 0.35000000000000103 -1.6275987284684308 1.6275987284684377 -1.6275987284684523 0.0 0.0 0.0 0.0 0.0 0.0
2759.8799999999997 2.1235540291303265 -1.401008946722106 1.8780087367536975 -3.27443157306135 -1.0887717717564005 -0.6754223496960368 0.0 0.0 0.0 0.0 0.0 0.0 0.0 0.0 0.0 0.0 0.0 0.0 4.326258029590886e-18 -0.6062134784418526 -0.6461266268636273 -0.1308471762617176 0.010025243908536955 0.0 5.680376792852834e-17 -7.959582971941524 -6.016860374679471 -0.5947004161095065 0.045564733564300464 0.0 2.123553991317749 -1.4010089079486292 1.8780087232589722 -3.2744315306292933 -1.0887716452227991 -0.675422493611471 0.0 0.0 0.0 0.0 0.0 0.0 4.326258001228904e-18 -0.6062134504318237 -0.6461266279220581 -0.13084717094898224 0.01002524420619011 0.0 4.326258001228904e-18 -0.6062134504318237 -0.6461266279220581 -0.13084717094898224 0.01002524420619011 0.0 0.3000000034531598 -0.20000001171119786 0.3499999886602267 -1.6275988880789851 1.6275986054673 -1.6275986736458656 0.0 0.0 0.0 0.0 0.0 0.0 -1.3761852709535863e-06 8.814992235902832e-07 5.816496553549296e-07 6.612692873678044e-08 1.1109256624647124e-07 1.0787300186452465e-08 0.29999999999999805 -0.20000000000000195 0.35000000000000103 -1.6275987284684308 1.6275987284684377 -1.6275987284684523 0.0 0.0 0.0 0.0 0.0 0.0
2759.888 2.1235540291303265 -1.401008946722106 1.8780087367536975 -3.27443157306135 -1.0887717717564005 -0.6754223496960368 0.0 0.0 0.0 0.0 0.0 0.0 0.0 0.0 0.0 0.0 0.0 0.0 4.326258029590886e-18 -0.6062134784418526 -0.6461266268636273 -0.1308471762617176 0.010025243908536955 0.0 5.680376792852834e-17 -7.959582971941524 -6.016860374679471 -0.5947004161095065 0.045564733564300464 0.0 2.123553991317749 -1.4010089079486292 1.8780087232589722 -3.2744315306292933 -1.0887716452227991 -0.675422493611471 0.0 0.0 0.0 0.0 0.0 0.0 4.326258001228904e-18 -0.6062134504318237 -0.6461266279220581 -0.13084717094898224 0.01002524420619011 0.0 4.326258001228904e-18 -0.6062134504318237 -0.6461266279220581 -0.13084717094898224 0.01002524420619011 0.0 0.3000000034531598 -0.20000001171119786 0.3499999886602267 -1.6275988880789851 1.6275986054673 -1.6275986736458656 0.0 0.0 0.0 0.0 0.0 0.0 -1.3761852709535863e-06 8.814992235902832e-07 5.816496553549296e-07 6.612692873678044e-08 1.1109256624647124e-07 1.0787300186452465e-08 0.29999999999999805 -0.20000000000000195 0.35000000000000103 -1.6275987284684308 1.6275987284684377 -1.6275987284684523 0.0 0.0 0.0 0.0 0.0 0.0
2759.8959999999997 2.1235540291303265 -1.401008946722106 1.8780087367536975 -3.27443157306135 -1.0887717717564005 -0.6754223496960368 0.0 0.0 0.0 0.0 0.0 0.0 0.0 0.0 0.0 0.0 0.0 0.0 4.326258029590886e-18 -0.6062134784418526 -0.6461266268636273 -0.1308471762617176 0.010025243908536955 0.0 5.680376792852834e-17 -7.959582971941524 -6.016860374679471 -0.5947004161095065 0.045564733564300464 0.0 2.123553991317749 -1.4010089079486292 1.8780087232589722 -3.2744315306292933 -1.0887716452227991 -0.675422493611471 0.0 0.0 0.0 0.0 0.0 0.0 4.326258001228904e-18 -0.6062134504318237 -0.6461266279220581 -0.13084717094898224 0.01002524420619011 0.0 4.326258001228904e-18 -0.6062134504318237 -0.6461266279220581 -0.13084717094898224 0.01002524420619011 0.0 0.3000000034531598 -0.20000001171119786 0.3499999886602267 -1.6275988880789851 1.6275986054673 -1.6275986736458656 0.0 0.0 0.0 0.0 0.0 0.0 -1.3761852709535863e-06 8.814992235902832e-07 5.816496553549296e-07 6.612692873678044e-08 1.1109256624647124e-07 1.0787300186452465e-08 0.29999999999999805 -0.20000000000000195 0.35000000000000103 -1.6275987284684308 1.6275987284684377 -1.6275987284684523 0.0 0.0 0.0 0.0 0.0 0.0
2759.904 2.1235540291303265 -1.401008946722106 1.8780087367536975 -3.27443157306135 -1.0887717717564005 -0.6754223496960368 0.0 0.0 0.0 0.0 0.0 0.0 0.0 0.0 0.0 0.0 0.0 0.0 4.326258029590886e-18 -0.6062134784418526 -0.6461266268636273 -0.1308471762617176 0.010025243908536955 0.0 5.680376792852834e-17 -7.959582971941524 -6.016860374679471 -0.5947004161095065 0.045564733564300464 0.0 2.123553991317749 -1.4010089079486292 1.8780087232589722 -3.2744315306292933 -1.0887716452227991 -0.675422493611471 0.0 0.0 0.0 0.0 0.0 0.0 4.326258001228904e-18 -0.6062134504318237 -0.6461266279220581 -0.13084717094898224 0.01002524420619011 0.0 4.326258001228904e-18 -0.6062134504318237 -0.6461266279220581 -0.13084717094898224 0.01002524420619011 0.0 0.3000000034531598 -0.20000001171119786 0.3499999886602267 -1.6275988880789851 1.6275986054673 -1.6275986736458656 0.0 0.0 0.0 0.0 0.0 0.0 -1.3761852709535863e-06 8.814992235902832e-07 5.816496553549296e-07 6.612692873678044e-08 1.1109256624647124e-07 1.0787300186452465e-08 0.29999999999999805 -0.20000000000000195 0.35000000000000103 -1.6275987284684308 1.6275987284684377 -1.6275987284684523 0.0 0.0 0.0 0.0 0.0 0.0
2759.912 2.1235540291303265 -1.401008946722106 1.8780087367536975 -3.27443157306135 -1.0887717717564005 -0.6754223496960368 0.0 0.0 0.0 0.0 0.0 0.0 0.0 0.0 0.0 0.0 0.0 0.0 4.326258029590886e-18 -0.6062134784418526 -0.6461266268636273 -0.1308471762617176 0.010025243908536955 0.0 5.680376792852834e-17 -7.959582971941524 -6.016860374679471 -0.5947004161095065 0.045564733564300464 0.0 2.123553991317749 -1.4010089079486292 1.8780087232589722 -3.2744315306292933 -1.0887716452227991 -0.675422493611471 0.0 0.0 0.0 0.0 0.0 0.0 4.326258001228904e-18 -0.6062134504318237 -0.6461266279220581 -0.13084717094898224 0.01002524420619011 0.0 4.326258001228904e-18 -0.6062134504318237 -0.6461266279220581 -0.13084717094898224 0.01002524420619011 0.0 0.3000000034531598 -0.20000001171119786 0.3499999886602267 -1.6275988880789851 1.6275986054673 -1.6275986736458656 0.0 0.0 0.0 0.0 0.0 0.0 -1.3761852709535863e-06 8.814992235902832e-07 5.816496553549296e-07 6.612692873678044e-08 1.1109256624647124e-07 1.0787300186452465e-08 0.29999999999999805 -0.20000000000000195 0.35000000000000103 -1.6275987284684308 1.6275987284684377 -1.6275987284684523 0.0 0.0 0.0 0.0 0.0 0.0
2759.92 2.1235540291303265 -1.401008946722106 1.8780087367536975 -3.27443157306135 -1.0887717717564005 -0.6754223496960368 0.0 0.0 0.0 0.0 0.0 0.0 0.0 0.0 0.0 0.0 0.0 0.0 4.326258029590886e-18 -0.6062134784418526 -0.6461266268636273 -0.1308471762617176 0.010025243908536955 0.0 5.680376792852834e-17 -7.959582971941524 -6.016860374679471 -0.5947004161095065 0.045564733564300464 0.0 2.123553991317749 -1.4010089079486292 1.8780087232589722 -3.2744315306292933 -1.0887716452227991 -0.675422493611471 0.0 0.0 0.0 0.0 0.0 0.0 4.326258001228904e-18 -0.6062134504318237 -0.6461266279220581 -0.13084717094898224 0.01002524420619011 0.0 4.326258001228904e-18 -0.6062134504318237 -0.6461266279220581 -0.13084717094898224 0.01002524420619011 0.0 0.3000000034531598 -0.20000001171119786 0.3499999886602267 -1.6275988880789851 1.6275986054673 -1.6275986736458656 0.0 0.0 0.0 0.0 0.0 0.0 -1.3761852709535863e-06 8.814992235902832e-07 5.816496553549296e-07 6.612692873678044e-08 1.1109256624647124e-07 1.0787300186452465e-08 0.29999999999999805 -0.20000000000000195 0.35000000000000103 -1.6275987284684308 1.6275987284684377 -1.6275987284684523 0.0 0.0 0.0 0.0 0.0 0.0
2759.928 2.1235540291303265 -1.401008946722106 1.8780087367536975 -3.27443157306135 -1.0887717717564005 -0.6754223496960368 0.0 0.0 0.0 0.0 0.0 0.0 0.0 0.0 0.0 0.0 0.0 0.0 4.326258029590886e-18 -0.6062134784418526 -0.6461266268636273 -0.1308471762617176 0.010025243908536955 0.0 5.680376792852834e-17 -7.959582971941524 -6.016860374679471 -0.5947004161095065 0.045564733564300464 0.0 2.123553991317749 -1.4010089079486292 1.8780087232589722 -3.2744315306292933 -1.0887716452227991 -0.675422493611471 0.0 0.0 0.0 0.0 0.0 0.0 4.326258001228904e-18 -0.6062134504318237 -0.6461266279220581 -0.13084717094898224 0.01002524420619011 0.0 4.326258001228904e-18 -0.6062134504318237 -0.6461266279220581 -0.13084717094898224 0.01002524420619011 0.0 0.3000000034531598 -0.20000001171119786 0.3499999886602267 -1.6275988880789851 1.6275986054673 -1.6275986736458656 0.0 0.0 0.0 0.0 0.0 0.0 -1.3761852709535863e-06 8.814992235902832e-07 5.816496553549296e-07 6.612692873678044e-08 1.1109256624647124e-07 1.0787300186452465e-08 0.29999999999999805 -0.20000000000000195 0.35000000000000103 -1.6275987284684308 1.6275987284684377 -1.6275987284684523 0.0 0.0 0.0 0.0 0.0 0.0
2759.9359999999997 2.1235540291303265 -1.401008946722106 1.8780087367536975 -3.27443157306135 -1.0887717717564005 -0.6754223496960368 0.0 0.0 0.0 0.0 0.0 0.0 0.0 0.0 0.0 0.0 0.0 0.0 4.326258029590886e-18 -0.6062134784418526 -0.6461266268636273 -0.1308471762617176 0.010025243908536955 0.0 5.680376792852834e-17 -7.959582971941524 -6.016860374679471 -0.5947004161095065 0.045564733564300464 0.0 2.123553991317749 -1.4010089079486292 1.8780087232589722 -3.2744315306292933 -1.0887716452227991 -0.675422493611471 0.0 0.0 0.0 0.0 0.0 0.0 4.326258001228904e-18 -0.6062134504318237 -0.6461266279220581 -0.13084717094898224 0.01002524420619011 0.0 4.326258001228904e-18 -0.6062134504318237 -0.6461266279220581 -0.13084717094898224 0.01002524420619011 0.0 0.3000000034531598 -0.20000001171119786 0.3499999886602267 -1.6275988880789851 1.6275986054673 -1.6275986736458656 0.0 0.0 0.0 0.0 0.0 0.0 -1.3761852709535863e-06 8.814992235902832e-07 5.816496553549296e-07 6.612692873678044e-08 1.1109256624647124e-07 1.0787300186452465e-08 0.29999999999999805 -0.20000000000000195 0.35000000000000103 -1.6275987284684308 1.6275987284684377 -1.6275987284684523 0.0 0.0 0.0 0.0 0.0 0.0
2759.944 2.1235540291303265 -1.401008946722106 1.8780087367536975 -3.27443157306135 -1.0887717717564005 -0.6754223496960368 0.0 0.0 0.0 0.0 0.0 0.0 0.0 0.0 0.0 0.0 0.0 0.0 4.326258029590886e-18 -0.6062134784418526 -0.6461266268636273 -0.1308471762617176 0.010025243908536955 0.0 5.680376792852834e-17 -7.959582971941524 -6.016860374679471 -0.5947004161095065 0.045564733564300464 0.0 2.123553991317749 -1.4010089079486292 1.8780087232589722 -3.2744315306292933 -1.0887716452227991 -0.675422493611471 0.0 0.0 0.0 0.0 0.0 0.0 4.326258001228904e-18 -0.6062134504318237 -0.6461266279220581 -0.13084717094898224 0.01002524420619011 0.0 4.326258001228904e-18 -0.6062134504318237 -0.6461266279220581 -0.13084717094898224 0.01002524420619011 0.0 0.3000000034531598 -0.20000001171119786 0.3499999886602267 -1.6275988880789851 1.6275986054673 -1.6275986736458656 0.0 0.0 0.0 0.0 0.0 0.0 -1.3761852709535863e-06 8.814992235902832e-07 5.816496553549296e-07 6.612692873678044e-08 1.1109256624647124e-07 1.0787300186452465e-08 0.29999999999999805 -0.20000000000000195 0.35000000000000103 -1.6275987284684308 1.6275987284684377 -1.6275987284684523 0.0 0.0 0.0 0.0 0.0 0.0
2759.9519999999998 2.1235540291303265 -1.401008946722106 1.8780087367536975 -3.27443157306135 -1.0887717717564005 -0.6754223496960368 0.0 0.0 0.0 0.0 0.0 0.0 0.0 0.0 0.0 0.0 0.0 0.0 4.326258029590886e-18 -0.6062134784418526 -0.6461266268636273 -0.1308471762617176 0.010025243908536955 0.0 5.680376792852834e-17 -7.959582971941524 -6.016860374679471 -0.5947004161095065 0.045564733564300464 0.0 2.123553991317749 -1.4010089079486292 1.8780087232589722 -3.2744315306292933 -1.0887716452227991 -0.675422493611471 0.0 0.0 0.0 0.0 0.0 0.0 4.326258001228904e-18 -0.6062134504318237 -0.6461266279220581 -0.13084717094898224 0.01002524420619011 0.0 4.326258001228904e-18 -0.6062134504318237 -0.6461266279220581 -0.13084717094898224 0.01002524420619011 0.0 0.3000000034531598 -0.20000001171119786 0.3499999886602267 -1.6275988880789851 1.6275986054673 -1.6275986736458656 0.0 0.0 0.0 0.0 0.0 0.0 -1.3761852709535863e-06 8.814992235902832e-07 5.816496553549296e-07 6.612692873678044e-08 1.1109256624647124e-07 1.0787300186452465e-08 0.29999999999999805 -0.20000000000000195 0.35000000000000103 -1.6275987284684308 1.6275987284684377 -1.6275987284684523 0.0 0.0 0.0 0.0 0.0 0.0
2759.96 2.1235540291303265 -1.401008946722106 1.8780087367536975 -3.27443157306135 -1.0887717717564005 -0.6754223496960368 0.0 0.0 0.0 0.0 0.0 0.0 0.0 0.0 0.0 0.0 0.0 0.0 4.326258029590886e-18 -0.6062134784418526 -0.6461266268636273 -0.1308471762617176 0.010025243908536955 0.0 5.680376792852834e-17 -7.959582971941524 -6.016860374679471 -0.5947004161095065 0.045564733564300464 0.0 2.123553991317749 -1.4010089079486292 1.8780087232589722 -3.2744315306292933 -1.0887716452227991 -0.675422493611471 0.0 0.0 0.0 0.0 0.0 0.0 4.326258001228904e-18 -0.6062134504318237 -0.6461266279220581 -0.13084717094898224 0.01002524420619011 0.0 4.326258001228904e-18 -0.6062134504318237 -0.6461266279220581 -0.13084717094898224 0.01002524420619011 0.0 0.3000000034531598 -0.20000001171119786 0.3499999886602267 -1.6275988880789851 1.6275986054673 -1.6275986736458656 0.0 0.0 0.0 0.0 0.0 0.0 -1.3761852709535863e-06 8.814992235902832e-07 5.816496553549296e-07 6.612692873678044e-08 1.1109256624647124e-07 1.0787300186452465e-08 0.29999999999999805 -0.20000000000000195 0.35000000000000103 -1.6275987284684308 1.6275987284684377 -1.6275987284684523 0.0 0.0 0.0 0.0 0.0 0.0
2759.968 2.1235540291303265 -1.401008946722106 1.8780087367536975 -3.27443157306135 -1.0887717717564005 -0.6754223496960368 0.0 0.0 0.0 0.0 0.0 0.0 0.0 0.0 0.0 0.0 0.0 0.0 4.326258029590886e-18 -0.6062134784418526 -0.6461266268636273 -0.1308471762617176 0.010025243908536955 0.0 5.680376792852834e-17 -7.959582971941524 -6.016860374679471 -0.5947004161095065 0.045564733564300464 0.0 2.123553991317749 -1.4010089079486292 1.8780087232589722 -3.2744315306292933 -1.0887716452227991 -0.675422493611471 0.0 0.0 0.0 0.0 0.0 0.0 4.326258001228904e-18 -0.6062134504318237 -0.6461266279220581 -0.13084717094898224 0.01002524420619011 0.0 4.326258001228904e-18 -0.6062134504318237 -0.6461266279220581 -0.13084717094898224 0.01002524420619011 0.0 0.3000000034531598 -0.20000001171119786 0.3499999886602267 -1.6275988880789851 1.6275986054673 -1.6275986736458656 0.0 0.0 0.0 0.0 0.0 0.0 -1.3761852709535863e-06 8.814992235902832e-07 5.816496553549296e-07 6.612692873678044e-08 1.1109256624647124e-07 1.0787300186452465e-08 0.29999999999999805 -0.20000000000000195 0.35000000000000103 -1.6275987284684308 1.6275987284684377 -1.6275987284684523 0.0 0.0 0.0 0.0 0.0 0.0
2759.9759999999997 2.1235540291303265 -1.401008946722106 1.8780087367536975 -3.27443157306135 -1.0887717717564005 -0.6754223496960368 0.0 0.0 0.0 0.0 0.0 0.0 0.0 0.0 0.0 0.0 0.0 0.0 4.326258029590886e-18 -0.6062134784418526 -0.6461266268636273 -0.1308471762617176 0.010025243908536955 0.0 5.680376792852834e-17 -7.959582971941524 -6.016860374679471 -0.5947004161095065 0.045564733564300464 0.0 2.123553991317749 -1.4010089079486292 1.8780087232589722 -3.2744315306292933 -1.0887716452227991 -0.675422493611471 0.0 0.0 0.0 0.0 0.0 0.0 4.326258001228904e-18 -0.6062134504318237 -0.6461266279220581 -0.13084717094898224 0.01002524420619011 0.0 4.326258001228904e-18 -0.6062134504318237 -0.6461266279220581 -0.13084717094898224 0.01002524420619011 0.0 0.3000000034531598 -0.20000001171119786 0.3499999886602267 -1.6275988880789851 1.6275986054673 -1.6275986736458656 0.0 0.0 0.0 0.0 0.0 0.0 -1.3761852709535863e-06 8.814992235902832e-07 5.816496553549296e-07 6.612692873678044e-08 1.1109256624647124e-07 1.0787300186452465e-08 0.29999999999999805 -0.20000000000000195 0.35000000000000103 -1.6275987284684308 1.6275987284684377 -1.6275987284684523 0.0 0.0 0.0 0.0 0.0 0.0
2759.984 2.1235540291303265 -1.401008946722106 1.8780087367536975 -3.27443157306135 -1.0887717717564005 -0.6754223496960368 0.0 0.0 0.0 0.0 0.0 0.0 0.0 0.0 0.0 0.0 0.0 0.0 4.326258029590886e-18 -0.6062134784418526 -0.6461266268636273 -0.1308471762617176 0.010025243908536955 0.0 5.680376792852834e-17 -7.959582971941524 -6.016860374679471 -0.5947004161095065 0.045564733564300464 0.0 2.123553991317749 -1.4010089079486292 1.8780087232589722 -3.2744315306292933 -1.0887716452227991 -0.675422493611471 0.0 0.0 0.0 0.0 0.0 0.0 4.326258001228904e-18 -0.6062134504318237 -0.6461266279220581 -0.13084717094898224 0.01002524420619011 0.0 4.326258001228904e-18 -0.6062134504318237 -0.6461266279220581 -0.13084717094898224 0.01002524420619011 0.0 0.3000000034531598 -0.20000001171119786 0.3499999886602267 -1.6275988880789851 1.6275986054673 -1.6275986736458656 0.0 0.0 0.0 0.0 0.0 0.0 -1.3761852709535863e-06 8.814992235902832e-07 5.816496553549296e-07 6.612692873678044e-08 1.1109256624647124e-07 1.0787300186452465e-08 0.29999999999999805 -0.20000000000000195 0.35000000000000103 -1.6275987284684308 1.6275987284684377 -1.6275987284684523 0.0 0.0 0.0 0.0 0.0 0.0
2759.9919999999997 2.1235540291303265 -1.401008946722106 1.8780087367536975 -3.27443157306135 -1.0887717717564005 -0.6754223496960368 0.0 0.0 0.0 0.0 0.0 0.0 0.0 0.0 0.0 0.0 0.0 0.0 4.326258029590886e-18 -0.6062134784418526 -0.6461266268636273 -0.1308471762617176 0.010025243908536955 0.0 5.680376792852834e-17 -7.959582971941524 -6.016860374679471 -0.5947004161095065 0.045564733564300464 0.0 2.123553991317749 -1.4010089079486292 1.8780087232589722 -3.2744315306292933 -1.0887716452227991 -0.675422493611471 0.0 0.0 0.0 0.0 0.0 0.0 4.326258001228904e-18 -0.6062134504318237 -0.6461266279220581 -0.13084717094898224 0.01002524420619011 0.0 4.326258001228904e-18 -0.6062134504318237 -0.6461266279220581 -0.13084717094898224 0.01002524420619011 0.0 0.3000000034531598 -0.20000001171119786 0.3499999886602267 -1.6275988880789851 1.6275986054673 -1.6275986736458656 0.0 0.0 0.0 0.0 0.0 0.0 -1.3761852709535863e-06 8.814992235902832e-07 5.816496553549296e-07 6.612692873678044e-08 1.1109256624647124e-07 1.0787300186452465e-08 0.29999999999999805 -0.20000000000000195 0.35000000000000103 -1.6275987284684308 1.6275987284684377 -1.6275987284684523 0.0 0.0 0.0 0.0 0.0 0.0
2760.0 2.1235540291303265 -1.401008946722106 1.8780087367536975 -3.27443157306135 -1.0887717717564005 -0.6754223496960368 0.0 0.0 0.0 0.0 0.0 0.0 0.0 0.0 0.0 0.0 0.0 0.0 4.326258029590886e-18 -0.6062134784418526 -0.6461266268636273 -0.1308471762617176 0.010025243908536955 0.0 5.680376792852834e-17 -7.959582971941524 -6.016860374679471 -0.5947004161095065 0.045564733564300464 0.0 2.123553991317749 -1.4010089079486292 1.8780087232589722 -3.2744315306292933 -1.0887716452227991 -0.675422493611471 0.0 0.0 0.0 0.0 0.0 0.0 4.326258001228904e-18 -0.6062134504318237 -0.6461266279220581 -0.13084717094898224 0.01002524420619011 0.0 4.326258001228904e-18 -0.6062134504318237 -0.6461266279220581 -0.13084717094898224 0.01002524420619011 0.0 0.3000000034531598 -0.20000001171119786 0.3499999886602267 -1.6275988880789851 1.6275986054673 -1.6275986736458656 0.0 0.0 0.0 0.0 0.0 0.0 -1.3761852709535863e-06 8.814992235902832e-07 5.816496553549296e-07 6.612692873678044e-08 1.1109256624647124e-07 1.0787300186452465e-08 0.29999999999999805 -0.20000000000000195 0.35000000000000103 -1.6275987284684308 1.6275987284684377 -1.6275987284684523 0.0 0.0 0.0 0.0 0.0 0.0
2760.008 2.1235540291303265 -1.401008946722106 1.8780087367536975 -3.27443157306135 -1.0887717717564005 -0.6754223496960368 0.0 0.0 0.0 0.0 0.0 0.0 0.0 0.0 0.0 0.0 0.0 0.0 4.326258029590886e-18 -0.6062134784418526 -0.6461266268636273 -0.1308471762617176 0.010025243908536955 0.0 5.680376792852834e-17 -7.959582971941524 -6.016860374679471 -0.5947004161095065 0.045564733564300464 0.0 2.123553991317749 -1.4010089079486292 1.8780087232589722 -3.2744315306292933 -1.0887716452227991 -0.675422493611471 0.0 0.0 0.0 0.0 0.0 0.0 4.326258001228904e-18 -0.6062134504318237 -0.6461266279220581 -0.13084717094898224 0.01002524420619011 0.0 4.326258001228904e-18 -0.6062134504318237 -0.6461266279220581 -0.13084717094898224 0.01002524420619011 0.0 0.3000000034531598 -0.20000001171119786 0.3499999886602267 -1.6275988880789851 1.6275986054673 -1.6275986736458656 0.0 0.0 0.0 0.0 0.0 0.0 -1.3761852709535863e-06 8.814992235902832e-07 5.816496553549296e-07 6.612692873678044e-08 1.1109256624647124e-07 1.0787300186452465e-08 0.29999999999999805 -0.20000000000000195 0.35000000000000103 -1.6275987284684308 1.6275987284684377 -1.6275987284684523 0.0 0.0 0.0 0.0 0.0 0.0
2760.016 2.1235540291303265 -1.401008946722106 1.8780087367536975 -3.27443157306135 -1.0887717717564005 -0.6754223496960368 0.0 0.0 0.0 0.0 0.0 0.0 0.0 0.0 0.0 0.0 0.0 0.0 4.326258029590886e-18 -0.6062134784418526 -0.6461266268636273 -0.1308471762617176 0.010025243908536955 0.0 5.680376792852834e-17 -7.959582971941524 -6.016860374679471 -0.5947004161095065 0.045564733564300464 0.0 2.123553991317749 -1.4010089079486292 1.8780087232589722 -3.2744315306292933 -1.0887716452227991 -0.675422493611471 0.0 0.0 0.0 0.0 0.0 0.0 4.326258001228904e-18 -0.6062134504318237 -0.6461266279220581 -0.13084717094898224 0.01002524420619011 0.0 4.326258001228904e-18 -0.6062134504318237 -0.6461266279220581 -0.13084717094898224 0.01002524420619011 0.0 0.3000000034531598 -0.20000001171119786 0.3499999886602267 -1.6275988880789851 1.6275986054673 -1.6275986736458656 0.0 0.0 0.0 0.0 0.0 0.0 -1.3761852709535863e-06 8.814992235902832e-07 5.816496553549296e-07 6.612692873678044e-08 1.1109256624647124e-07 1.0787300186452465e-08 0.29999999999999805 -0.20000000000000195 0.35000000000000103 -1.6275987284684308 1.6275987284684377 -1.6275987284684523 0.0 0.0 0.0 0.0 0.0 0.0
2760.024 2.1235540291303265 -1.401008946722106 1.8780087367536975 -3.27443157306135 -1.0887717717564005 -0.6754223496960368 0.0 0.0 0.0 0.0 0.0 0.0 0.0 0.0 0.0 0.0 0.0 0.0 4.326258029590886e-18 -0.6062134784418526 -0.6461266268636273 -0.1308471762617176 0.010025243908536955 0.0 5.680376792852834e-17 -7.959582971941524 -6.016860374679471 -0.5947004161095065 0.045564733564300464 0.0 2.123553991317749 -1.4010089079486292 1.8780087232589722 -3.2744315306292933 -1.0887716452227991 -0.675422493611471 0.0 0.0 0.0 0.0 0.0 0.0 4.326258001228904e-18 -0.6062134504318237 -0.6461266279220581 -0.13084717094898224 0.01002524420619011 0.0 4.326258001228904e-18 -0.6062134504318237 -0.6461266279220581 -0.13084717094898224 0.01002524420619011 0.0 0.3000000034531598 -0.20000001171119786 0.3499999886602267 -1.6275988880789851 1.6275986054673 -1.6275986736458656 0.0 0.0 0.0 0.0 0.0 0.0 -1.3761852709535863e-06 8.814992235902832e-07 5.816496553549296e-07 6.612692873678044e-08 1.1109256624647124e-07 1.0787300186452465e-08 0.29999999999999805 -0.20000000000000195 0.35000000000000103 -1.6275987284684308 1.6275987284684377 -1.6275987284684523 0.0 0.0 0.0 0.0 0.0 0.0
2760.0319999999997 2.1235540291303265 -1.401008946722106 1.8780087367536975 -3.27443157306135 -1.0887717717564005 -0.6754223496960368 0.0 0.0 0.0 0.0 0.0 0.0 0.0 0.0 0.0 0.0 0.0 0.0 4.326258029590886e-18 -0.6062134784418526 -0.6461266268636273 -0.1308471762617176 0.010025243908536955 0.0 5.680376792852834e-17 -7.959582971941524 -6.016860374679471 -0.5947004161095065 0.045564733564300464 0.0 2.123553991317749 -1.4010089079486292 1.8780087232589722 -3.2744315306292933 -1.0887716452227991 -0.675422493611471 0.0 0.0 0.0 0.0 0.0 0.0 4.326258001228904e-18 -0.6062134504318237 -0.6461266279220581 -0.13084717094898224 0.01002524420619011 0.0 4.326258001228904e-18 -0.6062134504318237 -0.6461266279220581 -0.13084717094898224 0.01002524420619011 0.0 0.3000000034531598 -0.20000001171119786 0.3499999886602267 -1.6275988880789851 1.6275986054673 -1.6275986736458656 0.0 0.0 0.0 0.0 0.0 0.0 -1.3761852709535863e-06 8.814992235902832e-07 5.816496553549296e-07 6.612692873678044e-08 1.1109256624647124e-07 1.0787300186452465e-08 0.29999999999999805 -0.20000000000000195 0.35000000000000103 -1.6275987284684308 1.6275987284684377 -1.6275987284684523 0.0 0.0 0.0 0.0 0.0 0.0
2760.04 2.1235540291303265 -1.401008946722106 1.8780087367536975 -3.27443157306135 -1.0887717717564005 -0.6754223496960368 0.0 0.0 0.0 0.0 0.0 0.0 0.0 0.0 0.0 0.0 0.0 0.0 4.326258029590886e-18 -0.6062134784418526 -0.6461266268636273 -0.1308471762617176 0.010025243908536955 0.0 5.680376792852834e-17 -7.959582971941524 -6.016860374679471 -0.5947004161095065 0.045564733564300464 0.0 2.123553991317749 -1.4010089079486292 1.8780087232589722 -3.2744315306292933 -1.0887716452227991 -0.675422493611471 0.0 0.0 0.0 0.0 0.0 0.0 4.326258001228904e-18 -0.6062134504318237 -0.6461266279220581 -0.13084717094898224 0.01002524420619011 0.0 4.326258001228904e-18 -0.6062134504318237 -0.6461266279220581 -0.13084717094898224 0.01002524420619011 0.0 0.3000000034531598 -0.20000001171119786 0.3499999886602267 -1.6275988880789851 1.6275986054673 -1.6275986736458656 0.0 0.0 0.0 0.0 0.0 0.0 -1.3761852709535863e-06 8.814992235902832e-07 5.816496553549296e-07 6.612692873678044e-08 1.1109256624647124e-07 1.0787300186452465e-08 0.29999999999999805 -0.20000000000000195 0.35000000000000103 -1.6275987284684308 1.6275987284684377 -1.6275987284684523 0.0 0.0 0.0 0.0 0.0 0.0
2760.048 2.1235540291303265 -1.401008946722106 1.8780087367536975 -3.27443157306135 -1.0887717717564005 -0.6754223496960368 0.0 0.0 0.0 0.0 0.0 0.0 0.0 0.0 0.0 0.0 0.0 0.0 4.326258029590886e-18 -0.6062134784418526 -0.6461266268636273 -0.1308471762617176 0.010025243908536955 0.0 5.680376792852834e-17 -7.959582971941524 -6.016860374679471 -0.5947004161095065 0.045564733564300464 0.0 2.123553991317749 -1.4010089079486292 1.8780087232589722 -3.2744315306292933 -1.0887716452227991 -0.675422493611471 0.0 0.0 0.0 0.0 0.0 0.0 4.326258001228904e-18 -0.6062134504318237 -0.6461266279220581 -0.13084717094898224 0.01002524420619011 0.0 4.326258001228904e-18 -0.6062134504318237 -0.6461266279220581 -0.13084717094898224 0.01002524420619011 0.0 0.3000000034531598 -0.20000001171119786 0.3499999886602267 -1.6275988880789851 1.6275986054673 -1.6275986736458656 0.0 0.0 0.0 0.0 0.0 0.0 -1.3761852709535863e-06 8.814992235902832e-07 5.816496553549296e-07 6.612692873678044e-08 1.1109256624647124e-07 1.0787300186452465e-08 0.29999999999999805 -0.20000000000000195 0.35000000000000103 -1.6275987284684308 1.6275987284684377 -1.6275987284684523 0.0 0.0 0.0 0.0 0.0 0.0
2760.056 2.1235540291303265 -1.401008946722106 1.8780087367536975 -3.27443157306135 -1.0887717717564005 -0.6754223496960368 0.0 0.0 0.0 0.0 0.0 0.0 0.0 0.0 0.0 0.0 0.0 0.0 4.326258029590886e-18 -0.6062134784418526 -0.6461266268636273 -0.1308471762617176 0.010025243908536955 0.0 5.680376792852834e-17 -7.959582971941524 -6.016860374679471 -0.5947004161095065 0.045564733564300464 0.0 2.123553991317749 -1.4010089079486292 1.8780087232589722 -3.2744315306292933 -1.0887716452227991 -0.675422493611471 0.0 0.0 0.0 0.0 0.0 0.0 4.326258001228904e-18 -0.6062134504318237 -0.6461266279220581 -0.13084717094898224 0.01002524420619011 0.0 4.326258001228904e-18 -0.6062134504318237 -0.6461266279220581 -0.13084717094898224 0.01002524420619011 0.0 0.3000000034531598 -0.20000001171119786 0.3499999886602267 -1.6275988880789851 1.6275986054673 -1.6275986736458656 0.0 0.0 0.0 0.0 0.0 0.0 -1.3761852709535863e-06 8.814992235902832e-07 5.816496553549296e-07 6.612692873678044e-08 1.1109256624647124e-07 1.0787300186452465e-08 0.29999999999999805 -0.20000000000000195 0.35000000000000103 -1.6275987284684308 1.6275987284684377 -1.6275987284684523 0.0 0.0 0.0 0.0 0.0 0.0
2760.064 2.1235540291303265 -1.401008946722106 1.8780087367536975 -3.27443157306135 -1.0887717717564005 -0.6754223496960368 0.0 0.0 0.0 0.0 0.0 0.0 0.0 0.0 0.0 0.0 0.0 0.0 4.326258029590886e-18 -0.6062134784418526 -0.6461266268636273 -0.1308471762617176 0.010025243908536955 0.0 5.680376792852834e-17 -7.959582971941524 -6.016860374679471 -0.5947004161095065 0.045564733564300464 0.0 2.123553991317749 -1.4010089079486292 1.8780087232589722 -3.2744315306292933 -1.0887716452227991 -0.675422493611471 0.0 0.0 0.0 0.0 0.0 0.0 4.326258001228904e-18 -0.6062134504318237 -0.6461266279220581 -0.13084717094898224 0.01002524420619011 0.0 4.326258001228904e-18 -0.6062134504318237 -0.6461266279220581 -0.13084717094898224 0.01002524420619011 0.0 0.3000000034531598 -0.20000001171119786 0.3499999886602267 -1.6275988880789851 1.6275986054673 -1.6275986736458656 0.0 0.0 0.0 0.0 0.0 0.0 -1.3761852709535863e-06 8.814992235902832e-07 5.816496553549296e-07 6.612692873678044e-08 1.1109256624647124e-07 1.0787300186452465e-08 0.29999999999999805 -0.20000000000000195 0.35000000000000103 -1.6275987284684308 1.6275987284684377 -1.6275987284684523 0.0 0.0 0.0 0.0 0.0 0.0
2760.0719999999997 2.1235540291303265 -1.401008946722106 1.8780087367536975 -3.27443157306135 -1.0887717717564005 -0.6754223496960368 0.0 0.0 0.0 0.0 0.0 0.0 0.0 0.0 0.0 0.0 0.0 0.0 4.326258029590886e-18 -0.6062134784418526 -0.6461266268636273 -0.1308471762617176 0.010025243908536955 0.0 5.680376792852834e-17 -7.959582971941524 -6.016860374679471 -0.5947004161095065 0.045564733564300464 0.0 2.123553991317749 -1.4010089079486292 1.8780087232589722 -3.2744315306292933 -1.0887716452227991 -0.675422493611471 0.0 0.0 0.0 0.0 0.0 0.0 4.326258001228904e-18 -0.6062134504318237 -0.6461266279220581 -0.13084717094898224 0.01002524420619011 0.0 4.326258001228904e-18 -0.6062134504318237 -0.6461266279220581 -0.13084717094898224 0.01002524420619011 0.0 0.3000000034531598 -0.20000001171119786 0.3499999886602267 -1.6275988880789851 1.6275986054673 -1.6275986736458656 0.0 0.0 0.0 0.0 0.0 0.0 -1.3761852709535863e-06 8.814992235902832e-07 5.816496553549296e-07 6.612692873678044e-08 1.1109256624647124e-07 1.0787300186452465e-08 0.29999999999999805 -0.20000000000000195 0.35000000000000103 -1.6275987284684308 1.6275987284684377 -1.6275987284684523 0.0 0.0 0.0 0.0 0.0 0.0
2760.08 2.1235540291303265 -1.401008946722106 1.8780087367536975 -3.27443157306135 -1.0887717717564005 -0.6754223496960368 0.0 0.0 0.0 0.0 0.0 0.0 0.0 0.0 0.0 0.0 0.0 0.0 4.326258029590886e-18 -0.6062134784418526 -0.6461266268636273 -0.1308471762617176 0.010025243908536955 0.0 5.680376792852834e-17 -7.959582971941524 -6.016860374679471 -0.5947004161095065 0.045564733564300464 0.0 2.123553991317749 -1.4010089079486292 1.8780087232589722 -3.2744315306292933 -1.0887716452227991 -0.675422493611471 0.0 0.0 0.0 0.0 0.0 0.0 4.326258001228904e-18 -0.6062134504318237 -0.6461266279220581 -0.13084717094898224 0.01002524420619011 0.0 4.326258001228904e-18 -0.6062134504318237 -0.6461266279220581 -0.13084717094898224 0.01002524420619011 0.0 0.3000000034531598 -0.20000001171119786 0.3499999886602267 -1.6275988880789851 1.6275986054673 -1.6275986736458656 0.0 0.0 0.0 0.0 0.0 0.0 -1.3761852709535863e-06 8.814992235902832e-07 5.816496553549296e-07 6.612692873678044e-08 1.1109256624647124e-07 1.0787300186452465e-08 0.29999999999999805 -0.20000000000000195 0.35000000000000103 -1.6275987284684308 1.6275987284684377 -1.6275987284684523 0.0 0.0 0.0 0.0 0.0 0.0
2760.0879999999997 2.1235540291303265 -1.401008946722106 1.8780087367536975 -3.27443157306135 -1.0887717717564005 -0.6754223496960368 0.0 0.0 0.0 0.0 0.0 0.0 0.0 0.0 0.0 0.0 0.0 0.0 4.326258029590886e-18 -0.6062134784418526 -0.6461266268636273 -0.1308471762617176 0.010025243908536955 0.0 5.680376792852834e-17 -7.959582971941524 -6.016860374679471 -0.5947004161095065 0.045564733564300464 0.0 2.123553991317749 -1.4010089079486292 1.8780087232589722 -3.2744315306292933 -1.0887716452227991 -0.675422493611471 0.0 0.0 0.0 0.0 0.0 0.0 4.326258001228904e-18 -0.6062134504318237 -0.6461266279220581 -0.13084717094898224 0.01002524420619011 0.0 4.326258001228904e-18 -0.6062134504318237 -0.6461266279220581 -0.13084717094898224 0.01002524420619011 0.0 0.3000000034531598 -0.20000001171119786 0.3499999886602267 -1.6275988880789851 1.6275986054673 -1.6275986736458656 0.0 0.0 0.0 0.0 0.0 0.0 -1.3761852709535863e-06 8.814992235902832e-07 5.816496553549296e-07 6.612692873678044e-08 1.1109256624647124e-07 1.0787300186452465e-08 0.29999999999999805 -0.20000000000000195 0.35000000000000103 -1.6275987284684308 1.6275987284684377 -1.6275987284684523 0.0 0.0 0.0 0.0 0.0 0.0
2760.096 2.1235540291303265 -1.401008946722106 1.8780087367536975 -3.27443157306135 -1.0887717717564005 -0.6754223496960368 0.0 0.0 0.0 0.0 0.0 0.0 0.0 0.0 0.0 0.0 0.0 0.0 4.326258029590886e-18 -0.6062134784418526 -0.6461266268636273 -0.1308471762617176 0.010025243908536955 0.0 5.680376792852834e-17 -7.959582971941524 -6.016860374679471 -0.5947004161095065 0.045564733564300464 0.0 2.123553991317749 -1.4010089079486292 1.8780087232589722 -3.2744315306292933 -1.0887716452227991 -0.675422493611471 0.0 0.0 0.0 0.0 0.0 0.0 4.326258001228904e-18 -0.6062134504318237 -0.6461266279220581 -0.13084717094898224 0.01002524420619011 0.0 4.326258001228904e-18 -0.6062134504318237 -0.6461266279220581 -0.13084717094898224 0.01002524420619011 0.0 0.3000000034531598 -0.20000001171119786 0.3499999886602267 -1.6275988880789851 1.6275986054673 -1.6275986736458656 0.0 0.0 0.0 0.0 0.0 0.0 -1.3761852709535863e-06 8.814992235902832e-07 5.816496553549296e-07 6.612692873678044e-08 1.1109256624647124e-07 1.0787300186452465e-08 0.29999999999999805 -0.20000000000000195 0.35000000000000103 -1.6275987284684308 1.6275987284684377 -1.6275987284684523 0.0 0.0 0.0 0.0 0.0 0.0
2760.104 2.1235540291303265 -1.401008946722106 1.8780087367536975 -3.27443157306135 -1.0887717717564005 -0.6754223496960368 0.0 0.0 0.0 0.0 0.0 0.0 0.0 0.0 0.0 0.0 0.0 0.0 4.326258029590886e-18 -0.6062134784418526 -0.6461266268636273 -0.1308471762617176 0.010025243908536955 0.0 5.680376792852834e-17 -7.959582971941524 -6.016860374679471 -0.5947004161095065 0.045564733564300464 0.0 2.123553991317749 -1.4010089079486292 1.8780087232589722 -3.2744315306292933 -1.0887716452227991 -0.675422493611471 0.0 0.0 0.0 0.0 0.0 0.0 4.326258001228904e-18 -0.6062134504318237 -0.6461266279220581 -0.13084717094898224 0.01002524420619011 0.0 4.326258001228904e-18 -0.6062134504318237 -0.6461266279220581 -0.13084717094898224 0.01002524420619011 0.0 0.3000000034531598 -0.20000001171119786 0.3499999886602267 -1.6275988880789851 1.6275986054673 -1.6275986736458656 0.0 0.0 0.0 0.0 0.0 0.0 -1.3761852709535863e-06 8.814992235902832e-07 5.816496553549296e-07 6.612692873678044e-08 1.1109256624647124e-07 1.0787300186452465e-08 0.29999999999999805 -0.20000000000000195 0.35000000000000103 -1.6275987284684308 1.6275987284684377 -1.6275987284684523 0.0 0.0 0.0 0.0 0.0 0.0
2760.112 2.1235540291303265 -1.401008946722106 1.8780087367536975 -3.27443157306135 -1.0887717717564005 -0.6754223496960368 0.0 0.0 0.0 0.0 0.0 0.0 0.0 0.0 0.0 0.0 0.0 0.0 4.326258029590886e-18 -0.6062134784418526 -0.6461266268636273 -0.1308471762617176 0.010025243908536955 0.0 5.680376792852834e-17 -7.959582971941524 -6.016860374679471 -0.5947004161095065 0.045564733564300464 0.0 2.123553991317749 -1.4010089079486292 1.8780087232589722 -3.2744315306292933 -1.0887716452227991 -0.675422493611471 0.0 0.0 0.0 0.0 0.0 0.0 4.326258001228904e-18 -0.6062134504318237 -0.6461266279220581 -0.13084717094898224 0.01002524420619011 0.0 4.326258001228904e-18 -0.6062134504318237 -0.6461266279220581 -0.13084717094898224 0.01002524420619011 0.0 0.3000000034531598 -0.20000001171119786 0.3499999886602267 -1.6275988880789851 1.6275986054673 -1.6275986736458656 0.0 0.0 0.0 0.0 0.0 0.0 -1.3761852709535863e-06 8.814992235902832e-07 5.816496553549296e-07 6.612692873678044e-08 1.1109256624647124e-07 1.0787300186452465e-08 0.29999999999999805 -0.20000000000000195 0.35000000000000103 -1.6275987284684308 1.6275987284684377 -1.6275987284684523 0.0 0.0 0.0 0.0 0.0 0.0
2760.12 2.1235540291303265 -1.401008946722106 1.8780087367536975 -3.27443157306135 -1.0887717717564005 -0.6754223496960368 0.0 0.0 0.0 0.0 0.0 0.0 0.0 0.0 0.0 0.0 0.0 0.0 4.326258029590886e-18 -0.6062134784418526 -0.6461266268636273 -0.1308471762617176 0.010025243908536955 0.0 5.680376792852834e-17 -7.959582971941524 -6.016860374679471 -0.5947004161095065 0.045564733564300464 0.0 2.123553991317749 -1.4010089079486292 1.8780087232589722 -3.2744315306292933 -1.0887716452227991 -0.675422493611471 0.0 0.0 0.0 0.0 0.0 0.0 4.326258001228904e-18 -0.6062134504318237 -0.6461266279220581 -0.13084717094898224 0.01002524420619011 0.0 4.326258001228904e-18 -0.6062134504318237 -0.6461266279220581 -0.13084717094898224 0.01002524420619011 0.0 0.3000000034531598 -0.20000001171119786 0.3499999886602267 -1.6275988880789851 1.6275986054673 -1.6275986736458656 0.0 0.0 0.0 0.0 0.0 0.0 -1.3761852709535863e-06 8.814992235902832e-07 5.816496553549296e-07 6.612692873678044e-08 1.1109256624647124e-07 1.0787300186452465e-08 0.29999999999999805 -0.20000000000000195 0.35000000000000103 -1.6275987284684308 1.6275987284684377 -1.6275987284684523 0.0 0.0 0.0 0.0 0.0 0.0
2760.1279999999997 2.1235540291303265 -1.401008946722106 1.8780087367536975 -3.27443157306135 -1.0887717717564005 -0.6754223496960368 0.0 0.0 0.0 0.0 0.0 0.0 0.0 0.0 0.0 0.0 0.0 0.0 4.326258029590886e-18 -0.6062134784418526 -0.6461266268636273 -0.1308471762617176 0.010025243908536955 0.0 5.680376792852834e-17 -7.959582971941524 -6.016860374679471 -0.5947004161095065 0.045564733564300464 0.0 2.123553991317749 -1.4010089079486292 1.8780087232589722 -3.2744315306292933 -1.0887716452227991 -0.675422493611471 0.0 0.0 0.0 0.0 0.0 0.0 4.326258001228904e-18 -0.6062134504318237 -0.6461266279220581 -0.13084717094898224 0.01002524420619011 0.0 4.326258001228904e-18 -0.6062134504318237 -0.6461266279220581 -0.13084717094898224 0.01002524420619011 0.0 0.3000000034531598 -0.20000001171119786 0.3499999886602267 -1.6275988880789851 1.6275986054673 -1.6275986736458656 0.0 0.0 0.0 0.0 0.0 0.0 -1.3761852709535863e-06 8.814992235902832e-07 5.816496553549296e-07 6.612692873678044e-08 1.1109256624647124e-07 1.0787300186452465e-08 0.29999999999999805 -0.20000000000000195 0.35000000000000103 -1.6275987284684308 1.6275987284684377 -1.6275987284684523 0.0 0.0 0.0 0.0 0.0 0.0
2760.136 2.1235540291303265 -1.401008946722106 1.8780087367536975 -3.27443157306135 -1.0887717717564005 -0.6754223496960368 0.0 0.0 0.0 0.0 0.0 0.0 0.0 0.0 0.0 0.0 0.0 0.0 4.326258029590886e-18 -0.6062134784418526 -0.6461266268636273 -0.1308471762617176 0.010025243908536955 0.0 5.680376792852834e-17 -7.959582971941524 -6.016860374679471 -0.5947004161095065 0.045564733564300464 0.0 2.123553991317749 -1.4010089079486292 1.8780087232589722 -3.2744315306292933 -1.0887716452227991 -0.675422493611471 0.0 0.0 0.0 0.0 0.0 0.0 4.326258001228904e-18 -0.6062134504318237 -0.6461266279220581 -0.13084717094898224 0.01002524420619011 0.0 4.326258001228904e-18 -0.6062134504318237 -0.6461266279220581 -0.13084717094898224 0.01002524420619011 0.0 0.3000000034531598 -0.20000001171119786 0.3499999886602267 -1.6275988880789851 1.6275986054673 -1.6275986736458656 0.0 0.0 0.0 0.0 0.0 0.0 -1.3761852709535863e-06 8.814992235902832e-07 5.816496553549296e-07 6.612692873678044e-08 1.1109256624647124e-07 1.0787300186452465e-08 0.29999999999999805 -0.20000000000000195 0.35000000000000103 -1.6275987284684308 1.6275987284684377 -1.6275987284684523 0.0 0.0 0.0 0.0 0.0 0.0
2760.144 2.1235540291303265 -1.401008946722106 1.8780087367536975 -3.27443157306135 -1.0887717717564005 -0.6754223496960368 0.0 0.0 0.0 0.0 0.0 0.0 0.0 0.0 0.0 0.0 0.0 0.0 4.326258029590886e-18 -0.6062134784418526 -0.6461266268636273 -0.1308471762617176 0.010025243908536955 0.0 5.680376792852834e-17 -7.959582971941524 -6.016860374679471 -0.5947004161095065 0.045564733564300464 0.0 2.123553991317749 -1.4010089079486292 1.8780087232589722 -3.2744315306292933 -1.0887716452227991 -0.675422493611471 0.0 0.0 0.0 0.0 0.0 0.0 4.326258001228904e-18 -0.6062134504318237 -0.6461266279220581 -0.13084717094898224 0.01002524420619011 0.0 4.326258001228904e-18 -0.6062134504318237 -0.6461266279220581 -0.13084717094898224 0.01002524420619011 0.0 0.3000000034531598 -0.20000001171119786 0.3499999886602267 -1.6275988880789851 1.6275986054673 -1.6275986736458656 0.0 0.0 0.0 0.0 0.0 0.0 -1.3761852709535863e-06 8.814992235902832e-07 5.816496553549296e-07 6.612692873678044e-08 1.1109256624647124e-07 1.0787300186452465e-08 0.29999999999999805 -0.20000000000000195 0.35000000000000103 -1.6275987284684308 1.6275987284684377 -1.6275987284684523 0.0 0.0 0.0 0.0 0.0 0.0
2760.152 2.1235540291303265 -1.401008946722106 1.8780087367536975 -3.27443157306135 -1.0887717717564005 -0.6754223496960368 0.0 0.0 0.0 0.0 0.0 0.0 0.0 0.0 0.0 0.0 0.0 0.0 4.326258029590886e-18 -0.6062134784418526 -0.6461266268636273 -0.1308471762617176 0.010025243908536955 0.0 5.680376792852834e-17 -7.959582971941524 -6.016860374679471 -0.5947004161095065 0.045564733564300464 0.0 2.123553991317749 -1.4010089079486292 1.8780087232589722 -3.2744315306292933 -1.0887716452227991 -0.675422493611471 0.0 0.0 0.0 0.0 0.0 0.0 4.326258001228904e-18 -0.6062134504318237 -0.6461266279220581 -0.13084717094898224 0.01002524420619011 0.0 4.326258001228904e-18 -0.6062134504318237 -0.6461266279220581 -0.13084717094898224 0.01002524420619011 0.0 0.3000000034531598 -0.20000001171119786 0.3499999886602267 -1.6275988880789851 1.6275986054673 -1.6275986736458656 0.0 0.0 0.0 0.0 0.0 0.0 -1.3761852709535863e-06 8.814992235902832e-07 5.816496553549296e-07 6.612692873678044e-08 1.1109256624647124e-07 1.0787300186452465e-08 0.29999999999999805 -0.20000000000000195 0.35000000000000103 -1.6275987284684308 1.6275987284684377 -1.6275987284684523 0.0 0.0 0.0 0.0 0.0 0.0
2760.16 2.1235540291303265 -1.401008946722106 1.8780087367536975 -3.27443157306135 -1.0887717717564005 -0.6754223496960368 0.0 0.0 0.0 0.0 0.0 0.0 0.0 0.0 0.0 0.0 0.0 0.0 4.326258029590886e-18 -0.6062134784418526 -0.6461266268636273 -0.1308471762617176 0.010025243908536955 0.0 5.680376792852834e-17 -7.959582971941524 -6.016860374679471 -0.5947004161095065 0.045564733564300464 0.0 2.123553991317749 -1.4010089079486292 1.8780087232589722 -3.2744315306292933 -1.0887716452227991 -0.675422493611471 0.0 0.0 0.0 0.0 0.0 0.0 4.326258001228904e-18 -0.6062134504318237 -0.6461266279220581 -0.13084717094898224 0.01002524420619011 0.0 4.326258001228904e-18 -0.6062134504318237 -0.6461266279220581 -0.13084717094898224 0.01002524420619011 0.0 0.3000000034531598 -0.20000001171119786 0.3499999886602267 -1.6275988880789851 1.6275986054673 -1.6275986736458656 0.0 0.0 0.0 0.0 0.0 0.0 -1.3761852709535863e-06 8.814992235902832e-07 5.816496553549296e-07 6.612692873678044e-08 1.1109256624647124e-07 1.0787300186452465e-08 0.29999999999999805 -0.20000000000000195 0.35000000000000103 -1.6275987284684308 1.6275987284684377 -1.6275987284684523 0.0 0.0 0.0 0.0 0.0 0.0
2760.1679999999997 2.1235540291303265 -1.401008946722106 1.8780087367536975 -3.27443157306135 -1.0887717717564005 -0.6754223496960368 0.0 0.0 0.0 0.0 0.0 0.0 0.0 0.0 0.0 0.0 0.0 0.0 4.326258029590886e-18 -0.6062134784418526 -0.6461266268636273 -0.1308471762617176 0.010025243908536955 0.0 5.680376792852834e-17 -7.959582971941524 -6.016860374679471 -0.5947004161095065 0.045564733564300464 0.0 2.123553991317749 -1.4010089079486292 1.8780087232589722 -3.2744315306292933 -1.0887716452227991 -0.675422493611471 0.0 0.0 0.0 0.0 0.0 0.0 4.326258001228904e-18 -0.6062134504318237 -0.6461266279220581 -0.13084717094898224 0.01002524420619011 0.0 4.326258001228904e-18 -0.6062134504318237 -0.6461266279220581 -0.13084717094898224 0.01002524420619011 0.0 0.3000000034531598 -0.20000001171119786 0.3499999886602267 -1.6275988880789851 1.6275986054673 -1.6275986736458656 0.0 0.0 0.0 0.0 0.0 0.0 -1.3761852709535863e-06 8.814992235902832e-07 5.816496553549296e-07 6.612692873678044e-08 1.1109256624647124e-07 1.0787300186452465e-08 0.29999999999999805 -0.20000000000000195 0.35000000000000103 -1.6275987284684308 1.6275987284684377 -1.6275987284684523 0.0 0.0 0.0 0.0 0.0 0.0
2760.176 2.1235540291303265 -1.401008946722106 1.8780087367536975 -3.27443157306135 -1.0887717717564005 -0.6754223496960368 0.0 0.0 0.0 0.0 0.0 0.0 0.0 0.0 0.0 0.0 0.0 0.0 4.326258029590886e-18 -0.6062134784418526 -0.6461266268636273 -0.1308471762617176 0.010025243908536955 0.0 5.680376792852834e-17 -7.959582971941524 -6.016860374679471 -0.5947004161095065 0.045564733564300464 0.0 2.123553991317749 -1.4010089079486292 1.8780087232589722 -3.2744315306292933 -1.0887716452227991 -0.675422493611471 0.0 0.0 0.0 0.0 0.0 0.0 4.326258001228904e-18 -0.6062134504318237 -0.6461266279220581 -0.13084717094898224 0.01002524420619011 0.0 4.326258001228904e-18 -0.6062134504318237 -0.6461266279220581 -0.13084717094898224 0.01002524420619011 0.0 0.3000000034531598 -0.20000001171119786 0.3499999886602267 -1.6275988880789851 1.6275986054673 -1.6275986736458656 0.0 0.0 0.0 0.0 0.0 0.0 -1.3761852709535863e-06 8.814992235902832e-07 5.816496553549296e-07 6.612692873678044e-08 1.1109256624647124e-07 1.0787300186452465e-08 0.29999999999999805 -0.20000000000000195 0.35000000000000103 -1.6275987284684308 1.6275987284684377 -1.6275987284684523 0.0 0.0 0.0 0.0 0.0 0.0
2760.1839999999997 2.1235540291303265 -1.401008946722106 1.8780087367536975 -3.27443157306135 -1.0887717717564005 -0.6754223496960368 0.0 0.0 0.0 0.0 0.0 0.0 0.0 0.0 0.0 0.0 0.0 0.0 4.326258029590886e-18 -0.6062134784418526 -0.6461266268636273 -0.1308471762617176 0.010025243908536955 0.0 5.680376792852834e-17 -7.959582971941524 -6.016860374679471 -0.5947004161095065 0.045564733564300464 0.0 2.123553991317749 -1.4010089079486292 1.8780087232589722 -3.2744315306292933 -1.0887716452227991 -0.675422493611471 0.0 0.0 0.0 0.0 0.0 0.0 4.326258001228904e-18 -0.6062134504318237 -0.6461266279220581 -0.13084717094898224 0.01002524420619011 0.0 4.326258001228904e-18 -0.6062134504318237 -0.6461266279220581 -0.13084717094898224 0.01002524420619011 0.0 0.3000000034531598 -0.20000001171119786 0.3499999886602267 -1.6275988880789851 1.6275986054673 -1.6275986736458656 0.0 0.0 0.0 0.0 0.0 0.0 -1.3761852709535863e-06 8.814992235902832e-07 5.816496553549296e-07 6.612692873678044e-08 1.1109256624647124e-07 1.0787300186452465e-08 0.29999999999999805 -0.20000000000000195 0.35000000000000103 -1.6275987284684308 1.6275987284684377 -1.6275987284684523 0.0 0.0 0.0 0.0 0.0 0.0
2760.192 2.1235540291303265 -1.401008946722106 1.8780087367536975 -3.27443157306135 -1.0887717717564005 -0.6754223496960368 0.0 0.0 0.0 0.0 0.0 0.0 0.0 0.0 0.0 0.0 0.0 0.0 4.326258029590886e-18 -0.6062134784418526 -0.6461266268636273 -0.1308471762617176 0.010025243908536955 0.0 5.680376792852834e-17 -7.959582971941524 -6.016860374679471 -0.5947004161095065 0.045564733564300464 0.0 2.123553991317749 -1.4010089079486292 1.8780087232589722 -3.2744315306292933 -1.0887716452227991 -0.675422493611471 0.0 0.0 0.0 0.0 0.0 0.0 4.326258001228904e-18 -0.6062134504318237 -0.6461266279220581 -0.13084717094898224 0.01002524420619011 0.0 4.326258001228904e-18 -0.6062134504318237 -0.6461266279220581 -0.13084717094898224 0.01002524420619011 0.0 0.3000000034531598 -0.20000001171119786 0.3499999886602267 -1.6275988880789851 1.6275986054673 -1.6275986736458656 0.0 0.0 0.0 0.0 0.0 0.0 -1.3761852709535863e-06 8.814992235902832e-07 5.816496553549296e-07 6.612692873678044e-08 1.1109256624647124e-07 1.0787300186452465e-08 0.29999999999999805 -0.20000000000000195 0.35000000000000103 -1.6275987284684308 1.6275987284684377 -1.6275987284684523 0.0 0.0 0.0 0.0 0.0 0.0
2760.2 2.1235540291303265 -1.401008946722106 1.8780087367536975 -3.27443157306135 -1.0887717717564005 -0.6754223496960368 0.0 0.0 0.0 0.0 0.0 0.0 0.0 0.0 0.0 0.0 0.0 0.0 4.326258029590886e-18 -0.6062134784418526 -0.6461266268636273 -0.1308471762617176 0.010025243908536955 0.0 5.680376792852834e-17 -7.959582971941524 -6.016860374679471 -0.5947004161095065 0.045564733564300464 0.0 2.123553991317749 -1.4010089079486292 1.8780087232589722 -3.2744315306292933 -1.0887716452227991 -0.675422493611471 0.0 0.0 0.0 0.0 0.0 0.0 4.326258001228904e-18 -0.6062134504318237 -0.6461266279220581 -0.13084717094898224 0.01002524420619011 0.0 4.326258001228904e-18 -0.6062134504318237 -0.6461266279220581 -0.13084717094898224 0.01002524420619011 0.0 0.3000000034531598 -0.20000001171119786 0.3499999886602267 -1.6275988880789851 1.6275986054673 -1.6275986736458656 0.0 0.0 0.0 0.0 0.0 0.0 -1.3761852709535863e-06 8.814992235902832e-07 5.816496553549296e-07 6.612692873678044e-08 1.1109256624647124e-07 1.0787300186452465e-08 0.29999999999999805 -0.20000000000000195 0.35000000000000103 -1.6275987284684308 1.6275987284684377 -1.6275987284684523 0.0 0.0 0.0 0.0 0.0 0.0
2760.208 2.1235540291303265 -1.401008946722106 1.8780087367536975 -3.27443157306135 -1.0887717717564005 -0.6754223496960368 0.0 0.0 0.0 0.0 0.0 0.0 0.0 0.0 0.0 0.0 0.0 0.0 4.326258029590886e-18 -0.6062134784418526 -0.6461266268636273 -0.1308471762617176 0.010025243908536955 0.0 5.680376792852834e-17 -7.959582971941524 -6.016860374679471 -0.5947004161095065 0.045564733564300464 0.0 2.123553991317749 -1.4010089079486292 1.8780087232589722 -3.2744315306292933 -1.0887716452227991 -0.675422493611471 0.0 0.0 0.0 0.0 0.0 0.0 4.326258001228904e-18 -0.6062134504318237 -0.6461266279220581 -0.13084717094898224 0.01002524420619011 0.0 4.326258001228904e-18 -0.6062134504318237 -0.6461266279220581 -0.13084717094898224 0.01002524420619011 0.0 0.3000000034531598 -0.20000001171119786 0.3499999886602267 -1.6275988880789851 1.6275986054673 -1.6275986736458656 0.0 0.0 0.0 0.0 0.0 0.0 -1.3761852709535863e-06 8.814992235902832e-07 5.816496553549296e-07 6.612692873678044e-08 1.1109256624647124e-07 1.0787300186452465e-08 0.29999999999999805 -0.20000000000000195 0.35000000000000103 -1.6275987284684308 1.6275987284684377 -1.6275987284684523 0.0 0.0 0.0 0.0 0.0 0.0
2760.216 2.1235540291303265 -1.401008946722106 1.8780087367536975 -3.27443157306135 -1.0887717717564005 -0.6754223496960368 0.0 0.0 0.0 0.0 0.0 0.0 0.0 0.0 0.0 0.0 0.0 0.0 4.326258029590886e-18 -0.6062134784418526 -0.6461266268636273 -0.1308471762617176 0.010025243908536955 0.0 5.680376792852834e-17 -7.959582971941524 -6.016860374679471 -0.5947004161095065 0.045564733564300464 0.0 2.123553991317749 -1.4010089079486292 1.8780087232589722 -3.2744315306292933 -1.0887716452227991 -0.675422493611471 0.0 0.0 0.0 0.0 0.0 0.0 4.326258001228904e-18 -0.6062134504318237 -0.6461266279220581 -0.13084717094898224 0.01002524420619011 0.0 4.326258001228904e-18 -0.6062134504318237 -0.6461266279220581 -0.13084717094898224 0.01002524420619011 0.0 0.3000000034531598 -0.20000001171119786 0.3499999886602267 -1.6275988880789851 1.6275986054673 -1.6275986736458656 0.0 0.0 0.0 0.0 0.0 0.0 -1.3761852709535863e-06 8.814992235902832e-07 5.816496553549296e-07 6.612692873678044e-08 1.1109256624647124e-07 1.0787300186452465e-08 0.29999999999999805 -0.20000000000000195 0.35000000000000103 -1.6275987284684308 1.6275987284684377 -1.6275987284684523 0.0 0.0 0.0 0.0 0.0 0.0
2760.2239999999997 2.1235540291303265 -1.401008946722106 1.8780087367536975 -3.27443157306135 -1.0887717717564005 -0.6754223496960368 0.0 0.0 0.0 0.0 0.0 0.0 0.0 0.0 0.0 0.0 0.0 0.0 4.326258029590886e-18 -0.6062134784418526 -0.6461266268636273 -0.1308471762617176 0.010025243908536955 0.0 5.680376792852834e-17 -7.959582971941524 -6.016860374679471 -0.5947004161095065 0.045564733564300464 0.0 2.123553991317749 -1.4010089079486292 1.8780087232589722 -3.2744315306292933 -1.0887716452227991 -0.675422493611471 0.0 0.0 0.0 0.0 0.0 0.0 4.326258001228904e-18 -0.6062134504318237 -0.6461266279220581 -0.13084717094898224 0.01002524420619011 0.0 4.326258001228904e-18 -0.6062134504318237 -0.6461266279220581 -0.13084717094898224 0.01002524420619011 0.0 0.3000000034531598 -0.20000001171119786 0.3499999886602267 -1.6275988880789851 1.6275986054673 -1.6275986736458656 0.0 0.0 0.0 0.0 0.0 0.0 -1.3761852709535863e-06 8.814992235902832e-07 5.816496553549296e-07 6.612692873678044e-08 1.1109256624647124e-07 1.0787300186452465e-08 0.29999999999999805 -0.20000000000000195 0.35000000000000103 -1.6275987284684308 1.6275987284684377 -1.6275987284684523 0.0 0.0 0.0 0.0 0.0 0.0
2760.232 2.1235540291303265 -1.401008946722106 1.8780087367536975 -3.27443157306135 -1.0887717717564005 -0.6754223496960368 0.0 0.0 0.0 0.0 0.0 0.0 0.0 0.0 0.0 0.0 0.0 0.0 4.326258029590886e-18 -0.6062134784418526 -0.6461266268636273 -0.1308471762617176 0.010025243908536955 0.0 5.680376792852834e-17 -7.959582971941524 -6.016860374679471 -0.5947004161095065 0.045564733564300464 0.0 2.123553991317749 -1.4010089079486292 1.8780087232589722 -3.2744315306292933 -1.0887716452227991 -0.675422493611471 0.0 0.0 0.0 0.0 0.0 0.0 4.326258001228904e-18 -0.6062134504318237 -0.6461266279220581 -0.13084717094898224 0.01002524420619011 0.0 4.326258001228904e-18 -0.6062134504318237 -0.6461266279220581 -0.13084717094898224 0.01002524420619011 0.0 0.3000000034531598 -0.20000001171119786 0.3499999886602267 -1.6275988880789851 1.6275986054673 -1.6275986736458656 0.0 0.0 0.0 0.0 0.0 0.0 -1.3761852709535863e-06 8.814992235902832e-07 5.816496553549296e-07 6.612692873678044e-08 1.1109256624647124e-07 1.0787300186452465e-08 0.29999999999999805 -0.20000000000000195 0.35000000000000103 -1.6275987284684308 1.6275987284684377 -1.6275987284684523 0.0 0.0 0.0 0.0 0.0 0.0
2760.24 2.1235540291303265 -1.401008946722106 1.8780087367536975 -3.27443157306135 -1.0887717717564005 -0.6754223496960368 0.0 0.0 0.0 0.0 0.0 0.0 0.0 0.0 0.0 0.0 0.0 0.0 4.326258029590886e-18 -0.6062134784418526 -0.6461266268636273 -0.1308471762617176 0.010025243908536955 0.0 5.680376792852834e-17 -7.959582971941524 -6.016860374679471 -0.5947004161095065 0.045564733564300464 0.0 2.123553991317749 -1.4010089079486292 1.8780087232589722 -3.2744315306292933 -1.0887716452227991 -0.675422493611471 0.0 0.0 0.0 0.0 0.0 0.0 4.326258001228904e-18 -0.6062134504318237 -0.6461266279220581 -0.13084717094898224 0.01002524420619011 0.0 4.326258001228904e-18 -0.6062134504318237 -0.6461266279220581 -0.13084717094898224 0.01002524420619011 0.0 0.3000000034531598 -0.20000001171119786 0.3499999886602267 -1.6275988880789851 1.6275986054673 -1.6275986736458656 0.0 0.0 0.0 0.0 0.0 0.0 -1.3761852709535863e-06 8.814992235902832e-07 5.816496553549296e-07 6.612692873678044e-08 1.1109256624647124e-07 1.0787300186452465e-08 0.29999999999999805 -0.20000000000000195 0.35000000000000103 -1.6275987284684308 1.6275987284684377 -1.6275987284684523 0.0 0.0 0.0 0.0 0.0 0.0
2760.248 2.1235540291303265 -1.401008946722106 1.8780087367536975 -3.27443157306135 -1.0887717717564005 -0.6754223496960368 0.0 0.0 0.0 0.0 0.0 0.0 0.0 0.0 0.0 0.0 0.0 0.0 4.326258029590886e-18 -0.6062134784418526 -0.6461266268636273 -0.1308471762617176 0.010025243908536955 0.0 5.680376792852834e-17 -7.959582971941524 -6.016860374679471 -0.5947004161095065 0.045564733564300464 0.0 2.123553991317749 -1.4010089079486292 1.8780087232589722 -3.2744315306292933 -1.0887716452227991 -0.675422493611471 0.0 0.0 0.0 0.0 0.0 0.0 4.326258001228904e-18 -0.6062134504318237 -0.6461266279220581 -0.13084717094898224 0.01002524420619011 0.0 4.326258001228904e-18 -0.6062134504318237 -0.6461266279220581 -0.13084717094898224 0.01002524420619011 0.0 0.3000000034531598 -0.20000001171119786 0.3499999886602267 -1.6275988880789851 1.6275986054673 -1.6275986736458656 0.0 0.0 0.0 0.0 0.0 0.0 -1.3761852709535863e-06 8.814992235902832e-07 5.816496553549296e-07 6.612692873678044e-08 1.1109256624647124e-07 1.0787300186452465e-08 0.29999999999999805 -0.20000000000000195 0.35000000000000103 -1.6275987284684308 1.6275987284684377 -1.6275987284684523 0.0 0.0 0.0 0.0 0.0 0.0
2760.256 2.1235540291303265 -1.401008946722106 1.8780087367536975 -3.27443157306135 -1.0887717717564005 -0.6754223496960368 0.0 0.0 0.0 0.0 0.0 0.0 0.0 0.0 0.0 0.0 0.0 0.0 4.326258029590886e-18 -0.6062134784418526 -0.6461266268636273 -0.1308471762617176 0.010025243908536955 0.0 5.680376792852834e-17 -7.959582971941524 -6.016860374679471 -0.5947004161095065 0.045564733564300464 0.0 2.123553991317749 -1.4010089079486292 1.8780087232589722 -3.2744315306292933 -1.0887716452227991 -0.675422493611471 0.0 0.0 0.0 0.0 0.0 0.0 4.326258001228904e-18 -0.6062134504318237 -0.6461266279220581 -0.13084717094898224 0.01002524420619011 0.0 4.326258001228904e-18 -0.6062134504318237 -0.6461266279220581 -0.13084717094898224 0.01002524420619011 0.0 0.3000000034531598 -0.20000001171119786 0.3499999886602267 -1.6275988880789851 1.6275986054673 -1.6275986736458656 0.0 0.0 0.0 0.0 0.0 0.0 -1.3761852709535863e-06 8.814992235902832e-07 5.816496553549296e-07 6.612692873678044e-08 1.1109256624647124e-07 1.0787300186452465e-08 0.29999999999999805 -0.20000000000000195 0.35000000000000103 -1.6275987284684308 1.6275987284684377 -1.6275987284684523 0.0 0.0 0.0 0.0 0.0 0.0
2760.2639999999997 2.1235540291303265 -1.401008946722106 1.8780087367536975 -3.27443157306135 -1.0887717717564005 -0.6754223496960368 0.0 0.0 0.0 0.0 0.0 0.0 0.0 0.0 0.0 0.0 0.0 0.0 4.326258029590886e-18 -0.6062134784418526 -0.6461266268636273 -0.1308471762617176 0.010025243908536955 0.0 5.680376792852834e-17 -7.959582971941524 -6.016860374679471 -0.5947004161095065 0.045564733564300464 0.0 2.123553991317749 -1.4010089079486292 1.8780087232589722 -3.2744315306292933 -1.0887716452227991 -0.675422493611471 0.0 0.0 0.0 0.0 0.0 0.0 4.326258001228904e-18 -0.6062134504318237 -0.6461266279220581 -0.13084717094898224 0.01002524420619011 0.0 4.326258001228904e-18 -0.6062134504318237 -0.6461266279220581 -0.13084717094898224 0.01002524420619011 0.0 0.3000000034531598 -0.20000001171119786 0.3499999886602267 -1.6275988880789851 1.6275986054673 -1.6275986736458656 0.0 0.0 0.0 0.0 0.0 0.0 -1.3761852709535863e-06 8.814992235902832e-07 5.816496553549296e-07 6.612692873678044e-08 1.1109256624647124e-07 1.0787300186452465e-08 0.29999999999999805 -0.20000000000000195 0.35000000000000103 -1.6275987284684308 1.6275987284684377 -1.6275987284684523 0.0 0.0 0.0 0.0 0.0 0.0
2760.272 2.1235540291303265 -1.401008946722106 1.8780087367536975 -3.27443157306135 -1.0887717717564005 -0.6754223496960368 0.0 0.0 0.0 0.0 0.0 0.0 0.0 0.0 0.0 0.0 0.0 0.0 4.326258029590886e-18 -0.6062134784418526 -0.6461266268636273 -0.1308471762617176 0.010025243908536955 0.0 5.680376792852834e-17 -7.959582971941524 -6.016860374679471 -0.5947004161095065 0.045564733564300464 0.0 2.123553991317749 -1.4010089079486292 1.8780087232589722 -3.2744315306292933 -1.0887716452227991 -0.675422493611471 0.0 0.0 0.0 0.0 0.0 0.0 4.326258001228904e-18 -0.6062134504318237 -0.6461266279220581 -0.13084717094898224 0.01002524420619011 0.0 4.326258001228904e-18 -0.6062134504318237 -0.6461266279220581 -0.13084717094898224 0.01002524420619011 0.0 0.3000000034531598 -0.20000001171119786 0.3499999886602267 -1.6275988880789851 1.6275986054673 -1.6275986736458656 0.0 0.0 0.0 0.0 0.0 0.0 -1.3761852709535863e-06 8.814992235902832e-07 5.816496553549296e-07 6.612692873678044e-08 1.1109256624647124e-07 1.0787300186452465e-08 0.29999999999999805 -0.20000000000000195 0.35000000000000103 -1.6275987284684308 1.6275987284684377 -1.6275987284684523 0.0 0.0 0.0 0.0 0.0 0.0
2760.2799999999997 2.1235540291303265 -1.401008946722106 1.8780087367536975 -3.27443157306135 -1.0887717717564005 -0.6754223496960368 0.0 0.0 0.0 0.0 0.0 0.0 0.0 0.0 0.0 0.0 0.0 0.0 4.326258029590886e-18 -0.6062134784418526 -0.6461266268636273 -0.1308471762617176 0.010025243908536955 0.0 5.680376792852834e-17 -7.959582971941524 -6.016860374679471 -0.5947004161095065 0.045564733564300464 0.0 2.123553991317749 -1.4010089079486292 1.8780087232589722 -3.2744315306292933 -1.0887716452227991 -0.675422493611471 0.0 0.0 0.0 0.0 0.0 0.0 4.326258001228904e-18 -0.6062134504318237 -0.6461266279220581 -0.13084717094898224 0.01002524420619011 0.0 4.326258001228904e-18 -0.6062134504318237 -0.6461266279220581 -0.13084717094898224 0.01002524420619011 0.0 0.3000000034531598 -0.20000001171119786 0.3499999886602267 -1.6275988880789851 1.6275986054673 -1.6275986736458656 0.0 0.0 0.0 0.0 0.0 0.0 -1.3761852709535863e-06 8.814992235902832e-07 5.816496553549296e-07 6.612692873678044e-08 1.1109256624647124e-07 1.0787300186452465e-08 0.29999999999999805 -0.20000000000000195 0.35000000000000103 -1.6275987284684308 1.6275987284684377 -1.6275987284684523 0.0 0.0 0.0 0.0 0.0 0.0
2760.288 2.1235540291303265 -1.401008946722106 1.8780087367536975 -3.27443157306135 -1.0887717717564005 -0.6754223496960368 0.0 0.0 0.0 0.0 0.0 0.0 0.0 0.0 0.0 0.0 0.0 0.0 4.326258029590886e-18 -0.6062134784418526 -0.6461266268636273 -0.1308471762617176 0.010025243908536955 0.0 5.680376792852834e-17 -7.959582971941524 -6.016860374679471 -0.5947004161095065 0.045564733564300464 0.0 2.123553991317749 -1.4010089079486292 1.8780087232589722 -3.2744315306292933 -1.0887716452227991 -0.675422493611471 0.0 0.0 0.0 0.0 0.0 0.0 4.326258001228904e-18 -0.6062134504318237 -0.6461266279220581 -0.13084717094898224 0.01002524420619011 0.0 4.326258001228904e-18 -0.6062134504318237 -0.6461266279220581 -0.13084717094898224 0.01002524420619011 0.0 0.3000000034531598 -0.20000001171119786 0.3499999886602267 -1.6275988880789851 1.6275986054673 -1.6275986736458656 0.0 0.0 0.0 0.0 0.0 0.0 -1.3761852709535863e-06 8.814992235902832e-07 5.816496553549296e-07 6.612692873678044e-08 1.1109256624647124e-07 1.0787300186452465e-08 0.29999999999999805 -0.20000000000000195 0.35000000000000103 -1.6275987284684308 1.6275987284684377 -1.6275987284684523 0.0 0.0 0.0 0.0 0.0 0.0
2760.296 2.1235540291303265 -1.401008946722106 1.8780087367536975 -3.27443157306135 -1.0887717717564005 -0.6754223496960368 0.0 0.0 0.0 0.0 0.0 0.0 0.0 0.0 0.0 0.0 0.0 0.0 4.326258029590886e-18 -0.6062134784418526 -0.6461266268636273 -0.1308471762617176 0.010025243908536955 0.0 5.680376792852834e-17 -7.959582971941524 -6.016860374679471 -0.5947004161095065 0.045564733564300464 0.0 2.123553991317749 -1.4010089079486292 1.8780087232589722 -3.2744315306292933 -1.0887716452227991 -0.675422493611471 0.0 0.0 0.0 0.0 0.0 0.0 4.326258001228904e-18 -0.6062134504318237 -0.6461266279220581 -0.13084717094898224 0.01002524420619011 0.0 4.326258001228904e-18 -0.6062134504318237 -0.6461266279220581 -0.13084717094898224 0.01002524420619011 0.0 0.3000000034531598 -0.20000001171119786 0.3499999886602267 -1.6275988880789851 1.6275986054673 -1.6275986736458656 0.0 0.0 0.0 0.0 0.0 0.0 -1.3761852709535863e-06 8.814992235902832e-07 5.816496553549296e-07 6.612692873678044e-08 1.1109256624647124e-07 1.0787300186452465e-08 0.29999999999999805 -0.20000000000000195 0.35000000000000103 -1.6275987284684308 1.6275987284684377 -1.6275987284684523 0.0 0.0 0.0 0.0 0.0 0.0
2760.304 2.1235540291303265 -1.401008946722106 1.8780087367536975 -3.27443157306135 -1.0887717717564005 -0.6754223496960368 0.0 0.0 0.0 0.0 0.0 0.0 0.0 0.0 0.0 0.0 0.0 0.0 4.326258029590886e-18 -0.6062134784418526 -0.6461266268636273 -0.1308471762617176 0.010025243908536955 0.0 5.680376792852834e-17 -7.959582971941524 -6.016860374679471 -0.5947004161095065 0.045564733564300464 0.0 2.123553991317749 -1.4010089079486292 1.8780087232589722 -3.2744315306292933 -1.0887716452227991 -0.675422493611471 0.0 0.0 0.0 0.0 0.0 0.0 4.326258001228904e-18 -0.6062134504318237 -0.6461266279220581 -0.13084717094898224 0.01002524420619011 0.0 4.326258001228904e-18 -0.6062134504318237 -0.6461266279220581 -0.13084717094898224 0.01002524420619011 0.0 0.3000000034531598 -0.20000001171119786 0.3499999886602267 -1.6275988880789851 1.6275986054673 -1.6275986736458656 0.0 0.0 0.0 0.0 0.0 0.0 -1.3761852709535863e-06 8.814992235902832e-07 5.816496553549296e-07 6.612692873678044e-08 1.1109256624647124e-07 1.0787300186452465e-08 0.29999999999999805 -0.20000000000000195 0.35000000000000103 -1.6275987284684308 1.6275987284684377 -1.6275987284684523 0.0 0.0 0.0 0.0 0.0 0.0
2760.312 2.1235540291303265 -1.401008946722106 1.8780087367536975 -3.27443157306135 -1.0887717717564005 -0.6754223496960368 0.0 0.0 0.0 0.0 0.0 0.0 0.0 0.0 0.0 0.0 0.0 0.0 4.326258029590886e-18 -0.6062134784418526 -0.6461266268636273 -0.1308471762617176 0.010025243908536955 0.0 5.680376792852834e-17 -7.959582971941524 -6.016860374679471 -0.5947004161095065 0.045564733564300464 0.0 2.123553991317749 -1.4010089079486292 1.8780087232589722 -3.2744315306292933 -1.0887716452227991 -0.675422493611471 0.0 0.0 0.0 0.0 0.0 0.0 4.326258001228904e-18 -0.6062134504318237 -0.6461266279220581 -0.13084717094898224 0.01002524420619011 0.0 4.326258001228904e-18 -0.6062134504318237 -0.6461266279220581 -0.13084717094898224 0.01002524420619011 0.0 0.3000000034531598 -0.20000001171119786 0.3499999886602267 -1.6275988880789851 1.6275986054673 -1.6275986736458656 0.0 0.0 0.0 0.0 0.0 0.0 -1.3761852709535863e-06 8.814992235902832e-07 5.816496553549296e-07 6.612692873678044e-08 1.1109256624647124e-07 1.0787300186452465e-08 0.29999999999999805 -0.20000000000000195 0.35000000000000103 -1.6275987284684308 1.6275987284684377 -1.6275987284684523 0.0 0.0 0.0 0.0 0.0 0.0
2760.3199999999997 2.1235540291303265 -1.401008946722106 1.8780087367536975 -3.27443157306135 -1.0887717717564005 -0.6754223496960368 0.0 0.0 0.0 0.0 0.0 0.0 0.0 0.0 0.0 0.0 0.0 0.0 4.326258029590886e-18 -0.6062134784418526 -0.6461266268636273 -0.1308471762617176 0.010025243908536955 0.0 5.680376792852834e-17 -7.959582971941524 -6.016860374679471 -0.5947004161095065 0.045564733564300464 0.0 2.123553991317749 -1.4010089079486292 1.8780087232589722 -3.2744315306292933 -1.0887716452227991 -0.675422493611471 0.0 0.0 0.0 0.0 0.0 0.0 4.326258001228904e-18 -0.6062134504318237 -0.6461266279220581 -0.13084717094898224 0.01002524420619011 0.0 4.326258001228904e-18 -0.6062134504318237 -0.6461266279220581 -0.13084717094898224 0.01002524420619011 0.0 0.3000000034531598 -0.20000001171119786 0.3499999886602267 -1.6275988880789851 1.6275986054673 -1.6275986736458656 0.0 0.0 0.0 0.0 0.0 0.0 -1.3761852709535863e-06 8.814992235902832e-07 5.816496553549296e-07 6.612692873678044e-08 1.1109256624647124e-07 1.0787300186452465e-08 0.29999999999999805 -0.20000000000000195 0.35000000000000103 -1.6275987284684308 1.6275987284684377 -1.6275987284684523 0.0 0.0 0.0 0.0 0.0 0.0
2760.328 2.1235540291303265 -1.401008946722106 1.8780087367536975 -3.27443157306135 -1.0887717717564005 -0.6754223496960368 0.0 0.0 0.0 0.0 0.0 0.0 0.0 0.0 0.0 0.0 0.0 0.0 4.326258029590886e-18 -0.6062134784418526 -0.6461266268636273 -0.1308471762617176 0.010025243908536955 0.0 5.680376792852834e-17 -7.959582971941524 -6.016860374679471 -0.5947004161095065 0.045564733564300464 0.0 2.123553991317749 -1.4010089079486292 1.8780087232589722 -3.2744315306292933 -1.0887716452227991 -0.675422493611471 0.0 0.0 0.0 0.0 0.0 0.0 4.326258001228904e-18 -0.6062134504318237 -0.6461266279220581 -0.13084717094898224 0.01002524420619011 0.0 4.326258001228904e-18 -0.6062134504318237 -0.6461266279220581 -0.13084717094898224 0.01002524420619011 0.0 0.3000000034531598 -0.20000001171119786 0.3499999886602267 -1.6275988880789851 1.6275986054673 -1.6275986736458656 0.0 0.0 0.0 0.0 0.0 0.0 -1.3761852709535863e-06 8.814992235902832e-07 5.816496553549296e-07 6.612692873678044e-08 1.1109256624647124e-07 1.0787300186452465e-08 0.29999999999999805 -0.20000000000000195 0.35000000000000103 -1.6275987284684308 1.6275987284684377 -1.6275987284684523 0.0 0.0 0.0 0.0 0.0 0.0
2760.336 2.1235540291303265 -1.401008946722106 1.8780087367536975 -3.27443157306135 -1.0887717717564005 -0.6754223496960368 0.0 0.0 0.0 0.0 0.0 0.0 0.0 0.0 0.0 0.0 0.0 0.0 4.326258029590886e-18 -0.6062134784418526 -0.6461266268636273 -0.1308471762617176 0.010025243908536955 0.0 5.680376792852834e-17 -7.959582971941524 -6.016860374679471 -0.5947004161095065 0.045564733564300464 0.0 2.123553991317749 -1.4010089079486292 1.8780087232589722 -3.2744315306292933 -1.0887716452227991 -0.675422493611471 0.0 0.0 0.0 0.0 0.0 0.0 4.326258001228904e-18 -0.6062134504318237 -0.6461266279220581 -0.13084717094898224 0.01002524420619011 0.0 4.326258001228904e-18 -0.6062134504318237 -0.6461266279220581 -0.13084717094898224 0.01002524420619011 0.0 0.3000000034531598 -0.20000001171119786 0.3499999886602267 -1.6275988880789851 1.6275986054673 -1.6275986736458656 0.0 0.0 0.0 0.0 0.0 0.0 -1.3761852709535863e-06 8.814992235902832e-07 5.816496553549296e-07 6.612692873678044e-08 1.1109256624647124e-07 1.0787300186452465e-08 0.29999999999999805 -0.20000000000000195 0.35000000000000103 -1.6275987284684308 1.6275987284684377 -1.6275987284684523 0.0 0.0 0.0 0.0 0.0 0.0
2760.344 2.1235540291303265 -1.401008946722106 1.8780087367536975 -3.27443157306135 -1.0887717717564005 -0.6754223496960368 0.0 0.0 0.0 0.0 0.0 0.0 0.0 0.0 0.0 0.0 0.0 0.0 4.326258029590886e-18 -0.6062134784418526 -0.6461266268636273 -0.1308471762617176 0.010025243908536955 0.0 5.680376792852834e-17 -7.959582971941524 -6.016860374679471 -0.5947004161095065 0.045564733564300464 0.0 2.123553991317749 -1.4010089079486292 1.8780087232589722 -3.2744315306292933 -1.0887716452227991 -0.675422493611471 0.0 0.0 0.0 0.0 0.0 0.0 4.326258001228904e-18 -0.6062134504318237 -0.6461266279220581 -0.13084717094898224 0.01002524420619011 0.0 4.326258001228904e-18 -0.6062134504318237 -0.6461266279220581 -0.13084717094898224 0.01002524420619011 0.0 0.3000000034531598 -0.20000001171119786 0.3499999886602267 -1.6275988880789851 1.6275986054673 -1.6275986736458656 0.0 0.0 0.0 0.0 0.0 0.0 -1.3761852709535863e-06 8.814992235902832e-07 5.816496553549296e-07 6.612692873678044e-08 1.1109256624647124e-07 1.0787300186452465e-08 0.29999999999999805 -0.20000000000000195 0.35000000000000103 -1.6275987284684308 1.6275987284684377 -1.6275987284684523 0.0 0.0 0.0 0.0 0.0 0.0
2760.352 2.1235540291303265 -1.401008946722106 1.8780087367536975 -3.27443157306135 -1.0887717717564005 -0.6754223496960368 0.0 0.0 0.0 0.0 0.0 0.0 0.0 0.0 0.0 0.0 0.0 0.0 4.326258029590886e-18 -0.6062134784418526 -0.6461266268636273 -0.1308471762617176 0.010025243908536955 0.0 5.680376792852834e-17 -7.959582971941524 -6.016860374679471 -0.5947004161095065 0.045564733564300464 0.0 2.123553991317749 -1.4010089079486292 1.8780087232589722 -3.2744315306292933 -1.0887716452227991 -0.675422493611471 0.0 0.0 0.0 0.0 0.0 0.0 4.326258001228904e-18 -0.6062134504318237 -0.6461266279220581 -0.13084717094898224 0.01002524420619011 0.0 4.326258001228904e-18 -0.6062134504318237 -0.6461266279220581 -0.13084717094898224 0.01002524420619011 0.0 0.3000000034531598 -0.20000001171119786 0.3499999886602267 -1.6275988880789851 1.6275986054673 -1.6275986736458656 0.0 0.0 0.0 0.0 0.0 0.0 -1.3761852709535863e-06 8.814992235902832e-07 5.816496553549296e-07 6.612692873678044e-08 1.1109256624647124e-07 1.0787300186452465e-08 0.29999999999999805 -0.20000000000000195 0.35000000000000103 -1.6275987284684308 1.6275987284684377 -1.6275987284684523 0.0 0.0 0.0 0.0 0.0 0.0
2760.3599999999997 2.1235540291303265 -1.401008946722106 1.8780087367536975 -3.27443157306135 -1.0887717717564005 -0.6754223496960368 0.0 0.0 0.0 0.0 0.0 0.0 0.0 0.0 0.0 0.0 0.0 0.0 4.326258029590886e-18 -0.6062134784418526 -0.6461266268636273 -0.1308471762617176 0.010025243908536955 0.0 5.680376792852834e-17 -7.959582971941524 -6.016860374679471 -0.5947004161095065 0.045564733564300464 0.0 2.123553991317749 -1.4010089079486292 1.8780087232589722 -3.2744315306292933 -1.0887716452227991 -0.675422493611471 0.0 0.0 0.0 0.0 0.0 0.0 4.326258001228904e-18 -0.6062134504318237 -0.6461266279220581 -0.13084717094898224 0.01002524420619011 0.0 4.326258001228904e-18 -0.6062134504318237 -0.6461266279220581 -0.13084717094898224 0.01002524420619011 0.0 0.3000000034531598 -0.20000001171119786 0.3499999886602267 -1.6275988880789851 1.6275986054673 -1.6275986736458656 0.0 0.0 0.0 0.0 0.0 0.0 -1.3761852709535863e-06 8.814992235902832e-07 5.816496553549296e-07 6.612692873678044e-08 1.1109256624647124e-07 1.0787300186452465e-08 0.29999999999999805 -0.20000000000000195 0.35000000000000103 -1.6275987284684308 1.6275987284684377 -1.6275987284684523 0.0 0.0 0.0 0.0 0.0 0.0
2760.368 2.1235540291303265 -1.401008946722106 1.8780087367536975 -3.27443157306135 -1.0887717717564005 -0.6754223496960368 0.0 0.0 0.0 0.0 0.0 0.0 0.0 0.0 0.0 0.0 0.0 0.0 4.326258029590886e-18 -0.6062134784418526 -0.6461266268636273 -0.1308471762617176 0.010025243908536955 0.0 5.680376792852834e-17 -7.959582971941524 -6.016860374679471 -0.5947004161095065 0.045564733564300464 0.0 2.123553991317749 -1.4010089079486292 1.8780087232589722 -3.2744315306292933 -1.0887716452227991 -0.675422493611471 0.0 0.0 0.0 0.0 0.0 0.0 4.326258001228904e-18 -0.6062134504318237 -0.6461266279220581 -0.13084717094898224 0.01002524420619011 0.0 4.326258001228904e-18 -0.6062134504318237 -0.6461266279220581 -0.13084717094898224 0.01002524420619011 0.0 0.3000000034531598 -0.20000001171119786 0.3499999886602267 -1.6275988880789851 1.6275986054673 -1.6275986736458656 0.0 0.0 0.0 0.0 0.0 0.0 -1.3761852709535863e-06 8.814992235902832e-07 5.816496553549296e-07 6.612692873678044e-08 1.1109256624647124e-07 1.0787300186452465e-08 0.29999999999999805 -0.20000000000000195 0.35000000000000103 -1.6275987284684308 1.6275987284684377 -1.6275987284684523 0.0 0.0 0.0 0.0 0.0 0.0
2760.3759999999997 2.1235540291303265 -1.401008946722106 1.8780087367536975 -3.27443157306135 -1.0887717717564005 -0.6754223496960368 0.0 0.0 0.0 0.0 0.0 0.0 0.0 0.0 0.0 0.0 0.0 0.0 4.326258029590886e-18 -0.6062134784418526 -0.6461266268636273 -0.1308471762617176 0.010025243908536955 0.0 5.680376792852834e-17 -7.959582971941524 -6.016860374679471 -0.5947004161095065 0.045564733564300464 0.0 2.123553991317749 -1.4010089079486292 1.8780087232589722 -3.2744315306292933 -1.0887716452227991 -0.675422493611471 0.0 0.0 0.0 0.0 0.0 0.0 4.326258001228904e-18 -0.6062134504318237 -0.6461266279220581 -0.13084717094898224 0.01002524420619011 0.0 4.326258001228904e-18 -0.6062134504318237 -0.6461266279220581 -0.13084717094898224 0.01002524420619011 0.0 0.3000000034531598 -0.20000001171119786 0.3499999886602267 -1.6275988880789851 1.6275986054673 -1.6275986736458656 0.0 0.0 0.0 0.0 0.0 0.0 -1.3761852709535863e-06 8.814992235902832e-07 5.816496553549296e-07 6.612692873678044e-08 1.1109256624647124e-07 1.0787300186452465e-08 0.29999999999999805 -0.20000000000000195 0.35000000000000103 -1.6275987284684308 1.6275987284684377 -1.6275987284684523 0.0 0.0 0.0 0.0 0.0 0.0
2760.384 2.1235540291303265 -1.401008946722106 1.8780087367536975 -3.27443157306135 -1.0887717717564005 -0.6754223496960368 0.0 0.0 0.0 0.0 0.0 0.0 0.0 0.0 0.0 0.0 0.0 0.0 4.326258029590886e-18 -0.6062134784418526 -0.6461266268636273 -0.1308471762617176 0.010025243908536955 0.0 5.680376792852834e-17 -7.959582971941524 -6.016860374679471 -0.5947004161095065 0.045564733564300464 0.0 2.123553991317749 -1.4010089079486292 1.8780087232589722 -3.2744315306292933 -1.0887716452227991 -0.675422493611471 0.0 0.0 0.0 0.0 0.0 0.0 4.326258001228904e-18 -0.6062134504318237 -0.6461266279220581 -0.13084717094898224 0.01002524420619011 0.0 4.326258001228904e-18 -0.6062134504318237 -0.6461266279220581 -0.13084717094898224 0.01002524420619011 0.0 0.3000000034531598 -0.20000001171119786 0.3499999886602267 -1.6275988880789851 1.6275986054673 -1.6275986736458656 0.0 0.0 0.0 0.0 0.0 0.0 -1.3761852709535863e-06 8.814992235902832e-07 5.816496553549296e-07 6.612692873678044e-08 1.1109256624647124e-07 1.0787300186452465e-08 0.29999999999999805 -0.20000000000000195 0.35000000000000103 -1.6275987284684308 1.6275987284684377 -1.6275987284684523 0.0 0.0 0.0 0.0 0.0 0.0
2760.392 2.1235540291303265 -1.401008946722106 1.8780087367536975 -3.27443157306135 -1.0887717717564005 -0.6754223496960368 0.0 0.0 0.0 0.0 0.0 0.0 0.0 0.0 0.0 0.0 0.0 0.0 4.326258029590886e-18 -0.6062134784418526 -0.6461266268636273 -0.1308471762617176 0.010025243908536955 0.0 5.680376792852834e-17 -7.959582971941524 -6.016860374679471 -0.5947004161095065 0.045564733564300464 0.0 2.123553991317749 -1.4010089079486292 1.8780087232589722 -3.2744315306292933 -1.0887716452227991 -0.675422493611471 0.0 0.0 0.0 0.0 0.0 0.0 4.326258001228904e-18 -0.6062134504318237 -0.6461266279220581 -0.13084717094898224 0.01002524420619011 0.0 4.326258001228904e-18 -0.6062134504318237 -0.6461266279220581 -0.13084717094898224 0.01002524420619011 0.0 0.3000000034531598 -0.20000001171119786 0.3499999886602267 -1.6275988880789851 1.6275986054673 -1.6275986736458656 0.0 0.0 0.0 0.0 0.0 0.0 -1.3761852709535863e-06 8.814992235902832e-07 5.816496553549296e-07 6.612692873678044e-08 1.1109256624647124e-07 1.0787300186452465e-08 0.29999999999999805 -0.20000000000000195 0.35000000000000103 -1.6275987284684308 1.6275987284684377 -1.6275987284684523 0.0 0.0 0.0 0.0 0.0 0.0
2760.4 2.1235540291303265 -1.401008946722106 1.8780087367536975 -3.27443157306135 -1.0887717717564005 -0.6754223496960368 0.0 0.0 0.0 0.0 0.0 0.0 0.0 0.0 0.0 0.0 0.0 0.0 4.326258029590886e-18 -0.6062134784418526 -0.6461266268636273 -0.1308471762617176 0.010025243908536955 0.0 5.680376792852834e-17 -7.959582971941524 -6.016860374679471 -0.5947004161095065 0.045564733564300464 0.0 2.123553991317749 -1.4010089079486292 1.8780087232589722 -3.2744315306292933 -1.0887716452227991 -0.675422493611471 0.0 0.0 0.0 0.0 0.0 0.0 4.326258001228904e-18 -0.6062134504318237 -0.6461266279220581 -0.13084717094898224 0.01002524420619011 0.0 4.326258001228904e-18 -0.6062134504318237 -0.6461266279220581 -0.13084717094898224 0.01002524420619011 0.0 0.3000000034531598 -0.20000001171119786 0.3499999886602267 -1.6275988880789851 1.6275986054673 -1.6275986736458656 0.0 0.0 0.0 0.0 0.0 0.0 -1.3761852709535863e-06 8.814992235902832e-07 5.816496553549296e-07 6.612692873678044e-08 1.1109256624647124e-07 1.0787300186452465e-08 0.29999999999999805 -0.20000000000000195 0.35000000000000103 -1.6275987284684308 1.6275987284684377 -1.6275987284684523 0.0 0.0 0.0 0.0 0.0 0.0
2760.408 2.1235540291303265 -1.401008946722106 1.8780087367536975 -3.27443157306135 -1.0887717717564005 -0.6754223496960368 0.0 0.0 0.0 0.0 0.0 0.0 0.0 0.0 0.0 0.0 0.0 0.0 4.326258029590886e-18 -0.6062134784418526 -0.6461266268636273 -0.1308471762617176 0.010025243908536955 0.0 5.680376792852834e-17 -7.959582971941524 -6.016860374679471 -0.5947004161095065 0.045564733564300464 0.0 2.123553991317749 -1.4010089079486292 1.8780087232589722 -3.2744315306292933 -1.0887716452227991 -0.675422493611471 0.0 0.0 0.0 0.0 0.0 0.0 4.326258001228904e-18 -0.6062134504318237 -0.6461266279220581 -0.13084717094898224 0.01002524420619011 0.0 4.326258001228904e-18 -0.6062134504318237 -0.6461266279220581 -0.13084717094898224 0.01002524420619011 0.0 0.3000000034531598 -0.20000001171119786 0.3499999886602267 -1.6275988880789851 1.6275986054673 -1.6275986736458656 0.0 0.0 0.0 0.0 0.0 0.0 -1.3761852709535863e-06 8.814992235902832e-07 5.816496553549296e-07 6.612692873678044e-08 1.1109256624647124e-07 1.0787300186452465e-08 0.29999999999999805 -0.20000000000000195 0.35000000000000103 -1.6275987284684308 1.6275987284684377 -1.6275987284684523 0.0 0.0 0.0 0.0 0.0 0.0
2760.4159999999997 2.1235540291303265 -1.401008946722106 1.8780087367536975 -3.27443157306135 -1.0887717717564005 -0.6754223496960368 0.0 0.0 0.0 0.0 0.0 0.0 0.0 0.0 0.0 0.0 0.0 0.0 4.326258029590886e-18 -0.6062134784418526 -0.6461266268636273 -0.1308471762617176 0.010025243908536955 0.0 5.680376792852834e-17 -7.959582971941524 -6.016860374679471 -0.5947004161095065 0.045564733564300464 0.0 2.123553991317749 -1.4010089079486292 1.8780087232589722 -3.2744315306292933 -1.0887716452227991 -0.675422493611471 0.0 0.0 0.0 0.0 0.0 0.0 4.326258001228904e-18 -0.6062134504318237 -0.6461266279220581 -0.13084717094898224 0.01002524420619011 0.0 4.326258001228904e-18 -0.6062134504318237 -0.6461266279220581 -0.13084717094898224 0.01002524420619011 0.0 0.3000000034531598 -0.20000001171119786 0.3499999886602267 -1.6275988880789851 1.6275986054673 -1.6275986736458656 0.0 0.0 0.0 0.0 0.0 0.0 -1.3761852709535863e-06 8.814992235902832e-07 5.816496553549296e-07 6.612692873678044e-08 1.1109256624647124e-07 1.0787300186452465e-08 0.29999999999999805 -0.20000000000000195 0.35000000000000103 -1.6275987284684308 1.6275987284684377 -1.6275987284684523 0.0 0.0 0.0 0.0 0.0 0.0
2760.424 2.1235540291303265 -1.401008946722106 1.8780087367536975 -3.27443157306135 -1.0887717717564005 -0.6754223496960368 0.0 0.0 0.0 0.0 0.0 0.0 0.0 0.0 0.0 0.0 0.0 0.0 4.326258029590886e-18 -0.6062134784418526 -0.6461266268636273 -0.1308471762617176 0.010025243908536955 0.0 5.680376792852834e-17 -7.959582971941524 -6.016860374679471 -0.5947004161095065 0.045564733564300464 0.0 2.123553991317749 -1.4010089079486292 1.8780087232589722 -3.2744315306292933 -1.0887716452227991 -0.675422493611471 0.0 0.0 0.0 0.0 0.0 0.0 4.326258001228904e-18 -0.6062134504318237 -0.6461266279220581 -0.13084717094898224 0.01002524420619011 0.0 4.326258001228904e-18 -0.6062134504318237 -0.6461266279220581 -0.13084717094898224 0.01002524420619011 0.0 0.3000000034531598 -0.20000001171119786 0.3499999886602267 -1.6275988880789851 1.6275986054673 -1.6275986736458656 0.0 0.0 0.0 0.0 0.0 0.0 -1.3761852709535863e-06 8.814992235902832e-07 5.816496553549296e-07 6.612692873678044e-08 1.1109256624647124e-07 1.0787300186452465e-08 0.29999999999999805 -0.20000000000000195 0.35000000000000103 -1.6275987284684308 1.6275987284684377 -1.6275987284684523 0.0 0.0 0.0 0.0 0.0 0.0
2760.432 2.1235540291303265 -1.401008946722106 1.8780087367536975 -3.27443157306135 -1.0887717717564005 -0.6754223496960368 0.0 0.0 0.0 0.0 0.0 0.0 0.0 0.0 0.0 0.0 0.0 0.0 4.326258029590886e-18 -0.6062134784418526 -0.6461266268636273 -0.1308471762617176 0.010025243908536955 0.0 5.680376792852834e-17 -7.959582971941524 -6.016860374679471 -0.5947004161095065 0.045564733564300464 0.0 2.123553991317749 -1.4010089079486292 1.8780087232589722 -3.2744315306292933 -1.0887716452227991 -0.675422493611471 0.0 0.0 0.0 0.0 0.0 0.0 4.326258001228904e-18 -0.6062134504318237 -0.6461266279220581 -0.13084717094898224 0.01002524420619011 0.0 4.326258001228904e-18 -0.6062134504318237 -0.6461266279220581 -0.13084717094898224 0.01002524420619011 0.0 0.3000000034531598 -0.20000001171119786 0.3499999886602267 -1.6275988880789851 1.6275986054673 -1.6275986736458656 0.0 0.0 0.0 0.0 0.0 0.0 -1.3761852709535863e-06 8.814992235902832e-07 5.816496553549296e-07 6.612692873678044e-08 1.1109256624647124e-07 1.0787300186452465e-08 0.29999999999999805 -0.20000000000000195 0.35000000000000103 -1.6275987284684308 1.6275987284684377 -1.6275987284684523 0.0 0.0 0.0 0.0 0.0 0.0
2760.44 2.1235540291303265 -1.401008946722106 1.8780087367536975 -3.27443157306135 -1.0887717717564005 -0.6754223496960368 0.0 0.0 0.0 0.0 0.0 0.0 0.0 0.0 0.0 0.0 0.0 0.0 4.326258029590886e-18 -0.6062134784418526 -0.6461266268636273 -0.1308471762617176 0.010025243908536955 0.0 5.680376792852834e-17 -7.959582971941524 -6.016860374679471 -0.5947004161095065 0.045564733564300464 0.0 2.123553991317749 -1.4010089079486292 1.8780087232589722 -3.2744315306292933 -1.0887716452227991 -0.675422493611471 0.0 0.0 0.0 0.0 0.0 0.0 4.326258001228904e-18 -0.6062134504318237 -0.6461266279220581 -0.13084717094898224 0.01002524420619011 0.0 4.326258001228904e-18 -0.6062134504318237 -0.6461266279220581 -0.13084717094898224 0.01002524420619011 0.0 0.3000000034531598 -0.20000001171119786 0.3499999886602267 -1.6275988880789851 1.6275986054673 -1.6275986736458656 0.0 0.0 0.0 0.0 0.0 0.0 -1.3761852709535863e-06 8.814992235902832e-07 5.816496553549296e-07 6.612692873678044e-08 1.1109256624647124e-07 1.0787300186452465e-08 0.29999999999999805 -0.20000000000000195 0.35000000000000103 -1.6275987284684308 1.6275987284684377 -1.6275987284684523 0.0 0.0 0.0 0.0 0.0 0.0
2760.448 2.1235540291303265 -1.401008946722106 1.8780087367536975 -3.27443157306135 -1.0887717717564005 -0.6754223496960368 0.0 0.0 0.0 0.0 0.0 0.0 0.0 0.0 0.0 0.0 0.0 0.0 4.326258029590886e-18 -0.6062134784418526 -0.6461266268636273 -0.1308471762617176 0.010025243908536955 0.0 5.680376792852834e-17 -7.959582971941524 -6.016860374679471 -0.5947004161095065 0.045564733564300464 0.0 2.123553991317749 -1.4010089079486292 1.8780087232589722 -3.2744315306292933 -1.0887716452227991 -0.675422493611471 0.0 0.0 0.0 0.0 0.0 0.0 4.326258001228904e-18 -0.6062134504318237 -0.6461266279220581 -0.13084717094898224 0.01002524420619011 0.0 4.326258001228904e-18 -0.6062134504318237 -0.6461266279220581 -0.13084717094898224 0.01002524420619011 0.0 0.3000000034531598 -0.20000001171119786 0.3499999886602267 -1.6275988880789851 1.6275986054673 -1.6275986736458656 0.0 0.0 0.0 0.0 0.0 0.0 -1.3761852709535863e-06 8.814992235902832e-07 5.816496553549296e-07 6.612692873678044e-08 1.1109256624647124e-07 1.0787300186452465e-08 0.29999999999999805 -0.20000000000000195 0.35000000000000103 -1.6275987284684308 1.6275987284684377 -1.6275987284684523 0.0 0.0 0.0 0.0 0.0 0.0
2760.4559999999997 2.1235540291303265 -1.401008946722106 1.8780087367536975 -3.27443157306135 -1.0887717717564005 -0.6754223496960368 0.0 0.0 0.0 0.0 0.0 0.0 0.0 0.0 0.0 0.0 0.0 0.0 4.326258029590886e-18 -0.6062134784418526 -0.6461266268636273 -0.1308471762617176 0.010025243908536955 0.0 5.680376792852834e-17 -7.959582971941524 -6.016860374679471 -0.5947004161095065 0.045564733564300464 0.0 2.123553991317749 -1.4010089079486292 1.8780087232589722 -3.2744315306292933 -1.0887716452227991 -0.675422493611471 0.0 0.0 0.0 0.0 0.0 0.0 4.326258001228904e-18 -0.6062134504318237 -0.6461266279220581 -0.13084717094898224 0.01002524420619011 0.0 4.326258001228904e-18 -0.6062134504318237 -0.6461266279220581 -0.13084717094898224 0.01002524420619011 0.0 0.3000000034531598 -0.20000001171119786 0.3499999886602267 -1.6275988880789851 1.6275986054673 -1.6275986736458656 0.0 0.0 0.0 0.0 0.0 0.0 -1.3761852709535863e-06 8.814992235902832e-07 5.816496553549296e-07 6.612692873678044e-08 1.1109256624647124e-07 1.0787300186452465e-08 0.29999999999999805 -0.20000000000000195 0.35000000000000103 -1.6275987284684308 1.6275987284684377 -1.6275987284684523 0.0 0.0 0.0 0.0 0.0 0.0
2760.464 2.1235540291303265 -1.401008946722106 1.8780087367536975 -3.27443157306135 -1.0887717717564005 -0.6754223496960368 0.0 0.0 0.0 0.0 0.0 0.0 0.0 0.0 0.0 0.0 0.0 0.0 4.326258029590886e-18 -0.6062134784418526 -0.6461266268636273 -0.1308471762617176 0.010025243908536955 0.0 5.680376792852834e-17 -7.959582971941524 -6.016860374679471 -0.5947004161095065 0.045564733564300464 0.0 2.123553991317749 -1.4010089079486292 1.8780087232589722 -3.2744315306292933 -1.0887716452227991 -0.675422493611471 0.0 0.0 0.0 0.0 0.0 0.0 4.326258001228904e-18 -0.6062134504318237 -0.6461266279220581 -0.13084717094898224 0.01002524420619011 0.0 4.326258001228904e-18 -0.6062134504318237 -0.6461266279220581 -0.13084717094898224 0.01002524420619011 0.0 0.3000000034531598 -0.20000001171119786 0.3499999886602267 -1.6275988880789851 1.6275986054673 -1.6275986736458656 0.0 0.0 0.0 0.0 0.0 0.0 -1.3761852709535863e-06 8.814992235902832e-07 5.816496553549296e-07 6.612692873678044e-08 1.1109256624647124e-07 1.0787300186452465e-08 0.29999999999999805 -0.20000000000000195 0.35000000000000103 -1.6275987284684308 1.6275987284684377 -1.6275987284684523 0.0 0.0 0.0 0.0 0.0 0.0
2760.4719999999998 2.1235540291303265 -1.401008946722106 1.8780087367536975 -3.27443157306135 -1.0887717717564005 -0.6754223496960368 0.0 0.0 0.0 0.0 0.0 0.0 0.0 0.0 0.0 0.0 0.0 0.0 4.326258029590886e-18 -0.6062134784418526 -0.6461266268636273 -0.1308471762617176 0.010025243908536955 0.0 5.680376792852834e-17 -7.959582971941524 -6.016860374679471 -0.5947004161095065 0.045564733564300464 0.0 2.123553991317749 -1.4010089079486292 1.8780087232589722 -3.2744315306292933 -1.0887716452227991 -0.675422493611471 0.0 0.0 0.0 0.0 0.0 0.0 4.326258001228904e-18 -0.6062134504318237 -0.6461266279220581 -0.13084717094898224 0.01002524420619011 0.0 4.326258001228904e-18 -0.6062134504318237 -0.6461266279220581 -0.13084717094898224 0.01002524420619011 0.0 0.3000000034531598 -0.20000001171119786 0.3499999886602267 -1.6275988880789851 1.6275986054673 -1.6275986736458656 0.0 0.0 0.0 0.0 0.0 0.0 -1.3761852709535863e-06 8.814992235902832e-07 5.816496553549296e-07 6.612692873678044e-08 1.1109256624647124e-07 1.0787300186452465e-08 0.29999999999999805 -0.20000000000000195 0.35000000000000103 -1.6275987284684308 1.6275987284684377 -1.6275987284684523 0.0 0.0 0.0 0.0 0.0 0.0
2760.48 2.1235540291303265 -1.401008946722106 1.8780087367536975 -3.27443157306135 -1.0887717717564005 -0.6754223496960368 0.0 0.0 0.0 0.0 0.0 0.0 0.0 0.0 0.0 0.0 0.0 0.0 4.326258029590886e-18 -0.6062134784418526 -0.6461266268636273 -0.1308471762617176 0.010025243908536955 0.0 5.680376792852834e-17 -7.959582971941524 -6.016860374679471 -0.5947004161095065 0.045564733564300464 0.0 2.123553991317749 -1.4010089079486292 1.8780087232589722 -3.2744315306292933 -1.0887716452227991 -0.675422493611471 0.0 0.0 0.0 0.0 0.0 0.0 4.326258001228904e-18 -0.6062134504318237 -0.6461266279220581 -0.13084717094898224 0.01002524420619011 0.0 4.326258001228904e-18 -0.6062134504318237 -0.6461266279220581 -0.13084717094898224 0.01002524420619011 0.0 0.3000000034531598 -0.20000001171119786 0.3499999886602267 -1.6275988880789851 1.6275986054673 -1.6275986736458656 0.0 0.0 0.0 0.0 0.0 0.0 -1.3761852709535863e-06 8.814992235902832e-07 5.816496553549296e-07 6.612692873678044e-08 1.1109256624647124e-07 1.0787300186452465e-08 0.29999999999999805 -0.20000000000000195 0.35000000000000103 -1.6275987284684308 1.6275987284684377 -1.6275987284684523 0.0 0.0 0.0 0.0 0.0 0.0
2760.488 2.1235540291303265 -1.401008946722106 1.8780087367536975 -3.27443157306135 -1.0887717717564005 -0.6754223496960368 0.0 0.0 0.0 0.0 0.0 0.0 0.0 0.0 0.0 0.0 0.0 0.0 4.326258029590886e-18 -0.6062134784418526 -0.6461266268636273 -0.1308471762617176 0.010025243908536955 0.0 5.680376792852834e-17 -7.959582971941524 -6.016860374679471 -0.5947004161095065 0.045564733564300464 0.0 2.123553991317749 -1.4010089079486292 1.8780087232589722 -3.2744315306292933 -1.0887716452227991 -0.675422493611471 0.0 0.0 0.0 0.0 0.0 0.0 4.326258001228904e-18 -0.6062134504318237 -0.6461266279220581 -0.13084717094898224 0.01002524420619011 0.0 4.326258001228904e-18 -0.6062134504318237 -0.6461266279220581 -0.13084717094898224 0.01002524420619011 0.0 0.3000000034531598 -0.20000001171119786 0.3499999886602267 -1.6275988880789851 1.6275986054673 -1.6275986736458656 0.0 0.0 0.0 0.0 0.0 0.0 -1.3761852709535863e-06 8.814992235902832e-07 5.816496553549296e-07 6.612692873678044e-08 1.1109256624647124e-07 1.0787300186452465e-08 0.29999999999999805 -0.20000000000000195 0.35000000000000103 -1.6275987284684308 1.6275987284684377 -1.6275987284684523 0.0 0.0 0.0 0.0 0.0 0.0
2760.496 2.1235540291303265 -1.401008946722106 1.8780087367536975 -3.27443157306135 -1.0887717717564005 -0.6754223496960368 0.0 0.0 0.0 0.0 0.0 0.0 0.0 0.0 0.0 0.0 0.0 0.0 4.326258029590886e-18 -0.6062134784418526 -0.6461266268636273 -0.1308471762617176 0.010025243908536955 0.0 5.680376792852834e-17 -7.959582971941524 -6.016860374679471 -0.5947004161095065 0.045564733564300464 0.0 2.123553991317749 -1.4010089079486292 1.8780087232589722 -3.2744315306292933 -1.0887716452227991 -0.675422493611471 0.0 0.0 0.0 0.0 0.0 0.0 4.326258001228904e-18 -0.6062134504318237 -0.6461266279220581 -0.13084717094898224 0.01002524420619011 0.0 4.326258001228904e-18 -0.6062134504318237 -0.6461266279220581 -0.13084717094898224 0.01002524420619011 0.0 0.3000000034531598 -0.20000001171119786 0.3499999886602267 -1.6275988880789851 1.6275986054673 -1.6275986736458656 0.0 0.0 0.0 0.0 0.0 0.0 -1.3761852709535863e-06 8.814992235902832e-07 5.816496553549296e-07 6.612692873678044e-08 1.1109256624647124e-07 1.0787300186452465e-08 0.29999999999999805 -0.20000000000000195 0.35000000000000103 -1.6275987284684308 1.6275987284684377 -1.6275987284684523 0.0 0.0 0.0 0.0 0.0 0.0
2760.504 2.1235540291303265 -1.401008946722106 1.8780087367536975 -3.27443157306135 -1.0887717717564005 -0.6754223496960368 0.0 0.0 0.0 0.0 0.0 0.0 0.0 0.0 0.0 0.0 0.0 0.0 4.326258029590886e-18 -0.6062134784418526 -0.6461266268636273 -0.1308471762617176 0.010025243908536955 0.0 5.680376792852834e-17 -7.959582971941524 -6.016860374679471 -0.5947004161095065 0.045564733564300464 0.0 2.123553991317749 -1.4010089079486292 1.8780087232589722 -3.2744315306292933 -1.0887716452227991 -0.675422493611471 0.0 0.0 0.0 0.0 0.0 0.0 4.326258001228904e-18 -0.6062134504318237 -0.6461266279220581 -0.13084717094898224 0.01002524420619011 0.0 4.326258001228904e-18 -0.6062134504318237 -0.6461266279220581 -0.13084717094898224 0.01002524420619011 0.0 0.3000000034531598 -0.20000001171119786 0.3499999886602267 -1.6275988880789851 1.6275986054673 -1.6275986736458656 0.0 0.0 0.0 0.0 0.0 0.0 -1.3761852709535863e-06 8.814992235902832e-07 5.816496553549296e-07 6.612692873678044e-08 1.1109256624647124e-07 1.0787300186452465e-08 0.29999999999999805 -0.20000000000000195 0.35000000000000103 -1.6275987284684308 1.6275987284684377 -1.6275987284684523 0.0 0.0 0.0 0.0 0.0 0.0
2760.5119999999997 2.1235540291303265 -1.401008946722106 1.8780087367536975 -3.27443157306135 -1.0887717717564005 -0.6754223496960368 0.0 0.0 0.0 0.0 0.0 0.0 0.0 0.0 0.0 0.0 0.0 0.0 4.326258029590886e-18 -0.6062134784418526 -0.6461266268636273 -0.1308471762617176 0.010025243908536955 0.0 5.680376792852834e-17 -7.959582971941524 -6.016860374679471 -0.5947004161095065 0.045564733564300464 0.0 2.123553991317749 -1.4010089079486292 1.8780087232589722 -3.2744315306292933 -1.0887716452227991 -0.675422493611471 0.0 0.0 0.0 0.0 0.0 0.0 4.326258001228904e-18 -0.6062134504318237 -0.6461266279220581 -0.13084717094898224 0.01002524420619011 0.0 4.326258001228904e-18 -0.6062134504318237 -0.6461266279220581 -0.13084717094898224 0.01002524420619011 0.0 0.3000000034531598 -0.20000001171119786 0.3499999886602267 -1.6275988880789851 1.6275986054673 -1.6275986736458656 0.0 0.0 0.0 0.0 0.0 0.0 -1.3761852709535863e-06 8.814992235902832e-07 5.816496553549296e-07 6.612692873678044e-08 1.1109256624647124e-07 1.0787300186452465e-08 0.29999999999999805 -0.20000000000000195 0.35000000000000103 -1.6275987284684308 1.6275987284684377 -1.6275987284684523 0.0 0.0 0.0 0.0 0.0 0.0
2760.52 2.1235540291303265 -1.401008946722106 1.8780087367536975 -3.27443157306135 -1.0887717717564005 -0.6754223496960368 0.0 0.0 0.0 0.0 0.0 0.0 0.0 0.0 0.0 0.0 0.0 0.0 4.326258029590886e-18 -0.6062134784418526 -0.6461266268636273 -0.1308471762617176 0.010025243908536955 0.0 5.680376792852834e-17 -7.959582971941524 -6.016860374679471 -0.5947004161095065 0.045564733564300464 0.0 2.123553991317749 -1.4010089079486292 1.8780087232589722 -3.2744315306292933 -1.0887716452227991 -0.675422493611471 0.0 0.0 0.0 0.0 0.0 0.0 4.326258001228904e-18 -0.6062134504318237 -0.6461266279220581 -0.13084717094898224 0.01002524420619011 0.0 4.326258001228904e-18 -0.6062134504318237 -0.6461266279220581 -0.13084717094898224 0.01002524420619011 0.0 0.3000000034531598 -0.20000001171119786 0.3499999886602267 -1.6275988880789851 1.6275986054673 -1.6275986736458656 0.0 0.0 0.0 0.0 0.0 0.0 -1.3761852709535863e-06 8.814992235902832e-07 5.816496553549296e-07 6.612692873678044e-08 1.1109256624647124e-07 1.0787300186452465e-08 0.29999999999999805 -0.20000000000000195 0.35000000000000103 -1.6275987284684308 1.6275987284684377 -1.6275987284684523 0.0 0.0 0.0 0.0 0.0 0.0
2760.528 2.1235540291303265 -1.401008946722106 1.8780087367536975 -3.27443157306135 -1.0887717717564005 -0.6754223496960368 0.0 0.0 0.0 0.0 0.0 0.0 0.0 0.0 0.0 0.0 0.0 0.0 4.326258029590886e-18 -0.6062134784418526 -0.6461266268636273 -0.1308471762617176 0.010025243908536955 0.0 5.680376792852834e-17 -7.959582971941524 -6.016860374679471 -0.5947004161095065 0.045564733564300464 0.0 2.123553991317749 -1.4010089079486292 1.8780087232589722 -3.2744315306292933 -1.0887716452227991 -0.675422493611471 0.0 0.0 0.0 0.0 0.0 0.0 4.326258001228904e-18 -0.6062134504318237 -0.6461266279220581 -0.13084717094898224 0.01002524420619011 0.0 4.326258001228904e-18 -0.6062134504318237 -0.6461266279220581 -0.13084717094898224 0.01002524420619011 0.0 0.3000000034531598 -0.20000001171119786 0.3499999886602267 -1.6275988880789851 1.6275986054673 -1.6275986736458656 0.0 0.0 0.0 0.0 0.0 0.0 -1.3761852709535863e-06 8.814992235902832e-07 5.816496553549296e-07 6.612692873678044e-08 1.1109256624647124e-07 1.0787300186452465e-08 0.29999999999999805 -0.20000000000000195 0.35000000000000103 -1.6275987284684308 1.6275987284684377 -1.6275987284684523 0.0 0.0 0.0 0.0 0.0 0.0
