mkrssg/UniversalRobots/rtde_client_3.5/examples/simulation/movel_distance-y=400_simulation.csv
timestamp target_q_0 target_q_1 target_q_2 target_q_3 target_q_4 target_q_5 target_qd_0 target_qd_1 target_qd_2 target_qd_3 target_qd_4 target_qd_5 target_qdd_0 target_qdd_1 target_qdd_2 target_qdd_3 target_qdd_4 target_qdd_5 target_current_0 target_current_1 target_current_2 target_current_3 target_current_4 target_current_5 target_moment_0 target_moment_1 target_moment_2 target_moment_3 target_moment_4 target_moment_5 actual_q_0 actual_q_1 actual_q_2 actual_q_3 actual_q_4 actual_q_5 actual_qd_0 actual_qd_1 actual_qd_2 actual_qd_3 actual_qd_4 actual_qd_5 actual_current_0 actual_current_1 actual_current_2 actual_current_3 actual_current_4 actual_current_5 joint_control_output_0 joint_control_output_1 joint_control_output_2 joint_control_output_3 joint_control_output_4 joint_control_output_5 actual_TCP_pose_0 actual_TCP_pose_1 actual_TCP_pose_2 actual_TCP_pose_3 actual_TCP_pose_4 actual_TCP_pose_5 actual_TCP_speed_0 actual_TCP_speed_1 actual_TCP_speed_2 actual_TCP_speed_3 actual_TCP_speed_4 actual_TCP_speed_5 actual_TCP_force_0 actual_TCP_force_1 actual_TCP_force_2 actual_TCP_force_3 actual_TCP_force_4 actual_TCP_force_5 target_TCP_pose_0 target_TCP_pose_1 target_TCP_pose_2 target_TCP_pose_3 target_TCP_pose_4 target_TCP_pose_5 target_TCP_speed_0 target_TCP_speed_1 target_TCP_speed_2 target_TCP_speed_3 target_TCP_speed_4 target_TCP_speed_5

6422.096 2.1235540291303225 -1.401008946722106 1.8780087367536964 -3.2744315730613396 -1.0887717717564005 -0.6754223496960323 0.0 0.0 0.0 0.0 0.0 0.0 0.0 0.0 0.0 0.0 0.0 0.0 2.0989776736232384e-17 -0.6062134784418534 -0.6461266268636285 -0.13084717626171938 0.010025243908537212 0.0 2.755957685467312e-16 -7.9595829719415345 -6.0168603746794815 -0.5947004161095145 0.04556473356430163 0.0 2.123553991317749 -1.4010089079486292 1.8780087232589722 -3.2744315306292933 -1.0887716452227991 -0.675422493611471 0.0 0.0 0.0 0.0 0.0 0.0 2.0989777526704532e-17 -0.6062134504318237 -0.6461266279220581 -0.13084717094898224 0.01002524420619011 0.0 2.0989777526704532e-17 -0.6062134504318237 -0.6461266279220581 -0.13084717094898224 0.01002524420619011 0.0 0.3000000034531598 -0.20000001171119786 0.3499999886602267 -1.6275988880789851 1.6275986054673 -1.6275986736458656 0.0 0.0 0.0 0.0 0.0 0.0 -1.3761852633295723e-06 8.814992198198368e-07 5.816496690414158e-07 6.612692466538628e-08 1.1109255923321523e-07 1.0787299792783434e-08 0.2999999999999976 -0.20000000000000367 0.35000000000000037 -1.627598728468425 1.6275987284684517 -1.627598728468441 0.0 0.0 0.0 0.0 0.0 0.0

6422.103999999999 2.1235540291303225 -1.401008946722106 1.8780087367536964 -3.2744315730613396 -1.0887717717564005 -0.6754223496960323 0.0 0.0 0.0 0.0 0.0 0.0 0.0 0.0 0.0 0.0 0.0 0.0 2.0989776736232384e-17 -0.6062134784418534 -0.6461266268636285 -0.13084717626171938 0.010025243908537212 0.0 2.755957685467312e-16 -7.9595829719415345 -6.0168603746794815 -0.5947004161095145 0.04556473356430163 0.0 2.123553991317749 -1.4010089079486292 1.8780087232589722 -3.2744315306292933 -1.0887716452227991 -0.675422493611471 0.0 0.0 0.0 0.0 0.0 0.0 2.0989777526704532e-17 -0.6062134504318237 -0.6461266279220581 -0.13084717094898224 0.01002524420619011 0.0 2.0989777526704532e-17 -0.6062134504318237 -0.6461266279220581 -0.13084717094898224 0.01002524420619011 0.0 0.3000000034531598 -0.20000001171119786 0.3499999886602267 -1.6275988880789851 1.6275986054673 -1.6275986736458656 0.0 0.0 0.0 0.0 0.0 0.0 -1.3761852633295723e-06 8.814992198198368e-07 5.816496690414158e-07 6.612692466538628e-08 1.1109255923321523e-07 1.0787299792783434e-08 0.2999999999999976 -0.20000000000000367 0.35000000000000037 -1.627598728468425 1.6275987284684517 -1.627598728468441 0.0 0.0 0.0 0.0 0.0 0.0

6422.112 2.1235540291303225 -1.401008946722106 1.8780087367536964 -3.2744315730613396 -1.0887717717564005 -0.6754223496960323 0.0 0.0 0.0 0.0 0.0 0.0 0.0 0.0 0.0 0.0 0.0 0.0 2.0989776736232384e-17 -0.6062134784418534 -0.6461266268636285 -0.13084717626171938 0.010025243908537212 0.0 2.755957685467312e-16 -7.9595829719415345 -6.0168603746794815 -0.5947004161095145 0.04556473356430163 0.0 2.123553991317749 -1.4010089079486292 1.8780087232589722 -3.2744315306292933 -1.0887716452227991 -0.675422493611471 0.0 0.0 0.0 0.0 0.0 0.0 2.0989777526704532e-17 -0.6062134504318237 -0.6461266279220581 -0.13084717094898224 0.01002524420619011 0.0 2.0989777526704532e-17 -0.6062134504318237 -0.6461266279220581 -0.13084717094898224 0.01002524420619011 0.0 0.3000000034531598 -0.20000001171119786 0.3499999886602267 -1.6275988880789851 1.6275986054673 -1.6275986736458656 0.0 0.0 0.0 0.0 0.0 0.0 -1.3761852633295723e-06 8.814992198198368e-07 5.816496690414158e-07 6.612692466538628e-08 1.1109255923321523e-07 1.0787299792783434e-08 0.2999999999999976 -0.20000000000000367 0.35000000000000037 -1.627598728468425 1.6275987284684517 -1.627598728468441 0.0 0.0 0.0 0.0 0.0 0.0

6422.12 2.1235540291303225 -1.401008946722106 1.8780087367536964 -3.2744315730613396 -1.0887717717564005 -0.6754223496960323 0.0 0.0 0.0 0.0 0.0 0.0 0.0 0.0 0.0 0.0 0.0 0.0 2.0989776736232384e-17 -0.6062134784418534 -0.6461266268636285 -0.13084717626171938 0.010025243908537212 0.0 2.755957685467312e-16 -7.9595829719415345 -6.0168603746794815 -0.5947004161095145 0.04556473356430163 0.0 2.123553991317749 -1.4010089079486292 1.8780087232589722 -3.2744315306292933 -1.0887716452227991 -0.675422493611471 0.0 0.0 0.0 0.0 0.0 0.0 2.0989777526704532e-17 -0.6062134504318237 -0.6461266279220581 -0.13084717094898224 0.01002524420619011 0.0 2.0989777526704532e-17 -0.6062134504318237 -0.6461266279220581 -0.13084717094898224 0.01002524420619011 0.0 0.3000000034531598 -0.20000001171119786 0.3499999886602267 -1.6275988880789851 1.6275986054673 -1.6275986736458656 0.0 0.0 0.0 0.0 0.0 0.0 -1.3761852633295723e-06 8.814992198198368e-07 5.816496690414158e-07 6.612692466538628e-08 1.1109255923321523e-07 1.0787299792783434e-08 0.2999999999999976 -0.20000000000000367 0.35000000000000037 -1.627598728468425 1.6275987284684517 -1.627598728468441 0.0 0.0 0.0 0.0 0.0 0.0

6422.128 2.1235540291303225 -1.401008946722106 1.8780087367536964 -3.2744315730613396 -1.0887717717564005 -0.6754223496960323 0.0 0.0 0.0 0.0 0.0 0.0 0.0 0.0 0.0 0.0 0.0 0.0 2.0989776736232384e-17 -0.6062134784418534 -0.6461266268636285 -0.13084717626171938 0.010025243908537212 0.0 2.755957685467312e-16 -7.9595829719415345 -6.0168603746794815 -0.5947004161095145 0.04556473356430163 0.0 2.123553991317749 -1.4010089079486292 1.8780087232589722 -3.2744315306292933 -1.0887716452227991 -0.675422493611471 0.0 0.0 0.0 0.0 0.0 0.0 2.0989777526704532e-17 -0.6062134504318237 -0.6461266279220581 -0.13084717094898224 0.01002524420619011 0.0 2.0989777526704532e-17 -0.6062134504318237 -0.6461266279220581 -0.13084717094898224 0.01002524420619011 0.0 0.3000000034531598 -0.20000001171119786 0.3499999886602267 -1.6275988880789851 1.6275986054673 -1.6275986736458656 0.0 0.0 0.0 0.0 0.0 0.0 -1.3761852633295723e-06 8.814992198198368e-07 5.816496690414158e-07 6.612692466538628e-08 1.1109255923321523e-07 1.0787299792783434e-08 0.2999999999999976 -0.20000000000000367 0.35000000000000037 -1.627598728468425 1.6275987284684517 -1.627598728468441 0.0 0.0 0.0 0.0 0.0 0.0

6422.1359999999995 2.1235540291303225 -1.401008946722106 1.8780087367536964 -3.2744315730613396 -1.0887717717564005 -0.6754223496960323 0.0 0.0 0.0 0.0 0.0 0.0 0.0 0.0 0.0 0.0 0.0 0.0 2.0989776736232384e-17 -0.6062134784418534 -0.6461266268636285 -0.13084717626171938 0.010025243908537212 0.0 2.755957685467312e-16 -7.9595829719415345 -6.0168603746794815 -0.5947004161095145 0.04556473356430163 0.0 2.123553991317749 -1.4010089079486292 1.8780087232589722 -3.2744315306292933 -1.0887716452227991 -0.675422493611471 0.0 0.0 0.0 0.0 0.0 0.0 2.0989777526704532e-17 -0.6062134504318237 -0.6461266279220581 -0.13084717094898224 0.01002524420619011 0.0 2.0989777526704532e-17 -0.6062134504318237 -0.6461266279220581 -0.13084717094898224 0.01002524420619011 0.0 0.3000000034531598 -0.20000001171119786 0.3499999886602267 -1.6275988880789851 1.6275986054673 -1.6275986736458656 0.0 0.0 0.0 0.0 0.0 0.0 -1.3761852633295723e-06 8.814992198198368e-07 5.816496690414158e-07 6.612692466538628e-08 1.1109255923321523e-07 1.0787299792783434e-08 0.2999999999999976 -0.20000000000000367 0.35000000000000037 -1.627598728468425 1.6275987284684517 -1.627598728468441 0.0 0.0 0.0 0.0 0.0 0.0

6422.143999999999 2.1235540291303225 -1.401008946722106 1.8780087367536964 -3.2744315730613396 -1.0887717717564005 -0.6754223496960323 0.0 0.0 0.0 0.0 0.0 0.0 0.0 0.0 0.0 0.0 0.0 0.0 2.0989776736232384e-17 -0.6062134784418534 -0.6461266268636285 -0.13084717626171938 0.010025243908537212 0.0 2.755957685467312e-16 -7.9595829719415345 -6.0168603746794815 -0.5947004161095145 0.04556473356430163 0.0 2.123553991317749 -1.4010089079486292 1.8780087232589722 -3.2744315306292933 -1.0887716452227991 -0.675422493611471 0.0 0.0 0.0 0.0 0.0 0.0 2.0989777526704532e-17 -0.6062134504318237 -0.6461266279220581 -0.13084717094898224 0.01002524420619011 0.0 2.0989777526704532e-17 -0.6062134504318237 -0.6461266279220581 -0.13084717094898224 0.01002524420619011 0.0 0.3000000034531598 -0.20000001171119786 0.3499999886602267 -1.6275988880789851 1.6275986054673 -1.6275986736458656 0.0 0.0 0.0 0.0 0.0 0.0 -1.3761852633295723e-06 8.814992198198368e-07 5.816496690414158e-07 6.612692466538628e-08 1.1109255923321523e-07 1.0787299792783434e-08 0.2999999999999976 -0.20000000000000367 0.35000000000000037 -1.627598728468425 1.6275987284684517 -1.627598728468441 0.0 0.0 0.0 0.0 0.0 0.0

6422.152 2.1235540291303225 -1.401008946722106 1.8780087367536964 -3.2744315730613396 -1.0887717717564005 -0.6754223496960323 0.0 0.0 0.0 0.0 0.0 0.0 0.0 0.0 0.0 0.0 0.0 0.0 2.0989776736232384e-17 -0.6062134784418534 -0.6461266268636285 -0.13084717626171938 0.010025243908537212 0.0 2.755957685467312e-16 -7.9595829719415345 -6.0168603746794815 -0.5947004161095145 0.04556473356430163 0.0 2.123553991317749 -1.4010089079486292 1.8780087232589722 -3.2744315306292933 -1.0887716452227991 -0.675422493611471 0.0 0.0 0.0 0.0 0.0 0.0 2.0989777526704532e-17 -0.6062134504318237 -0.6461266279220581 -0.13084717094898224 0.01002524420619011 0.0 2.0989777526704532e-17 -0.6062134504318237 -0.6461266279220581 -0.13084717094898224 0.01002524420619011 0.0 0.3000000034531598 -0.20000001171119786 0.3499999886602267 -1.6275988880789851 1.6275986054673 -1.6275986736458656 0.0 0.0 0.0 0.0 0.0 0.0 -1.3761852633295723e-06 8.814992198198368e-07 5.816496690414158e-07 6.612692466538628e-08 1.1109255923321523e-07 1.0787299792783434e-08 0.2999999999999976 -0.20000000000000367 0.35000000000000037 -1.627598728468425 1.6275987284684517 -1.627598728468441 0.0 0.0 0.0 0.0 0.0 0.0

6422.16 2.1235540291303225 -1.401008946722106 1.8780087367536964 -3.2744315730613396 -1.0887717717564005 -0.6754223496960323 0.0 0.0 0.0 0.0 0.0 0.0 0.0 0.0 0.0 0.0 0.0 0.0 2.0989776736232384e-17 -0.6062134784418534 -0.6461266268636285 -0.13084717626171938 0.010025243908537212 0.0 2.755957685467312e-16 -7.9595829719415345 -6.0168603746794815 -0.5947004161095145 0.04556473356430163 0.0 2.123553991317749 -1.4010089079486292 1.8780087232589722 -3.2744315306292933 -1.0887716452227991 -0.675422493611471 0.0 0.0 0.0 0.0 0.0 0.0 2.0989777526704532e-17 -0.6062134504318237 -0.6461266279220581 -0.13084717094898224 0.01002524420619011 0.0 2.0989777526704532e-17 -0.6062134504318237 -0.6461266279220581 -0.13084717094898224 0.01002524420619011 0.0 0.3000000034531598 -0.20000001171119786 0.3499999886602267 -1.6275988880789851 1.6275986054673 -1.6275986736458656 0.0 0.0 0.0 0.0 0.0 0.0 -1.3761852633295723e-06 8.814992198198368e-07 5.816496690414158e-07 6.612692466538628e-08 1.1109255923321523e-07 1.0787299792783434e-08 0.2999999999999976 -0.20000000000000367 0.35000000000000037 -1.627598728468425 1.6275987284684517 -1.627598728468441 0.0 0.0 0.0 0.0 0.0 0.0

6422.168 2.1235540291303225 -1.401008946722106 1.8780087367536964 -3.2744315730613396 -1.0887717717564005 -0.6754223496960323 0.0 0.0 0.0 0.0 0.0 0.0 0.0 0.0 0.0 0.0 0.0 0.0 2.0989776736232384e-17 -0.6062134784418534 -0.6461266268636285 -0.13084717626171938 0.010025243908537212 0.0 2.755957685467312e-16 -7.9595829719415345 -6.0168603746794815 -0.5947004161095145 0.04556473356430163 0.0 2.123553991317749 -1.4010089079486292 1.8780087232589722 -3.2744315306292933 -1.0887716452227991 -0.675422493611471 0.0 0.0 0.0 0.0 0.0 0.0 2.0989777526704532e-17 -0.6062134504318237 -0.6461266279220581 -0.13084717094898224 0.01002524420619011 0.0 2.0989777526704532e-17 -0.6062134504318237 -0.6461266279220581 -0.13084717094898224 0.01002524420619011 0.0 0.3000000034531598 -0.20000001171119786 0.3499999886602267 -1.6275988880789851 1.6275986054673 -1.6275986736458656 0.0 0.0 0.0 0.0 0.0 0.0 -1.3761852633295723e-06 8.814992198198368e-07 5.816496690414158e-07 6.612692466538628e-08 1.1109255923321523e-07 1.0787299792783434e-08 0.2999999999999976 -0.20000000000000367 0.35000000000000037 -1.627598728468425 1.6275987284684517 -1.627598728468441 0.0 0.0 0.0 0.0 0.0 0.0

6422.1759999999995 2.1235540291303225 -1.401008946722106 1.8780087367536964 -3.2744315730613396 -1.0887717717564005 -0.6754223496960323 0.0 0.0 0.0 0.0 0.0 0.0 0.0 0.0 0.0 0.0 0.0 0.0 2.0989776736232384e-17 -0.6062134784418534 -0.6461266268636285 -0.13084717626171938 0.010025243908537212 0.0 2.755957685467312e-16 -7.9595829719415345 -6.0168603746794815 -0.5947004161095145 0.04556473356430163 0.0 2.123553991317749 -1.4010089079486292 1.8780087232589722 -3.2744315306292933 -1.0887716452227991 -0.675422493611471 0.0 0.0 0.0 0.0 0.0 0.0 2.0989777526704532e-17 -0.6062134504318237 -0.6461266279220581 -0.13084717094898224 0.01002524420619011 0.0 2.0989777526704532e-17 -0.6062134504318237 -0.6461266279220581 -0.13084717094898224 0.01002524420619011 0.0 0.3000000034531598 -0.20000001171119786 0.3499999886602267 -1.6275988880789851 1.6275986054673 -1.6275986736458656 0.0 0.0 0.0 0.0 0.0 0.0 -1.3761852633295723e-06 8.814992198198368e-07 5.816496690414158e-07 6.612692466538628e-08 1.1109255923321523e-07 1.0787299792783434e-08 0.2999999999999976 -0.20000000000000367 0.35000000000000037 -1.627598728468425 1.6275987284684517 -1.627598728468441 0.0 0.0 0.0 0.0 0.0 0.0

6422.183999999999 2.1235540291303225 -1.401008946722106 1.8780087367536964 -3.2744315730613396 -1.0887717717564005 -0.6754223496960323 0.0 0.0 0.0 0.0 0.0 0.0 0.0 0.0 0.0 0.0 0.0 0.0 2.0989776736232384e-17 -0.6062134784418534 -0.6461266268636285 -0.13084717626171938 0.010025243908537212 0.0 2.755957685467312e-16 -7.9595829719415345 -6.0168603746794815 -0.5947004161095145 0.04556473356430163 0.0 2.123553991317749 -1.4010089079486292 1.8780087232589722 -3.2744315306292933 -1.0887716452227991 -0.675422493611471 0.0 0.0 0.0 0.0 0.0 0.0 2.0989777526704532e-17 -0.6062134504318237 -0.6461266279220581 -0.13084717094898224 0.01002524420619011 0.0 2.0989777526704532e-17 -0.6062134504318237 -0.6461266279220581 -0.13084717094898224 0.01002524420619011 0.0 0.3000000034531598 -0.20000001171119786 0.3499999886602267 -1.6275988880789851 1.6275986054673 -1.6275986736458656 0.0 0.0 0.0 0.0 0.0 0.0 -1.3761852633295723e-06 8.814992198198368e-07 5.816496690414158e-07 6.612692466538628e-08 1.1109255923321523e-07 1.0787299792783434e-08 0.2999999999999976 -0.20000000000000367 0.35000000000000037 -1.627598728468425 1.6275987284684517 -1.627598728468441 0.0 0.0 0.0 0.0 0.0 0.0

6422.192 2.1235540291303225 -1.401008946722106 1.8780087367536964 -3.2744315730613396 -1.0887717717564005 -0.6754223496960323 0.0 0.0 0.0 0.0 0.0 0.0 0.0 0.0 0.0 0.0 0.0 0.0 2.0989776736232384e-17 -0.6062134784418534 -0.6461266268636285 -0.13084717626171938 0.010025243908537212 0.0 2.755957685467312e-16 -7.9595829719415345 -6.0168603746794815 -0.5947004161095145 0.04556473356430163 0.0 2.123553991317749 -1.4010089079486292 1.8780087232589722 -3.2744315306292933 -1.0887716452227991 -0.675422493611471 0.0 0.0 0.0 0.0 0.0 0.0 2.0989777526704532e-17 -0.6062134504318237 -0.6461266279220581 -0.13084717094898224 0.01002524420619011 0.0 2.0989777526704532e-17 -0.6062134504318237 -0.6461266279220581 -0.13084717094898224 0.01002524420619011 0.0 0.3000000034531598 -0.20000001171119786 0.3499999886602267 -1.6275988880789851 1.6275986054673 -1.6275986736458656 0.0 0.0 0.0 0.0 0.0 0.0 -1.3761852633295723e-06 8.814992198198368e-07 5.816496690414158e-07 6.612692466538628e-08 1.1109255923321523e-07 1.0787299792783434e-08 0.2999999999999976 -0.20000000000000367 0.35000000000000037 -1.627598728468425 1.6275987284684517 -1.627598728468441 0.0 0.0 0.0 0.0 0.0 0.0

6422.2 2.1235540291303225 -1.401008946722106 1.8780087367536964 -3.2744315730613396 -1.0887717717564005 -0.6754223496960323 0.0 0.0 0.0 0.0 0.0 0.0 0.0 0.0 0.0 0.0 0.0 0.0 2.0989776736232384e-17 -0.6062134784418534 -0.6461266268636285 -0.13084717626171938 0.010025243908537212 0.0 2.755957685467312e-16 -7.9595829719415345 -6.0168603746794815 -0.5947004161095145 0.04556473356430163 0.0 2.123553991317749 -1.4010089079486292 1.8780087232589722 -3.2744315306292933 -1.0887716452227991 -0.675422493611471 0.0 0.0 0.0 0.0 0.0 0.0 2.0989777526704532e-17 -0.6062134504318237 -0.6461266279220581 -0.13084717094898224 0.01002524420619011 0.0 2.0989777526704532e-17 -0.6062134504318237 -0.6461266279220581 -0.13084717094898224 0.01002524420619011 0.0 0.3000000034531598 -0.20000001171119786 0.3499999886602267 -1.6275988880789851 1.6275986054673 -1.6275986736458656 0.0 0.0 0.0 0.0 0.0 0.0 -1.3761852633295723e-06 8.814992198198368e-07 5.816496690414158e-07 6.612692466538628e-08 1.1109255923321523e-07 1.0787299792783434e-08 0.2999999999999976 -0.20000000000000367 0.35000000000000037 -1.627598728468425 1.6275987284684517 -1.627598728468441 0.0 0.0 0.0 0.0 0.0 0.0

6422.208 2.1235540291303225 -1.401008946722106 1.8780087367536964 -3.2744315730613396 -1.0887717717564005 -0.6754223496960323 0.0 0.0 0.0 0.0 0.0 0.0 0.0 0.0 0.0 0.0 0.0 0.0 2.0989776736232384e-17 -0.6062134784418534 -0.6461266268636285 -0.13084717626171938 0.010025243908537212 0.0 2.755957685467312e-16 -7.9595829719415345 -6.0168603746794815 -0.5947004161095145 0.04556473356430163 0.0 2.123553991317749 -1.4010089079486292 1.8780087232589722 -3.2744315306292933 -1.0887716452227991 -0.675422493611471 0.0 0.0 0.0 0.0 0.0 0.0 2.0989777526704532e-17 -0.6062134504318237 -0.6461266279220581 -0.13084717094898224 0.01002524420619011 0.0 2.0989777526704532e-17 -0.6062134504318237 -0.6461266279220581 -0.13084717094898224 0.01002524420619011 0.0 0.3000000034531598 -0.20000001171119786 0.3499999886602267 -1.6275988880789851 1.6275986054673 -1.6275986736458656 0.0 0.0 0.0 0.0 0.0 0.0 -1.3761852633295723e-06 8.814992198198368e-07 5.816496690414158e-07 6.612692466538628e-08 1.1109255923321523e-07 1.0787299792783434e-08 0.2999999999999976 -0.20000000000000367 0.35000000000000037 -1.627598728468425 1.6275987284684517 -1.627598728468441 0.0 0.0 0.0 0.0 0.0 0.0

6422.215999999999 2.1235540291303225 -1.401008946722106 1.8780087367536964 -3.2744315730613396 -1.0887717717564005 -0.6754223496960323 0.0 0.0 0.0 0.0 0.0 0.0 0.0 0.0 0.0 0.0 0.0 0.0 2.0989776736232384e-17 -0.6062134784418534 -0.6461266268636285 -0.13084717626171938 0.010025243908537212 0.0 2.755957685467312e-16 -7.9595829719415345 -6.0168603746794815 -0.5947004161095145 0.04556473356430163 0.0 2.123553991317749 -1.4010089079486292 1.8780087232589722 -3.2744315306292933 -1.0887716452227991 -0.675422493611471 0.0 0.0 0.0 0.0 0.0 0.0 2.0989777526704532e-17 -0.6062134504318237 -0.6461266279220581 -0.13084717094898224 0.01002524420619011 0.0 2.0989777526704532e-17 -0.6062134504318237 -0.6461266279220581 -0.13084717094898224 0.01002524420619011 0.0 0.3000000034531598 -0.20000001171119786 0.3499999886602267 -1.6275988880789851 1.6275986054673 -1.6275986736458656 0.0 0.0 0.0 0.0 0.0 0.0 -1.3761852633295723e-06 8.814992198198368e-07 5.816496690414158e-07 6.612692466538628e-08 1.1109255923321523e-07 1.0787299792783434e-08 0.2999999999999976 -0.20000000000000367 0.35000000000000037 -1.627598728468425 1.6275987284684517 -1.627598728468441 0.0 0.0 0.0 0.0 0.0 0.0

6422.224 2.1235540291303225 -1.401008946722106 1.8780087367536964 -3.2744315730613396 -1.0887717717564005 -0.6754223496960323 0.0 0.0 0.0 0.0 0.0 0.0 0.0 0.0 0.0 0.0 0.0 0.0 2.0989776736232384e-17 -0.6062134784418534 -0.6461266268636285 -0.13084717626171938 0.010025243908537212 0.0 2.755957685467312e-16 -7.9595829719415345 -6.0168603746794815 -0.5947004161095145 0.04556473356430163 0.0 2.123553991317749 -1.4010089079486292 1.8780087232589722 -3.2744315306292933 -1.0887716452227991 -0.675422493611471 0.0 0.0 0.0 0.0 0.0 0.0 2.0989777526704532e-17 -0.6062134504318237 -0.6461266279220581 -0.13084717094898224 0.01002524420619011 0.0 2.0989777526704532e-17 -0.6062134504318237 -0.6461266279220581 -0.13084717094898224 0.01002524420619011 0.0 0.3000000034531598 -0.20000001171119786 0.3499999886602267 -1.6275988880789851 1.6275986054673 -1.6275986736458656 0.0 0.0 0.0 0.0 0.0 0.0 -1.3761852633295723e-06 8.814992198198368e-07 5.816496690414158e-07 6.612692466538628e-08 1.1109255923321523e-07 1.0787299792783434e-08 0.2999999999999976 -0.20000000000000367 0.35000000000000037 -1.627598728468425 1.6275987284684517 -1.627598728468441 0.0 0.0 0.0 0.0 0.0 0.0

6422.232 2.1235540291303225 -1.401008946722106 1.8780087367536964 -3.2744315730613396 -1.0887717717564005 -0.6754223496960323 0.0 0.0 0.0 0.0 0.0 0.0 0.0 0.0 0.0 0.0 0.0 0.0 2.0989776736232384e-17 -0.6062134784418534 -0.6461266268636285 -0.13084717626171938 0.010025243908537212 0.0 2.755957685467312e-16 -7.9595829719415345 -6.0168603746794815 -0.5947004161095145 0.04556473356430163 0.0 2.123553991317749 -1.4010089079486292 1.8780087232589722 -3.2744315306292933 -1.0887716452227991 -0.675422493611471 0.0 0.0 0.0 0.0 0.0 0.0 2.0989777526704532e-17 -0.6062134504318237 -0.6461266279220581 -0.13084717094898224 0.01002524420619011 0.0 2.0989777526704532e-17 -0.6062134504318237 -0.6461266279220581 -0.13084717094898224 0.01002524420619011 0.0 0.3000000034531598 -0.20000001171119786 0.3499999886602267 -1.6275988880789851 1.6275986054673 -1.6275986736458656 0.0 0.0 0.0 0.0 0.0 0.0 -1.3761852633295723e-06 8.814992198198368e-07 5.816496690414158e-07 6.612692466538628e-08 1.1109255923321523e-07 1.0787299792783434e-08 0.2999999999999976 -0.20000000000000367 0.35000000000000037 -1.627598728468425 1.6275987284684517 -1.627598728468441 0.0 0.0 0.0 0.0 0.0 0.0

6422.24 2.1235540291303225 -1.401008946722106 1.8780087367536964 -3.2744315730613396 -1.0887717717564005 -0.6754223496960323 0.0 0.0 0.0 0.0 0.0 0.0 0.0 0.0 0.0 0.0 0.0 0.0 2.0989776736232384e-17 -0.6062134784418534 -0.6461266268636285 -0.13084717626171938 0.010025243908537212 0.0 2.755957685467312e-16 -7.9595829719415345 -6.0168603746794815 -0.5947004161095145 0.04556473356430163 0.0 2.123553991317749 -1.4010089079486292 1.8780087232589722 -3.2744315306292933 -1.0887716452227991 -0.675422493611471 0.0 0.0 0.0 0.0 0.0 0.0 2.0989777526704532e-17 -0.6062134504318237 -0.6461266279220581 -0.13084717094898224 0.01002524420619011 0.0 2.0989777526704532e-17 -0.6062134504318237 -0.6461266279220581 -0.13084717094898224 0.01002524420619011 0.0 0.3000000034531598 -0.20000001171119786 0.3499999886602267 -1.6275988880789851 1.6275986054673 -1.6275986736458656 0.0 0.0 0.0 0.0 0.0 0.0 -1.3761852633295723e-06 8.814992198198368e-07 5.816496690414158e-07 6.612692466538628e-08 1.1109255923321523e-07 1.0787299792783434e-08 0.2999999999999976 -0.20000000000000367 0.35000000000000037 -1.627598728468425 1.6275987284684517 -1.627598728468441 0.0 0.0 0.0 0.0 0.0 0.0

6422.248 2.1235540291303225 -1.401008946722106 1.8780087367536964 -3.2744315730613396 -1.0887717717564005 -0.6754223496960323 0.0 0.0 0.0 0.0 0.0 0.0 0.0 0.0 0.0 0.0 0.0 0.0 2.0989776736232384e-17 -0.6062134784418534 -0.6461266268636285 -0.13084717626171938 0.010025243908537212 0.0 2.755957685467312e-16 -7.9595829719415345 -6.0168603746794815 -0.5947004161095145 0.04556473356430163 0.0 2.123553991317749 -1.4010089079486292 1.8780087232589722 -3.2744315306292933 -1.0887716452227991 -0.675422493611471 0.0 0.0 0.0 0.0 0.0 0.0 2.0989777526704532e-17 -0.6062134504318237 -0.6461266279220581 -0.13084717094898224 0.01002524420619011 0.0 2.0989777526704532e-17 -0.6062134504318237 -0.6461266279220581 -0.13084717094898224 0.01002524420619011 0.0 0.3000000034531598 -0.20000001171119786 0.3499999886602267 -1.6275988880789851 1.6275986054673 -1.6275986736458656 0.0 0.0 0.0 0.0 0.0 0.0 -1.3761852633295723e-06 8.814992198198368e-07 5.816496690414158e-07 6.612692466538628e-08 1.1109255923321523e-07 1.0787299792783434e-08 0.2999999999999976 -0.20000000000000367 0.35000000000000037 -1.627598728468425 1.6275987284684517 -1.627598728468441 0.0 0.0 0.0 0.0 0.0 0.0

6422.255999999999 2.1235540291303225 -1.401008946722106 1.8780087367536964 -3.2744315730613396 -1.0887717717564005 -0.6754223496960323 0.0 0.0 0.0 0.0 0.0 0.0 0.0 0.0 0.0 0.0 0.0 0.0 2.0989776736232384e-17 -0.6062134784418534 -0.6461266268636285 -0.13084717626171938 0.010025243908537212 0.0 2.755957685467312e-16 -7.9595829719415345 -6.0168603746794815 -0.5947004161095145 0.04556473356430163 0.0 2.123553991317749 -1.4010089079486292 1.8780087232589722 -3.2744315306292933 -1.0887716452227991 -0.675422493611471 0.0 0.0 0.0 0.0 0.0 0.0 2.0989777526704532e-17 -0.6062134504318237 -0.6461266279220581 -0.13084717094898224 0.01002524420619011 0.0 2.0989777526704532e-17 -0.6062134504318237 -0.6461266279220581 -0.13084717094898224 0.01002524420619011 0.0 0.3000000034531598 -0.20000001171119786 0.3499999886602267 -1.6275988880789851 1.6275986054673 -1.6275986736458656 0.0 0.0 0.0 0.0 0.0 0.0 -1.3761852633295723e-06 8.814992198198368e-07 5.816496690414158e-07 6.612692466538628e-08 1.1109255923321523e-07 1.0787299792783434e-08 0.2999999999999976 -0.20000000000000367 0.35000000000000037 -1.627598728468425 1.6275987284684517 -1.627598728468441 0.0 0.0 0.0 0.0 0.0 0.0

6422.264 2.1235540291303225 -1.401008946722106 1.8780087367536964 -3.2744315730613396 -1.0887717717564005 -0.6754223496960323 0.0 0.0 0.0 0.0 0.0 0.0 0.0 0.0 0.0 0.0 0.0 0.0 2.0989776736232384e-17 -0.6062134784418534 -0.6461266268636285 -0.13084717626171938 0.010025243908537212 0.0 2.755957685467312e-16 -7.9595829719415345 -6.0168603746794815 -0.5947004161095145 0.04556473356430163 0.0 2.123553991317749 -1.4010089079486292 1.8780087232589722 -3.2744315306292933 -1.0887716452227991 -0.675422493611471 0.0 0.0 0.0 0.0 0.0 0.0 2.0989777526704532e-17 -0.6062134504318237 -0.6461266279220581 -0.13084717094898224 0.01002524420619011 0.0 2.0989777526704532e-17 -0.6062134504318237 -0.6461266279220581 -0.13084717094898224 0.01002524420619011 0.0 0.3000000034531598 -0.20000001171119786 0.3499999886602267 -1.6275988880789851 1.6275986054673 -1.6275986736458656 0.0 0.0 0.0 0.0 0.0 0.0 -1.3761852633295723e-06 8.814992198198368e-07 5.816496690414158e-07 6.612692466538628e-08 1.1109255923321523e-07 1.0787299792783434e-08 0.2999999999999976 -0.20000000000000367 0.35000000000000037 -1.627598728468425 1.6275987284684517 -1.627598728468441 0.0 0.0 0.0 0.0 0.0 0.0

6422.272 2.1235540291303225 -1.401008946722106 1.8780087367536964 -3.2744315730613396 -1.0887717717564005 -0.6754223496960323 0.0 0.0 0.0 0.0 0.0 0.0 0.0 0.0 0.0 0.0 0.0 0.0 2.0989776736232384e-17 -0.6062134784418534 -0.6461266268636285 -0.13084717626171938 0.010025243908537212 0.0 2.755957685467312e-16 -7.9595829719415345 -6.0168603746794815 -0.5947004161095145 0.04556473356430163 0.0 2.123553991317749 -1.4010089079486292 1.8780087232589722 -3.2744315306292933 -1.0887716452227991 -0.675422493611471 0.0 0.0 0.0 0.0 0.0 0.0 2.0989777526704532e-17 -0.6062134504318237 -0.6461266279220581 -0.13084717094898224 0.01002524420619011 0.0 2.0989777526704532e-17 -0.6062134504318237 -0.6461266279220581 -0.13084717094898224 0.01002524420619011 0.0 0.3000000034531598 -0.20000001171119786 0.3499999886602267 -1.6275988880789851 1.6275986054673 -1.6275986736458656 0.0 0.0 0.0 0.0 0.0 0.0 -1.3761852633295723e-06 8.814992198198368e-07 5.816496690414158e-07 6.612692466538628e-08 1.1109255923321523e-07 1.0787299792783434e-08 0.2999999999999976 -0.20000000000000367 0.35000000000000037 -1.627598728468425 1.6275987284684517 -1.627598728468441 0.0 0.0 0.0 0.0 0.0 0.0

6422.28 2.1235540291303225 -1.401008946722106 1.8780087367536964 -3.2744315730613396 -1.0887717717564005 -0.6754223496960323 0.0 0.0 0.0 0.0 0.0 0.0 0.0 0.0 0.0 0.0 0.0 0.0 2.0989776736232384e-17 -0.6062134784418534 -0.6461266268636285 -0.13084717626171938 0.010025243908537212 0.0 2.755957685467312e-16 -7.9595829719415345 -6.0168603746794815 -0.5947004161095145 0.04556473356430163 0.0 2.123553991317749 -1.4010089079486292 1.8780087232589722 -3.2744315306292933 -1.0887716452227991 -0.675422493611471 0.0 0.0 0.0 0.0 0.0 0.0 2.0989777526704532e-17 -0.6062134504318237 -0.6461266279220581 -0.13084717094898224 0.01002524420619011 0.0 2.0989777526704532e-17 -0.6062134504318237 -0.6461266279220581 -0.13084717094898224 0.01002524420619011 0.0 0.3000000034531598 -0.20000001171119786 0.3499999886602267 -1.6275988880789851 1.6275986054673 -1.6275986736458656 0.0 0.0 0.0 0.0 0.0 0.0 -1.3761852633295723e-06 8.814992198198368e-07 5.816496690414158e-07 6.612692466538628e-08 1.1109255923321523e-07 1.0787299792783434e-08 0.2999999999999976 -0.20000000000000367 0.35000000000000037 -1.627598728468425 1.6275987284684517 -1.627598728468441 0.0 0.0 0.0 0.0 0.0 0.0

6422.288 2.1235540291303225 -1.401008946722106 1.8780087367536964 -3.2744315730613396 -1.0887717717564005 -0.6754223496960323 0.0 0.0 0.0 0.0 0.0 0.0 0.0 0.0 0.0 0.0 0.0 0.0 2.0989776736232384e-17 -0.6062134784418534 -0.6461266268636285 -0.13084717626171938 0.010025243908537212 0.0 2.755957685467312e-16 -7.9595829719415345 -6.0168603746794815 -0.5947004161095145 0.04556473356430163 0.0 2.123553991317749 -1.4010089079486292 1.8780087232589722 -3.2744315306292933 -1.0887716452227991 -0.675422493611471 0.0 0.0 0.0 0.0 0.0 0.0 2.0989777526704532e-17 -0.6062134504318237 -0.6461266279220581 -0.13084717094898224 0.01002524420619011 0.0 2.0989777526704532e-17 -0.6062134504318237 -0.6461266279220581 -0.13084717094898224 0.01002524420619011 0.0 0.3000000034531598 -0.20000001171119786 0.3499999886602267 -1.6275988880789851 1.6275986054673 -1.6275986736458656 0.0 0.0 0.0 0.0 0.0 0.0 -1.3761852633295723e-06 8.814992198198368e-07 5.816496690414158e-07 6.612692466538628e-08 1.1109255923321523e-07 1.0787299792783434e-08 0.2999999999999976 -0.20000000000000367 0.35000000000000037 -1.627598728468425 1.6275987284684517 -1.627598728468441 0.0 0.0 0.0 0.0 0.0 0.0

6422.295999999999 2.1235540291303225 -1.401008946722106 1.8780087367536964 -3.2744315730613396 -1.0887717717564005 -0.6754223496960323 0.0 0.0 0.0 0.0 0.0 0.0 0.0 0.0 0.0 0.0 0.0 0.0 2.0989776736232384e-17 -0.6062134784418534 -0.6461266268636285 -0.13084717626171938 0.010025243908537212 0.0 2.755957685467312e-16 -7.9595829719415345 -6.0168603746794815 -0.5947004161095145 0.04556473356430163 0.0 2.123553991317749 -1.4010089079486292 1.8780087232589722 -3.2744315306292933 -1.0887716452227991 -0.675422493611471 0.0 0.0 0.0 0.0 0.0 0.0 2.0989777526704532e-17 -0.6062134504318237 -0.6461266279220581 -0.13084717094898224 0.01002524420619011 0.0 2.0989777526704532e-17 -0.6062134504318237 -0.6461266279220581 -0.13084717094898224 0.01002524420619011 0.0 0.3000000034531598 -0.20000001171119786 0.3499999886602267 -1.6275988880789851 1.6275986054673 -1.6275986736458656 0.0 0.0 0.0 0.0 0.0 0.0 -1.3761852633295723e-06 8.814992198198368e-07 5.816496690414158e-07 6.612692466538628e-08 1.1109255923321523e-07 1.0787299792783434e-08 0.2999999999999976 -0.20000000000000367 0.35000000000000037 -1.627598728468425 1.6275987284684517 -1.627598728468441 0.0 0.0 0.0 0.0 0.0 0.0

6422.304 2.1235540291303225 -1.401008946722106 1.8780087367536964 -3.2744315730613396 -1.0887717717564005 -0.6754223496960323 0.0 0.0 0.0 0.0 0.0 0.0 0.0 0.0 0.0 0.0 0.0 0.0 2.0989776736232384e-17 -0.6062134784418534 -0.6461266268636285 -0.13084717626171938 0.010025243908537212 0.0 2.755957685467312e-16 -7.9595829719415345 -6.0168603746794815 -0.5947004161095145 0.04556473356430163 0.0 2.123553991317749 -1.4010089079486292 1.8780087232589722 -3.2744315306292933 -1.0887716452227991 -0.675422493611471 0.0 0.0 0.0 0.0 0.0 0.0 2.0989777526704532e-17 -0.6062134504318237 -0.6461266279220581 -0.13084717094898224 0.01002524420619011 0.0 2.0989777526704532e-17 -0.6062134504318237 -0.6461266279220581 -0.13084717094898224 0.01002524420619011 0.0 0.3000000034531598 -0.20000001171119786 0.3499999886602267 -1.6275988880789851 1.6275986054673 -1.6275986736458656 0.0 0.0 0.0 0.0 0.0 0.0 -1.3761852633295723e-06 8.814992198198368e-07 5.816496690414158e-07 6.612692466538628e-08 1.1109255923321523e-07 1.0787299792783434e-08 0.2999999999999976 -0.20000000000000367 0.35000000000000037 -1.627598728468425 1.6275987284684517 -1.627598728468441 0.0 0.0 0.0 0.0 0.0 0.0

6422.312 2.1235540291303225 -1.401008946722106 1.8780087367536964 -3.2744315730613396 -1.0887717717564005 -0.6754223496960323 0.0 0.0 0.0 0.0 0.0 0.0 0.0 0.0 0.0 0.0 0.0 0.0 2.0989776736232384e-17 -0.6062134784418534 -0.6461266268636285 -0.13084717626171938 0.010025243908537212 0.0 2.755957685467312e-16 -7.9595829719415345 -6.0168603746794815 -0.5947004161095145 0.04556473356430163 0.0 2.123553991317749 -1.4010089079486292 1.8780087232589722 -3.2744315306292933 -1.0887716452227991 -0.675422493611471 0.0 0.0 0.0 0.0 0.0 0.0 2.0989777526704532e-17 -0.6062134504318237 -0.6461266279220581 -0.13084717094898224 0.01002524420619011 0.0 2.0989777526704532e-17 -0.6062134504318237 -0.6461266279220581 -0.13084717094898224 0.01002524420619011 0.0 0.3000000034531598 -0.20000001171119786 0.3499999886602267 -1.6275988880789851 1.6275986054673 -1.6275986736458656 0.0 0.0 0.0 0.0 0.0 0.0 -1.3761852633295723e-06 8.814992198198368e-07 5.816496690414158e-07 6.612692466538628e-08 1.1109255923321523e-07 1.0787299792783434e-08 0.2999999999999976 -0.20000000000000367 0.35000000000000037 -1.627598728468425 1.6275987284684517 -1.627598728468441 0.0 0.0 0.0 0.0 0.0 0.0

6422.32 2.1235540291303225 -1.401008946722106 1.8780087367536964 -3.2744315730613396 -1.0887717717564005 -0.6754223496960323 0.0 0.0 0.0 0.0 0.0 0.0 0.0 0.0 0.0 0.0 0.0 0.0 2.0989776736232384e-17 -0.6062134784418534 -0.6461266268636285 -0.13084717626171938 0.010025243908537212 0.0 2.755957685467312e-16 -7.9595829719415345 -6.0168603746794815 -0.5947004161095145 0.04556473356430163 0.0 2.123553991317749 -1.4010089079486292 1.8780087232589722 -3.2744315306292933 -1.0887716452227991 -0.675422493611471 0.0 0.0 0.0 0.0 0.0 0.0 2.0989777526704532e-17 -0.6062134504318237 -0.6461266279220581 -0.13084717094898224 0.01002524420619011 0.0 2.0989777526704532e-17 -0.6062134504318237 -0.6461266279220581 -0.13084717094898224 0.01002524420619011 0.0 0.3000000034531598 -0.20000001171119786 0.3499999886602267 -1.6275988880789851 1.6275986054673 -1.6275986736458656 0.0 0.0 0.0 0.0 0.0 0.0 -1.3761852633295723e-06 8.814992198198368e-07 5.816496690414158e-07 6.612692466538628e-08 1.1109255923321523e-07 1.0787299792783434e-08 0.2999999999999976 -0.20000000000000367 0.35000000000000037 -1.627598728468425 1.6275987284684517 -1.627598728468441 0.0 0.0 0.0 0.0 0.0 0.0

6422.3279999999995 2.1235540291303225 -1.401008946722106 1.8780087367536964 -3.2744315730613396 -1.0887717717564005 -0.6754223496960323 0.0 0.0 0.0 0.0 0.0 0.0 0.0 0.0 0.0 0.0 0.0 0.0 2.0989776736232384e-17 -0.6062134784418534 -0.6461266268636285 -0.13084717626171938 0.010025243908537212 0.0 2.755957685467312e-16 -7.9595829719415345 -6.0168603746794815 -0.5947004161095145 0.04556473356430163 0.0 2.123553991317749 -1.4010089079486292 1.8780087232589722 -3.2744315306292933 -1.0887716452227991 -0.675422493611471 0.0 0.0 0.0 0.0 0.0 0.0 2.0989777526704532e-17 -0.6062134504318237 -0.6461266279220581 -0.13084717094898224 0.01002524420619011 0.0 2.0989777526704532e-17 -0.6062134504318237 -0.6461266279220581 -0.13084717094898224 0.01002524420619011 0.0 0.3000000034531598 -0.20000001171119786 0.3499999886602267 -1.6275988880789851 1.6275986054673 -1.6275986736458656 0.0 0.0 0.0 0.0 0.0 0.0 -1.3761852633295723e-06 8.814992198198368e-07 5.816496690414158e-07 6.612692466538628e-08 1.1109255923321523e-07 1.0787299792783434e-08 0.2999999999999976 -0.20000000000000367 0.35000000000000037 -1.627598728468425 1.6275987284684517 -1.627598728468441 0.0 0.0 0.0 0.0 0.0 0.0

6422.335999999999 2.1235540291303225 -1.401008946722106 1.8780087367536964 -3.2744315730613396 -1.0887717717564005 -0.6754223496960323 0.0 0.0 0.0 0.0 0.0 0.0 0.0 0.0 0.0 0.0 0.0 0.0 2.0989776736232384e-17 -0.6062134784418534 -0.6461266268636285 -0.13084717626171938 0.010025243908537212 0.0 2.755957685467312e-16 -7.9595829719415345 -6.0168603746794815 -0.5947004161095145 0.04556473356430163 0.0 2.123553991317749 -1.4010089079486292 1.8780087232589722 -3.2744315306292933 -1.0887716452227991 -0.675422493611471 0.0 0.0 0.0 0.0 0.0 0.0 2.0989777526704532e-17 -0.6062134504318237 -0.6461266279220581 -0.13084717094898224 0.01002524420619011 0.0 2.0989777526704532e-17 -0.6062134504318237 -0.6461266279220581 -0.13084717094898224 0.01002524420619011 0.0 0.3000000034531598 -0.20000001171119786 0.3499999886602267 -1.6275988880789851 1.6275986054673 -1.6275986736458656 0.0 0.0 0.0 0.0 0.0 0.0 -1.3761852633295723e-06 8.814992198198368e-07 5.816496690414158e-07 6.612692466538628e-08 1.1109255923321523e-07 1.0787299792783434e-08 0.2999999999999976 -0.20000000000000367 0.35000000000000037 -1.627598728468425 1.6275987284684517 -1.627598728468441 0.0 0.0 0.0 0.0 0.0 0.0

6422.344 2.1235540291303225 -1.401008946722106 1.8780087367536964 -3.2744315730613396 -1.0887717717564005 -0.6754223496960323 0.0 0.0 0.0 0.0 0.0 0.0 0.0 0.0 0.0 0.0 0.0 0.0 2.0989776736232384e-17 -0.6062134784418534 -0.6461266268636285 -0.13084717626171938 0.010025243908537212 0.0 2.755957685467312e-16 -7.9595829719415345 -6.0168603746794815 -0.5947004161095145 0.04556473356430163 0.0 2.123553991317749 -1.4010089079486292 1.8780087232589722 -3.2744315306292933 -1.0887716452227991 -0.675422493611471 0.0 0.0 0.0 0.0 0.0 0.0 2.0989777526704532e-17 -0.6062134504318237 -0.6461266279220581 -0.13084717094898224 0.01002524420619011 0.0 2.0989777526704532e-17 -0.6062134504318237 -0.6461266279220581 -0.13084717094898224 0.01002524420619011 0.0 0.3000000034531598 -0.20000001171119786 0.3499999886602267 -1.6275988880789851 1.6275986054673 -1.6275986736458656 0.0 0.0 0.0 0.0 0.0 0.0 -1.3761852633295723e-06 8.814992198198368e-07 5.816496690414158e-07 6.612692466538628e-08 1.1109255923321523e-07 1.0787299792783434e-08 0.2999999999999976 -0.20000000000000367 0.35000000000000037 -1.627598728468425 1.6275987284684517 -1.627598728468441 0.0 0.0 0.0 0.0 0.0 0.0

6422.352 2.1235540291303225 -1.401008946722106 1.8780087367536964 -3.2744315730613396 -1.0887717717564005 -0.6754223496960323 0.0 0.0 0.0 0.0 0.0 0.0 0.0 0.0 0.0 0.0 0.0 0.0 2.0989776736232384e-17 -0.6062134784418534 -0.6461266268636285 -0.13084717626171938 0.010025243908537212 0.0 2.755957685467312e-16 -7.9595829719415345 -6.0168603746794815 -0.5947004161095145 0.04556473356430163 0.0 2.123553991317749 -1.4010089079486292 1.8780087232589722 -3.2744315306292933 -1.0887716452227991 -0.675422493611471 0.0 0.0 0.0 0.0 0.0 0.0 2.0989777526704532e-17 -0.6062134504318237 -0.6461266279220581 -0.13084717094898224 0.01002524420619011 0.0 2.0989777526704532e-17 -0.6062134504318237 -0.6461266279220581 -0.13084717094898224 0.01002524420619011 0.0 0.3000000034531598 -0.20000001171119786 0.3499999886602267 -1.6275988880789851 1.6275986054673 -1.6275986736458656 0.0 0.0 0.0 0.0 0.0 0.0 -1.3761852633295723e-06 8.814992198198368e-07 5.816496690414158e-07 6.612692466538628e-08 1.1109255923321523e-07 1.0787299792783434e-08 0.2999999999999976 -0.20000000000000367 0.35000000000000037 -1.627598728468425 1.6275987284684517 -1.627598728468441 0.0 0.0 0.0 0.0 0.0 0.0

6422.36 2.1235540291303225 -1.401008946722106 1.8780087367536964 -3.2744315730613396 -1.0887717717564005 -0.6754223496960323 0.0 0.0 0.0 0.0 0.0 0.0 0.0 0.0 0.0 0.0 0.0 0.0 2.0989776736232384e-17 -0.6062134784418534 -0.6461266268636285 -0.13084717626171938 0.010025243908537212 0.0 2.755957685467312e-16 -7.9595829719415345 -6.0168603746794815 -0.5947004161095145 0.04556473356430163 0.0 2.123553991317749 -1.4010089079486292 1.8780087232589722 -3.2744315306292933 -1.0887716452227991 -0.675422493611471 0.0 0.0 0.0 0.0 0.0 0.0 2.0989777526704532e-17 -0.6062134504318237 -0.6461266279220581 -0.13084717094898224 0.01002524420619011 0.0 2.0989777526704532e-17 -0.6062134504318237 -0.6461266279220581 -0.13084717094898224 0.01002524420619011 0.0 0.3000000034531598 -0.20000001171119786 0.3499999886602267 -1.6275988880789851 1.6275986054673 -1.6275986736458656 0.0 0.0 0.0 0.0 0.0 0.0 -1.3761852633295723e-06 8.814992198198368e-07 5.816496690414158e-07 6.612692466538628e-08 1.1109255923321523e-07 1.0787299792783434e-08 0.2999999999999976 -0.20000000000000367 0.35000000000000037 -1.627598728468425 1.6275987284684517 -1.627598728468441 0.0 0.0 0.0 0.0 0.0 0.0

6422.3679999999995 2.1235540291303225 -1.401008946722106 1.8780087367536964 -3.2744315730613396 -1.0887717717564005 -0.6754223496960323 0.0 0.0 0.0 0.0 0.0 0.0 0.0 0.0 0.0 0.0 0.0 0.0 2.0989776736232384e-17 -0.6062134784418534 -0.6461266268636285 -0.13084717626171938 0.010025243908537212 0.0 2.755957685467312e-16 -7.9595829719415345 -6.0168603746794815 -0.5947004161095145 0.04556473356430163 0.0 2.123553991317749 -1.4010089079486292 1.8780087232589722 -3.2744315306292933 -1.0887716452227991 -0.675422493611471 0.0 0.0 0.0 0.0 0.0 0.0 2.0989777526704532e-17 -0.6062134504318237 -0.6461266279220581 -0.13084717094898224 0.01002524420619011 0.0 2.0989777526704532e-17 -0.6062134504318237 -0.6461266279220581 -0.13084717094898224 0.01002524420619011 0.0 0.3000000034531598 -0.20000001171119786 0.3499999886602267 -1.6275988880789851 1.6275986054673 -1.6275986736458656 0.0 0.0 0.0 0.0 0.0 0.0 -1.3761852633295723e-06 8.814992198198368e-07 5.816496690414158e-07 6.612692466538628e-08 1.1109255923321523e-07 1.0787299792783434e-08 0.2999999999999976 -0.20000000000000367 0.35000000000000037 -1.627598728468425 1.6275987284684517 -1.627598728468441 0.0 0.0 0.0 0.0 0.0 0.0

6422.375999999999 2.1235540291303225 -1.401008946722106 1.8780087367536964 -3.2744315730613396 -1.0887717717564005 -0.6754223496960323 0.0 0.0 0.0 0.0 0.0 0.0 0.0 0.0 0.0 0.0 0.0 0.0 2.0989776736232384e-17 -0.6062134784418534 -0.6461266268636285 -0.13084717626171938 0.010025243908537212 0.0 2.755957685467312e-16 -7.9595829719415345 -6.0168603746794815 -0.5947004161095145 0.04556473356430163 0.0 2.123553991317749 -1.4010089079486292 1.8780087232589722 -3.2744315306292933 -1.0887716452227991 -0.675422493611471 0.0 0.0 0.0 0.0 0.0 0.0 2.0989777526704532e-17 -0.6062134504318237 -0.6461266279220581 -0.13084717094898224 0.01002524420619011 0.0 2.0989777526704532e-17 -0.6062134504318237 -0.6461266279220581 -0.13084717094898224 0.01002524420619011 0.0 0.3000000034531598 -0.20000001171119786 0.3499999886602267 -1.6275988880789851 1.6275986054673 -1.6275986736458656 0.0 0.0 0.0 0.0 0.0 0.0 -1.3761852633295723e-06 8.814992198198368e-07 5.816496690414158e-07 6.612692466538628e-08 1.1109255923321523e-07 1.0787299792783434e-08 0.2999999999999976 -0.20000000000000367 0.35000000000000037 -1.627598728468425 1.6275987284684517 -1.627598728468441 0.0 0.0 0.0 0.0 0.0 0.0

6422.384 2.1235540291303225 -1.401008946722106 1.8780087367536964 -3.2744315730613396 -1.0887717717564005 -0.6754223496960323 0.0 0.0 0.0 0.0 0.0 0.0 0.0 0.0 0.0 0.0 0.0 0.0 2.0989776736232384e-17 -0.6062134784418534 -0.6461266268636285 -0.13084717626171938 0.010025243908537212 0.0 2.755957685467312e-16 -7.9595829719415345 -6.0168603746794815 -0.5947004161095145 0.04556473356430163 0.0 2.123553991317749 -1.4010089079486292 1.8780087232589722 -3.2744315306292933 -1.0887716452227991 -0.675422493611471 0.0 0.0 0.0 0.0 0.0 0.0 2.0989777526704532e-17 -0.6062134504318237 -0.6461266279220581 -0.13084717094898224 0.01002524420619011 0.0 2.0989777526704532e-17 -0.6062134504318237 -0.6461266279220581 -0.13084717094898224 0.01002524420619011 0.0 0.3000000034531598 -0.20000001171119786 0.3499999886602267 -1.6275988880789851 1.6275986054673 -1.6275986736458656 0.0 0.0 0.0 0.0 0.0 0.0 -1.3761852633295723e-06 8.814992198198368e-07 5.816496690414158e-07 6.612692466538628e-08 1.1109255923321523e-07 1.0787299792783434e-08 0.2999999999999976 -0.20000000000000367 0.35000000000000037 -1.627598728468425 1.6275987284684517 -1.627598728468441 0.0 0.0 0.0 0.0 0.0 0.0

6422.392 2.1235540291303225 -1.401008946722106 1.8780087367536964 -3.2744315730613396 -1.0887717717564005 -0.6754223496960323 0.0 0.0 0.0 0.0 0.0 0.0 0.0 0.0 0.0 0.0 0.0 0.0 2.0989776736232384e-17 -0.6062134784418534 -0.6461266268636285 -0.13084717626171938 0.010025243908537212 0.0 2.755957685467312e-16 -7.9595829719415345 -6.0168603746794815 -0.5947004161095145 0.04556473356430163 0.0 2.123553991317749 -1.4010089079486292 1.8780087232589722 -3.2744315306292933 -1.0887716452227991 -0.675422493611471 0.0 0.0 0.0 0.0 0.0 0.0 2.0989777526704532e-17 -0.6062134504318237 -0.6461266279220581 -0.13084717094898224 0.01002524420619011 0.0 2.0989777526704532e-17 -0.6062134504318237 -0.6461266279220581 -0.13084717094898224 0.01002524420619011 0.0 0.3000000034531598 -0.20000001171119786 0.3499999886602267 -1.6275988880789851 1.6275986054673 -1.6275986736458656 0.0 0.0 0.0 0.0 0.0 0.0 -1.3761852633295723e-06 8.814992198198368e-07 5.816496690414158e-07 6.612692466538628e-08 1.1109255923321523e-07 1.0787299792783434e-08 0.2999999999999976 -0.20000000000000367 0.35000000000000037 -1.627598728468425 1.6275987284684517 -1.627598728468441 0.0 0.0 0.0 0.0 0.0 0.0

6422.4 2.1235540291303225 -1.401008946722106 1.8780087367536964 -3.2744315730613396 -1.0887717717564005 -0.6754223496960323 0.0 0.0 0.0 0.0 0.0 0.0 0.0 0.0 0.0 0.0 0.0 0.0 2.0989776736232384e-17 -0.6062134784418534 -0.6461266268636285 -0.13084717626171938 0.010025243908537212 0.0 2.755957685467312e-16 -7.9595829719415345 -6.0168603746794815 -0.5947004161095145 0.04556473356430163 0.0 2.123553991317749 -1.4010089079486292 1.8780087232589722 -3.2744315306292933 -1.0887716452227991 -0.675422493611471 0.0 0.0 0.0 0.0 0.0 0.0 2.0989777526704532e-17 -0.6062134504318237 -0.6461266279220581 -0.13084717094898224 0.01002524420619011 0.0 2.0989777526704532e-17 -0.6062134504318237 -0.6461266279220581 -0.13084717094898224 0.01002524420619011 0.0 0.3000000034531598 -0.20000001171119786 0.3499999886602267 -1.6275988880789851 1.6275986054673 -1.6275986736458656 0.0 0.0 0.0 0.0 0.0 0.0 -1.3761852633295723e-06 8.814992198198368e-07 5.816496690414158e-07 6.612692466538628e-08 1.1109255923321523e-07 1.0787299792783434e-08 0.2999999999999976 -0.20000000000000367 0.35000000000000037 -1.627598728468425 1.6275987284684517 -1.627598728468441 0.0 0.0 0.0 0.0 0.0 0.0

6422.407999999999 2.1235540291303225 -1.401008946722106 1.8780087367536964 -3.2744315730613396 -1.0887717717564005 -0.6754223496960323 0.0 0.0 0.0 0.0 0.0 0.0 0.0 0.0 0.0 0.0 0.0 0.0 2.0989776736232384e-17 -0.6062134784418534 -0.6461266268636285 -0.13084717626171938 0.010025243908537212 0.0 2.755957685467312e-16 -7.9595829719415345 -6.0168603746794815 -0.5947004161095145 0.04556473356430163 0.0 2.123553991317749 -1.4010089079486292 1.8780087232589722 -3.2744315306292933 -1.0887716452227991 -0.675422493611471 0.0 0.0 0.0 0.0 0.0 0.0 2.0989777526704532e-17 -0.6062134504318237 -0.6461266279220581 -0.13084717094898224 0.01002524420619011 0.0 2.0989777526704532e-17 -0.6062134504318237 -0.6461266279220581 -0.13084717094898224 0.01002524420619011 0.0 0.3000000034531598 -0.20000001171119786 0.3499999886602267 -1.6275988880789851 1.6275986054673 -1.6275986736458656 0.0 0.0 0.0 0.0 0.0 0.0 -1.3761852633295723e-06 8.814992198198368e-07 5.816496690414158e-07 6.612692466538628e-08 1.1109255923321523e-07 1.0787299792783434e-08 0.2999999999999976 -0.20000000000000367 0.35000000000000037 -1.627598728468425 1.6275987284684517 -1.627598728468441 0.0 0.0 0.0 0.0 0.0 0.0

6422.415999999999 2.1235541910448066 -1.4010091271706546 1.8780089607618535 -3.274431645203194 -1.0887719241760436 -0.6754222880397496 8.095726049527546e-05 -9.022426201395279e-05 0.00011200405351456007 -3.607091424816041e-05 -7.620983943875753e-05 3.082814604408077e-05 0.010119657561909433 -0.0112780327517441 0.014000506689320008 -0.004508864281020051 -0.009526229929844691 0.0038535182555100964 0.0007598774146053953 -0.6069799652819756 -0.6457320776527747 -0.13100303400444668 0.009902875241571529 6.054305348101417e-05 0.00997719045376884 -7.96964694415234 -6.013186253518169 -0.5954087895502101 0.045008567972942594 0.0002751681780712094 2.123554229736328 -1.4010089079486292 1.8780089616775513 -3.2744315306292933 -1.0887721220599573 -0.675422493611471 8.095725934254006e-05 -9.022426092997193e-05 0.00011200405424460769 -3.607091275625862e-05 -7.620984251843765e-05 3.0828145099803805e-05 0.000759877439122647 -0.6069799661636353 -0.6457321047782898 -0.13100303709506989 0.009902874939143658 6.054305413272232e-05 0.000759877439122647 -0.6069799661636353 -0.6457321047782898 -0.13100303709506989 0.009902874939143658 6.054305413272232e-05 0.3000000253712943 -0.19999996432611591 0.3499999142314076 -1.6275989939312403 1.6275990241969254 -1.6275985031862585 1.771788842347124e-12 4.00000011512218e-05 4.29638047195987e-12 -1.594775110968165e-11 2.101890658442639e-11 -4.723693192102038e-12 -1.0553274164782731e-06 6.652496582868835e-07 -6.802458064251625e-07 8.009195520188389e-09 7.141356801436636e-09 1.1168619768540143e-08 0.2999999999999976 -0.19999992000000372 0.3500000000000003 -1.627598728468425 1.6275987284684508 -1.627598728468442 2.515232740361495e-19 4.000000000000001e-05 -3.593975900700614e-20 -3.395741850652689e-20 -8.230447094902625e-22 -1.8702553649823956e-20

6422.424 2.123555486363331 -1.4010105707572764 1.8780107528234982 -3.274432222336184 -1.088773143535743 -0.6754217947888304 0.0003643089977297629 -0.0004060082957005981 0.0005040164342431673 -0.0001623181929550849 -0.00034294555335320033 0.00013872698494033097 0.03541896715431093 -0.039473004210830664 0.0490015475910759 -0.01578090983836556 -0.03334196423930535 0.013487354862031274 0.002659575501214591 -0.6088952660689194 -0.6447456316520397 -0.13139266911975447 0.009596930279026377 0.00021190133083235803 0.03492022633094758 -7.994794843484913 -6.004000271070124 -0.597179681149284 0.04361804811817488 0.0009630915486330672 2.1235554218292236 -1.4010103384601038 1.8780107498168945 -3.2744322458850306 -1.0887730757342737 -0.6754220167743128 0.00036430900217965245 -0.00040600830106996 0.0005040164105594158 -0.000162318188813515 -0.0003429455391597003 0.00013872698764316738 0.0026595755480229855 -0.6088952422142029 -0.6447456479072571 -0.1313926726579666 0.009596929885447025 0.00021190133702475578 0.0026595755480229855 -0.6088952422142029 -0.6447456479072571 -0.1313926726579666 0.009596929885447025 0.00021190133702475578 0.3000000135453619 -0.1999993328676228 0.3499999278870168 -1.6275989695949928 1.6275987528604083 -1.627598587082598 2.6968753615111885e-11 0.00018000001095864644 3.0667765104881414e-11 -5.085273060223758e-11 5.3244577216827834e-11 1.8474429753838417e-11 -1.797799261468896e-06 1.111162327209299e-06 2.624150367826691e-07 8.707814283113682e-08 1.3905096911711738e-07 2.55953454913254e-08 0.29999999999999755 -0.19999928000000367 0.3500000000000003 -1.6275987284684261 1.6275987284684508 -1.6275987284684414 1.0516414059467528e-18 0.0001800000000000417 4.1314335217154846e-17 8.950755972313802e-20 2.0003218400702747e-16 2.0002764113110333e-16

6422.432 2.123559858098145 -1.4010154428389363 1.878016800984126 -3.274434170135846 -1.0887772589082196 -0.6754201300583738 0.000971502590217901 -0.0010826808381956886 0.0013440275654828038 -0.00043284022413860816 -0.0009145329586131294 0.00036994157620117026 0.07589919906101726 -0.08458406781188631 0.10500139140495457 -0.033815253897940406 -0.07144842565749113 0.02890182390760491 0.005699140236539618 -0.6119573500656832 -0.643167153218596 -0.1320160511538689 0.009107343824388181 0.0004540797667261483 0.07482971130576518 -8.03500000636242 -5.989301164202209 -0.6000129524943342 0.041392877681844284 0.002063792539770344 2.1235599517822266 -1.401015583668844 1.8780168294906616 -3.2744341532336634 -1.0887773672686976 -0.67542010942568 0.0009715025662444532 -0.0010826808866113424 0.0013440275797620416 -0.00043284022831358016 -0.0009145329822786152 0.00036994158290326595 0.005699140019714832 -0.6119573712348938 -0.6431671380996704 -0.13201604783535004 0.009107343852519989 0.00045407976722344756 0.005699140019714832 -0.6119573712348938 -0.6431671380996704 -0.13201604783535004 0.009107343852519989 0.00045407976722344756 0.2999999992960285 -0.19999707535926797 0.3500000349552988 -1.6275987302336916 1.627598683723438 -1.627598840561131 -7.957299283495055e-11 0.000479999985766079 -2.2317252115499998e-11 -3.5914669335328172e-12 -1.2887943740103622e-10 -5.4524758358381535e-11 1.626294790573341e-06 -1.0015602856536798e-06 -2.1825837613003434e-07 -7.772528936222042e-08 -1.2463840823080875e-07 -2.1939207361288876e-08 0.2999999999999976 -0.1999971200000037 0.35000000000000026 -1.6275987284684248 1.6275987284684512 -1.6275987284684401 5.837381167484488e-17 0.0004800000000000001 5.5104856305704845e-17 3.3321341761764235e-16 2.6635614094390497e-16 1.334841670032665e-16

6422.44 2.123570220943257 -1.4010269913340343 1.8780311370726095 -3.274438786993431 -1.0887870140716158 -0.6754161839776041 0.0020240226424886286 -0.002255545817660063 0.002799977135734752 -0.000901709527203492 -0.0019053337045178479 0.0007707261836403643 0.13156500653384096 -0.14660812243304683 0.1819936962814935 -0.05860866288311048 -0.1238500932380898 0.050098075929899254 0.009878757538365585 -0.6161630773139045 -0.6409965162085911 -0.13287310296023636 0.00843397546584172 0.0007870964373875284 0.12970808647874013 -8.090221205131567 -5.969087758237642 -0.6039082529542743 0.03833241849225061 0.003577353307926316 2.123570203781128 -1.401027027760641 1.8780311346054077 -3.2744386831866663 -1.0887869040118616 -0.6754162947284144 0.0020240226294845343 -0.0022555459290742874 0.002799977082759142 -0.0009017095435410738 -0.0019053337164223194 0.0007707261829636991 0.009878757409751415 -0.6161630749702454 -0.640996515750885 -0.13287310302257538 0.008433975279331207 0.0007870964473113418 0.009878757409751415 -0.6161630749702454 -0.640996515750885 -0.13287310302257538 0.008433975279331207 0.0007870964473113418 0.30000000061009846 -0.19999199648939858 0.35000000397389636 -1.6275988615039783 1.6275986170652503 -1.6275986588784177 3.3880133645167267e-13 0.001000000012443104 2.1658899568392877e-11 -1.809357603247744e-10 9.162838507520578e-11 -1.0741121936215503e-11 -9.032799507027029e-08 5.89866025368235e-08 7.444938347932735e-08 7.610727593003607e-09 1.23596407197642e-08 2.057599323609889e-09 0.2999999999999975 -0.1999920000000037 0.35000000000000037 -1.6275987284684248 1.6275987284684523 -1.6275987284684417 6.023522225206545e-18 0.0010000000000000345 1.3752276067824122e-16 -8.249195639794507e-17 1.6681167754716692e-16 -3.3251466837571676e-16

6422.447999999999 2.1235904617450223 -1.4010495464087782 1.8780591360598589 -3.274447803688909 -1.0888060679624632 -0.675408476573514 0.003643447881068778 -0.004059844434440908 0.005039676565190815 -0.0016229332240641355 -0.0034298000389610546 0.001387358342331218 0.20242815482251866 -0.22553732709760554 0.2799624286820079 -0.09015296210758043 -0.19055829180540085 0.07707901983635672 0.015198919453268725 -0.6215080727284059 -0.6382337146143281 -0.13396365769403162 0.007576552521882814 0.001210997044984538 0.19956181242141835 -8.16040099492397 -5.943359997231546 -0.6088648242193737 0.03443543121195739 0.0055039815694547245 2.1235904693603516 -1.4010494391070765 1.8780591487884521 -3.274447743092672 -1.0888059774981897 -0.6754086653338831 0.0036434477660804987 -0.004059844650328159 0.005039676558226347 -0.0016229331959038973 -0.0034298000391572714 0.0013873582938686013 0.015198918990790844 -0.6215080618858337 -0.6382337212562561 -0.1339636594057083 0.00757655268535018 0.0012109969975426793 0.015198918990790844 -0.6215080618858337 -0.6382337212562561 -0.1339636594057083 0.00757655268535018 0.0012109969975426793 0.3000000180699002 -0.1999820120326862 0.34999995646214155 -1.6275989734429717 1.6275986520287746 -1.6275985550327678 1.421228834889727e-11 0.0018000000502228302 1.608110941415343e-10 -4.85732593125877e-10 5.855242476101205e-10 -8.105493116285018e-11 -7.610851500917207e-07 5.011256663769191e-07 1.4152690563424212e-07 3.947505851107882e-08 6.4895195377469e-08 7.937965248036509e-09 0.2999999999999975 -0.19998200000000374 0.35000000000000037 -1.627598728468426 1.627598728468451 -1.6275987284684417 1.7870957559679776e-16 0.0018000000000000416 -2.226187215105103e-18 -9.734981426529196e-17 -2.9901676524307533e-16 2.994075915388944e-16

6422.456 2.123625440562762 -1.401088519770327 1.878107514613533 -3.274463382654136 -1.0888389956966034 -0.6753951575086417 0.005951549506871507 -0.006630689609757756 0.008230675011791547 -0.0026503847389302165 -0.005602569479616034 0.0022661631722193398 0.2885127032253411 -0.32135564691460605 0.39887480582509144 -0.12843143935826012 -0.2715961800818725 0.10985060373601521 0.02166065825896278 -0.6279865519593714 -0.6348790187457386 -0.13528739897417452 0.006534591078790157 0.0017258750409191723 0.2844044429401813 -8.245463427226547 -5.912120398364068 -0.6148812283376232 0.02969971645310126 0.007844102060977638 2.1236255168914795 -1.4010885397540491 1.8781075477600098 -3.274463478718893 -1.0888388792621058 -0.6753953138934534 0.005951549392193556 -0.006630689837038517 0.008230675011873245 -0.0026503847911953926 -0.005602569319307804 0.0022661632392555475 0.021660657599568367 -0.6279865503311157 -0.6348789930343628 -0.13528740406036377 0.0065345908515155315 0.00172587507404387 0.021660657599568367 -0.6279865503311157 -0.6348789930343628 -0.13528740406036377 0.0065345908515155315 0.00172587507404387 0.3000000146408547 -0.19996468000122186 0.3500000078708356 -1.6275989413240048 1.6275983770740126 -1.6275988104168901 -3.3001655847864393e-10 0.002940000000263515 4.3218545196172985e-11 2.439730183228778e-10 -4.2319719376270734e-10 5.745372401458097e-11 9.869732948813758e-07 -6.274753154661867e-07 8.420351910965455e-07 2.560519002222003e-08 4.631049950725595e-08 -4.593465973237307e-10 0.2999999999999976 -0.19996472000000362 0.3500000000000003 -1.6275987284684241 1.627598728468452 -1.6275987284684417 2.102691727651449e-16 0.002940000000000096 -2.8971721449658066e-18 4.647244147528351e-16 3.51443287178229e-16 3.4815600524949427e-16

6422.464 2.123680992691035 -1.4011504033189564 1.878184328342887 -3.274488116568463 -1.0888912905157664 -0.6753740055811459 0.009070442673578783 -0.010102965015664331 0.012540053098859825 -0.004037698697581217 -0.008538610624063435 0.0034535508159058924 0.3898616458384095 -0.4340344257383219 0.5386722608835348 -0.17341424483137505 -0.3670051430559251 0.1484234554608191 0.029265848738202833 -0.6355910990665172 -0.6309331770992719 -0.13684378425564445 0.0053072950244188 0.00233189740023998 0.3842605939326032 -8.345311130743372 -5.875375931783839 -0.621954999441904 0.024121655885983445 0.010598473684090708 2.12368106842041 -1.4011505285846155 1.8781843185424805 -3.2744880358325403 -1.088891331349508 -0.6753738562213343 0.009070442989468575 -0.01010296493768692 0.012540052644908428 -0.004037698730826378 -0.008538610301911831 0.003453550860285759 0.02926584891974926 -0.6355910897254944 -0.6309331655502319 -0.13684378564357758 0.005307294894009829 0.00233189738355577 0.02926584891974926 -0.6355910897254944 -0.6309331655502319 -0.13684378564357758 0.005307294894009829 0.00233189738355577 0.30000000293873125 -0.19993724314987582 0.3500000354935147 -1.627598597316286 1.6275987337709192 -1.6275987043318756 -3.925129098174043e-10 0.00447999998432407 -2.016801827786881e-10 -6.947159747153744e-11 -8.654588461124559e-10 5.838338647715677e-10 1.1698242307671916e-08 -3.60335947863113e-08 5.819753463709221e-07 3.5178064477787595e-08 5.871265495166367e-08 6.087459635994244e-09 0.2999999999999978 -0.19993728000000355 0.35000000000000003 -1.6275987284684248 1.6275987284684517 -1.6275987284684408 2.3044933814914402e-17 0.004479999999999888 1.0873307859580779e-16 -5.352998351927738e-16 -2.685280790044528e-16 3.976957330212869e-16

6422.472 2.12376393210886 -1.4012427668490002 1.8782989671012558 -3.2745250259649854 -1.0889693671077163 -0.6753424278722768 0.013122802852339566 -0.014611180827840865 0.018134128532951963 -0.005838121036237744 -0.012353431421714958 0.004996069890490488 0.5065450223450979 -0.5635269765220667 0.6992594292615172 -0.22505279233206585 -0.47685259970644034 0.19281488432307448 0.038017579140719154 -0.6443123959047736 -0.6263976641357594 -0.13863195149275892 0.0038934328925998444 0.003029336071475859 0.49917081411764247 -8.459821758229678 -5.833140327965019 -0.6300822195345893 0.01769565249686629 0.013768332444857779 2.1237640380859375 -1.4012425581561487 1.8782989978790283 -3.274524990712301 -1.0889695326434534 -0.6753423849688929 0.01312280260026455 -0.014611180871725082 0.01813412830233574 -0.005838120821863413 -0.012353431433439255 0.004996069706976414 0.038017578423023224 -0.6443123817443848 -0.6263976693153381 -0.13863195478916168 0.003893432905897498 0.0030293359886854887 0.038017578423023224 -0.6443123817443848 -0.6263976693153381 -0.13863195478916168 0.003893432905897498 0.0030293359886854887 0.3000000361350895 -0.19989633530460094 0.34999991725490687 -1.6275987607420161 1.6275990128539306 -1.627598406123042 -2.580745219251035e-10 0.006480000196408253 8.524400374447213e-10 -2.5336530300209387e-09 2.433335833397282e-09 -3.37543629597627e-10 -8.50431679534203e-07 5.601982118798893e-07 3.017450245837593e-07 5.5985263984426485e-08 9.181941212040687e-08 1.1362039926028339e-08 0.29999999999999816 -0.19989632000000324 0.34999999999999964 -1.6275987284684261 1.6275987284684528 -1.6275987284684403 -4.62146844664105e-16 0.006479999999999687 7.438369600624337e-16 -1.5700348600421535e-16 -4.294245284342489e-18 -1.4775801550581625e-16

6422.48 2.1238820569157735 -1.4013742544250132 1.8784621475869483 -3.27457755546191 -1.0890805668389376 -0.675297458403155 0.01823215900328326 -0.02028927821480119 0.025178057756725124 -0.008104306399764512 -0.017163361387269573 0.006940479865231593 0.6386695188679617 -0.7097621733700408 0.880491152971645 -0.283273170440846 -0.6012412456943268 0.2430512468426381 0.04792059174887482 -0.6541389028595506 -0.6212749742957686 -0.1406506092313541 0.0022911921957887065 0.003818605144838781 0.6291973696627264 -8.5888437945459 -5.785436815637056 -0.6392570189565043 0.01041346852985967 0.017355560383292258 2.1238820552825928 -1.4013741652118128 1.8784621953964233 -3.2745774427997034 -1.0890806357013147 -0.6752975622760218 0.018232159316539764 -0.020289277657866478 0.025178058072924614 -0.008104306645691395 -0.017163360491394997 0.006940479855984449 0.0479205921292305 -0.6541389226913452 -0.6212749481201172 -0.14065061509609222 0.002291192300617695 0.0038186050951480865 0.0479205921292305 -0.6541389226913452 -0.6212749481201172 -0.14065061509609222 0.002291192300617695 0.0038186050951480865 0.300000008246582 -0.19983802389078548 0.34999994524722683 -1.6275988669149084 1.627598926681942 -1.6275985128154704 4.916696113897308e-10 0.009000000308570715 1.9119986178417799e-10 -1.9575284228539137e-09 3.5503432323511187e-09 1.084678464593531e-09 1.989539541403927e-06 -1.3019677622363522e-06 3.145124479670908e-07 -3.73816054192269e-08 -5.9509237184807356e-08 -1.1989381044750532e-08 0.2999999999999991 -0.19983800000000218 0.3499999999999989 -1.627598728468428 1.6275987284684523 -1.6275987284684386 -1.3370856301008432e-15 0.008999999999998882 1.7892401417220883e-15 8.393029245776576e-16 -8.243352171249637e-16 -5.043251108611049e-16

6422.487999999999 2.124044157410853 -1.4015545789950252 1.8786859023563454 -3.2746495681705587 -1.0892331655315584 -0.6752357561393794 0.024523275733476374 -0.027270374369433775 0.033835317742560024 -0.010888055021340371 -0.023085919489345436 0.009333845312073036 0.7863895912741392 -0.8726370193290729 1.0821574982293625 -0.3479685776969824 -0.7403197627594829 0.29917068085518034 0.058981794533629416 -0.6650564901678637 -0.6155689627226366 -0.14289791034757449 0.0004980107295732275 0.0047003038081025 0.7744309622265543 -8.732191715904051 -5.732301294665738 -0.649471002529726 0.0022634587659103186 0.021362880807825863 2.124044179916382 -1.4015544096576136 1.8786859512329102 -3.274649683629171 -1.0892332235919397 -0.6752355734454554 0.02452327497303486 -0.027270374819636345 0.03383531793951988 -0.010888054966926575 -0.02308592014014721 0.009333845227956772 0.058981794863939285 -0.6650564670562744 -0.6155689358711243 -0.14289790391921997 0.000498010718729347 0.0047003040090203285 0.058981794863939285 -0.6650564670562744 -0.6155689358711243 -0.14289790391921997 0.000498010718729347 0.0047003040090203285 0.3000000151566522 -0.19975801853120087 0.3499999409907753 -1.6275985531020296 1.6275989419437302 -1.6275985333387244 -7.798239998979802e-12 0.012100000176299553 1.308689935261403e-09 -1.9631187499947157e-09 1.8121193323411571e-09 -1.4326220505448537e-09 -3.82583895499737e-08 1.4069071623498092e-09 1.1767501031143487e-06 4.819857207955683e-08 8.612169550891214e-08 2.8833793290635527e-09 0.3000000000000011 -0.19975800000000038 0.34999999999999715 -1.62759872846843 1.6275987284684554 -1.6275987284684363 -4.0477231187266646e-15 0.01209999999999588 3.956559219037651e-15 2.389277926846461e-15 -5.451347347433435e-16 -2.0179414356272544e-15

6422.496 2.124260027569602 -1.4017945147361344 1.8789835642356476 -3.274745337769626 -1.089436384511333 -0.6751536021581774 0.03212263701385549 -0.03568643957170471 0.04426705197220874 -0.014239981446852453 -0.03024027983284785 0.012223655029530807 0.9499201600473893 -1.052008150283867 1.3039667787060893 -0.4189908031890102 -0.8942950429378019 0.36122621468222127 0.07121084616072386 -0.6770480184836039 -0.6092852333467145 -0.14537130975949558 -0.0014896159284332722 0.005675265195118454 0.9349984100903043 -8.889640482689718 -5.673785949971275 -0.6607126028569074 -0.006770304394729223 0.025794080311813374 2.1242599487304688 -1.401794735585348 1.8789836168289185 -3.274745289479391 -1.0894363562213343 -0.6751535574542444 0.03212263807654381 -0.0356864407658577 0.04426705092191696 -0.014239981770515442 -0.03024028055369854 0.012223655357956886 0.0712108463048935 -0.6770480275154114 -0.6092852354049683 -0.14537130296230316 -0.0014896158827468753 0.005675265099853277 0.0712108463048935 -0.6770480275154114 -0.6092852354049683 -0.14537130296230316 -0.0014896158827468753 0.005675265099853277 0.2999999627338965 -0.19965150490670155 0.3500000529368168 -1.6275986225018568 1.6275987206157418 -1.627598875655196 9.572193175544797e-11 0.01583999978476392 -1.255097586246955e-09 1.6802577442016437e-10 -4.285236925986924e-09 3.398891613116902e-10 3.3904728064559765e-07 -1.8894104368290048e-07 -4.395217501095376e-07 -5.387969029490803e-08 -8.880984521394945e-08 -1.2901941053468329e-08 0.3000000000000048 -0.1996515199999968 0.3499999999999939 -1.627598728468436 1.6275987284684583 -1.627598728468431 -1.0401183644308933e-14 0.01583999999999009 9.645263263259612e-15 4.3997610256149046e-15 -3.3825841467291593e-15 -4.191671923770598e-15

6422.504 2.124540480776103 -1.402105886558008 1.8793697449897677 -3.2748695376750616 -1.0897004057524047 -0.6750468957685989 0.04115904459464349 -0.045667897309714205 0.05663126455795581 -0.018209107714476626 -0.03874784780921513 0.015657969117230098 1.1295509475985006 -1.2476822172511866 1.5455265732183836 -0.4961407834530216 -1.0634459970459094 0.42928926096241143 0.08462081761549091 -0.6900928665605068 -0.6024315752179777 -0.1480674065777741 -0.003676351842015981 0.00674461127778722 1.1110713352913957 -9.060919337939454 -5.609963314744853 -0.6729663628959832 -0.016709019121962633 0.03065425825754291 2.1245405673980713 -1.4021061102496546 1.8793697357177734 -3.274869505559103 -1.0897005240069788 -0.6750467459308069 0.041159044951200485 -0.045667897909879684 0.056631263345479965 -0.018209107220172882 -0.03874784708023071 0.015657968819141388 0.08462081849575043 -0.6900928616523743 -0.60243159532547 -0.1480673998594284 -0.003676351858302951 0.0067446110770106316 0.08462081849575043 -0.6900928616523743 -0.60243159532547 -0.1480673998594284 -0.003676351858302951 0.0067446110770106316 0.29999999004381556 -0.19951322628388699 0.35000007127620897 -1.6275985707629261 1.6275986966886826 -1.627598912926333 -3.110737516450225e-09 0.02027999921533976 -1.8594408845419517e-09 2.1351177944361848e-09 -9.343971979546601e-09 8.429801439283776e-10 -1.0857861239157267e-06 6.725174006793154e-07 -5.586254798075206e-07 -1.0506471311657109e-08 -2.2830245155014168e-08 3.3156716565587764e-09 0.30000000000001176 -0.19951327999999038 0.3499999999999876 -1.6275987284684474 1.627598728468465 -1.6275987284684208 -2.3332910062016795e-14 0.020279999999977715 2.0902688200602396e-14 1.061847871864632e-14 -6.482232607537544e-15 -9.747578924037235e-15

6422.512 2.124897370775658 -1.4025015561158813 1.8798603069780686 -3.2750272266770253 -1.0900363920485594 -0.674911149350236 0.051764345045738534 -0.05734313783741626 0.07108184633128525 -0.022842373944492136 -0.048732960159800776 0.019685597184658274 1.3256625563868802 -1.4594050659627564 1.8063227216661808 -0.5791582787519388 -1.248139043823206 0.503453508428522 0.0992289349918574 -0.704166402889115 -0.5950184482680972 -0.15098177134036697 -0.0060682646063431565 0.007909814010199223 1.3028759164430876 -9.24570486993408 -5.5409307939621755 -0.6862121507419678 -0.027580262635829647 0.03595010467635547 2.1248974800109863 -1.402501408253805 1.879860281944275 -3.275027338658468 -1.0900362173663538 -0.6749113241778772 0.0517643466591835 -0.05734313651919365 0.07108184695243835 -0.022842373698949814 -0.04873295873403549 0.019685598090291023 0.09922893345355988 -0.7041664123535156 -0.5950184464454651 -0.15098176896572113 -0.006068264599889517 0.007909813895821571 0.09922893345355988 -0.7041664123535156 -0.5950184464454651 -0.15098176896572113 -0.006068264599889517 0.007909813895821571 0.30000004195953694 -0.19933749574338655 0.34999997187757526 -1.6275990010023567 1.627598338888101 -1.627598662059011 -1.2437700052520226e-09 0.025480001082221773 1.3084193449870716e-09 4.374422008099414e-09 3.673221257322485e-09 3.221151018137508e-09 5.910791702353362e-07 -2.7584848148267386e-07 -2.495827586882811e-07 -3.90903475959338e-08 -6.134155289124307e-08 -1.4871838979182495e-08 0.3000000000000238 -0.19933751999997895 0.34999999999997694 -1.627598728468466 1.6275987284684765 -1.6275987284684041 -4.939266515370679e-14 0.025479999999953477 4.466585774232786e-14 2.3536794190623204e-14 -1.4001196273064672e-14 -2.1232869232772717e-14

6422.5199999999995 2.1253436189282224 -1.4029954036045735 1.8804723263966254 -3.275223830360587 -1.090456513251862 -0.6747414816500132 0.06407430040687918 -0.0708379346597398 0.0877674165420576 -0.02818405975990778 -0.06032372343488251 0.024356311019621144 1.538744420142581 -1.6868496027904423 2.0856962763465425 -0.6677107269269554 -1.4488454093852166 0.5838392293703587 0.11505740956836469 -0.7192393967820769 -0.5870595200503843 -0.15410875919819914 -0.008673097775852739 0.009172763003663192 1.5107037876326284 -9.443613279748671 -5.466815662613189 -0.700424310555815 -0.0394192293912507 0.0416902078516492 2.1253435611724854 -1.4029954115497034 1.8804723024368286 -3.2752237955676478 -1.0904563109027308 -0.6747415701495569 0.06407430022954941 -0.07083793729543686 0.08776741474866867 -0.028184060007333755 -0.060323722660541534 0.024356311187148094 0.11505740880966187 -0.7192394137382507 -0.587059497833252 -0.15410876274108887 -0.008673097938299179 0.009172762744128704 0.11505740880966187 -0.7192394137382507 -0.587059497833252 -0.15410876274108887 -0.008673097938299179 0.009172762744128704 0.29999999792438736 -0.19911800463131987 0.35000000866698694 -1.627598818032135 1.6275985309634537 -1.6275986973159022 1.6205382199406938e-09 0.03150000048510571 8.378826280135353e-10 -1.2093769599773877e-09 1.5189642000840883e-09 1.2692790925624263e-09 1.7398409759096955e-06 -1.0717636771440412e-06 2.3191996089639082e-07 -3.7526593543238435e-08 -5.991973875976593e-08 -1.494279451707384e-08 0.300000000000044 -0.19911799999996008 0.34999999999995907 -1.6275987284685 1.6275987284684945 -1.627598728468375 -9.806739714967174e-14 0.03149999999990728 8.782343642017715e-14 4.61696415962002e-14 -2.7968651835708416e-14 -4.146953327540076e-14

6422.527999999999 2.1258932489676052 -1.4036023045169017 1.8812240465749583 -3.275465117576361 -1.0909739797401263 -0.6745326092493249 0.07822961881925332 -0.08627475224738897 0.10682996355636028 -0.034275110572587864 -0.07365300669014106 0.029721095226581905 1.7694148015467668 -1.9296021984561462 2.3828183767878355 -0.7613813515850104 -1.6661604069073193 0.6705980258700952 0.1321343632074497 -0.7352773626924246 -0.5785722554637494 -0.1574413101920002 -0.011500574538493982 0.01053584009533683 1.7349241889138147 -9.654191772151535 -5.387780557329527 -0.7155707548226408 -0.05227011127745514 0.04788539323330589 2.1258933544158936 -1.403602425252096 1.8812240362167358 -3.2754650751696985 -1.0909741560565394 -0.674532715474264 0.078229621052742 -0.08627475053071976 0.10682996362447739 -0.0342751108109951 -0.07365300506353378 0.0297210942953825 0.1321343630552292 -0.7352773547172546 -0.5785722732543945 -0.15744130313396454 -0.01150057464838028 0.010535839945077896 0.1321343630552292 -0.7352773547172546 -0.5785722732543945 -0.15744130313396454 -0.01150057464838028 0.010535839945077896 0.30000000226317236 -0.19884796250836262 0.3500000360933577 -1.6275988643780388 1.6275986765612767 -1.6275989216911446 -4.66409298249091e-09 0.03839999946775346 -2.7350912400873507e-09 1.734200303080133e-09 -9.498219667608576e-09 3.227986049287057e-09 -1.0967336083651112e-06 7.284391086338129e-07 -4.2456765218244317e-07 -2.8791294574276427e-09 -7.595330060932042e-09 1.5501645475647573e-09 0.30000000000007637 -0.19884799999992991 0.34999999999993003 -1.6275987284685527 1.6275987284685267 -1.6275987284683262 -1.8538409401007828e-13 0.038399999999825594 1.6514482225006948e-13 9.013363480873861e-14 -5.1384449910915186e-14 -7.91351677925916e-14

6422.536 2.126561430608583 -1.4043381004508104 1.8821348196610732 -3.2757571711822915 -1.0916030844074651 -0.6742788358849277 0.0943771632884986 -0.10377193171699721 0.12840326758991064 -0.04115236356423273 -0.0888596060058551 0.035832439579373654 2.0184430586556603 -2.18714743370103 2.6966630041937947 -0.8596566239556079 -1.9008249144642548 0.7639180440989686 0.1504948593966863 -0.7522398293789482 -0.56957856203502 -0.16097073809315132 -0.014562736103537758 0.012002001270621574 1.975997503878491 -9.87690895974559 -5.304029485382514 -0.7316120046333727 -0.06618763559057911 0.05454909577497505 2.126561403274536 -1.4043381849872034 1.8821347951889038 -3.275757137929098 -1.0916031042682093 -0.6742790381060999 0.09437716007232666 -0.10377193242311478 0.12840326130390167 -0.041152361780405045 -0.08885960280895233 0.03583243861794472 0.15049485862255096 -0.7522398233413696 -0.5695785880088806 -0.16097073256969452 -0.014562736265361309 0.012002001516520977 0.15049485862255096 -0.7522398233413696 -0.5695785880088806 -0.16097073256969452 -0.014562736265361309 0.012002001516520977 0.29999998640963926 -0.19852031779054283 0.3500000311647844 -1.6275989156486093 1.627598610668302 -1.6275989409437996 -1.569222457681835e-10 0.04623999825573747 -2.4717150723573956e-10 -1.2577774365717218e-09 -9.883587375293586e-09 -2.9430954316689035e-11 -1.309939119182744e-06 8.903701747941016e-07 -6.603093148777737e-07 -4.807702640522428e-09 -8.172288153350714e-09 3.1028868918863054e-09 0.30000000000012694 -0.19852031999988323 0.34999999999988457 -1.6275987284686357 1.6275987284685745 -1.627598728468252 -3.345039291298025e-13 0.046239999999686476 2.98854611172078e-13 1.627727188875227e-13 -9.568137874073433e-14 -1.4633101232331336e-13

6422.544 2.1273645334970968 -1.4052195629363489 1.8832250348912771 -3.2761063522399687 -1.0923592546205434 -0.6739740392759863 0.11267135896719077 -0.12344273917332747 0.15261108803340398 -0.04884766920308434 -0.10608960060888327 0.04274467712402123 2.286774459836521 -2.458850932041283 3.025977555436668 -0.9619132048564513 -2.153749325378521 0.8640296930809473 0.1701820529367291 -0.7700795228015956 -0.5601054940413515 -0.16468650968293722 -0.01787431916100208 0.013574866511293995 2.234490355059253 -10.111144134384952 -5.215814381611873 -0.7485001865089497 -0.08123878058675445 0.0616977682938312 2.1273646354675293 -1.4052193800555628 1.8832250833511353 -3.2761064211474817 -1.0923593680011194 -0.6739738623248499 0.11267136037349701 -0.12344273924827576 0.15261109173297882 -0.04884766787290573 -0.10608959943056107 0.042744677513837814 0.17018204927444458 -0.770079493522644 -0.5601055026054382 -0.16468651592731476 -0.01787431910634041 0.013574866577982903 0.17018204927444458 -0.770079493522644 -0.5601055026054382 -0.16468651592731476 -0.01787431910634041 0.013574866577982903 0.30000003135458286 -0.19812728293558166 0.34999993162334364 -1.6275986056834615 1.6275989551917769 -1.627598452850607 -2.5140385317581397e-09 0.0550800025132314 4.878299274877754e-09 -7.469898899462805e-09 1.3581317020173843e-08 1.6475672368985786e-09 -1.586021642503896e-06 1.1559763356582622e-06 6.71275253926364e-07 1.1173539678890049e-07 1.900946442325208e-07 1.5527017658238878e-08 0.3000000000002036 -0.1981272799998132 0.34999999999981507 -1.6275987284687632 1.6275987284686506 -1.6275987284681364 -5.816815957096169e-13 0.05507999999945806 5.210198862437526e-13 2.844530878475405e-13 -1.6578884227643528e-13 -2.5512381903657023e-13

6422.552 2.1283201931715023 -1.406264349122015 1.8845160314994194 -3.2765192568200434 -1.093259115750886 -0.6736116550761837 0.13327582211665104 -0.1453942587799623 0.1795650972730944 -0.057386905409689236 -0.12549792309644395 0.05051437242229973 2.575557893682533 -2.743939950829352 3.369251154961301 -1.0674045258256122 -2.4260403109450848 0.9712119122848124 0.19124847440118456 -0.788741448184136 -0.5501860196333984 -0.16857601682972403 -0.021453177803968805 0.015258818266341389 2.5110924688875533 -10.356175214657707 -5.123442252030133 -0.7661779964910957 -0.09750469311903821 0.0693513290205216 2.1283202171325684 -1.4062641302691858 1.8845160007476807 -3.2765193621264856 -1.0932591597186487 -0.6736114660846155 0.1332758218050003 -0.14539426565170288 0.17956510186195374 -0.05738690495491028 -0.12549792230129242 0.05051437392830849 0.19124847650527954 -0.7887414693832397 -0.550186038017273 -0.16857601702213287 -0.02145317755639553 0.015258817933499813 0.19124847650527954 -0.7887414693832397 -0.550186038017273 -0.16857601702213287 -0.02145317755639553 0.015258817933499813 0.3000000233595282 -0.19766074872429454 0.349999947047179 -1.6275985464011504 1.6275989145598215 -1.6275985468324363 2.0794052990867505e-09 0.06498000384828763 9.084599658081239e-09 -7.1589630319416286e-09 5.607085904883361e-09 -3.5718493076272343e-10 1.8897473310298409e-07 -2.0381126277166046e-07 -1.04110842289453e-06 -6.424972486389407e-08 -1.154401880737108e-07 -3.83627075083395e-09 0.300000000000317 -0.19766071999971085 0.3499999999997116 -1.627598728468953 1.627598728468764 -1.6275987284679623 -9.781153390120621e-13 0.06497999999909523 8.80083658941211e-13 4.819496784622644e-13 -2.8351783811289555e-13 -4.3410519269022766e-13

6422.5599999999995 2.12944739090002 -1.4074909480047362 1.8860299941723617 -3.277002664553753 -1.0943205680852817 -0.6731846575331364 0.15636523729106933 -0.16972610925653178 0.20936254202811846 -0.06678888306876686 -0.14725016958068055 0.059200764751034335 2.886176896802286 -3.0414813095711866 3.7246805943780097 -1.1752472073847031 -2.7190308105295746 1.0857990410918255 0.21375746907457308 -0.8081618523518608 -0.5398598562113812 -0.17262434430560541 -0.02532075648865082 0.01705910937893157 2.8066355689491447 -10.611165121379932 -5.027282953011625 -0.7845776448689765 -0.11508283824091799 0.07753365212724397 2.1294474601745605 -1.4074910322772425 1.8860299587249756 -3.2770026365863245 -1.0943205992328089 -0.6731846968280237 0.15636523067951202 -0.16972610354423523 0.20936253666877747 -0.06678888201713562 -0.14725017547607422 0.05920076370239258 0.2137574702501297 -0.8081618547439575 -0.5398598313331604 -0.1726243495941162 -0.025320757180452347 0.01705911010503769 0.2137574702501297 -0.8081618547439575 -0.5398598313331604 -0.1726243495941162 -0.025320757180452347 0.01705911010503769 0.3000000050917878 -0.19711196979384746 0.3500000345295377 -1.6275987907570761 1.6275985980729961 -1.6275988395390308 -7.714472899076748e-09 0.07599999501567728 -3.926445381500276e-09 5.9047320363733214e-09 -1.0794526793168229e-08 -1.2135035584753844e-08 1.0571673608769144e-06 -7.698846654385772e-07 7.21492135931137e-07 1.3978869896133401e-08 2.7437949413249416e-08 7.150004170830371e-09 0.30000000000048077 -0.19711199999956533 0.3499999999995607 -1.6275987284692304 1.6275987284689333 -1.6275987284677071 -1.5966081969029188e-12 0.07599999999853592 1.4437876661726786e-12 7.920174187174035e-13 -4.686604786029039e-13 -7.180148487627653e-13

6422.567999999999 2.1307665494862014 -1.4089186157023024 1.8877898288025219 -3.277563478064027 -1.0955628791369065 -0.6726855363971289 0.17345477463065861 -0.18717043638947944 0.2305558209932725 -0.07339442242053017 -0.1633568376896298 0.06558692530576025 2.136192167448661 -2.180540891618458 2.6491598706442527 -0.8256924189704133 -2.013333513618657 0.79827006934074 0.15708929233312677 -0.7485413265706802 -0.5700081394777027 -0.16070723068901682 -0.01632061915768087 0.012541709756086736 2.0625824083339546 -9.828347617873032 -5.308029796444263 -0.7304143634815815 -0.07417721407165954 0.05700207084141422 2.1307666301727295 -1.4089186827289026 1.8877898454666138 -3.2775633970843714 -1.095562760029928 -0.6726854483233851 0.17345477640628815 -0.18717043101787567 0.23055581748485565 -0.07339442521333694 -0.16335684061050415 0.06558692455291748 0.15708929300308228 -0.7485413551330566 -0.5700081586837769 -0.1607072353363037 -0.016320619732141495 0.012541709467768669 0.15708929300308228 -0.7485413551330566 -0.5700081586837769 -0.1607072353363037 -0.016320619732141495 0.012541709467768669 0.30000001594632586 -0.19647195961165534 0.35000001068536757 -1.62759869970066 1.6275985887239273 -1.6275985511690219 -7.527623561413803e-09 0.08399999879052175 -4.466862719252499e-09 -6.582996234614374e-10 1.1729990768762845e-08 4.5051594849605553e-10 5.64866479104085e-07 -3.8541555302365724e-07 -1.1586951686648079e-06 -7.049142054008366e-08 -1.2594247448101424e-07 -4.152267832045884e-09 0.30000000000071286 -0.19647199999936274 0.3499999999993441 -1.6275987284696278 1.6275987284691804 -1.627598728467336 -2.4153236663503553e-12 0.08399999999780837 2.1981819878463736e-12 1.2080815541730752e-12 -7.224239296918988e-13 -1.1007529591056282e-12

6422.576 2.132223179031685 -1.4104853312597445 1.8897182100724361 -3.2781766388103395 -1.0969347703613046 -0.6721351420934383 0.19073622405265891 -0.204485856021936 0.2514951340180144 -0.07987377816886101 -0.17964834343859148 0.07201982529277061 2.1601811777500375 -2.1644274540570696 2.617414128092736 -0.809919468541356 -2.0364382186202103 0.8041124983762943 0.15819709450425312 -0.7463043260277177 -0.570617888210634 -0.1604350853207801 -0.016717346962302954 0.012633500807823113 2.0771278508408435 -9.798975800743934 -5.313707898595066 -0.7291774627829456 -0.07598034194366693 0.057419261171556046 2.132223129272461 -1.410485569630758 1.8897181749343872 -3.2781766096698206 -1.0969346205340784 -0.6721351782428187 0.19073621928691864 -0.20448586344718933 0.2514951229095459 -0.07987377792596817 -0.17964833974838257 0.07201982289552689 0.1581970900297165 -0.7463043332099915 -0.5706179141998291 -0.16043508052825928 -0.016717346385121346 0.01263350062072277 0.1581970900297165 -0.7463043332099915 -0.5706179141998291 -0.16043508052825928 -0.016717346385121346 0.01263350062072277 0.2999999732151463 -0.19576796731766077 0.3500000866875025 -1.6275987206699933 1.627598426276591 -1.627598990594997 -3.840397870232696e-09 0.09199999516808764 -7.098884667532519e-09 1.3656572821272965e-08 -4.008774377655891e-08 1.0793617473446522e-09 -5.031209655797303e-07 5.984837397826502e-07 -9.916400187724465e-07 -4.543435128865515e-08 -6.861098982857237e-08 -2.2299471204764036e-08 0.30000000000096017 -0.19576799999915154 0.3499999999991105 -1.6275987284700633 1.6275987284694589 -1.6275987284669224 -3.5758081559013993e-12 0.0919999999967954 3.2811576387333137e-12 1.804152920131417e-12 -1.0931201893638574e-12 -1.6573964372294673e-12

6422.584 2.133818893233383 -1.4121900097511668 1.8918130085245215 -3.278841091604374 -1.0984377960601641 -0.6715330821979286 0.2082292458574833 -0.22165889686109969 0.2721560357991831 -0.0862155477381648 -0.19614364603924325 0.07850409972601469 2.1866277256030497 -2.1466301048954604 2.5826127226460938 -0.7927211961629727 -2.061912825081471 0.8105343041555096 0.15941966340509423 -0.7438580039287236 -0.5712900135237404 -0.16013822974091277 -0.017154359640558545 0.01273439451195434 2.093180180508887 -9.766855591584141 -5.319966863935776 -0.7278282541724485 -0.07796656456633859 0.05787782305683248 2.1338188648223877 -1.412189785634176 1.891813039779663 -3.2788410822497767 -1.0984376112567347 -0.6715329329120081 0.20822924375534058 -0.22165890038013458 0.2721560299396515 -0.0862155482172966 -0.19614364206790924 0.07850410044193268 0.15941967070102692 -0.7438579797744751 -0.5712900161743164 -0.16013823449611664 -0.017154360190033913 0.012734394520521164 0.15941967070102692 -0.7438579797744751 -0.5712900161743164 -0.16013823449611664 -0.017154360190033913 0.012734394520521164 0.30000002566372785 -0.19500003270673713 0.34999991960073196 -1.62759861991963 1.6275988419397989 -1.627598260444725 9.669429153068533e-09 0.10000000543880387 1.3731376542861497e-08 -2.8841758640520078e-08 5.204436864642727e-08 3.6384745945644754e-09 -1.5951142029967338e-06 5.471194837347996e-07 6.672523365844656e-07 9.870355590359199e-08 1.4346467916006548e-07 5.1115866356598505e-08 0.3000000000012214 -0.19499999999893425 0.34999999999886 -1.6275987284705333 1.6275987284697755 -1.627598728466465 -4.812221687827294e-12 0.09999999999573939 4.44914192973733e-12 2.4573153367267626e-12 -1.510838366713214e-12 -2.2778463143469097e-12

6422.592 2.1355554645602046 -1.4140314571134383 1.8940718988166132 -3.2795556907145174 -1.100073663669682 -0.6708789270129758 0.22595387822978202 -0.23867573941980194 0.2925139985557996 -0.09240850066940429 -0.21286207529890505 0.0850444325989679 2.215579046537339 -2.127105319837782 2.5447453445770623 -0.7741191164049362 -2.089803657457725 0.8175416091191524 0.16075919682550946 -0.7412014430790712 -0.5720253030414227 -0.15981699791998477 -0.017632413272201275 0.012844487058827571 2.110768254318939 -9.731974947628206 -5.326814026982337 -0.7263682555463308 -0.08013931832215479 0.058378193682371314 2.1355555057525635 -1.4140313307391565 1.8940719366073608 -3.279555622731344 -1.1000736395465296 -0.6708787123309534 0.2259538769721985 -0.23867574334144592 0.29251399636268616 -0.09240850061178207 -0.2128620743751526 0.08504443615674973 0.16075919568538666 -0.7412014603614807 -0.5720252990722656 -0.15981699526309967 -0.017632413655519485 0.012844487093389034 0.16075919568538666 -0.7412014603614807 -0.5720252990722656 -0.15981699526309967 -0.017632413655519485 0.012844487093389034 0.3000000236080426 -0.19416800898542846 0.3499999418307528 -1.62759856247288 1.6275989482921893 -1.6275983130247633 -2.3973699287053483e-13 0.10800000382222241 8.655567963872792e-09 -2.898489696295651e-08 4.086321950374361e-08 -1.1418439469482498e-09 1.0394357389990876e-06 -5.634947900726224e-07 -4.059171466361145e-07 -6.424190362578787e-08 -1.0289325282668808e-07 -1.780690519832089e-08 0.3000000000014956 -0.19416799999871293 0.34999999999859244 -1.627598728471042 1.6275987284701252 -1.6275987284659625 -6.1180216371203455e-12 0.10799999999465294 5.701687978158879e-12 3.1625471759075784e-12 -1.985738684622722e-12 -2.9639345939738585e-12

6422.599999999999 2.137434827407581 -1.41600836720235 1.8964923590141831 -3.2803192013104128 -1.1018442368545465 -0.6701722091605857 0.24393057007312346 -0.25552217606589206 0.3125443998593281 -0.09844159561240463 -0.2298233638996843 0.09164556062020318 2.24708648041768 -2.105804580761265 2.503800162941057 -0.7541368678750434 -2.1201610750974065 0.8251410026544094 0.16221808377369684 -0.7383335921477175 -0.5728246233308896 -0.15947175661432228 -0.01815232956832179 0.012963881975037055 2.1299234399486395 -9.694320064899532 -5.33425745738191 -0.7247991338120947 -0.08250233788802254 0.05892084357654341 2.137434720993042 -1.4160082975970667 1.8964923620224 -3.2803192774402063 -1.1018441359149378 -0.6701720396624964 0.24393056333065033 -0.2555221617221832 0.31254440546035767 -0.09844159334897995 -0.22982336580753326 0.09164556115865707 0.16221807897090912 -0.7383335828781128 -0.5728245973587036 -0.15947175025939941 -0.018152330070734024 0.012963881716132164 0.16221807897090912 -0.7383335828781128 -0.5728245973587036 -0.15947175025939941 -0.018152330070734024 0.012963881716132164 0.2999999888144664 -0.19327203292736558 0.34999998524697934 -1.6275985007216798 1.627598828641659 -1.6275986522362347 1.4151567424238654e-08 0.11599999708302935 -2.494951611986347e-09 2.4154426159229676e-08 1.923650263501914e-08 -7.303494556776873e-09 8.010212081585146e-07 -2.3002670862077898e-07 8.009544973193275e-07 4.321378724029871e-09 1.9766714660222715e-08 -2.274638450143578e-08 0.30000000000178184 -0.1932719999984896 0.34999999999830783 -1.6275987284715856 1.6275987284705158 -1.6275987284654108 -7.489197039522985e-12 0.11599999999354625 7.039530500137346e-12 3.9255436737588995e-12 -2.5103781290595865e-12 -3.717748915863764e-12

6422.607999999999 2.1394590815138694 -1.4181193185198522 1.8990716697808299 -3.2811303010456383 -1.1037515388594406 -0.6694124231462535 0.26218021362886434 -0.27218356871519106 0.33222250936545356 -0.10430399787581025 -0.24704767948536355 0.09831227679156866 2.2812054444676098 -2.082674081162375 2.459763688265684 -0.7328002829257024 -2.153039448209906 0.833339521420685 0.16379890295126057 -0.7352532537791479 -0.5736889227394395 -0.15910290647288464 -0.018714995510756904 0.013092689814320541 2.1506795957500513 -9.653875222120211 -5.342305986334209 -0.7231227099192606 -0.08505965459639012 0.05950627520608685 2.1394591331481934 -1.418119255696432 1.8990716934204102 -3.28113037744631 -1.1037514845477503 -0.6694124380694788 0.2621802091598511 -0.2721835672855377 0.33222252130508423 -0.1043040007352829 -0.24704767763614655 0.09831227362155914 0.16379889845848083 -0.7352532744407654 -0.5736889243125916 -0.1591029018163681 -0.018714996054768562 0.013092690147459507 0.16379889845848083 -0.7352532744407654 -0.5736889243125916 -0.1591029018163681 -0.018714996054768562 0.013092690147459507 0.30000001611906385 -0.19231198681365957 0.34999998101319807 -1.6275987822177853 1.6275986154397206 -1.6275986716869284 -6.077055281708458e-09 0.12400000052142789 5.826366657826411e-10 7.931790632684352e-09 1.3312768735503365e-08 -9.78416552950014e-10 1.1248702413618541e-06 -4.198316069345515e-07 -6.901234483520363e-07 -8.576927998997599e-08 -1.2969790488556294e-07 -3.138634430055965e-08 0.3000000000020792 -0.19231199999826679 0.3499999999980064 -1.6275987284721651 1.6275987284709474 -1.6275987284648101 -8.920189625456838e-12 0.12399999999242976 8.462604315536004e-12 4.740741124859872e-12 -3.0962173708964143e-12 -4.5452125695583144e-12

6422.616 2.1416304956364947 -1.4203627705928739 1.9018069134581328 -3.2819875817832194 -1.1057977561161394 -0.6685990248948936 0.28072417677180056 -0.2886448040089884 0.3515234744198129 -0.1099850975954938 -0.26455565645194323 0.10504943380583885 2.3179953928670267 -2.057654411724667 2.412620631794919 -0.7101374649604429 -2.188497120822461 0.8421446267837737 0.1655044205651469 -0.7319590719295354 -0.5746192342432723 -0.15871088325651758 -0.019321362787559578 0.013231027803025066 2.1730730420203788 -9.6106226144348 -5.350969233120201 -0.7213409644008724 -0.08781559386945828 0.06013502136474892 2.1416304111480713 -1.4203627745257776 1.9018069505691528 -3.28198749223818 -1.1057975927936 -0.6685989538775843 0.2807241678237915 -0.28864479064941406 0.3515234887599945 -0.1099850982427597 -0.2645556628704071 0.10504943132400513 0.16550442576408386 -0.7319590449333191 -0.5746192336082458 -0.15871088206768036 -0.019321363419294357 0.013231027871370316 0.16550442576408386 -0.7319590449333191 -0.5746192336082458 -0.15871088206768036 -0.019321363419294357 0.013231027871370316 0.2999999922745803 -0.19128801635156434 0.34999998390671777 -1.627598648324056 1.62759877752187 -1.6275985066803038 1.0457893284662443e-08 0.13199999621019887 -1.0622727125636583e-08 9.913851575798658e-09 6.095398887637956e-08 -1.1686959281801139e-08 -1.5264126817269265e-06 6.12679177356951e-07 7.02942599984961e-07 8.39628180431454e-08 1.2491769849845525e-07 3.991866306092311e-08 0.3000000000023865 -0.1912879999980471 0.34999999999768766 -1.6275987284727809 1.6275987284714215 -1.6275987284641575 -1.0406983054619314e-11 0.1319999999913155 9.969666237945066e-12 5.610204981782926e-12 -3.7435560022985176e-12 -5.4462316140214614e-12

6422.624 2.143951511484725 -1.4227370599830085 1.9046949730257952 -3.2828895514691605 -1.1079852421033127 -0.6677314312604032 0.2995843348482374 -0.3048902458283503 0.3704223045235288 -0.11547452858135629 -0.28236842731131945 0.11186194723793291 2.3575197595546022 -2.0306802274202354 2.3623537629644877 -0.6861788732328116 -2.226596357422027 0.8515641790117576 0.1673375873140269 -0.7284495184984937 -0.5756166782605 -0.15829615916724313 -0.019972446972577634 0.013379019434695836 2.1971425214331735 -9.564542177885222 -5.360257631297428 -0.7194560434151199 -0.09077477149036535 0.06080764333069257 2.143951416015625 -1.422736946736471 1.90469491481781 -3.2828896681415003 -1.1079853216754358 -0.6677315870868128 0.2995843291282654 -0.3048902451992035 0.3704223036766052 -0.11547452956438065 -0.28236842155456543 0.1118619441986084 0.1673375815153122 -0.7284495234489441 -0.5756166577339172 -0.1582961529493332 -0.01997244730591774 0.013379019685089588 0.1673375815153122 -0.7284495234489441 -0.5756166577339172 -0.1582961529493332 -0.01997244730591774 0.013379019685089588 0.2999999884109232 -0.19020004956566755 0.34999999056959397 -1.62759882070128 1.6275987819573463 -1.6275989641607864 1.7589783192355793e-08 0.14000000096919282 1.0009424686622476e-08 2.86286405796625e-09 -2.3833838542768358e-08 -7.195801774027204e-10 1.3176385616265828e-06 -4.650379922368482e-07 2.83863504611007e-07 -4.1973077642194516e-08 -5.005379778510165e-08 -3.496640340084761e-08 0.30000000000270255 -0.19019999999783327 0.34999999999735176 -1.6275987284734317 1.6275987284719453 -1.6275987284634494 -1.1943461975308064e-11 0.13999999999021726 1.1563423032053714e-11 6.533710252248481e-12 -4.454724027944676e-12 -6.425154777390781e-12

6422.632 2.1464247479047867 -1.425240395905206 1.907732530932949 -3.2838346361596624 -1.11031652145501 -0.666809019510616 0.3187831018925465 -0.32090368501059746 0.38889385465930804 -0.12076218790084657 -0.30050765346839103 0.1187547985007691 2.39984588053864 -2.0016798977808974 2.308943766972403 -0.6609574149362852 -2.2674032696339483 0.8616064078545236 0.16930153437317588 -0.724722879337286 -0.5766824653735885 -0.15785924428339712 -0.020669326391548372 0.013536794007847738 2.222929146319799 -9.515611405698564 -5.370182454051931 -0.7174702652680398 -0.09394208844958735 0.06152472876566797 2.1464247703552246 -1.4252403418170374 1.9077324867248535 -3.28383452097048 -1.110316578541891 -0.6668089071856897 0.31878310441970825 -0.3209036886692047 0.38889384269714355 -0.1207621842622757 -0.30050766468048096 0.1187547966837883 0.16930153965950012 -0.7247228622436523 -0.576682448387146 -0.15785925090312958 -0.020669326186180115 0.013536794111132622 0.16930153965950012 -0.7247228622436523 -0.576682448387146 -0.15785925090312958 -0.020669326186180115 0.013536794111132622 0.30000001217656885 -0.18904801317561196 0.3499999833132282 -1.6275986347825848 1.6275989181289168 -1.6275985410570277 2.2224957474467243e-09 0.14800000256940138 7.981406571970192e-09 -3.8845483657208926e-08 2.5215143101952876e-08 -8.511798961833677e-09 -3.761137556364429e-07 -1.0153642557044707e-07 1.0592512677346155e-06 8.334672711076451e-08 1.2913413395602605e-07 3.215504987445251e-08 0.3000000000030261 -0.18904799999762767 0.34999999999699904 -1.6275987284741185 1.627598728472514 -1.6275987284626867 -1.3523562927664436e-11 0.14799999998914815 1.3242941292477837e-11 7.510007054439567e-12 -5.240495324065073e-12 -7.487372656963696e-12

6422.639999999999 2.1490530053115764 -1.427870855432598 1.9109160677915586 -3.2848211822081375 -1.1127942943123923 -0.6658311267896497 0.33834346102473195 -0.33666828614903527 0.40691280749446274 -0.12583825625425052 -0.3189955552188374 0.12573303753374207 2.445044891523182 -1.9705751423047257 2.2523691043943375 -0.6345085441754935 -2.310987718805793 0.8722798791216211 0.17139956817843968 -0.7207772397299113 -0.5778178989034998 -0.15740068809304106 -0.021413140609453443 0.013704486100866357 2.250476330182913 -9.463805157653734 -5.380755838169171 -0.7153861273828716 -0.0973227240699659 0.062286889328437595 2.1490530967712402 -1.427871052418844 1.9109160900115967 -3.284821097050802 -1.1127942244159144 -0.6658309141742151 0.33834347128868103 -0.3366682827472687 0.40691280364990234 -0.1258382499217987 -0.31899556517601013 0.12573303282260895 0.1713995635509491 -0.7207772135734558 -0.5778179168701172 -0.1574006825685501 -0.02141313999891281 0.013704486191272736 0.1713995635509491 -0.7207772135734558 -0.5778179168701172 -0.1574006825685501 -0.02141313999891281 0.013704486191272736 0.3000000009319582 -0.18783193826729508 0.3500000494369267 -1.6275985454228097 1.6275986103967142 -1.6275986534353113 -2.2305388502692016e-08 0.15599999517679336 -1.7906478008112384e-08 2.037444023438278e-08 -9.823029648078349e-09 3.5711834089538876e-09 -1.80691562085755e-06 1.3349616637370564e-06 8.54306285828365e-08 5.544858231250169e-08 1.0004427560579555e-07 -3.3308563093064013e-10 0.30000000000335597 -0.18783199999743352 0.3499999999966293 -1.6275987284748408 1.627598728473135 -1.6275987284618647 -1.5141348976127676e-11 0.1559999999881201 1.5006464868227634e-11 8.540090645292944e-12 -6.093530878720308e-12 -8.63152143821557e-12

