mkrssg/UniversalRobots/rtde_client_3.5/examples/roboter/nichtfunktionierender movel/movel_distance-y=400_singularity.csv
timestamp target_q_0 target_q_1 target_q_2 target_q_3 target_q_4 target_q_5 target_qd_0 target_qd_1 target_qd_2 target_qd_3 target_qd_4 target_qd_5 target_qdd_0 target_qdd_1 target_qdd_2 target_qdd_3 target_qdd_4 target_qdd_5 target_current_0 target_current_1 target_current_2 target_current_3 target_current_4 target_current_5 target_moment_0 target_moment_1 target_moment_2 target_moment_3 target_moment_4 target_moment_5 actual_q_0 actual_q_1 actual_q_2 actual_q_3 actual_q_4 actual_q_5 actual_qd_0 actual_qd_1 actual_qd_2 actual_qd_3 actual_qd_4 actual_qd_5 actual_current_0 actual_current_1 actual_current_2 actual_current_3 actual_current_4 actual_current_5 joint_control_output_0 joint_control_output_1 joint_control_output_2 joint_control_output_3 joint_control_output_4 joint_control_output_5 actual_TCP_pose_0 actual_TCP_pose_1 actual_TCP_pose_2 actual_TCP_pose_3 actual_TCP_pose_4 actual_TCP_pose_5 actual_TCP_speed_0 actual_TCP_speed_1 actual_TCP_speed_2 actual_TCP_speed_3 actual_TCP_speed_4 actual_TCP_speed_5 actual_TCP_force_0 actual_TCP_force_1 actual_TCP_force_2 actual_TCP_force_3 actual_TCP_force_4 actual_TCP_force_5 target_TCP_pose_0 target_TCP_pose_1 target_TCP_pose_2 target_TCP_pose_3 target_TCP_pose_4 target_TCP_pose_5 target_TCP_speed_0 target_TCP_speed_1 target_TCP_speed_2 target_TCP_speed_3 target_TCP_speed_4 target_TCP_speed_5

3444.504 0.45809493550609603 -1.885529400329105 1.891353982108473 -1.5775092871271372 -1.5641353746118325 0.4580848792769454 0.0 -0.0 0.0 0.0 0.0 0.0 0.0 0.0 0.0 0.0 0.0 0.0 -5.8460745106854385e-18 -0.3114035749645834 -0.846364901061535 -0.2526174815615467 0.0004674078944194274 0.0 -6.708954748022854e-17 -3.5869018288149865 -7.146021544880584 -1.0426759266417487 0.001940388804645364 0.0 0.45809289813041687 -1.8854616324054163 1.8913817405700684 -1.5775092283831995 -1.5641635099994105 0.4580404460430145 0.0 0.0 -0.0 0.0 0.0 0.0 -0.006729126907885075 -0.4194488823413849 -0.7914963960647583 -0.20925185084342957 0.14770719408988953 0.001118993852287531 -0.008972168900072575 -0.4172058403491974 -0.7808210849761963 -0.19918090105056763 0.1376362442970276 0.004475975409150124 -0.15000836128245063 -0.20000097681219722 0.29997658825184287 2.221350254820565 2.221443953287109 0.00015637763709998404 0.0 0.0 0.0 0.0 0.0 0.0 -5.069850724952698 -7.301148651643034 1.4228132051858342 1.181535312058394 -0.044840222281318606 0.005325627755097101 -0.1499999999850033 -0.19999999999266432 0.30000000001152166 2.221400000057386 2.2213999999966867 0.0 0.0 0.0 0.0 0.0 0.0 0.0

3444.5119999999997 0.45809493550609603 -1.885529400329105 1.891353982108473 -1.5775092871271372 -1.5641353746118325 0.4580848792769454 0.0 -0.0 0.0 0.0 0.0 0.0 0.0 0.0 0.0 0.0 0.0 0.0 -5.8460745106854385e-18 -0.3114035749645834 -0.846364901061535 -0.2526174815615467 0.0004674078944194274 0.0 -6.708954748022854e-17 -3.5869018288149865 -7.146021544880584 -1.0426759266417487 0.001940388804645364 0.0 0.4580689072608948 -1.8854854742633265 1.8914175033569336 -1.5775092283831995 -1.564211670552389 0.4581007659435272 0.0 0.0 -0.0 0.0 0.0 0.0 -0.006729126907885075 -0.4261780083179474 -0.7762459516525269 -0.19694292545318604 0.13316026329994202 0.006713963113725185 -0.008972168900072575 -0.4172058403491974 -0.7747209072113037 -0.20029990375041962 0.1376362442970276 0.006713963113725185 -0.15000907132577826 -0.1999909023949109 0.299971229251928 2.221473601687067 2.221379681198187 0.00019843681088895402 0.0 0.0 0.0 0.0 0.0 0.0 -5.7028725351889715 -7.971823084908717 1.8259634806226341 1.1662437748517374 -0.10708561427341079 0.031260722000029544 -0.1499999999850033 -0.19999999999266432 0.30000000001152166 2.221400000057386 2.2213999999966867 0.0 0.0 0.0 0.0 0.0 0.0 0.0

3444.52 0.45809493550609603 -1.885529400329105 1.891353982108473 -1.5775092871271372 -1.5641353746118325 0.4580848792769454 0.0 -0.0 0.0 0.0 0.0 0.0 0.0 0.0 0.0 0.0 0.0 0.0 -5.8460745106854385e-18 -0.3114035749645834 -0.846364901061535 -0.2526174815615467 0.0004674078944194274 0.0 -6.708954748022854e-17 -3.5869018288149865 -7.146021544880584 -1.0426759266417487 0.001940388804645364 0.0 0.4581168591976166 -1.8854973951922815 1.8913335800170898 -1.5774853865252894 -1.5641635099994105 0.45805245637893677 0.0 0.0 -0.0 0.0 0.0 0.0 -0.01794433780014515 -0.4216919243335724 -0.7869212627410889 -0.20813286304473877 0.14211222529411316 0.0033569815568625927 -0.011215210892260075 -0.4172058403491974 -0.77777099609375 -0.2014188915491104 0.1376362442970276 0.0055949692614376545 -0.15000066139729565 -0.20000319171017072 0.2999969148133452 2.2213505822042725 2.2214709784476288 6.702691419645282e-05 0.0 0.0 0.0 0.0 0.0 0.0 -4.973110308280617 -8.06583121727431 1.598782429634353 1.225705176973733 -0.05763164828317366 0.0156482429104163 -0.1499999999850033 -0.19999999999266432 0.30000000001152166 2.221400000057386 2.2213999999966867 0.0 0.0 0.0 0.0 0.0 0.0 0.0

3444.528 0.45809493550609603 -1.885529400329105 1.891353982108473 -1.5775092871271372 -1.5641353746118325 0.4580848792769454 0.0 -0.0 0.0 0.0 0.0 0.0 0.0 0.0 0.0 0.0 0.0 0.0 -5.8460745106854385e-18 -0.3114035749645834 -0.846364901061535 -0.2526174815615467 0.0004674078944194274 0.0 -6.708954748022854e-17 -3.5869018288149865 -7.146021544880584 -1.0426759266417487 0.001940388804645364 0.0 0.4580569267272949 -1.8854735533343714 1.8913936614990234 -1.5774973074542444 -1.5642245451556605 0.4580764174461365 0.0 0.0 -0.0 0.0 0.0 0.0 -0.0022430422250181437 -0.4239349663257599 -0.7533703446388245 -0.20589487254619598 0.13204127550125122 0.0033569815568625927 -0.006729126907885075 -0.4239349663257599 -0.77777099609375 -0.2014188915491104 0.1376362442970276 0.004475975409150124 -0.1500144260489985 -0.1999893994035252 0.29997467403745603 2.2214685074019354 2.221402026352855 0.0002049446662720627 0.0 0.0 0.0 0.0 0.0 0.0 -6.0661342761435515 -8.17488764469996 3.032439100407157 1.2420342074432011 -0.26887488959724193 0.01567276328207551 -0.1499999999850033 -0.19999999999266432 0.30000000001152166 2.221400000057386 2.2213999999966867 0.0 0.0 0.0 0.0 0.0 0.0 0.0

3444.536 0.45809493550609603 -1.885529400329105 1.891353982108473 -1.5775092871271372 -1.5641353746118325 0.4580848792769454 0.0 -0.0 0.0 0.0 0.0 0.0 0.0 0.0 0.0 0.0 0.0 0.0 -5.8460745106854385e-18 -0.3114035749645834 -0.846364901061535 -0.2526174815615467 0.0004674078944194274 0.0 -6.708954748022854e-17 -3.5869018288149865 -7.146021544880584 -1.0426759266417487 0.001940388804645364 0.0 0.4580689072608948 -1.8854973951922815 1.8914055824279785 -1.5775211493121546 -1.5641878286944788 0.4580404460430145 0.0 0.0 -0.0 0.0 0.0 0.0 -0.01345825381577015 -0.4172058403491974 -0.7823461294174194 -0.19694292545318604 0.1365172564983368 0.006713963113725185 -0.011215210892260075 -0.4172058403491974 -0.77777099609375 -0.2014188915491104 0.1376362442970276 0.007832957431674004 -0.1500083863003468 -0.19999278117777206 0.2999784654772758 2.221398585496976 2.22143901658031 0.0001331947388151213 0.0 0.0 0.0 0.0 0.0 0.0 -5.085713021691346 -7.726451145002301 1.560077261356652 1.1500422384200852 -0.028984563413056174 0.03124117375976229 -0.1499999999850033 -0.19999999999266432 0.30000000001152166 2.221400000057386 2.2213999999966867 0.0 0.0 0.0 0.0 0.0 0.0 0.0

3444.544 0.45809493550609603 -1.885529400329105 1.891353982108473 -1.5775092871271372 -1.5641353746118325 0.4580848792769454 0.0 -0.0 0.0 0.0 0.0 0.0 0.0 0.0 0.0 0.0 0.0 0.0 -5.8460745106854385e-18 -0.3114035749645834 -0.846364901061535 -0.2526174815615467 0.0004674078944194274 0.0 -6.708954748022854e-17 -3.5869018288149865 -7.146021544880584 -1.0426759266417487 0.001940388804645364 0.0 0.4580689072608948 -1.8854616324054163 1.891357421875 -1.5774496237384241 -1.5641754309283655 0.4580404460430145 0.0 0.0 -0.0 0.0 0.0 0.0 -0.011215210892260075 -0.4194488823413849 -0.7853962182998657 -0.20029990375041962 0.13204127550125122 0.002237987704575062 -0.011215210892260075 -0.4172058403491974 -0.77777099609375 -0.2014188915491104 0.1376362442970276 0.0055949692614376545 -0.15001102788957563 -0.19999521990502164 0.29997876130336026 2.22137724630148 2.221416950808432 0.0002149071936614491 0.0 0.0 0.0 0.0 0.0 0.0 -5.116125454998327 -7.712547450311796 1.497353468400713 1.1346566589102622 -0.04974583313531175 0.010539915418431241 -0.1499999999850033 -0.19999999999266432 0.30000000001152166 2.221400000057386 2.2213999999966867 0.0 0.0 0.0 0.0 0.0 0.0 0.0

3444.5519999999997 0.45809493550609603 -1.885529400329105 1.891353982108473 -1.5775092871271372 -1.5641353746118325 0.4580848792769454 0.0 -0.0 0.0 0.0 0.0 0.0 0.0 0.0 0.0 0.0 0.0 0.0 -5.8460745106854385e-18 -0.3114035749645834 -0.846364901061535 -0.2526174815615467 0.0004674078944194274 0.0 -6.708954748022854e-17 -3.5869018288149865 -7.146021544880584 -1.0426759266417487 0.001940388804645364 0.0 0.45809289813041687 -1.8854973951922815 1.891357421875 -1.5775211493121546 -1.5641754309283655 0.4580764174461365 0.0 0.0 -0.0 0.0 0.0 0.0 -0.008972168900072575 -0.4239349663257599 -0.7716708183288574 -0.20589487254619598 0.14211222529411316 0.004475975409150124 -0.004486084450036287 -0.4172058403491974 -0.77777099609375 -0.2014188915491104 0.1376362442970276 0.0055949692614376545 -0.15000673596198466 -0.1999991309403414 0.2999928496560191 2.2214143277466984 2.2214285733111727 5.530087007174396e-05 0.0 0.0 0.0 0.0 0.0 0.0 -5.578833287918878 -8.068883999949998 2.2237436822023127 1.244883222211661 -0.14601812523549457 0.020820020475351766 -0.1499999999850033 -0.19999999999266432 0.30000000001152166 2.221400000057386 2.2213999999966867 0.0 0.0 0.0 0.0 0.0 0.0 0.0

3444.56 0.45809493550609603 -1.885529400329105 1.891353982108473 -1.5775092871271372 -1.5641353746118325 0.4580848792769454 0.0 -0.0 0.0 0.0 0.0 0.0 0.0 0.0 0.0 0.0 0.0 0.0 -5.8460745106854385e-18 -0.3114035749645834 -0.846364901061535 -0.2526174815615467 0.0004674078944194274 0.0 -6.708954748022854e-17 -3.5869018288149865 -7.146021544880584 -1.0426759266417487 0.001940388804645364 0.0 0.458080917596817 -1.8854854742633265 1.8913817405700684 -1.5774973074542444 -1.5641515890704554 0.4580764174461365 0.0 0.0 -0.0 0.0 0.0 0.0 -0.01345825381577015 -0.4239349663257599 -0.7823461294174194 -0.19358593225479126 0.14323121309280396 0.0055949692614376545 -0.008972168900072575 -0.4172058403491974 -0.77777099609375 -0.2014188915491104 0.1376362442970276 0.0055949692614376545 -0.15000627765829247 -0.1999980642560682 0.29998088761056857 2.2213982967547423 2.221385388424903 0.00013263267884381912 0.0 0.0 0.0 0.0 0.0 0.0 -5.343677322192049 -8.105033240550613 1.4835868235818057 1.199514860904748 -0.016651968161711935 0.026087004105704678 -0.1499999999850033 -0.19999999999266432 0.30000000001152166 2.221400000057386 2.2213999999966867 0.0 0.0 0.0 0.0 0.0 0.0 0.0

3444.5679999999998 0.45809493550609603 -1.885529400329105 1.891353982108473 -1.5775092871271372 -1.5641353746118325 0.4580848792769454 0.0 -0.0 0.0 0.0 0.0 0.0 0.0 0.0 0.0 0.0 0.0 0.0 -5.8460745106854385e-18 -0.3114035749645834 -0.846364901061535 -0.2526174815615467 0.0004674078944194274 0.0 -6.708954748022854e-17 -3.5869018288149865 -7.146021544880584 -1.0426759266417487 0.001940388804645364 0.0 0.45809289813041687 -1.8854973951922815 1.891357421875 -1.5775092283831995 -1.5641878286944788 0.4580644369125366 0.0 0.0 -0.0 0.0 0.0 0.0 -0.011215210892260075 -0.4149627983570099 -0.788446307182312 -0.19134794175624847 0.14099322259426117 0.006713963113725185 -0.008972168900072575 -0.4172058403491974 -0.77777099609375 -0.2014188915491104 0.1376362442970276 0.0055949692614376545 -0.1500063108977232 -0.19999777431663976 0.2999918323219294 2.2214067197831233 2.2214473775174843 7.929883989767055e-05 0.0 0.0 0.0 0.0 0.0 0.0 -4.977245035871533 -7.389958252842298 1.1706444829257152 1.1147988236857576 0.04240859461707426 0.0312040048585732 -0.1499999999850033 -0.19999999999266432 0.30000000001152166 2.221400000057386 2.2213999999966867 0.0 0.0 0.0 0.0 0.0 0.0 0.0

3444.576 0.45809493550609603 -1.885529400329105 1.891353982108473 -1.5775092871271372 -1.5641353746118325 0.4580848792769454 0.0 -0.0 0.0 0.0 0.0 0.0 0.0 0.0 0.0 0.0 0.0 0.0 -5.8460745106854385e-18 -0.3114035749645834 -0.846364901061535 -0.2526174815615467 0.0004674078944194274 0.0 -6.708954748022854e-17 -3.5869018288149865 -7.146021544880584 -1.0426759266417487 0.001940388804645364 0.0 0.458080917596817 -1.8855097929583948 1.891369342803955 -1.5774734655963343 -1.5641997496234339 0.4580644369125366 0.0 0.0 -0.0 0.0 0.0 0.0 -0.011215210892260075 -0.4127197563648224 -0.8036966919898987 -0.20589487254619598 0.1353982537984848 0.0033569815568625927 -0.008972168900072575 -0.4172058403491974 -0.77777099609375 -0.2014188915491104 0.1376362442970276 0.0055949692614376545 -0.15000397244570238 -0.19999251116581088 0.2999879831781496 2.2214203176812197 2.2214337437753504 0.00013781990955390562 0.0 0.0 0.0 0.0 0.0 0.0 -4.522548900252129 -6.887321020252043 0.8145484278062389 1.0663068785786454 0.035396683488909265 0.01565684953774751 -0.1499999999850033 -0.19999999999266432 0.30000000001152166 2.221400000057386 2.2213999999966867 0.0 0.0 0.0 0.0 0.0 0.0 0.0

3444.584 0.45809493550609603 -1.885529400329105 1.891353982108473 -1.5775092871271372 -1.5641353746118325 0.4580848792769454 0.0 -0.0 0.0 0.0 0.0 0.0 0.0 0.0 0.0 0.0 0.0 0.0 -5.8460745106854385e-18 -0.3114035749645834 -0.846364901061535 -0.2526174815615467 0.0004674078944194274 0.0 -6.708954748022854e-17 -3.5869018288149865 -7.146021544880584 -1.0426759266417487 0.001940388804645364 0.0 0.45809289813041687 -1.8854973951922815 1.891357421875 -1.5775092283831995 -1.5641396681415003 0.4580764174461365 0.0 0.0 -0.0 0.0 0.0 0.0 -0.006729126907885075 -0.4149627983570099 -0.7762459516525269 -0.20701386034488678 0.13987423479557037 0.004475975409150124 -0.008972168900072575 -0.4172058403491974 -0.77777099609375 -0.2025378942489624 0.1376362442970276 0.0033569815568625927 -0.15000455690638662 -0.20000133186827318 0.2999918281683572 2.221387731278967 2.221401874647517 5.497473622167687e-05 0.0 0.0 0.0 0.0 0.0 0.0 -5.21342418346705 -7.389271891710393 2.050767941282791 1.1752512929049053 -0.11172712402667809 0.02085119949588367 -0.1499999999850033 -0.19999999999266432 0.30000000001152166 2.221400000057386 2.2213999999966867 0.0 0.0 0.0 0.0 0.0 0.0 0.0

3444.5919999999996 0.45809493550609603 -1.885529400329105 1.891353982108473 -1.5775092871271372 -1.5641353746118325 0.4580848792769454 0.0 -0.0 0.0 0.0 0.0 0.0 0.0 0.0 0.0 0.0 0.0 0.0 -5.8460745106854385e-18 -0.3114035749645834 -0.846364901061535 -0.2526174815615467 0.0004674078944194274 0.0 -6.708954748022854e-17 -3.5869018288149865 -7.146021544880584 -1.0426759266417487 0.001940388804645364 0.0 0.45812883973121643 -1.8854854742633265 1.891369342803955 -1.5774853865252894 -1.5641396681415003 0.4580644369125366 0.0 0.0 -0.0 0.0 0.0 0.0 -0.006729126907885075 -0.4216919243335724 -0.77777099609375 -0.20813286304473877 0.14099322259426117 0.011189938522875309 -0.008972168900072575 -0.4172058403491974 -0.77777099609375 -0.20029990375041962 0.1376362442970276 0.007832957431674004 -0.14999630890906954 -0.20000616482038844 0.29998357133271636 2.221323921882915 2.2214440321768345 0.0001259098824872533 0.0 0.0 0.0 0.0 0.0 0.0 -5.49491215607375 -7.557196966192627 2.005086951914595 1.1944319332627626 -0.1339200305495793 0.052048530918448264 -0.1499999999850033 -0.19999999999266432 0.30000000001152166 2.221400000057386 2.2213999999966867 0.0 0.0 0.0 0.0 0.0 0.0 0.0

3444.6 0.45809493550609603 -1.885529400329105 1.891353982108473 -1.5775092871271372 -1.5641353746118325 0.4580848792769454 0.0 -0.0 0.0 0.0 0.0 0.0 0.0 0.0 0.0 0.0 0.0 0.0 -5.8460745106854385e-18 -0.3114035749645834 -0.846364901061535 -0.2526174815615467 0.0004674078944194274 0.0 -6.708954748022854e-17 -3.5869018288149865 -7.146021544880584 -1.0426759266417487 0.001940388804645364 0.0 0.458080917596817 -1.8854497114764612 1.8914055824279785 -1.5774853865252894 -1.5641635099994105 0.4581127464771271 0.0 0.0 -0.0 0.0 0.0 0.0 -0.004486084450036287 -0.4216919243335724 -0.7533703446388245 -0.1868719756603241 0.13092228770256042 0.0055949692614376545 -0.008972168900072575 -0.4172058403491974 -0.77777099609375 -0.2014188915491104 0.1376362442970276 0.0033569815568625927 -0.15000880621955295 -0.199998166754849 0.29996477094687196 2.221430622429989 2.221336514842135 0.00024504480773504566 0.0 0.0 0.0 0.0 0.0 0.0 -6.035708717635831 -8.25755121167662 2.6191786695653065 1.1897433788156948 -0.15814198427269188 0.026147860492430074 -0.1499999999850033 -0.19999999999266432 0.30000000001152166 2.221400000057386 2.2213999999966867 0.0 0.0 0.0 0.0 0.0 0.0 0.0

3444.6079999999997 0.45809493550609603 -1.885529400329105 1.891353982108473 -1.5775092871271372 -1.5641353746118325 0.4580848792769454 0.0 -0.0 0.0 0.0 0.0 0.0 0.0 0.0 0.0 0.0 0.0 0.0 -5.8460745106854385e-18 -0.3114035749645834 -0.846364901061535 -0.2526174815615467 0.0004674078944194274 0.0 -6.708954748022854e-17 -3.5869018288149865 -7.146021544880584 -1.0426759266417487 0.001940388804645364 0.0 0.4580689072608948 -1.8854854742633265 1.8913817405700684 -1.5774734655963343 -1.564211670552389 0.4580644369125366 0.0 0.0 -0.0 0.0 0.0 0.0 -0.008972168900072575 -0.4239349663257599 -0.7808210849761963 -0.2036568820476532 0.1353982537984848 0.007832957431674004 -0.008972168900072575 -0.4172058403491974 -0.77777099609375 -0.2025378942489624 0.1376362442970276 0.008951950818300247 -0.15000911441592016 -0.19999094277559828 0.29997885616730324 2.221433386054226 2.2214199389432783 0.00019845204500205474 0.0 0.0 0.0 0.0 0.0 0.0 -5.458374197361981 -7.803644689934186 1.7711847100349047 1.1734202333218737 -0.10602201385416143 0.03645273551780064 -0.1499999999850033 -0.19999999999266432 0.30000000001152166 2.221400000057386 2.2213999999966867 0.0 0.0 0.0 0.0 0.0 0.0 0.0

3444.616 0.45809493550609603 -1.885529400329105 1.891353982108473 -1.5775092871271372 -1.5641353746118325 0.4580848792769454 0.0 -0.0 0.0 0.0 0.0 0.0 0.0 0.0 0.0 0.0 0.0 0.0 -5.8460745106854385e-18 -0.3114035749645834 -0.846364901061535 -0.2526174815615467 0.0004674078944194274 0.0 -6.708954748022854e-17 -3.5869018288149865 -7.146021544880584 -1.0426759266417487 0.001940388804645364 0.0 0.4580689072608948 -1.8855097929583948 1.891369342803955 -1.5774615446673792 -1.5641878286944788 0.4580644369125366 0.0 0.0 -0.0 0.0 0.0 0.0 -0.008972168900072575 -0.4284210503101349 -0.7625206112861633 -0.2036568820476532 0.1376362442970276 0.007832957431674004 -0.008972168900072575 -0.4172058403491974 -0.77777099609375 -0.2014188915491104 0.1376362442970276 0.0055949692614376545 -0.15000506363656815 -0.19999114932755319 0.2999869637452538 2.221423048657065 2.2214096430446033 0.0001495344317317264 0.0 0.0 0.0 0.0 0.0 0.0 -5.951095185472012 -8.460811350931408 2.577442448563668 1.2673510485364519 -0.2039394861643821 0.03644698370555274 -0.1499999999850033 -0.19999999999266432 0.30000000001152166 2.221400000057386 2.2213999999966867 0.0 0.0 0.0 0.0 0.0 0.0 0.0

3444.624 0.45809493550609603 -1.885529400329105 1.891353982108473 -1.5775092871271372 -1.5641353746118325 0.4580848792769454 0.0 -0.0 0.0 0.0 0.0 0.0 0.0 0.0 0.0 0.0 0.0 0.0 -5.8460745106854385e-18 -0.3114035749645834 -0.846364901061535 -0.2526174815615467 0.0004674078944194274 0.0 -6.708954748022854e-17 -3.5869018288149865 -7.146021544880584 -1.0426759266417487 0.001940388804645364 0.0 0.4581048786640167 -1.8854616324054163 1.8913817405700684 -1.5774973074542444 -1.5641997496234339 0.4580764174461365 0.0 0.0 -0.0 0.0 0.0 0.0 -0.011215210892260075 -0.4216919243335724 -0.77777099609375 -0.19806191325187683 0.12308932095766068 0.0033569815568625927 -0.008972168900072575 -0.4172058403491974 -0.77777099609375 -0.2014188915491104 0.1376362442970276 0.0055949692614376545 -0.15000640837268453 -0.19999965616310136 0.29997557307976686 2.221398588529764 2.221438745775833 0.00019242044858871712 0.0 0.0 0.0 0.0 0.0 0.0 -5.356128512860101 -7.99859026605592 1.784398775961787 1.1271302058506698 -0.10075391935760762 0.015690513734349595 -0.1499999999850033 -0.19999999999266432 0.30000000001152166 2.221400000057386 2.2213999999966867 0.0 0.0 0.0 0.0 0.0 0.0 0.0

3444.632 0.45809493550609603 -1.885529400329105 1.891353982108473 -1.5775092871271372 -1.5641353746118325 0.4580848792769454 0.0 -0.0 0.0 0.0 0.0 0.0 0.0 0.0 0.0 0.0 0.0 0.0 -5.8460745106854385e-18 -0.3114035749645834 -0.846364901061535 -0.2526174815615467 0.0004674078944194274 0.0 -6.708954748022854e-17 -3.5869018288149865 -7.146021544880584 -1.0426759266417487 0.001940388804645364 0.0 0.458080917596817 -1.8854735533343714 1.8913936614990234 -1.5774372259723108 -1.564211670552389 0.4580644369125366 0.0 0.0 -0.0 0.0 0.0 0.0 -0.01794433780014515 -0.4261780083179474 -0.7808210849761963 -0.19246694445610046 0.14211222529411316 0.007832957431674004 -0.01345825381577015 -0.4239349663257599 -0.77777099609375 -0.2014188915491104 0.1376362442970276 0.0055949692614376545 -0.1500047406861598 -0.19999172744164112 0.29996954055894115 2.2214067391404475 2.2214193067490413 0.0002878313418528516 0.0 0.0 0.0 0.0 0.0 0.0 -5.365960413462537 -8.449788760818922 1.5249066732933199 1.222630139950917 -0.019571339161798467 0.03652964639008271 -0.1499999999850033 -0.19999999999266432 0.30000000001152166 2.221400000057386 2.2213999999966867 0.0 0.0 0.0 0.0 0.0 0.0 0.0

3444.64 0.45809493550609603 -1.885529400329105 1.891353982108473 -1.5775092871271372 -1.5641353746118325 0.4580848792769454 0.0 -0.0 0.0 0.0 0.0 0.0 0.0 0.0 0.0 0.0 0.0 0.0 -5.8460745106854385e-18 -0.3114035749645834 -0.846364901061535 -0.2526174815615467 0.0004674078944194274 0.0 -6.708954748022854e-17 -3.5869018288149865 -7.146021544880584 -1.0426759266417487 0.001940388804645364 0.0 0.4581168591976166 -1.8854735533343714 1.8913936614990234 -1.5775092283831995 -1.5641158262835901 0.45805245637893677 0.0 0.0 -0.0 0.0 0.0 0.0 -0.011215210892260075 -0.4172058403491974 -0.7701457738876343 -0.20029990375041962 0.1365172564983368 0.0033569815568625927 -0.006729126907885075 -0.4149627983570099 -0.77777099609375 -0.20029990375041962 0.1376362442970276 0.0055949692614376545 -0.14999935686641808 -0.20000686146529834 0.2999756829542976 2.2213050429947563 2.221425315499812 0.00013229544738425613 0.0 0.0 0.0 0.0 0.0 0.0 -5.312486115757041 -7.940714130155698 2.171737533616421 1.1975758778585248 -0.1084141217332986 0.015738112659842908 -0.1499999999850033 -0.19999999999266432 0.30000000001152166 2.221400000057386 2.2213999999966867 0.0 0.0 0.0 0.0 0.0 0.0 0.0

3444.6479999999997 0.45809493550609603 -1.885529400329105 1.891353982108473 -1.5775092871271372 -1.5641353746118325 0.4580848792769454 0.0 -0.0 0.0 0.0 0.0 0.0 0.0 0.0 0.0 0.0 0.0 0.0 -5.8460745106854385e-18 -0.3114035749645834 -0.846364901061535 -0.2526174815615467 0.0004674078944194274 0.0 -6.708954748022854e-17 -3.5869018288149865 -7.146021544880584 -1.0426759266417487 0.001940388804645364 0.0 0.4580569267272949 -1.8854616324054163 1.8913817405700684 -1.5774853865252894 -1.5641635099994105 0.45808878540992737 0.0 0.0 -0.0 0.0 0.0 0.0 -0.006729126907885075 -0.4239349663257599 -0.7853962182998657 -0.18910996615886688 0.13875523209571838 0.0055949692614376545 -0.008972168900072575 -0.4216919243335724 -0.77777099609375 -0.2014188915491104 0.1376362442970276 0.0055949692614376545 -0.15001380215341972 -0.19999469902821093 0.2999745515616439 2.2214386691238213 2.221344727665031 0.0001918502043985892 0.0 0.0 0.0 0.0 0.0 0.0 -5.48360102000995 -7.7137242278879 1.2523843295961277 1.1306499073893814 -0.0009285337685925023 0.02610991058424981 -0.1499999999850033 -0.19999999999266432 0.30000000001152166 2.221400000057386 2.2213999999966867 0.0 0.0 0.0 0.0 0.0 0.0 0.0

3444.656 0.45809493550609603 -1.885529400329105 1.891353982108473 -1.5775092871271372 -1.5641353746118325 0.4580848792769454 0.0 -0.0 0.0 0.0 0.0 0.0 0.0 0.0 0.0 0.0 0.0 0.0 -5.8460745106854385e-18 -0.3114035749645834 -0.846364901061535 -0.2526174815615467 0.0004674078944194274 0.0 -6.708954748022854e-17 -3.5869018288149865 -7.146021544880584 -1.0426759266417487 0.001940388804645364 0.0 0.4581168591976166 -1.88552171388735 1.891369342803955 -1.5775092283831995 -1.5641878286944788 0.4580644369125366 0.0 0.0 -0.0 0.0 0.0 0.0 -0.01345825381577015 -0.4172058403491974 -0.7716708183288574 -0.21596580743789673 0.1365172564983368 0.001118993852287531 -0.008972168900072575 -0.4149627983570099 -0.7823461294174194 -0.2014188915491104 0.1376362442970276 0.0033569815568625927 -0.14999739532635534 -0.19999932785462715 0.2999936966319152 2.22138294191185 2.221476794218013 6.085931870844891e-05 0.0 0.0 0.0 0.0 0.0 0.0 -5.132444426899541 -7.962914230657549 2.4453080732669163 1.2417421801362567 -0.1795557349938294 0.005236792195293012 -0.1499999999850033 -0.19999999999266432 0.30000000001152166 2.221400000057386 2.2213999999966867 0.0 0.0 0.0 0.0 0.0 0.0 0.0

3444.6639999999998 0.45809493550609603 -1.885529400329105 1.891353982108473 -1.5775092871271372 -1.5641353746118325 0.4580848792769454 0.0 -0.0 0.0 0.0 0.0 0.0 0.0 0.0 0.0 0.0 0.0 0.0 -5.8460745106854385e-18 -0.3114035749645834 -0.846364901061535 -0.2526174815615467 0.0004674078944194274 0.0 -6.708954748022854e-17 -3.5869018288149865 -7.146021544880584 -1.0426759266417487 0.001940388804645364 0.0 0.45812883973121643 -1.8854973951922815 1.891345500946045 -1.5774496237384241 -1.5641878286944788 0.45805245637893677 0.0 0.0 -0.0 0.0 0.0 0.0 -0.02243042178452015 -0.4216919243335724 -0.77777099609375 -0.18910996615886688 0.1376362442970276 0.006713963113725185 -0.01345825381577015 -0.4194488823413849 -0.77777099609375 -0.2014188915491104 0.1376362442970276 0.0055949692614376545 -0.14999563039319036 -0.20000141559542303 0.299990301058835 2.2213430783843884 2.2214894109916337 0.00015024998639782733 0.0 0.0 0.0 0.0 0.0 0.0 -5.141883689451914 -8.571832557013302 1.5886195998281523 1.2095350214286074 -0.001308365722431047 0.03125949000866045 -0.1499999999850033 -0.19999999999266432 0.30000000001152166 2.221400000057386 2.2213999999966867 0.0 0.0 0.0 0.0 0.0 0.0 0.0

3444.672 0.45809493550609603 -1.885529400329105 1.891353982108473 -1.5775092871271372 -1.5641353746118325 0.4580848792769454 0.0 -0.0 0.0 0.0 0.0 0.0 0.0 0.0 0.0 0.0 0.0 0.0 -5.8460745106854385e-18 -0.3114035749645834 -0.846364901061535 -0.2526174815615467 0.0004674078944194274 0.0 -6.708954748022854e-17 -3.5869018288149865 -7.146021544880584 -1.0426759266417487 0.001940388804645364 0.0 0.458080917596817 -1.8854735533343714 1.8913936614990234 -1.5775211493121546 -1.5641635099994105 0.4580764174461365 0.0 0.0 -0.0 0.0 0.0 0.0 -0.01345825381577015 -0.4194488823413849 -0.7899713516235352 -0.20925185084342957 0.14099322259426117 0.004475975409150124 -0.011215210892260075 -0.4172058403491974 -0.77777099609375 -0.2014188915491104 0.1376362442970276 0.004475975409150124 -0.15000915856587865 -0.19999838860445354 0.2999767053348347 2.2214061651826214 2.2213934524636065 0.00013864302289356737 0.0 0.0 0.0 0.0 0.0 0.0 -4.955340412963391 -7.621808548068516 1.4896833245472887 1.1825932421102603 -0.05464095018168772 0.020886760903193215 -0.1499999999850033 -0.19999999999266432 0.30000000001152166 2.221400000057386 2.2213999999966867 0.0 0.0 0.0 0.0 0.0 0.0 0.0

3444.68 0.45809493550609603 -1.885529400329105 1.891353982108473 -1.5775092871271372 -1.5641353746118325 0.4580848792769454 0.0 -0.0 0.0 0.0 0.0 0.0 0.0 0.0 0.0 0.0 0.0 0.0 -5.8460745106854385e-18 -0.3114035749645834 -0.846364901061535 -0.2526174815615467 0.0004674078944194274 0.0 -6.708954748022854e-17 -3.5869018288149865 -7.146021544880584 -1.0426759266417487 0.001940388804645364 0.0 0.4580569267272949 -1.8854497114764612 1.891357421875 -1.5774615446673792 -1.5641515890704554 0.45805245637893677 0.0 0.0 -0.0 0.0 0.0 0.0 -0.011215210892260075 -0.4418793320655823 -0.7655707001686096 -0.21596580743789673 0.14211222529411316 0.011189938522875309 -0.011215210892260075 -0.4172058403491974 -0.77777099609375 -0.2014188915491104 0.1376362442970276 0.006713963113725185 -0.15001501685464189 -0.19999640222112547 0.2999771181888756 2.2213878270836784 2.2213744286850345 0.00020285794818869626 0.0 0.0 0.0 0.0 0.0 0.0 -6.316778355828376 -9.035958146646692 2.7036123890535864 1.3634968019510947 -0.285864403519228 0.05210998177959218 -0.1499999999850033 -0.19999999999266432 0.30000000001152166 2.221400000057386 2.2213999999966867 0.0 0.0 0.0 0.0 0.0 0.0 0.0

3444.6879999999996 0.45809493550609603 -1.885529400329105 1.891353982108473 -1.5775092871271372 -1.5641353746118325 0.4580848792769454 0.0 -0.0 0.0 0.0 0.0 0.0 0.0 0.0 0.0 0.0 0.0 0.0 -5.8460745106854385e-18 -0.3114035749645834 -0.846364901061535 -0.2526174815615467 0.0004674078944194274 0.0 -6.708954748022854e-17 -3.5869018288149865 -7.146021544880584 -1.0426759266417487 0.001940388804645364 0.0 0.4580569267272949 -1.8854854742633265 1.891357421875 -1.5774973074542444 -1.5641754309283655 0.45805245637893677 0.0 0.0 -0.0 0.0 0.0 0.0 -0.008972168900072575 -0.4284210503101349 -0.77777099609375 -0.19470493495464325 0.14770719408988953 0.006713963113725185 -0.008972168900072575 -0.4216919243335724 -0.77777099609375 -0.2014188915491104 0.1376362442970276 0.0055949692614376545 -0.150013761501295 -0.19999363085500266 0.2999881534659338 2.2214197429802254 2.221406923759919 0.00010850247689396664 0.0 0.0 0.0 0.0 0.0 0.0 -5.7131096236265355 -8.177847333176906 1.7087207018854036 1.234954456697158 -0.05971550622999463 0.031241060587355495 -0.1499999999850033 -0.19999999999266432 0.30000000001152166 2.221400000057386 2.2213999999966867 0.0 0.0 0.0 0.0 0.0 0.0 0.0

3444.696 0.45809493550609603 -1.885529400329105 1.891353982108473 -1.5775092871271372 -1.5641353746118325 0.4580848792769454 0.0 -0.0 0.0 0.0 0.0 0.0 0.0 0.0 0.0 0.0 0.0 0.0 -5.8460745106854385e-18 -0.3114035749645834 -0.846364901061535 -0.2526174815615467 0.0004674078944194274 0.0 -6.708954748022854e-17 -3.5869018288149865 -7.146021544880584 -1.0426759266417487 0.001940388804645364 0.0 0.45804494619369507 -1.8854735533343714 1.8913817405700684 -1.5774973074542444 -1.5641997496234339 0.45805245637893677 0.0 0.0 -0.0 0.0 0.0 0.0 -0.011215210892260075 -0.4194488823413849 -0.7945464849472046 -0.21260882914066315 0.1376362442970276 0.007832957431674004 -0.008972168900072575 -0.4172058403491974 -0.77777099609375 -0.2036568820476532 0.1376362442970276 0.0055949692614376545 -0.15001681009879697 -0.19998988805889845 0.299978232456143 2.2214412337450247 2.221401515734721 0.00017468784796595665 0.0 0.0 0.0 0.0 0.0 0.0 -4.946759593780572 -7.313584662869598 1.3615904100205904 1.1452449448955466 -0.06495398754032275 0.03644770655596417 -0.1499999999850033 -0.19999999999266432 0.30000000001152166 2.221400000057386 2.2213999999966867 0.0 0.0 0.0 0.0 0.0 0.0 0.0

3444.7039999999997 0.45809493550609603 -1.885529400329105 1.891353982108473 -1.5775092871271372 -1.5641353746118325 0.4580848792769454 0.0 -0.0 0.0 0.0 0.0 0.0 0.0 0.0 0.0 0.0 0.0 0.0 -5.8460745106854385e-18 -0.3114035749645834 -0.846364901061535 -0.2526174815615467 0.0004674078944194274 0.0 -6.708954748022854e-17 -3.5869018288149865 -7.146021544880584 -1.0426759266417487 0.001940388804645364 0.0 0.45809289813041687 -1.8854973951922815 1.8913817405700684 -1.5774734655963343 -1.5641635099994105 0.4580284655094147 0.0 0.0 -0.0 0.0 0.0 0.0 -0.011215210892260075 -0.4306641221046448 -0.7792960405349731 -0.19246694445610046 0.1376362442970276 0.008951950818300247 -0.008972168900072575 -0.4216919243335724 -0.77777099609375 -0.2025378942489624 0.1376362442970276 0.0055949692614376545 -0.15000097795015685 -0.1999973215354193 0.2999815112299167 2.22133718625098 2.221457068028215 0.0001563937146725674 0.0 0.0 0.0 0.0 0.0 0.0 -5.743603035650148 -8.342254368808483 1.5916072282201061 1.1975419276180295 -0.06485165970280929 0.041665360115264324 -0.1499999999850033 -0.19999999999266432 0.30000000001152166 2.221400000057386 2.2213999999966867 0.0 0.0 0.0 0.0 0.0 0.0 0.0

3444.712 0.45809493550609603 -1.885529400329105 1.891353982108473 -1.5775092871271372 -1.5641353746118325 0.4580848792769454 0.0 -0.0 0.0 0.0 0.0 0.0 0.0 0.0 0.0 0.0 0.0 0.0 -5.8460745106854385e-18 -0.3114035749645834 -0.846364901061535 -0.2526174815615467 0.0004674078944194274 0.0 -6.708954748022854e-17 -3.5869018288149865 -7.146021544880584 -1.0426759266417487 0.001940388804645364 0.0 0.4580569267272949 -1.8854735533343714 1.891357421875 -1.5774973074542444 -1.5641754309283655 0.45808878540992737 0.0 0.0 -0.0 0.0 0.0 0.0 -0.011215210892260075 -0.4082336723804474 -0.7808210849761963 -0.2014188915491104 0.14099322259426117 0.012308932840824127 -0.011215210892260075 -0.4172058403491974 -0.77777099609375 -0.2025378942489624 0.1376362442970276 0.006713963113725185 -0.15001534607602482 -0.1999944084166967 0.2999854940862791 2.2214573997964506 2.2213638462295413 0.00012623423773911255 0.0 0.0 0.0 0.0 0.0 0.0 -4.864034679395073 -7.065175405178091 1.7302695239090453 1.1298213658189256 -0.033042460620759974 0.05720145538101782 -0.1499999999850033 -0.19999999999266432 0.30000000001152166 2.221400000057386 2.2213999999966867 0.0 0.0 0.0 0.0 0.0 0.0 0.0

3444.72 0.45809493550609603 -1.885529400329105 1.891353982108473 -1.5775092871271372 -1.5641353746118325 0.4580848792769454 0.0 -0.0 0.0 0.0 0.0 0.0 0.0 0.0 0.0 0.0 0.0 0.0 -5.8460745106854385e-18 -0.3114035749645834 -0.846364901061535 -0.2526174815615467 0.0004674078944194274 0.0 -6.708954748022854e-17 -3.5869018288149865 -7.146021544880584 -1.0426759266417487 0.001940388804645364 0.0 0.458080917596817 -1.8854735533343714 1.891345500946045 -1.5775092283831995 -1.5641997496234339 0.4580764174461365 0.0 0.0 -0.0 0.0 0.0 0.0 -0.004486084450036287 -0.4172058403491974 -0.7625206112861633 -0.19582392275333405 0.14211222529411316 0.0033569815568625927 -0.008972168900072575 -0.4172058403491974 -0.77777099609375 -0.19806191325187683 0.1376362442970276 0.0055949692614376545 -0.15001320116963643 -0.19999710602178872 0.2999900753218376 2.2214385992150825 2.221426039219942 0.00010305046328523683 0.0 0.0 0.0 0.0 0.0 0.0 -5.641693454137898 -7.8020385103376295 2.4123515720550146 1.209326675645589 -0.12371085155396569 0.015636172764610243 -0.1499999999850033 -0.19999999999266432 0.30000000001152166 2.221400000057386 2.2213999999966867 0.0 0.0 0.0 0.0 0.0 0.0 0.0

3444.728 0.45809493550609603 -1.885529400329105 1.891353982108473 -1.5775092871271372 -1.5641353746118325 0.4580848792769454 0.0 -0.0 0.0 0.0 0.0 0.0 0.0 0.0 0.0 0.0 0.0 0.0 -5.8460745106854385e-18 -0.3114035749645834 -0.846364901061535 -0.2526174815615467 0.0004674078944194274 0.0 -6.708954748022854e-17 -3.5869018288149865 -7.146021544880584 -1.0426759266417487 0.001940388804645364 0.0 0.4580569267272949 -1.8854854742633265 1.8913817405700684 -1.5775335470782679 -1.5641878286944788 0.45805245637893677 0.0 0.0 -0.0 0.0 0.0 0.0 -0.01570129580795765 -0.4172058403491974 -0.7762459516525269 -0.2036568820476532 0.13316026329994202 0.006713963113725185 -0.01345825381577015 -0.4172058403491974 -0.77777099609375 -0.20029990375041962 0.1376362442970276 0.007832957431674004 -0.15001506045321886 -0.19999312844129832 0.299983986648056 2.2214305785343518 2.221418065476939 9.701796626449055e-05 0.0 0.0 0.0 0.0 0.0 0.0 -5.104512587784663 -7.943734789679363 1.9753978290125744 1.1833685223470265 -0.09724916085758072 0.031216625004742902 -0.1499999999850033 -0.19999999999266432 0.30000000001152166 2.221400000057386 2.2213999999966867 0.0 0.0 0.0 0.0 0.0 0.0 0.0

3444.736 0.45809493550609603 -1.885529400329105 1.891353982108473 -1.5775092871271372 -1.5641353746118325 0.4580848792769454 0.0 -0.0 0.0 0.0 0.0 0.0 0.0 0.0 0.0 0.0 0.0 0.0 -5.8460745106854385e-18 -0.3114035749645834 -0.846364901061535 -0.2526174815615467 0.0004674078944194274 0.0 -6.708954748022854e-17 -3.5869018288149865 -7.146021544880584 -1.0426759266417487 0.001940388804645364 0.0 0.45804494619369507 -1.8854735533343714 1.8913936614990234 -1.5775211493121546 -1.5641396681415003 0.45805245637893677 0.0 0.0 -0.0 0.0 0.0 0.0 -0.008972168900072575 -0.4216919243335724 -0.7869212627410889 -0.19582392275333405 0.13092228770256042 0.0055949692614376545 -0.006729126907885075 -0.4172058403491974 -0.77777099609375 -0.2014188915491104 0.1376362442970276 0.006713963113725185 -0.1500154844634279 -0.19999475364099928 0.29997670330250426 2.221403515938675 2.22136417183624 0.00012659687758716681 0.0 0.0 0.0 0.0 0.0 0.0 -5.282959613089581 -7.638719902057166 1.3320636306841742 1.1085384073088 -0.034539599423401554 0.026083102446478938 -0.1499999999850033 -0.19999999999266432 0.30000000001152166 2.221400000057386 2.2213999999966867 0.0 0.0 0.0 0.0 0.0 0.0 0.0

3444.7439999999997 0.45809493550609603 -1.885529400329105 1.891353982108473 -1.5775092871271372 -1.5641353746118325 0.4580848792769454 0.0 -0.0 0.0 0.0 0.0 0.0 0.0 0.0 0.0 0.0 0.0 0.0 -5.8460745106854385e-18 -0.3114035749645834 -0.846364901061535 -0.2526174815615467 0.0004674078944194274 0.0 -6.708954748022854e-17 -3.5869018288149865 -7.146021544880584 -1.0426759266417487 0.001940388804645364 0.0 0.4580689072608948 -1.8854973951922815 1.8913936614990234 -1.5775092283831995 -1.5641997496234339 0.4580644369125366 0.0 0.0 -0.0 0.0 0.0 0.0 -0.006729126907885075 -0.4149627983570099 -0.8021716475486755 -0.19246694445610046 0.14211222529411316 0.008951950818300247 -0.008972168900072575 -0.4172058403491974 -0.77777099609375 -0.2014188915491104 0.1376362442970276 0.0055949692614376545 -0.15000883477164667 -0.1999919140320578 0.29998100884021234 2.221433272394383 2.221420309150861 0.0001392220885520063 0.0 0.0 0.0 0.0 0.0 0.0 -4.8642518978592015 -6.784797396465077 0.5895140720904104 1.0499521685314317 0.09407436395311436 0.04161537096650633 -0.1499999999850033 -0.19999999999266432 0.30000000001152166 2.221400000057386 2.2213999999966867 0.0 0.0 0.0 0.0 0.0 0.0 0.0

3444.752 0.45809493550609603 -1.885529400329105 1.891353982108473 -1.5775092871271372 -1.5641353746118325 0.4580848792769454 0.0 -0.0 0.0 0.0 0.0 0.0 0.0 0.0 0.0 0.0 0.0 0.0 -5.8460745106854385e-18 -0.3114035749645834 -0.846364901061535 -0.2526174815615467 0.0004674078944194274 0.0 -6.708954748022854e-17 -3.5869018288149865 -7.146021544880584 -1.0426759266417487 0.001940388804645364 0.0 0.4580569267272949 -1.8854854742633265 1.891357421875 -1.5774973074542444 -1.5641878286944788 0.4580644369125366 0.0 0.0 -0.0 0.0 0.0 0.0 -0.011215210892260075 -0.4082336723804474 -0.796071469783783 -0.20589487254619598 0.1353982537984848 0.004475975409150124 -0.008972168900072575 -0.4172058403491974 -0.7792960405349731 -0.2014188915491104 0.1376362442970276 0.0055949692614376545 -0.15001421299078826 -0.1999927150333694 0.29998815455344047 2.221441363612697 2.2214019051865286 0.00011476517124067709 0.0 0.0 0.0 0.0 0.0 0.0 -4.500088228200067 -6.822349323080464 1.1534956403742267 1.0737491681388271 0.011248879756869022 0.02084194884997981 -0.1499999999850033 -0.19999999999266432 0.30000000001152166 2.221400000057386 2.2213999999966867 0.0 0.0 0.0 0.0 0.0 0.0 0.0

3444.7599999999998 0.45809493550609603 -1.885529400329105 1.891353982108473 -1.5775092871271372 -1.5641353746118325 0.4580848792769454 0.0 -0.0 0.0 0.0 0.0 0.0 0.0 0.0 0.0 0.0 0.0 0.0 -5.8460745106854385e-18 -0.3114035749645834 -0.846364901061535 -0.2526174815615467 0.0004674078944194274 0.0 -6.708954748022854e-17 -3.5869018288149865 -7.146021544880584 -1.0426759266417487 0.001940388804645364 0.0 0.45809289813041687 -1.8854616324054163 1.891345500946045 -1.5775092283831995 -1.5641878286944788 0.4580764174461365 0.0 0.0 -0.0 0.0 0.0 0.0 -0.006729126907885075 -0.4104767143726349 -0.7853962182998657 -0.20925185084342957 0.14546920359134674 0.004475975409150124 -0.008972168900072575 -0.4172058403491974 -0.7808210849761963 -0.2014188915491104 0.1376362442970276 0.0033569815568625927 -0.15001195549786603 -0.20000056145644923 0.29998741483992 2.221414604272918 2.221428650189447 0.0001147603925230777 0.0 0.0 0.0 0.0 0.0 0.0 -4.8724009161311574 -6.934256015774622 1.6972652705105948 1.1523201767144926 -0.05419651111238989 0.020845489203040857 -0.1499999999850033 -0.19999999999266432 0.30000000001152166 2.221400000057386 2.2213999999966867 0.0 0.0 0.0 0.0 0.0 0.0 0.0

3444.768 0.45809461462488404 -1.8855297099860397 1.891354181958596 -1.5775091772987881 -1.5641353744962503 0.45808455729463526 -0.00016044064454029093 -0.00015482846647762096 9.992503478393664e-05 5.491420035429377e-05 5.779100530401927e-08 -0.00016099119369216387 -0.020055080567536365 -0.01935355830970262 0.01249062934799208 0.0068642750442867205 7.223875663002409e-06 -0.020123899211520482 -0.004923454279296167 -0.3163412196508361 -0.8443898534461161 -0.2514948354309918 0.0004355469198281402 -0.0040340622892289365 -0.013537933747504342 -3.600800144747934 -7.143231894684964 -1.0421206343018656 0.001808121722424139 -0.001436987270997043 0.45809289813041687 -1.8855574766742151 1.891357421875 -1.5774853865252894 -1.564211670552389 0.4580284655094147 0.0 0.0 -0.0 0.0 0.0 0.0 -0.011215210892260075 -0.4261780083179474 -0.7838711738586426 -0.2036568820476532 0.11637535691261292 0.008951950818300247 -0.008972168900072575 -0.4172058403491974 -0.7762459516525269 -0.2014188915491104 0.1376362442970276 0.007832957431674004 -0.14999743936697643 -0.19999121204399786 0.30000320042901496 -2.22137150576445 -2.221491833251942 -3.7449896930324825e-05 0.0 0.0 0.0 0.0 0.0 0.0 -5.378218763179404 -7.308820581607011 1.5771737040110205 1.0483694996329933 -0.12824296978764843 0.06024833570131779 -0.1499999999850028 -0.19999991999267358 0.3000000000115217 2.221400000056983 2.2213999999970895 0.0 -1.4996575439431797e-15 4e-05 -1.1521398684813765e-15 1.2000238726082087e-20 4.00812138919449e-20 -4.910144116114772e-21

3444.776 0.4580920475696382 -1.88553218724139 1.8913557807557446 -1.5775082986682873 -1.5641353735716006 0.45808198143059325 -0.000721985675312032 -0.0006967280353226187 0.000449660739680474 0.0002471157548856947 2.600560306234315e-07 -0.0007244631519922077 -0.07019312884646763 -0.06773744610562472 0.043716963112067166 0.02402519431642512 2.528312816492653e-05 -0.07043399478750548 -0.020979056264705184 -0.3324176648803626 -0.8378061378929228 -0.2477001255556505 0.0003558952784267846 -0.017803824752235093 -0.047382934513375004 -3.6355272770064158 -7.136257783989088 -1.040732377379114 0.0014774573175389963 -0.005029480265791404 0.458080917596817 -1.8854497114764612 1.891369342803955 -1.5774853865252894 -1.5641515890704554 0.4580644369125366 0.0 0.0 -0.0 0.0 0.0 0.0 -0.008972168900072575 -0.4396362900733948 -0.7838711738586426 -0.21596580743789673 0.14323121309280396 0.001118993852287531 -0.0022430422250181437 -0.4373932480812073 -0.7686207294464111 -0.20813286304473877 0.1376362442970276 0.0033569815568625927 -0.1500110810407846 -0.20000042854476627 0.29997559421182923 2.2213770583391264 2.2213905921775563 0.00018511922020849152 0.0 0.0 0.0 0.0 0.0 0.0 -5.6107339979696365 -5.86438264477145 1.6400789780532206 1.076921107239736 -0.16303122153171207 0.08793384859999973 -0.14999999998501143 -0.19999927999266093 0.3000000000115216 2.221400000056069 2.2213999999980034 5.947204720291661e-12 -7.123302753681602e-15 0.00018000000000695267 -5.2263535494927194e-15 9.07272826831609e-14 -9.062755152151653e-14 1.0868491504456741e-19

3444.7839999999997 0.4580833836853436 -1.8855405479765208 1.891361176645805 -1.5775053332417013 -1.5641353704509982 0.45807328781647616 -0.001925320108073516 -0.0018579408530896323 0.001199078054580958 0.000658992024707905 6.934516097054184e-07 -0.0019319267602331232 -0.15041680409518549 -0.1451516022208767 0.09367716436256049 0.051484533727776276 5.4174447385248355e-05 -0.15093295103011445 -0.05379988444679389 -0.36524160004675804 -0.8241390960204887 -0.23975115862428073 0.00022845587653678396 -0.04682804004681537 -0.10153649843327296 -3.691042269815962 -7.1250994143004736 -1.0385109917566469 0.0009484076552409082 -0.010777669234207383 0.45804494619369507 -1.8854973951922815 1.891357421875 -1.5774853865252894 -1.5641515890704554 0.4580284655094147 0.0 0.0 -0.0 0.0 0.0 0.0 -0.0269165076315403 -0.4643097519874573 -0.759470522403717 -0.20589487254619598 0.13204127550125122 -0.002237987704575062 -0.02243042178452015 -0.4732819199562073 -0.7609955668449402 -0.20701386034488678 0.1376362442970276 -0.01678490824997425 -0.15001282805088317 -0.19999237645797793 0.2999897923705529 2.2213904944647727 2.2214042603936517 9.646325388394531e-05 0.0 0.0 0.0 0.0 0.0 0.0 -6.122676921675359 -4.477197862519217 2.077740797384865 0.9287496206821486 -0.25266525769534554 0.20694238920476965 -0.14999999998500457 -0.19999711999266184 0.3000000000115216 2.2214000000562937 2.2213999999977787 0.0 -9.891475239825993e-15 0.00047999999999661367 -1.377024151071252e-14 3.951506272992789e-13 -3.950177772122077e-13 -1.7841612676744415e-12

3444.792 0.45806284662179664 -1.8855603660050253 1.891373966593634 -1.5774983037825976 -1.5641353630545733 0.45805268028133084 -0.004011206890192351 -0.0038707072738302316 0.002497994090177039 0.0013729824109879425 1.4445376078795857e-06 -0.0040249709968224155 -0.26073584776485437 -0.2515958025925749 0.16236450444951012 0.08924879828500469 9.388574977177091e-05 -0.2616305295736615 -0.10905405988656618 -0.420450685234351 -0.800899355737981 -0.22616530593311762 5.323457213847966e-05 -0.09660380360527855 -0.17600445399144454 -3.767283002487909 -7.1097577437814605 -1.0354559319995456 0.0002209970542450867 -0.01868225122526645 0.4581168591976166 -1.8854973951922815 1.8913936614990234 -1.5774853865252894 -1.5641754309283655 0.45805245637893677 0.0 -0.003854126902297139 -0.0 0.0 0.0 0.0 -0.1031799390912056 -0.5360870957374573 -0.7060940861701965 -0.1879909634590149 0.134279265999794 -0.04699774086475372 -0.1009368970990181 -0.5428162217140198 -0.7320197820663452 -0.18239599466323853 0.1376362442970276 -0.05259270966053009 -0.14999660562651146 -0.20000002165554376 0.2999789699581427 2.2213451687792585 2.221465037193538 0.00016241197647208586 0.0005122628182587273 0.00025140894935434053 0.0008597719455658543 -0.0017044397641670555 0.0034567552631568923 4.724401953382787e-06 -6.806518570504431 -7.036654572273079 3.3037025787484247 1.1875245191909503 -0.3811180038516033 0.23024707447563186 -0.1499999999850077 -0.1999919999926704 0.3000000000115213 2.2214000000559886 2.221399999998084 2.9736023601273103e-12 -3.603446463472041e-14 0.0009999999999969124 -2.8805482948776376e-14 4.0967286382316894e-13 -4.0950792923247756e-13 -1.0672615135404184e-19

3444.7999999999997 0.4580227333484368 -1.8855990730500451 1.8913989457025948 -1.5774845731542015 -1.5641353486106961 0.45801242936452696 -0.007220606011923764 -0.0069672631123214035 0.004496089863395024 0.002471657881326579 2.5996282975345923e-06 -0.007245382261166442 -0.4011748902164266 -0.3870694798113965 0.24976197165224812 0.13733443379232954 0.0001443863362068758 -0.40255140804300327 -0.19247610395364886 -0.5037378130255524 -0.7655708945408396 -0.20545848859468474 -0.00016975970595534446 -0.17258922914960131 -0.27080197504396 -3.8641653180089377 -7.090235512337344 -1.0315658886875065 -0.0007047374185341704 -0.028744988394126734 0.4580329656600952 -1.885533634816305 1.8913817405700684 -1.5774615446673792 -1.5641635099994105 0.45800450444221497 -0.008110923692584038 -0.010929613374173641 -0.0 0.0 0.0 -0.016274578869342804 -0.2243042290210724 -0.4912262558937073 -0.6984688639640808 -0.16113510727882385 0.13316026329994202 -0.134279265999794 -0.2220611870288849 -0.4822540879249573 -0.6847434639930725 -0.16225410997867584 0.1376362442970276 -0.13092228770256042 -0.15000727024599678 -0.19998552681331916 0.2999885770193453 2.2213827145164102 2.221422613176529 0.00012022556838307933 -0.00016922781341328439 0.0019295728953967076 0.0024380900330423483 -0.004834175706224621 0.009802894757252217 0.008177052662080624 -0.46973721692157094 -2.1710713702608513 2.001843087962028 0.7210020617991922 0.2649657922521208 0.1777975827567328 -0.1499999999850093 -0.1999819999926613 0.3000000000115212 2.221400000056141 2.2214000000006093 2.973602360167772e-12 -6.132305090334212e-14 0.0018000000000091187 -5.1597993548373e-14 6.288972220126448e-13 -6.28701444707673e-13 -1.3381224991585285e-12

3444.808 0.4579534119339314 -1.885665958693055 1.8914421056811035 -1.577460842837029 -1.5641353236587348 0.4579428700909053 -0.011794880417290458 -0.011379834878232976 0.007342768131700912 0.0040378583794284766 4.244537644849176e-06 -0.011835350714886925 -0.5717843006708367 -0.5515714707389465 0.355834783538236 0.1957750622627372 0.000205613668414323 -0.5737460567150604 -0.2684691916962534 -0.5880238125016932 -0.7155959498066875 -0.1761432511359575 -0.0004405155878737047 -0.23864586178851932 -0.3859606118868375 -3.9815818387318505 -7.066538722067343 -1.0268382670192022 -0.001828748562417049 -0.04096948467185232 0.4579726755619049 -1.885665241871969 1.8914775848388672 -1.5775092283831995 -1.5641635099994105 0.45782437920570374 -0.011945875361561775 -0.012041749432682991 0.012104067951440811 0.0 0.0 -0.012942963279783726 -0.0942077711224556 -0.6190796494483948 -0.7060940861701965 -0.13092228770256042 0.14099322259426117 -0.044759754091501236 -0.0919647291302681 -0.6123505234718323 -0.6938937306404114 -0.12644630670547485 0.1376362442970276 -0.04364075884222984 -0.14999817662430645 -0.19996601151372856 0.29999337873851917 2.2212684245522003 2.2215747917944486 -3.912339242914073e-06 0.00011642086959393436 0.003038216123973403 -0.0009295807656804931 2.7997520447038242e-05 -5.519696203649598e-05 0.0009663398207374244 -7.7967916833802 10.550795732687629 -0.5335749057017873 -0.39127506694863595 -0.12017215783759454 0.8994665986596014 -0.14999999998501018 -0.19996471999265977 0.30000000001152033 2.2214000000563434 2.221399999997729 5.947204719676767e-12 -1.0089918519629161e-13 0.0029399999999947047 -8.478235634254557e-14 6.537438162073263e-13 -2.059386593740251e-12 -1.5611401585927066e-12

3444.816 0.4578433173123598 -1.8857721702759003 1.8915106319194483 -1.5774231501034794 -1.5641352840543394 0.45783239772860973 -0.017976113164597907 -0.0173406323774948 0.01118693454589764 0.006154904286337452 6.4641808818106625e-06 -0.018037788050898326 -0.772654093413431 -0.7450996874077281 0.48052080177459106 0.26463073836362194 0.0002774554046201858 -0.7753046670014251 -0.2828315492737332 -0.6026493704036462 -0.6676505860136899 -0.1367256373946635 -0.0007590206582460884 -0.24306245707500077 -0.521537350669237 -4.119400466681534 -7.038678573229406 -1.02126852689573 -0.0031509848364556195 -0.05536218035657076 0.457852840423584 -1.8858206907855433 1.891585350036621 -1.5774253050433558 -1.5641754309283655 0.4577520787715912 -0.021686654537916183 -0.017890051007270813 0.009946906939148903 0.0 0.0 -0.01756887510418892 -0.2265472710132599 -0.4127197563648224 -0.7609955668449402 -0.08280554413795471 0.1353982537984848 -0.22603675723075867 -0.2310333549976349 -0.4149627983570099 -0.7609955668449402 -0.0839245393872261 0.1376362442970276 -0.22715574502944946 -0.14998768278519026 -0.1999298136805592 0.2999886903149676 2.221321891053958 2.2215209228214543 5.6047598505139045e-05 -0.0012143110963111715 0.004797901488104981 0.0010185469209361214 -0.003511115975918678 0.007125363019813385 -0.0041332482773405455 6.922088291799232 14.58182063163352 -5.197379359453223 -0.9408004257913498 1.4771897982172937 0.07895018981475993 -0.14999999998501035 -0.1999372799926676 0.3000000000115197 2.2214000000564993 2.221399999997573 -5.947204719518145e-12 -1.568605493987725e-13 0.004479999999990897 -1.283824419502524e-13 6.256382398856906e-13 -6.253733145898796e-13 -3.568314296047647e-12

3444.824 0.45767894406148674 -1.8859307127326383 1.8916128985058005 -1.577366863201564 -1.5641352249784095 0.45766746055301305 -0.026007560514314968 -0.0250818379911523 0.01617668531951971 0.008906898065993974 9.342017088503377e-06 -0.026096781495934536 -1.0039309187146326 -0.9676507017071871 0.6237188467027586 0.3439992224570652 0.0003597295258365893 -1.0073741806295262 -0.29974687807172035 -0.6198295876710165 -0.6618480845018646 -0.08570058744136579 -0.0011252635598256822 -0.24828929497192173 -0.6776257234351549 -4.27746256197313 -7.006673856274737 -1.0148493848406515 -0.004671399092377823 -0.07193356811621257 0.4576730728149414 -1.8859284559832972 1.8916091918945312 -1.5774496237384241 -1.5641997496234339 0.4574996829032898 -0.02352743037045002 -0.028263596817851067 0.03374757990241051 0.0069029140286147594 0.0 -0.029217541217803955 -0.1390686184167862 -0.6145935654640198 -0.6435673832893372 -0.03245082125067711 0.13875523209571838 -0.08728151768445969 -0.1390686184167862 -0.6258087754249573 -0.660342812538147 -0.02909383922815323 0.1376362442970276 -0.08280554413795471 -0.15001018504720778 -0.19989401769130993 0.3000076803719538 -2.221240230689738 -2.221601001652833 9.264215423177707e-05 0.002083763985514488 0.006910824380991528 -0.004367769109546592 0.005482763705374613 -0.01110728846306263 0.005552026996066262 -5.977859204479366 10.795815133743249 -0.30891294676623793 -0.42607642633882015 0.042883775053985405 0.7469685945806398 -0.14999999998501237 -0.1998963199926647 0.3000000000115183 2.2214000000551315 2.221399999998941 0.0 -2.323911409094183e-13 0.006480000000007366 -1.8639511191264355e-13 5.986219454324678e-13 -5.983166879096219e-13 4.014368629111603e-12

3444.832 0.45744483501998773 -1.8861564483219935 1.8917584603760633 -1.5772866737717104 -1.5641351409512696 0.457432548441652 -0.03613426599787563 -0.03483559183423993 0.02245888462867558 0.012379132046090355 1.2959277856831016e-05 -0.03625820903850536 -1.2658381854450824 -1.2192192303859544 0.7852749136444837 0.4340292475120476 0.0004521575960409549 -1.2701784428213527 -0.31933113799958174 -0.6396539934753148 -0.6550344332360377 -0.06404041245435975 -0.0012720369274531178 -0.2543699426335334 -0.8543690052253164 -4.4555807893104 -6.97055379934229 -1.0075698794283219 -0.006389960537658188 -0.09069963206654433 0.4574569761753082 -1.886143986378805 1.8918004035949707 -1.577329460774557 -1.5641635099994105 0.4573558568954468 -0.03315316140651703 -0.030622093006968498 0.012343752197921276 0.009443569928407669 0.0 -0.029696909710764885 -0.1143951565027237 -0.4889832139015198 -0.623741865158081 -0.017903901636600494 0.1365172564983368 -0.24282166361808777 -0.1143951565027237 -0.4867401719093323 -0.631367027759552 -0.012308932840824127 0.1376362442970276 -0.24841663241386414 -0.15000027640631344 -0.19983852176730943 0.29998835131577856 2.2213175543366117 2.2215150754769093 3.1611013359150936e-05 -0.0009367852267615221 0.00778619729718979 0.002332917912753463 -0.0038940696304795956 0.007931497224915108 -0.0035278437782487334 -0.477113285521137 17.30066902004912 0.47837314279267124 -0.9295819136868536 0.4067680364891614 0.05353340628311936 -0.14999999998501581 -0.19983799999265228 0.30000000001151617 2.2214000000568803 2.221399999999869 0.0 -3.244430495922984e-13 0.009000000000000896 -2.5827394966889367e-13 1.6909801697380236e-12 -1.6906477043713702e-12 7.71138795180315e-18

3444.8399999999997 0.45712356436784723 -1.8864660962239883 1.8919580416575643 -1.5771765855929312 -1.5641350258537159 0.457110175921143 -0.04860386116691351 -0.046833971775524105 0.030178614885251243 0.01665861820806631 1.7393976391640104e-05 -0.048770541811456035 -1.558699396129735 -1.4997974926605215 0.964966282071958 0.5349357702469945 0.000554337316851136 -1.5640415966188346 -0.3417081207461397 -0.6622103411918839 -0.6471542527348305 -0.061610793459025245 -0.0016423043924016598 -0.2613512133548698 -1.0519755611034325 -4.653536610180867 -6.93036137352911 -0.9994143010272005 -0.008306669409579923 -0.11168351828976111 0.4571925699710846 -1.8864553610431116 1.8920283317565918 -1.577198330556051 -1.5641997496234339 0.45700719952583313 -0.0413983091711998 -0.043718453496694565 0.04055462032556534 0.025957832112908363 0.0 -0.04422179237008095 -0.1614990383386612 -0.5136566758155823 -0.7533703446388245 -0.07385359704494476 0.14546920359134674 -0.1857529729604721 -0.1592559963464737 -0.5158997178077698 -0.748795211315155 -0.09735246747732162 0.1376362442970276 -0.1857529729604721 -0.1499863447537386 -0.19976239750365424 0.29997847549583845 2.2212389772484737 2.2216205916665706 0.00012091670685049627 0.0024830418778482815 0.011555248612740515 -0.004587874121414585 0.010083423434979802 -0.02044191417383705 0.0025521956972015267 2.2082233331818495 20.738823100339854 -4.322816358031877 -1.2344221356015213 0.7719654045241245 0.3506646844117059 -0.1499999999850199 -0.19975799999264565 0.3000000000115126 2.2214000000571086 2.221399999999641 0.0 -4.359380507725308e-13 0.012099999999966868 -3.4625359178783193e-13 4.1729979189030404e-13 -2.6254385856046713e-12 1.7608120907522395e-17

3444.848 0.4566957135854688 -1.8868782319551771 1.892223519131705 -1.5770298986289415 -1.5641348729569824 0.4566808580791916 -0.06366757965381556 -0.06130896699065758 0.03947848299935368 0.021834755538170193 2.271963350987619e-05 -0.06388586006090201 -1.8829648108627561 -1.8093744018916846 1.1624835142628043 0.6470171662629853 0.0006657071397795109 -1.8894147811807467 -0.3670116797553969 -0.6875845786723529 -0.638154482086714 -0.058867524889912835 -0.0020419441467316403 -0.26928406802412047 -1.2707364334344267 -4.8710773885919885 -6.886157056888919 -0.9903609888825362 -0.010421574753869796 -0.13491744127977356 0.45684465765953064 -1.8868382612811487 1.8922557830810547 -1.5770309607135218 -1.5641754309283655 0.45658624172210693 -0.05436044558882713 -0.051906075328588486 0.048703890293836594 0.016202673316001892 0.0 -0.057140786200761795 -0.1614990383386612 -0.5114136338233948 -0.4758128523826599 -0.06490164250135422 0.13875523209571838 -0.22827474772930145 -0.1592559963464737 -0.5091705918312073 -0.4925883114337921 -0.05706868693232536 0.1376362442970276 -0.21820379793643951 -0.14997471964089495 -0.19967227667364665 0.2999815529105766 2.221140580562745 2.2216811788955066 0.00012637981139363455 0.0008792532825930354 0.013976799982690117 -0.004368539670923445 0.0057462138871937265 -0.011659943116725267 0.002553234052692036 -1.8714525684255727 16.408471287341722 7.41582724104144 -0.4754036299794103 -0.45178331655174164 0.1901958333815275 -0.14999999998503183 -0.1996515199926447 0.3000000000115076 2.2214000000558993 2.221399999998173 0.0 -5.713012778997654e-13 0.015839999999943965 -4.5009871362508643e-13 2.4980261342442553e-13 -2.6590785356799074e-12 1.8553409676658195e-17

3444.8559999999998 0.45613983848913237 -1.8874132865448079 1.892567899605471 -1.5768391872217462 -1.5641346749638005 0.4561230775356842 -0.08158151257654003 -0.07849244327970914 0.05049776569585505 0.02800015009009776 2.9003719802582667e-05 -0.08186111098001947 -2.239241615340559 -2.1479345361314444 1.3774103370626711 0.7706743189909459 0.0007855107865883096 -2.2469063648896825 -0.3953883078445764 -0.7158608023422705 -0.6279850748602349 -0.055793102432517526 -0.002469593565040852 -0.2782246563854615 -1.5110453050082016 -5.107913062523021 -6.83802305909166 -0.9803809993507987 -0.012734794605513917 -0.16044484279767757 0.45629262924194336 -1.88735276857485 1.8925790786743164 -1.5768030325519007 -1.5641515890704554 0.4561057686805725 -0.06948933005332947 -0.07085073739290237 0.03396329656243324 0.031087080016732216 0.0 -0.07118629664182663 -0.2063598781824112 -0.5495453476905823 -0.5917159914970398 -0.06937761604785919 0.1365172564983368 -0.2036568820476532 -0.2130890041589737 -0.5585175156593323 -0.5734154582023621 -0.08951950818300247 0.1376362442970276 -0.19918090105056763 -0.14997468378749648 -0.1995371231180214 0.2999800995907064 2.2211981626600594 2.22157518770406 0.00016892402164404578 0.00038436153569156684 0.017459292753913624 0.0029746694232256157 -0.0025360967969459353 0.005220641159704101 0.0014496405483889507 0.1508583578003987 18.72421566989661 2.0065642340971563 -0.8613167254676897 0.09389109858394336 0.34582207962286066 -0.14999999998504915 -0.1995132799926221 0.3000000000114999 2.221400000057679 2.221399999999071 0.0 -7.100748974824229e-13 0.020279999999936217 -5.711716057526376e-13 1.4496545863878187e-12 -1.4492670136386079e-12 3.9979955110402976e-19

3444.864 0.4554324253097369 -1.8880935453977266 1.89300528984573 -1.576596271160688 -1.5641344240631074 0.4554132404362085 -0.1026081352131661 -0.0986160977069688 0.06337137682853912 0.03525160239301477 3.630575018337328e-05 -0.10295963826101648 -2.628327829578258 -2.515456803407458 1.609201391585509 0.9064315378646266 0.0009127537975988264 -2.637315910124626 -0.42700009705976744 -0.7471211875456194 -0.6165998169637069 -0.05236723186784672 -0.002924076221771567 -0.2882355124327227 -1.7734210217583866 -5.363712308265787 -6.786068011022372 -0.9694366502321511 -0.015246538934519068 -0.18832281719426916 0.45566871762275696 -1.8879993597613733 1.892998218536377 -1.5765278975116175 -1.5641754309283655 0.4554447531700134 -0.08862574398517609 -0.08649734407663345 0.05483981594443321 0.03283677622675896 0.0 -0.0872211903333664 -0.2108459621667862 -0.5136566758155823 -0.5810406804084778 -0.14435020089149475 0.1510641723871231 -0.21484681963920593 -0.2175751030445099 -0.5450592637062073 -0.5779905915260315 -0.14211222529411316 0.13987423479557037 -0.23386971652507782 -0.14996240788220488 -0.19937379043815479 0.29997531931389615 2.22116504629578 2.2216186466607795 0.00025197594318077164 0.0003529064644381232 0.02218853452297604 6.033262731650841e-05 0.0005360369972689024 -0.0010479662207158826 -0.0017228260941312965 2.3913753806070086 23.994867113304263 3.711834260815032 -1.0099809581875903 -0.14609044499131726 0.34028882076303246 -0.149999999985075 -0.19933751999260302 0.3000000000114882 2.2214000000566028 2.2213999999974696 0.0 -8.586406548414024e-13 0.02547999999985225 -7.068768198949327e-13 -3.073081290098739e-13 -2.503525023151367e-12 -4.238552868060519e-17

3444.872 0.45454783353342965 -1.8889431467472937 1.893550857593499 -1.576292178240796 -1.5641341120014367 0.4545256191827087 -0.12701813745491086 -0.12191139923416959 0.0782286395324621 0.043691276022518245 4.467497304204448e-05 -0.12745301593505073 -3.0512502802180954 -2.9119126909000985 1.857157837990373 1.054959203687934 0.0010461528573339001 -3.061672209254282 -0.4620281244110241 -0.7814458849314094 -0.6039572788006741 -0.048566272372460195 -0.0034044556610965154 -0.29938692335603767 -2.0585329254926537 -5.638098100018014 -6.730432123174091 -0.9574799489245251 -0.0179571350632293 -0.21862482744622053 0.4548766314983368 -1.8888252417193812 1.8934650421142578 -1.576240364705221 -1.5641754309283655 0.4546275734901428 -0.11205729842185974 -0.10975632816553116 0.07267234474420547 0.04429369792342186 0.0 -0.11181282252073288 -0.2377624809741974 -0.4755249619483948 -0.6069663763046265 -0.0850435346364975 0.1376362442970276 -0.31667524576187134 -0.2400055229663849 -0.4800110459327698 -0.5978161692619324 -0.10294743627309799 0.13987423479557037 -0.31331828236579895 -0.1499543019259587 -0.1991732287185755 0.29999499964501475 2.22115665848646 2.221660113512907 0.00014576841873371267 0.0009792559270293299 0.0282873661070951 -0.001090694254129974 0.0031983679128504646 -0.00645820216305007 -0.0006774042964893737 6.171812253491715 26.905247349746617 0.8164111233543363 -1.5269770073365456 0.5936089714529501 -0.08033486409539048 -0.14999999998511038 -0.19911799999256155 0.3000000000114705 2.221400000056394 2.221399999997678 0.0 -1.0052936311819978e-12 0.031499999999770094 -8.533987438371763e-13 8.813313041511839e-13 -8.808027007388556e-13 3.233632979438017e-17

3444.8799999999997 0.4534582229507439 -1.889988079570677 1.8942207820374184 -1.5759170968171068 -1.5641337301739586 0.45343227934377245 -0.15509259396064604 -0.14860951078739723 0.09519184587349129 0.05342806013588939 5.414767232814649e-05 -0.1556232224405308 -3.509307063216897 -3.337263944153455 2.120400792628648 1.217098014171393 0.0011840874107627516 -3.5212758131850097 -0.5006763183349616 -0.8189128687073424 -0.5900219158415119 -0.04436262269460157 -0.0039100975079118345 -0.31175849616819695 -2.3672293283540933 -5.93064252896626 -6.671292819365817 -0.9444509140744372 -0.020867054584541488 -0.251443741992102 0.4538208842277527 -1.8898194471942347 1.8940882682800293 -1.5759418646441858 -1.5641635099994105 0.453630268573761 -0.13794322311878204 -0.13109783828258514 0.08453672379255295 0.04386226460337639 0.0 -0.13697969913482666 -0.2422485649585724 -0.5158997178077698 -0.6572927236557007 -0.10854240506887436 0.14546920359134674 -0.3726249635219574 -0.2669220268726349 -0.4957123398780823 -0.6557676792144775 -0.11078038811683655 0.13987423479557037 -0.34800708293914795 -0.14996312267274228 -0.19891698192063748 0.30000425273413284 2.2212338894140435 2.2216006446761627 3.210314714953747e-05 -0.0004378891468469909 0.033954162913442394 0.00011662429848620477 -0.0011465532359358002 0.0024491061472341124 -0.0014120577864543016 6.8827823914669874 29.419605779907418 -1.4292766875189549 -1.727990714857141 0.727724307726861 -0.28244390516232 -0.14999999998517533 -0.19884799999247119 0.30000000001144417 2.2214000000549947 2.2213999999990772 2.9736023578437696e-12 -1.1436370176035512e-12 0.03839999999958888 -1.0030147753689812e-12 1.190552359106123e-12 -1.1894690288461096e-12 4.1701126059223714e-17

3444.888 0.45213346205863164 -1.8912561807966881 1.895032191986285 -1.5754603167645875 -1.564133269739056 0.4521029878847114 -0.18712551424446916 -0.17894118654076177 0.11437458645326293 0.06457913727213663 6.47439371293625e-05 -0.18776519515795542 -4.0041150354778905 -3.7914594691705674 2.3978425724714545 1.3938846420309048 0.0013245331001520008 -4.017746589678076 -0.5431758735796857 -0.8595977176911594 -0.5747653334540305 -0.039724049547098364 -0.004440743179266543 -0.3254409522495111 -2.700569549031985 -6.240860700086027 -6.608870852852113 -0.930275804883314 -0.023976942865459667 -0.28689523072914236 0.4525367021560669 -1.890956226979391 1.8948907852172852 -1.575475041066305 -1.5641396681415003 0.4523681700229645 -0.1707320660352707 -0.16214177012443542 0.10155432671308517 0.055510930716991425 0.0 -0.17475397884845734 -0.2467346489429474 -0.5831909775733948 -0.5612151622772217 -0.0682586282491684 0.13987423479557037 -0.2875814139842987 -0.2601929008960724 -0.5540314316749573 -0.564265251159668 -0.07049661129713058 0.13987423479557037 -0.2674395442008972 -0.14997177421778862 -0.19860550243439762 0.2999769711423116 2.221217392767937 2.221524630975348 0.00021680872966656252 -0.0006317850417546974 0.04190086277619619 0.0008899997123588714 -0.002196642076293734 0.004588306550247011 0.0034700360836964336 2.431370930863241 29.822627361251914 1.3698521695014714 -1.749008052155628 0.2820532664338219 0.17535067633073326 -0.14999999998526675 -0.1985203199923722 0.30000000001140503 2.2214000000564917 2.2214000000002576 0.0 -1.1860412675138945e-12 0.04623999999917913 -1.143632430724539e-12 3.049068993076037e-12 -3.047821547918086e-12 -3.791336005993379e-12

3444.8959999999997 0.45054101461831336 -1.8927771315789625 1.89600308983913 -1.5749101571692155 -1.5641327217603793 0.450505099515933 -0.2234268184957255 -0.21313663600211202 0.13587983214113336 0.07727176584808898 7.646391775287524e-05 -0.22418981123352852 -4.537663031407041 -4.274431182668781 2.688155710983804 1.586578571994044 0.001464997577939093 -4.553077009446637 -0.589790299505836 -0.9035733037056974 -0.5581677340480737 -0.034612957821363456 -0.004996594348576768 -0.3405381879725548 -3.059860054759977 -6.568203465320433 -6.5434369147408775 -0.9148652757677321 -0.027287649246599734 -0.325121570013556 0.4510132074356079 -1.8924410978900355 1.8957886695861816 -1.5750325361834925 -1.5641878286944788 0.4508300721645355 -0.20486314594745636 -0.19259129464626312 0.12082496285438538 0.0649784728884697 0.0 -0.20116721093654633 -0.3229980766773224 -0.5719757676124573 -0.4529372453689575 -0.03580780327320099 0.13204127550125122 -0.2540116012096405 -0.2960815727710724 -0.5630035996437073 -0.4514122009277344 -0.031331829726696014 0.1376362442970276 -0.2506546378135681 -0.14997823578111608 -0.19822807348067564 0.300000095719316 2.2212720884720847 2.221601694728966 2.7260081099064198e-05 -0.001121905201423457 0.04998786343674388 0.0010133434917440874 -0.002901276044743368 0.006139417478888761 -0.004345887857460501 3.106105974430986 29.670474221214334 4.841775981371023 -1.6919017159249905 0.1668555484683982 0.401384543830043 -0.14999999998541005 -0.19812727999219618 0.30000000001134736 2.2214000000560636 2.2213999999980087 0.0 -1.1291655209966288e-12 0.055079999998685576 -1.2535652359398418e-12 1.2074349635557542e-12 -4.8206636477205385e-12 3.7364317369281697e-17

3444.904 0.44864580078185806 -1.8945824523296286 1.897152259307431 -1.5742538790094276 -1.5641320773811618 0.4486034175686545 -0.26432579172554743 -0.25142534353248674 0.15979774975060168 0.09164528417162872 8.928342843152091e-05 -0.26522734718353014 -5.112371653727743 -4.78608844129684 2.98973970118354 1.7966897904424672 0.0016024388348307081 -5.129691993750202 -0.6408212056190798 -0.9509093533540185 -0.5402195668491082 -0.028985603211934597 -0.005578411254607305 -0.3571696482700374 -3.4466953770726674 -6.912048672843211 -6.475318746355314 -0.8981124809380615 -0.030800258803793192 -0.3662959161977207 0.44920095801353455 -1.8941643873797815 1.8968424797058105 -1.5744097868548792 -1.5641635099994105 0.4490032196044922 -0.24167868494987488 -0.2270483374595642 0.15320633351802826 0.08458466082811356 0.0 -0.24838505685329437 -0.2422485649585724 -0.5674896836280823 -0.48038798570632935 -0.02349887043237686 0.1510641723871231 -0.3390551507472992 -0.2691650688648224 -0.5944061875343323 -0.48343804478645325 -0.022379877045750618 0.1533021628856659 -0.31331828236579895 -0.14998175960857066 -0.19778557704157473 0.3000134475935847 2.221257578087059 2.2216063745175982 -5.435161858313279e-05 0.0001674885573442039 0.059553948026752596 -0.0027929842171119813 0.004746190927805155 -0.009627996590467902 0.005846565125732007 3.158902743928596 38.92000452712417 2.70482989753713 -2.4673073455726806 0.4077027704501203 0.08405939111481436 -0.14999999998560595 -0.19766071999193283 0.3000000000112631 2.2214000000564678 2.2213999999976046 2.973602356951357e-12 -8.377072687705258e-13 0.06497999999777633 -1.3000365769381718e-12 1.8845033888847147e-12 -1.884051611754027e-12 -4.7813315806610746e-17

3444.912 0.44641002874965097 -1.8967054961044205 1.898499154697328 -1.5734775810447372 -1.5641313280358462 0.4463600253558206 -0.31017507732305827 -0.2940358280960743 0.18620323309188994 0.10785333932514304 0.00010314888705966572 -0.31123147844372323 -5.731160699688854 -5.326310570448446 3.3006854176610316 2.026006894189291 0.0017331823285181012 -5.750516407524136 -0.6966149529791538 -1.0016718388482024 -0.5209234028804105 -0.022791248999828415 -0.0061876246279122865 -0.37547307231959454 -3.8630046393072868 -7.271690518063618 -6.40490876788408 -0.8798911614526713 -0.034516123910010264 -0.410627125112076 0.4470531642436981 -1.8962233702289026 1.8981719017028809 -1.5736802260028284 -1.5641396681415003 0.4467921257019043 -0.28323039412498474 -0.26714277267456055 0.16984044015407562 0.09342902153730392 0.0 -0.2923431992530823 -0.3252411186695099 -0.4418793320655823 -0.5200390219688416 0.0033569815568625927 0.14882618188858032 -0.3267461955547333 -0.3140259087085724 -0.4620667099952698 -0.4925883114337921 0.0055949692614376545 0.14994516968727112 -0.3211512267589569 -0.14997725273504806 -0.19725795997425408 0.3000087311843442 2.2211800310451264 2.2216532251700096 -6.647871052552074e-05 -0.0006239878733616479 0.06916152416980843 0.00021990047785451323 -0.0015883059864442587 0.0035527057657240542 0.008180745880200476 11.270470942413215 48.191719453774425 -0.32113843160822964 -3.390665072882513 1.3914906387138395 0.22599345911558366 -0.14999999998589783 -0.19711199999155177 0.3000000000111405 2.2214000000563248 2.221399999997748 0.0 -2.7463112834873136e-13 0.07599999999634258 -1.2332129379746262e-12 1.3774821703343564e-12 -1.3768252399370445e-12 -4.460468073456264e-12

3444.9199999999996 0.44379299239688 -1.8991814397903815 1.900063769409227 -1.572566077117692 -1.5641304657052633 0.44373408345301274 -0.34414788688334685 -0.324947926544511 0.2049077431491493 0.12006318060128275 0.00011235371361234811 -0.345317990370935 -4.246601195036074 -3.8640123060545846 2.338063757157421 1.5262301595174634 0.001150603319085299 -4.260813990901474 -0.6238790927218231 -0.922275193611081 -0.5386207750954128 -0.031306778843250574 -0.0036002196163155307 -0.3554557061541104 -2.8615608622290574 -6.193265796507123 -6.620124556395419 -0.9206044808357261 -0.02456268424693562 -0.3042519446483016 0.444533109664917 -1.8985937277423304 1.8997526168823242 -1.5728305021869105 -1.5641515890704554 0.4442320168018341 -0.3324519991874695 -0.31128305196762085 0.19229887425899506 0.11368235945701599 0.0 -0.3423413932323456 -0.2243042290210724 -0.5316010117530823 -0.4712377190589905 0.002237987704575062 0.1667300909757614 -0.1667300909757614 -0.2400055229663849 -0.5540314316749573 -0.4727627635002136 -0.001118993852287531 0.15665914118289948 -0.16001611948013306 -0.14997662425842942 -0.19663958387312036 0.2999862426820992 2.2211395918582744 2.2216824396588226 2.89941669966905e-05 -0.0010164279742814852 0.08074125153241402 0.0013484342799043826 -0.0021940426685953807 0.004844597161391786 0.008792293477114374 1.7250051144621728 42.37959616490512 2.4216732054232795 -2.7583328194183263 0.45032247915121637 0.8754028790138503 -0.1499999999863056 -0.19647199999102344 0.30000000001096416 2.2214000000572978 2.221399999999452 0.0 7.819294174357784e-13 0.08399999999443725 -9.29806004341925e-13 1.592001124548329e-12 -1.591833092187117e-12 3.3068166260807885e-17

3444.928 0.4409025855369085 -1.9019046251283802 1.9017769610184447 -1.5715558903315143 -1.5641295317270387 0.4408338585292708 -0.3785246057340097 -0.3558458378652473 0.22334316224987477 0.13252794635625428 0.00012105201823159205 -0.37980914576778857 -4.297089856332856 -3.862238915092041 2.304427387590683 1.5580957193714415 0.001087288077405492 -4.311394424606693 -0.6415497079917861 -0.9334938387314251 -0.5317421284976788 -0.029380252589310648 -0.0034269742738684693 -0.36214733554711337 -2.8949762407258683 -6.158148429961417 -6.6271067597164866 -0.9183627337571972 -0.024587987728816443 -0.3078637416778901 0.44162917137145996 -1.9011791388141077 1.9014053344726562 -1.571812931691305 -1.5641277472125452 0.44132357835769653 -0.36169350147247314 -0.3327971398830414 0.2172500342130661 0.12497150152921677 0.0 -0.370887815952301 -0.2018737941980362 -0.5203858017921448 -0.6069663763046265 0.03245082125067711 0.1533021628856659 -0.2528926134109497 -0.2220611870288849 -0.5114136338233948 -0.5734154582023621 0.02349887043237686 0.15777812898159027 -0.24729764461517334 -0.15000149357000395 -0.19594549749864215 0.29997380909824883 2.2211099983079556 2.2216410886119085 0.0001421631146206365 -0.0008900224982804114 0.08759862122468003 -0.0025331120769420978 0.004088410776782207 -0.008463663308384922 0.007954595195259997 4.750305012916319 47.29629026072618 -4.52893736952578 -3.5308802518244407 1.3293194993177917 0.5063902980470606 -0.149999999986746 -0.19576799999047945 0.30000000001076627 2.221400000057072 2.221399999999677 2.973602356216078e-12 2.4007516356659402e-12 0.09199999999179563 -3.707745287990268e-13 1.3268830950532118e-13 -4.1482285628977684e-12 -4.629543276513104e-17

3444.9359999999997 0.4377354100917739 -1.9048749284812123 1.9036364736572293 -1.5704448882828839 -1.5641285303657853 0.437655946384763 -0.4133470829687625 -0.38672696759494457 0.241483698125566 0.14527083628584975 0.00012919047368689987 -0.4147468554515277 -4.352809654344099 -3.8601412162121567 2.2675669844614035 1.592861241199433 0.0010173069319134777 -4.367213710467388 -0.6597789058628144 -0.9444615054320644 -0.5250435686925128 -0.02736735876406766 -0.003266130794335855 -0.3690656001204967 -2.93192547722123 -6.1197099552923735 -6.634775214524344 -0.9159213694324188 -0.024616855664072228 -0.31184962942334477 0.438521146774292 -1.9041245619403284 1.9032378196716309 -1.570796314870016 -1.5641396681415003 0.43818747997283936 -0.39227724075317383 -0.36999616026878357 0.22132466733455658 0.14131797850131989 0.0 -0.4008963108062744 -0.2803802788257599 -0.5248718857765198 -0.4148111939430237 0.05259270966053009 0.15554013848304749 -0.2696775197982788 -0.2871094048023224 -0.5719757676124573 -0.4285365641117096 0.04923573136329651 0.16113510727882385 -0.2540116012096405 -0.15000344521408449 -0.19519079854549504 0.29998500013972107 2.2211215256935426 2.2216926677620297 6.273149783471703e-06 -2.2596825272408037e-05 0.09500482870747164 0.002765720646513892 -0.003017321454717113 0.0067315283621398195 0.007300807750741262 3.33885325226708 39.96177833528158 3.2635771814608927 -2.667454091322133 0.6862221601040173 0.4609576258959465 -0.14999999998721514 -0.19499999998989362 0.3000000000105452 2.2214000000584004 2.2213999999983494 0.0 4.170995435884938e-12 0.09999999998907576 2.8706001469340273e-13 4.710790207024779e-13 -4.485990614779631e-12 -4.460326015866614e-12

3444.944 0.4342877295229024 -1.9080922039650883 1.9056398449407783 -1.56923075428299 -1.5641274663181557 0.43419660387481424 -0.44865809858978645 -0.4175883403022287 0.2593035131521516 0.158314714447642 0.00013671437001846418 -0.45017395869923527 -4.413876952627994 -3.857671588410515 2.2274768783232015 1.630484770224032 0.0009404870414455389 -4.428387905963449 -0.6785954192208986 -0.9551736450570941 -0.5185371095496998 -0.02526581077958379 -0.003118810622179528 -0.3762222679870946 -2.9724991367560984 -6.077914776218204 -6.643129462245225 -0.9132835081362837 -0.024649261135045175 -0.31621789520113197 0.43523335456848145 -1.9071772734271448 1.905153751373291 -1.5695751349078577 -1.5641515890704554 0.4348345100879669 -0.4284791946411133 -0.4003114700317383 0.25310683250427246 0.1475018411874771 0.0 -0.43708866834640503 -0.3521576225757599 -0.6101074814796448 -0.5108888149261475 -0.02909383922815323 0.1521831601858139 -0.3513640761375427 -0.3386993706226349 -0.6145935654640198 -0.5017385482788086 -0.04028377681970596 0.16225410997867584 -0.3099612891674042 -0.15000169280163644 -0.1943943291261156 0.29997518893481717 2.2210501975298316 2.2217403650783147 0.00013752794114117348 0.00020825773794021295 0.10339652730261564 -0.0009050294541563648 0.00020031425132151153 -0.0002142477856794301 0.007167570055381287 4.798515619584824 34.98748716241347 0.4881902927674986 -2.207636460031247 0.6604897731348722 0.1150932807403407 -0.14999999998772612 -0.19416799998928594 0.3000000000102993 2.2214000000558993 2.221399999998173 -2.9736023540974023e-12 6.07284219909338e-12 0.10799999998614647 1.0514158949710767e-12 -1.521444868847553e-12 -2.4940287432814744e-12 1.0362262263530209e-16

3444.9519999999998 0.4305554610488976 -1.9115562801977486 1.9077844055896074 -1.567910990231952 -1.5641263447245155 0.43045174114877044 -0.48450144728110434 -0.4484265477718873 0.2767767207082553 0.17168206108968578 0.00014356747635703605 -0.48613430666897833 -4.480418586414736 -3.8547759337073244 2.1841509445129637 1.6709183302554727 0.0008566382923214837 -4.495043496217884 -0.6980294889358286 -0.9656250775296615 -0.5122348799474762 -0.023073408213733236 -0.002986166254949865 -0.3836298030321348 -3.0167962271875792 -6.032722550225587 -6.652168876767235 -0.9104527130047981 -0.024685175971574384 -0.3209775709344304 0.4315972626209259 -1.910480801259176 1.9073095321655273 -1.5683310667621058 -1.5641396681415003 0.431205153465271 -0.46429765224456787 -0.43467265367507935 0.270843505859375 0.15687350928783417 0.0 -0.47150737047195435 -0.3297272026538849 -0.5091705918312073 -0.5230891108512878 0.01678490824997425 0.1544211506843567 -0.38157689571380615 -0.3633728325366974 -0.5383301377296448 -0.5261391997337341 0.03692679852247238 0.15889713168144226 -0.3412931263446808 -0.15001016311667867 -0.19352497145199146 0.29994414634750105 2.221040391235433 2.2216882166988348 0.0002731358256301504 0.0003600754362688772 0.11151333111914903 0.0001592563060574273 -0.002877339964694934 0.006360162885778441 0.005680741064218933 8.458998893086527 42.56359794217372 -1.3011246514578898 -2.971700185315441 1.2894792974045834 0.00898832717734879 -0.14999999998826224 -0.19327199998866454 0.30000000001002586 2.2214000000570246 2.221399999997048 2.973602353957347e-12 8.171846105850704e-12 0.11599999998310806 1.93053076193153e-12 2.230256404939284e-12 -2.229598549766455e-12 4.4604563911778555e-12

3444.96 0.426534167192495 -1.9152669566126885 1.9100672790243527 -1.5664829198997712 -1.56412517118142 0.4264169132206011 -0.5209220222985552 -0.4792376922525498 0.29387738193523255 0.1853949191084054 0.000149691946999483 -0.5226728459627112 -4.552571877181361 -3.851393060082815 2.137582653372154 1.7141072523399503 0.0007655588303058694 -4.567317411716614 -0.7137703152306606 -0.9758099251291511 -0.5061491142022697 -0.020788052617772803 -0.002869383027403503 -0.4612362984986869 -3.0649242962794916 -5.984087767891708 -6.661892623069623 -0.9074330384480291 -0.0247245701119915 -0.32613843441844825 0.4277215003967285 -1.9140246550189417 1.9096689224243164 -1.5669549147235315 -1.564103905354635 0.42725110054016113 -0.5036442279815674 -0.4648153781890869 0.28985047340393066 0.17549699544906616 0.0 -0.5095692873001099 -0.3544006645679474 -0.5450592637062073 -0.5520648956298828 0.08280554413795471 0.168968066573143 -0.4061947762966156 -0.3633728325366974 -0.5652466416358948 -0.5459647178649902 0.07385359704494476 0.15889713168144226 -0.39500483870506287 -0.15000291942508379 -0.19259781496416936 0.29989053025563467 2.2208977566346544 2.221689129467444 0.0005353844381746094 0.0001535283568153411 0.12018029087107683 -0.0009371938115584365 0.00015998406801461285 -0.0004627364172605985 0.004237488598316437 7.603188211262287 42.28368677802205 -4.264166095507203 -3.1117038441695364 1.7426664532474185 0.25429908786861033 -0.1499999999888245 -0.19231199998801998 0.3000000000097231 2.221400000056017 2.2213999999980554 5.947204708162608e-12 1.0384600813359975e-11 0.1239999999800012 2.9384864141137683e-12 5.421761342122206e-13 -5.420947604286486e-13 -4.460684751260435e-12

3444.968 0.42221904665697557 -1.919223999297671 1.9124853809364333 -1.5649436926587184 -1.5641239517551844 0.42208731087157947 -0.5579658991766853 -0.5100173242153653 0.31057950299562664 0.19947483457149984 0.000155028177904354 -0.5598357019929152 -4.630484609766255 -3.8474539953519336 2.0877651325492614 1.7599894328868062 0.0006670288631088724 -4.645357003775496 -0.7267986629495365 -0.9833360927204878 -0.5002921411490673 -0.01840776529965972 -0.002769682113100292 -0.4653096464534177 -3.1169995113423683 -5.931959285482419 -6.672299610381608 -0.9042290836596721 -0.02476741177375564 -0.33171100756859684 0.42349743843078613 -1.917795483266012 1.9120635986328125 -1.5654829184161585 -1.564103905354635 0.4229847192764282 -0.5399037003517151 -0.49614691734313965 0.30830618739128113 0.19064505398273468 0.0 -0.5583930015563965 -0.3409424126148224 -0.5316010117530823 -0.671018123626709 0.06266365945339203 0.15665914118289948 -0.28198644518852234 -0.3454284965991974 -0.5450592637062073 -0.6542426943778992 0.07049661129713058 0.15889713168144226 -0.2707965075969696 -0.1500189711202974 -0.19160072881699203 0.2998642527967019 2.220842299591278 2.2216961718115456 0.0006753893572448654 0.0005349061200918538 0.12823398284637702 -0.0013902001290641943 0.0010311740336539387 -0.0025584159254509256 0.016669737246169592 9.066057383276325 50.331987831625405 -9.342224570950291 -3.957188746112363 2.1384353308200117 0.8488660278728263 -0.1499999999894259 -0.19128799998735832 0.3000000000093883 2.2214000000557306 2.2213999999956653 0.0 1.2715800368272893e-11 0.13199999997677836 4.083619480137191e-12 2.0536301321212654e-12 -2.0529078880382676e-12 -8.920599502137971e-12

3444.9759999999997 0.4176049245345942 -1.923427136311906 1.9150354188398364 -1.5632902877184396 -1.5641226929962597 0.4174577508883451 -0.5956804189371355 -0.5407603741456273 0.3268570330996511 0.21394279044217918 0.00015951471843107315 -0.5976702617396038 -4.714314970056282 -3.84288124128275 2.034691263003055 1.8084944838349173 0.0005608175658398957 -4.729319968336074 -0.7403355514666538 -0.9856247239725036 -0.49467637109831303 -0.015930707881973333 -0.0026883221602377817 -0.46953450066844227 -3.173146719606462 -5.876279817783841 -6.683388434386242 -0.900846053866201 -0.024813666681676567 -0.337706550978974 0.41899773478507996 -1.921877686177389 1.9146265983581543 -1.5639155546771448 -1.5641277472125452 0.4183344841003418 -0.5808801651000977 -0.5274593234062195 0.3208896219730377 0.21085046231746674 0.0 -0.5900793075561523 -0.3813171684741974 -0.5607605576515198 -0.5551149845123291 0.1197323426604271 0.1510641723871231 -0.3412931263446808 -0.3902893364429474 -0.5966492295265198 -0.564265251159668 0.10854240506887436 0.1533021628856659 -0.32898420095443726 -0.1500216757630243 -0.19053646852197811 0.29984315068443185 2.2206948233878934 2.221849569792455 0.0007583369708394003 9.045073190057841e-05 0.13686407690170263 -0.0006167282714304574 0.001595127578021924 -0.003936031176408847 0.00723596867104263 7.067441533691624 43.72454304210455 -5.6648762946526245 -3.4058604743705168 1.9049779840836603 0.5935237027087746 -0.149999999990062 -0.19019999998670248 0.3000000000090185 2.2214000000563052 2.221399999997767 2.9736023551319912e-12 1.5231242229872318e-11 0.13999999997347 5.3792061031858334e-12 2.483358336862235e-12 1.5318793332450635e-12 -1.185575075612899e-16

3444.984 0.412686241852968 -1.927876052431472 1.9177138916104204 -1.5615195189201927 -1.5641214019544272 0.4125226656425971 -0.6341142703106554 -0.5714610777366711 0.3426838634291051 0.22881913287669484 0.0001630881663374238 -0.6362252554961754 -4.80423142168998 -3.8375879488804774 1.9783537911817541 1.8595428043144575 0.00044668098829383015 -4.819374219571445 -0.7544037781445178 -0.9875897038701986 -0.4893142811271512 -0.013355205278677758 -0.0026266014201140916 -0.47391733421331894 -3.233499475536811 -5.816985377883584 -6.695157312900422 -0.8972898272635396 -0.024863297907112742 -0.3441370548969382 0.4141736924648285 -1.9262350241290491 1.9173803329467773 -1.5621569792376917 -1.5641158262835901 0.4134550094604492 -0.6144551634788513 -0.5622231364250183 0.32834380865097046 0.2227148413658142 0.0 -0.6253848075866699 -0.4059906303882599 -0.5787048935890198 -0.46666261553764343 0.017903901636600494 0.1533021628856659 -0.3569590449333191 -0.4261780083179474 -0.5719757676124573 -0.4849630892276764 0.01007094420492649 0.1544211506843567 -0.3524830639362335 -0.15001328300971856 -0.18940131230279691 0.29980372927031684 2.2206034268032724 2.2218441519097842 0.0009772046576598384 0.0006655892230708306 0.1440218960352537 0.0030449709674604804 -0.004746108599672976 0.01015826928722632 0.008901806254934893 6.0750054986103645 41.16050510256096 0.26020678579769496 -2.781527997318253 0.9202076359893175 0.5409661977882382 -0.14999999999072453 -0.18904799998603147 0.3000000000086109 2.2214000000573306 2.221400000002096 2.973602355400425e-12 1.7907526893035126e-11 0.1479999999701909 6.8414887441889704e-12 1.621374602159486e-12 -1.620821449209032e-12 -4.4603749404896476e-12

3444.9919999999997 0.4074570444695182 -1.932570383268196 1.9205170890215189 -1.5596280401541822 -1.564120086194876 0.40727609202210735 -0.6733175703976694 -0.6021128939408155 0.3580338273066061 0.24412348906122114 0.0001656830615591991 -0.6755508371177631 -4.90041251087675 -3.831477025518046 1.9187454846876228 1.9130445230657878 0.0003243619027219142 -4.915697702698465 -0.7690272252301373 -0.9892233275185434 -0.48421839771418096 -0.010679772153594669 -0.0025858598628240997 -0.4784648977156538 -3.2982000266304343 -5.754004672428711 -6.707604008027571 -0.8935670312098308 -0.024916265548659406 -0.3510152258565893 0.4090261161327362 -1.9308560530291956 1.9201111793518066 -1.5603259245501917 -1.5641396681415003 0.40816736221313477 -0.6556233763694763 -0.5921741127967834 0.35238415002822876 0.24275246262550354 0.0 -0.6656757593154907 -0.3499145805835724 -0.5428162217140198 -0.4422619342803955 0.08056755363941193 0.1510641723871231 -0.34576910734176636 -0.3566437065601349 -0.5473023056983948 -0.46666261553764343 0.08168654888868332 0.1544211506843567 -0.34017413854599 -0.15002091922388358 -0.1882027569967504 0.2998166790339724 2.220496191441526 2.2220107373082545 0.0009028363327735385 0.0011407271862570588 0.15276439175795026 -7.236295272239148e-05 0.0009475580225755464 -0.002784183952024746 0.007837241365065986 5.197587808355985 46.55874202677264 -0.22207608609671464 -3.3613192566439913 1.1354135087260047 0.6138501121739603 -0.14999999999142022 -0.1878319999853798 0.3000000000081626 2.221400000056114 2.2213999999979586 2.9736023535138583e-12 2.0704454638441183e-11 0.1559999999668359 8.483361833219132e-12 8.31710378772882e-14 -8.113945051881577e-12 -4.46034924489816e-12

3445.0 0.40191097132915343 -1.9375097087021151 1.9234410912865603 -1.5576123514704587 -1.5641187538150172 0.40171165972943707 -0.7133419430593425 -0.6327084152122442 0.3728807018470616 0.25987467579360507 0.00016723180128683487 -0.7156986618062194 -5.003046582709142 -3.824440158928591 1.8558593175569404 1.9688983415479915 0.00019359246595447 -5.018478086057043 -0.7842308720665542 -0.990516997657414 -0.47940127703051805 -0.00790314253907443 -0.002567480802505509 -0.4831842197539291 -3.367399247360462 -5.687258441701143 -6.72072573840351 -0.889685125591972 -0.024972526198225833 -0.3583544646910753 0.4036141037940979 -1.9357522169696253 1.9230570793151855 -1.5583637396441858 -1.5641635099994105 0.4026516079902649 -0.6981338262557983 -0.6217799782752991 0.3671487271785736 0.25603097677230835 0.0 -0.7069255113601685 -0.4643097519874573 -0.5383301377296448 -0.4529372453689575 0.021260883659124374 0.1533021628856659 -0.3177942633628845 -0.4418793320655823 -0.5405731797218323 -0.43768683075904846 0.02014188840985298 0.1533021628856659 -0.29877135157585144 -0.15000758250415536 -0.18694268974477699 0.299807519477788 2.220412325211636 2.2221169932913476 0.0009326437320563062 0.00028447926000011754 0.16102689915514648 -1.6870071736685493e-05 0.00029430211839324803 -0.001379910525241903 0.0064686491450783295 8.346574651571027 42.94824658684451 0.36845056067862797 -2.9166891573374127 1.082390467422947 0.7657970022835948 -0.1499999999921491 -0.18655199998471203 0.3000000000076703 2.221400000057891 2.2213999999961813 0.0 2.365522982959578e-11 0.16399999996357756 1.0318655531299113e-11 1.9084457053233087e-12 -1.907696868288553e-12 -4.460411369682643e-12

3445.008 0.3960412421067766 -1.942693545562391 1.926481768621913 -1.5554688059614499 -1.5641174134617062 0.3958225789698732 -0.7542405941513953 -0.6632392692691833 0.38719821143653493 0.2760905977873782 0.00016766460118695882 -0.7567219607846437 -5.112331386506602 -3.8163567571173895 1.7896886986841636 2.0269902492216425 5.409998751549334e-05 -5.127912372303034 -0.8000408006769008 -0.9914611398414294 -0.47487548230751103 -0.0050243033265975085 -0.00257289151248978 -0.48808260562619576 -3.4412565053680586 -5.6166587447746625 -6.734519078020915 -0.8856524953865604 -0.025032032161884297 -0.3661688387690427 0.3980099856853485 -1.9408162275897425 1.9261465072631836 -1.556208912526266 -1.56409198442568 0.39687108993530273 -0.7334537506103516 -0.6517500877380371 0.3827521800994873 0.27592480182647705 0.0 -0.7482710480690002 -0.4373932480812073 -0.5562744736671448 -0.4544622600078583 0.006713963113725185 0.14546920359134674 -0.36591097712516785 -0.4530945420265198 -0.5719757676124573 -0.44683706760406494 -0.006713963113725185 0.1510641723871231 -0.34465011954307556 -0.14997089812882422 -0.18564679811456583 0.2997688749161811 2.220141822314981 2.2221944326391574 0.0011507027995176914 0.0015208057837582801 0.16835299716051577 -0.0007900056807306307 0.00226384758222971 -0.0064881429114073685 0.012339525152904708 7.406250907308491 44.046977413849554 0.4394011941272888 -3.0061104326650727 0.9096795751165391 0.5646211977641169 -0.14999999999290642 -0.18520799998407567 0.3000000000071305 2.221400000056573 2.2213999999974994 0.0 2.6759500082216304e-11 0.17199999996023868 1.2365476707525818e-11 -7.573341304298178e-13 7.578354808767735e-13 2.9674613460928256e-16

3445.0159999999996 0.3898406442642891 -1.9481213394861996 1.929634780846481 -1.5531936175035677 -1.5641160743492222 0.3896016275589186 -0.796068382483205 -0.6936960116918077 0.4009600334867169 0.2927881344661162 0.0001669093960903286 -0.7986756115868524 -5.228473541476208 -3.807092802828052 1.7202277562727435 2.087192084842246 -9.440063707877574e-05 -5.244206350276087 -0.8164841926913388 -0.9920451107602251 -0.47065355767752 -0.0020425323379001468 -0.0026035653123830955 -0.4931676330474277 -3.5199394395492027 -5.542108190115837 -6.748979838300622 -0.8814785542606447 -0.025094731608396793 -0.37447304285416455 0.39191412925720215 -1.9461072126971644 1.9292840957641602 -1.5539239088641565 -1.5641158262835901 0.3906700015068054 -0.777728259563446 -0.6845964789390564 0.3996978998184204 0.2888917326927185 0.0 -0.7865486741065979 -0.4396362900733948 -0.5248718857765198 -0.5978161692619324 0.03692679852247238 0.15554013848304749 -0.4218606948852539 -0.4418793320655823 -0.5271149277687073 -0.6039162874221802 0.03245082125067711 0.1510641723871231 -0.4061947762966156 -0.1499749819223437 -0.1842583061590024 0.29974636756739237 2.2200253472781166 2.2222660389970548 0.0013529988203165616 0.0012717749158902547 0.17687763432878456 -0.000874416620638199 0.0009833585413867336 -0.0038580811330683994 0.006232502830849562 11.383066267078863 48.50466594324439 -6.829642891275179 -3.613790106241739 1.9448431329120623 0.32814876661014963 -0.14999999999370567 -0.1837999999834521 0.3000000000065398 2.221400000058797 2.221399999997953 5.947204706121332e-12 2.999427085488111e-11 0.1799999999570569 1.4640651444535015e-11 1.2196429287596941e-12 -1.219046227790705e-12 2.415060339211461e-16

3445.024 0.383301519561064 -1.9537924558792001 1.9328955770377036 -1.5507828694538635 -1.5641147462774239 0.383041137488582 -0.8388818852339974 -0.7240680085928022 0.4141398068667762 0.30998301417640106 0.0001648918433807373 -0.8416162027825791 -5.351687843849054 -3.796499612624307 1.6474716725074154 2.1493599637856105 -0.00025219408869891276 -5.367573899465835 -0.8335893162569776 -0.9922570989093938 -0.4667479984915982 0.0010425590988254114 -0.0026610211850473355 -0.4984471448947964 -3.603623637765917 -5.463499104568306 -6.764102935046372 -0.877173857830988 -0.02516056725191605 -0.3832823494391569 0.3854104280471802 -1.9517458120929163 1.9325175285339355 -1.5516265074359339 -1.56409198442568 0.3842887878417969 -0.8230957388877869 -0.7141064405441284 0.40533047914505005 0.3061969578266144 0.0 -0.8323284387588501 -0.4889832139015198 -0.6078644394874573 -0.6222168207168579 0.07385359704494476 0.14211222529411316 -0.41290873289108276 -0.4979553818702698 -0.6078644394874573 -0.6191667318344116 0.07385359704494476 0.1510641723871231 -0.4050757884979248 -0.14998672010867045 -0.18279715364806395 0.2997600580228512 2.2201955113982166 2.222118547343696 0.001179051446963064 8.683525302925585e-05 0.18502518267636822 0.0012211295274107913 -0.001477353000864762 0.002263200311178139 0.006544334178124578 9.133127289191295 43.32489708100952 -8.82333796017952 -3.3598032634771373 2.033894532651278 0.39459261646043536 -0.1499999999945332 -0.182327999982864 0.3000000000058944 2.2214000000568723 2.2213999999972 -2.973602352012659e-12 3.342658877218914e-11 0.18799999995393898 1.7160762944547812e-11 -2.116275187577308e-12 -1.899199512234668e-12 -8.920445057538501e-12

3445.0319999999997 0.376415750068688 -1.9597061698948819 1.9362593952672353 -1.5482325244074913 -1.5641134396502343 0.3761329810036394 -0.882739456193608 -0.7543433085431279 0.4267111434992135 0.32768967452284364 0.0001615352816606908 -0.8856020914736772 -5.482196369951328 -3.7844124937907173 1.5714170790546642 2.213332543305323 -0.0004195702150058151 -5.498236086387262 -0.8513854997550311 -0.992084017171464 -0.4631712175563488 0.004230978281364708 -0.002746824627192349 -0.503929237831359 -3.692492182031197 -5.380712637826422 -6.779882237486795 -0.8727502285764843 -0.02522947632596668 -0.3926125442206552 0.3785584568977356 -1.9576357046710413 1.9359188079833984 -1.549042050038473 -1.5641277472125452 0.37741509079933167 -0.866641640663147 -0.7449010610580444 0.4223001301288605 0.32640236616134644 0.0 -0.8833812475204468 -0.3925323784351349 -0.6011353135108948 -0.5871408581733704 0.012308932840824127 0.14994516968727112 -0.36143502593040466 -0.4082336723804474 -0.5966492295265198 -0.5901909470558167 -0.01342792622745037 0.1510641723871231 -0.3513640761375427 -0.14998378743765628 -0.18125987153790013 0.2997437999649874 2.2201904114980913 2.222111045184682 0.0013360048152496965 0.0006709281932232614 0.19324855849956812 -0.00016720069543217818 0.0007876545084017574 -0.003729222440122778 0.01389029750134616 6.351877156374381 51.42893867301386 -6.059002069910903 -3.7878816269227316 1.3223567187916565 0.6580898692226304 -0.14999999999538122 -0.18079199998231663 0.30000000000519045 2.221400000059821 2.2213999999996057 0.0 3.698835051730728e-11 0.19599999995099865 1.994561143992795e-11 7.707159790540427e-13 -7.700329512630876e-13 4.45991735296275e-12

3445.04 0.36919899738134593 -1.965841145318275 1.939709794531431 -1.5455474788209642 -1.5641121695921685 0.36889288810753973 -0.9094817256944066 -0.7691280971971212 0.4300646245604646 0.33912253814522136 0.00015372440446018786 -0.9124151911035121 -3.3427836875998125 -1.848098581749155 0.41918513265638835 1.429107952797215 -0.0009763596500628664 -3.351637453729364 -0.7321906590076048 -0.8708272151152312 -0.4921782520498455 -0.009450573162680723 0.00033613855287464845 -0.46885065557764777 -2.2542709267082843 -3.94456149559955 -7.037075932106827 -0.9348922571451874 -0.011762370780107383 -0.2393303756584527 0.37126266956329346 -1.9637888113604944 1.939295768737793 -1.5464327971087855 -1.564103905354635 0.3702406585216522 -0.9131212830543518 -0.7752739191055298 0.43370911478996277 0.3363972008228302 0.0 -0.9145402312278748 -0.4687958359718323 -0.5899201035499573 -0.4758128523826599 0.0682586282491684 0.15554013848304749 -0.39948081970214844 -0.5001984238624573 -0.5966492295265198 -0.4681876301765442 0.08280554413795471 0.1510641723871231 -0.41178974509239197 -0.1500101744258724 -0.17965581448671034 0.29977879988710693 2.2203790234612013 2.221980110478879 0.0010770981167669148 -0.00027898266923259663 0.20126515821622606 0.0007631190338798651 -0.0023945527543745774 0.00468525932798398 -0.0015026828144923423 4.269466631740617 29.842893238317142 -1.2310142528593813 -1.9578168707613286 1.0594295059184935 0.3205941273216115 -0.14999999992142118 -0.17919733337159707 0.29999999995705784 2.221400000055611 2.2213999999957847 0.0 4.0790357339409926e-11 0.1999999999482617 2.3128833884766268e-11 -3.65241783325261e-12 -4.378630837951163e-12 -1.3487475025719675e-16

